P3
400 225
255
175 198 0
172 196 0
175 198 0
175 198 0
174 197 0
174 197 0
173 196 0
173 196 0
174 197 0
174 197 0
173 197 0
172 196 0
174 197 0
174 197 0
173 196 0
176 199 0
173 196 0
172 195 0
170 195 0
175 198 0
171 195 0
172 196 0
174 197 0
174 198 0
175 197 0
174 197 0
172 196 0
174 197 0
173 197 0
175 198 0
173 196 0
172 196 0
174 197 0
173 196 0
174 197 0
174 198 0
174 197 0
173 197 0
173 196 0
173 197 0
173 197 0
174 197 0
172 196 0
174 198 0
171 196 0
174 197 0
176 198 0
174 197 0
174 197 0
174 198 0
172 196 0
174 197 0
172 195 0
173 195 0
173 196 0
173 195 0
174 198 0
174 197 0
174 198 0
174 197 0
176 199 0
173 196 0
173 196 0
175 197 0
173 197 0
172 194 0
172 196 0
174 197 0
173 197 0
176 198 0
174 197 0
173 196 0
174 197 0
174 197 0
171 195 0
172 196 0
174 197 0
173 196 0
174 197 0
173 196 0
174 197 0
174 197 0
175 198 0
171 194 0
171 194 0
174 198 0
174 196 0
173 197 0
171 194 0
171 195 0
174 198 0
175 198 0
174 197 0
172 195 0
173 195 0
172 196 0
172 195 0
174 198 0
173 197 0
171 194 0
173 196 0
174 198 0
172 196 0
172 196 0
174 197 0
174 198 0
174 196 0
172 196 0
173 196 0
172 196 0
173 196 0
174 197 0
174 197 0
173 197 0
173 196 0
174 196 0
173 196 0
173 197 0
171 195 0
173 196 0
173 196 0
172 196 0
169 192 0
174 197 0
172 195 0
171 195 0
173 197 0
173 197 0
173 197 0
172 196 0
173 195 0
174 197 0
174 198 0
174 197 0
173 196 0
174 198 0
174 197 0
172 196 0
174 197 0
174 196 0
172 195 0
172 196 0
172 195 0
172 195 0
174 198 0
171 195 0
172 195 0
173 196 0
171 195 0
171 195 0
173 196 0
172 196 0
173 196 0
171 194 0
173 197 0
174 198 0
173 197 0
172 195 0
173 197 0
173 196 0
173 195 0
172 195 0
172 195 0
172 195 0
173 196 0
171 194 0
172 195 0
172 195 0
172 196 0
172 194 0
171 194 0
174 197 0
170 194 0
171 195 0
170 194 0
175 198 0
174 197 0
171 194 0
171 195 0
172 194 0
172 196 0
172 196 0
171 195 0
172 195 0
174 197 0
173 196 0
173 195 0
173 196 0
170 194 0
174 196 0
171 194 0
171 195 0
173 196 0
170 194 0
175 198 0
169 194 0
171 195 0
173 197 0
172 195 0
173 195 0
175 198 0
172 195 0
172 195 0
172 196 0
174 196 0
171 194 0
173 196 0
170 193 0
171 194 0
174 197 0
173 196 0
171 193 0
174 197 0
174 196 0
171 194 0
171 193 0
169 193 0
171 194 0
171 194 0
175 198 0
173 196 0
172 195 0
173 196 0
173 196 0
173 196 0
171 195 0
173 197 0
172 196 0
173 196 0
174 198 0
172 195 0
171 194 0
173 196 0
172 195 0
171 194 0
172 196 0
170 193 0
172 196 0
173 196 0
173 196 0
174 197 0
174 197 0
173 195 0
173 196 0
172 195 16
170 191 22
168 186 30
161 178 30
159 172 48
159 173 44
147 156 48
143 149 52
152 153 68
147 147 74
140 136 72
144 140 78
149 143 85
141 135 82
148 142 85
155 149 92
151 146 84
138 134 82
149 144 88
147 141 86
153 148 94
139 135 84
146 142 90
145 139 87
161 157 101
155 150 96
157 153 100
152 148 97
154 149 96
159 155 100
153 149 97
153 149 97
160 156 103
158 154 99
159 155 102
163 159 103
163 158 103
161 157 103
159 155 102
155 151 100
158 154 103
158 156 104
160 157 103
156 154 102
160 157 105
165 162 108
161 158 105
165 162 107
163 160 105
163 159 106
162 159 106
163 161 108
164 161 108
160 158 107
160 157 105
166 163 109
167 164 109
164 161 108
167 165 110
166 164 110
170 167 111
166 163 109
165 163 109
164 161 108
164 163 109
166 164 109
170 168 112
167 164 109
167 164 109
166 164 109
166 164 109
164 162 108
170 167 112
162 160 107
168 166 111
161 159 107
171 168 112
167 166 111
162 161 108
169 166 111
167 164 110
165 163 109
165 163 109
168 166 111
163 159 106
167 164 109
163 161 108
168 164 109
168 164 109
159 157 105
160 158 106
162 160 106
162 159 106
168 165 109
165 162 106
160 157 104
163 160 106
168 164 109
168 165 109
161 157 104
165 162 107
161 158 104
167 163 108
163 159 104
167 163 108
159 154 102
162 158 104
166 163 107
164 159 104
153 150 98
158 154 101
165 161 103
166 161 105
158 154 99
162 157 104
165 159 102
155 150 97
157 152 99
164 158 102
151 146 93
157 151 97
150 146 93
150 146 93
151 147 94
163 158 101
153 148 93
150 144 91
152 147 89
151 145 87
154 148 91
153 147 91
157 149 90
140 134 81
150 143 91
145 140 83
145 139 83
142 137 77
138 135 73
141 141 68
148 150 65
144 152 52
152 164 42
166 185 30
170 192 16
175 198 0
172 196 0
173 196 0
173 197 0
174 197 0
173 196 0
173 197 0
173 196 0
174 198 0
174 197 0
173 196 0
174 197 0
172 196 0
174 197 0
172 196 0
172 196 0
175 198 0
175 198 0
174 198 0
172 196 0
175 198 0
174 197 0
173 197 0
173 197 0
174 197 0
173 197 0
174 197 0
170 195 0
174 197 0
176 199 0
173 197 0
173 197 0
174 197 0
174 197 0
172 195 0
174 197 0
174 197 0
172 195 0
173 197 0
172 196 0
173 196 0
174 198 0
173 197 0
175 198 0
176 198 0
173 197 0
173 197 0
174 197 0
173 197 0
173 196 0
173 197 0
174 197 0
173 197 0
172 195 0
174 197 0
174 197 0
173 196 0
173 196 0
174 197 0
173 196 0
172 196 0
174 196 0
173 197 0
174 197 0
175 198 0
175 197 0
175 198 0
172 196 0
172 196 0
175 198 0
175 198 0
172 196 0
174 197 0
171 195 0
174 197 0
175 198 0
173 197 0
172 195 0
173 196 0
176 199 0
174 197 0
172 195 0
173 197 0
172 195 0
175 198 0
172 196 0
172 194 0
173 196 0
171 195 0
173 196 0
174 197 0
173 196 0
175 198 0
174 196 0
174 197 0
172 197 0
174 197 0
173 197 0
173 196 0
173 197 0
172 195 0
172 195 0
174 197 0
172 195 0
174 198 0
171 194 0
173 196 0
174 197 0
175 198 0
171 195 0
173 196 0
173 197 0
174 198 0
170 194 0
172 196 0
174 198 0
174 196 0
171 195 0
174 197 0
174 198 0
173 196 0
173 197 0
172 196 0
171 195 0
173 197 0
173 196 0
171 195 0
172 196 0
171 195 0
172 196 0
172 196 0
174 197 0
174 197 0
174 197 0
173 197 0
173 196 0
172 195 0
171 195 0
174 196 0
172 196 0
173 197 0
174 197 0
174 197 0
174 198 0
174 198 0
174 197 0
173 197 0
174 197 0
173 197 0
171 195 0
172 195 0
171 195 0
173 197 0
173 196 0
172 195 0
172 195 0
171 195 0
175 198 0
169 193 0
174 197 0
173 196 0
170 194 0
171 194 0
175 198 0
173 197 0
174 197 0
175 198 0
172 196 0
171 194 0
173 196 0
174 197 0
172 195 0
174 198 0
172 195 0
174 197 0
174 197 0
173 196 0
172 196 0
170 194 0
172 195 0
174 197 0
172 196 0
174 197 0
174 198 0
172 196 0
173 196 0
174 197 0
174 197 0
172 195 0
170 195 0
170 194 0
170 194 0
173 196 0
173 196 0
173 196 0
173 197 0
174 197 0
169 193 0
172 195 0
173 195 0
176 198 0
173 196 0
173 196 0
173 196 0
174 197 0
174 197 0
173 196 0
173 196 0
170 194 0
175 197 0
172 196 0
172 195 0
169 193 0
172 194 0
173 195 0
172 196 0
172 196 0
171 194 0
172 196 0
174 197 0
172 196 0
169 193 0
174 197 0
174 197 0
174 197 0
175 198 0
173 196 0
174 197 0
174 196 0
170 193 0
171 194 0
172 196 0
173 196 0
174 197 0
171 194 0
173 195 0
173 196 0
172 195 0
172 196 0
173 196 0
176 198 0
172 196 0
171 195 0
172 195 0
174 197 0
173 197 0
170 193 0
170 193 0
172 195 0
172 196 0
172 195 0
171 193 0
173 196 0
173 197 0
174 198 0
170 192 0
171 195 0
164 183 25
164 182 30
161 175 42
152 165 44
153 163 48
150 155 59
147 150 66
162 163 70
149 145 81
145 140 84
149 144 82
141 136 77
135 131 78
148 141 82
154 149 91
153 148 94
138 133 83
148 143 84
149 144 88
154 148 93
149 145 93
152 147 93
149 144 91
148 144 92
153 149 96
159 154 99
160 154 97
151 146 94
161 156 101
158 154 99
157 153 100
153 149 96
164 160 106
154 151 98
158 155 101
154 152 101
163 159 104
158 155 103
158 155 104
164 159 104
161 158 105
170 166 110
159 156 103
161 157 104
160 157 104
164 161 107
158 156 105
165 162 107
164 161 108
163 160 106
160 157 105
160 157 104
165 162 108
164 161 108
163 160 107
163 160 107
167 164 110
168 165 110
167 163 108
166 163 109
163 161 108
162 161 108
171 169 112
160 157 105
166 164 110
161 158 105
169 167 112
164 162 108
167 165 110
167 165 110
163 161 108
167 165 110
169 167 112
164 162 109
167 166 111
166 163 109
168 166 111
167 165 110
165 163 109
167 165 110
162 160 107
166 163 109
167 164 109
163 161 108
169 166 111
165 163 109
168 166 111
167 164 109
165 162 108
163 161 108
163 160 107
157 154 102
159 158 105
161 158 104
162 159 106
168 163 108
161 157 104
163 160 106
160 156 104
166 163 107
164 161 106
164 161 107
161 157 103
162 158 104
168 163 108
166 163 107
160 157 103
165 161 106
156 152 99
166 161 105
158 155 102
164 159 103
172 167 108
160 155 99
165 161 103
160 155 99
166 161 104
161 156 98
154 150 97
160 154 99
155 150 93
161 154 99
153 149 93
158 152 95
161 155 96
153 148 93
151 146 92
156 151 90
150 144 87
158 151 93
159 153 92
155 149 93
150 145 89
150 144 87
152 144 86
132 128 71
143 138 77
152 150 80
143 144 64
152 160 54
147 157 47
162 174 49
163 182 25
174 195 11
172 195 0
174 198 0
174 197 0
172 196 0
173 197 0
173 197 0
170 194 0
176 198 0
174 197 0
174 197 0
174 196 0
173 196 0
175 198 0
175 198 0
175 198 0
174 198 0
173 196 0
173 197 0
174 197 0
173 197 0
173 197 0
173 197 0
174 197 0
174 198 0
173 197 0
173 196 0
174 198 0
173 197 0
173 197 0
174 195 0
174 197 0
173 197 0
173 197 0
175 198 0
172 197 0
174 198 0
173 197 0
172 196 0
174 197 0
173 196 0
173 197 0
172 196 0
174 198 0
174 196 0
173 196 0
174 197 0
170 194 0
173 196 0
174 197 0
173 197 0
175 198 0
174 198 0
174 197 0
172 196 0
173 197 0
173 195 0
174 197 0
175 198 0
172 195 0
172 196 0
174 197 0
174 197 0
174 198 0
174 197 0
172 195 0
173 196 0
172 196 0
174 198 0
172 196 0
174 198 0
175 197 0
173 196 0
173 196 0
173 197 0
174 197 0
171 196 0
173 197 0
174 197 0
174 197 0
173 196 0
173 197 0
172 196 0
175 198 0
174 198 0
173 197 0
173 197 0
174 197 0
173 196 0
174 197 0
171 196 0
174 197 0
173 196 0
174 197 0
173 196 0
173 196 0
172 196 0
173 197 0
172 195 0
174 197 0
174 198 0
175 197 0
173 195 0
173 197 0
173 197 0
172 196 0
172 196 0
174 198 0
174 197 0
172 195 0
174 197 0
172 196 0
174 196 0
173 196 0
174 197 0
174 197 0
175 197 0
172 196 0
171 195 0
173 197 0
173 197 0
173 196 0
174 197 0
173 196 0
173 197 0
173 196 0
172 196 0
172 195 0
171 194 0
171 195 0
173 196 0
173 196 0
172 195 0
171 195 0
173 197 0
174 198 0
173 195 0
174 197 0
172 196 0
172 195 0
174 197 0
171 194 0
174 197 0
175 198 0
170 194 0
175 198 0
172 196 0
174 197 0
174 198 0
174 197 0
175 198 0
174 198 0
172 195 0
171 194 0
171 195 0
172 195 0
173 196 0
173 197 0
172 196 0
174 197 0
171 194 0
172 195 0
172 195 0
173 197 0
170 194 0
173 196 0
174 196 0
171 194 0
173 197 0
172 196 0
175 197 0
173 197 0
172 196 0
170 193 0
174 197 0
172 195 0
173 196 0
171 195 0
173 196 0
172 196 0
174 197 0
174 197 0
173 195 0
173 196 0
172 195 0
171 193 0
171 195 0
173 196 0
174 197 0
174 197 0
171 195 0
174 196 0
170 193 0
172 195 0
169 193 0
173 196 0
172 195 0
174 197 0
175 198 0
173 196 0
171 194 0
171 194 0
172 196 0
173 196 0
170 193 0
174 198 0
172 196 0
172 196 0
173 195 0
172 195 0
174 196 0
172 196 0
172 196 0
173 195 0
173 196 0
172 196 0
171 194 0
174 197 0
170 193 0
173 197 0
172 195 0
169 193 0
173 196 0
174 196 0
175 198 0
171 194 0
172 196 0
171 194 0
172 195 0
173 196 0
173 196 0
172 195 0
173 196 0
174 197 0
171 194 0
171 195 0
171 195 0
172 196 0
172 196 0
172 196 0
172 195 0
174 197 0
174 197 0
173 196 0
173 195 0
174 197 0
172 195 0
172 195 0
172 196 0
173 197 0
171 195 0
170 193 0
172 195 0
170 194 0
172 195 0
172 195 16
168 188 25
168 185 38
159 176 28
158 172 42
161 170 58
149 152 62
144 147 62
154 155 72
146 146 68
134 132 68
143 138 76
150 144 84
149 144 86
150 144 86
147 142 82
148 143 87
143 138 83
141 137 84
151 146 93
149 145 92
153 148 92
154 149 94
157 152 95
147 142 92
161 156 100
162 156 101
159 154 98
156 151 92
158 154 100
156 151 97
162 157 104
163 159 103
157 154 103
158 155 101
148 145 95
158 154 101
157 154 102
160 156 102
162 159 105
160 157 105
162 159 106
158 154 102
162 158 105
158 154 103
171 167 110
163 160 106
156 153 102
166 164 109
167 164 110
163 160 106
163 159 105
163 160 107
160 157 105
161 159 106
163 160 107
164 163 109
161 158 106
170 166 110
164 162 108
164 162 108
166 164 109
168 166 111
164 161 108
168 165 110
169 166 111
167 164 110
166 164 109
162 159 106
162 160 106
164 162 108
166 164 109
167 164 109
166 163 109
168 166 111
169 166 110
169 167 111
170 167 111
168 166 110
166 165 110
170 168 112
166 164 110
162 160 107
165 163 109
169 167 111
166 163 109
170 167 111
164 162 108
164 161 108
167 165 110
171 168 112
167 164 109
166 163 109
167 164 109
163 161 107
163 160 106
162 159 106
164 161 107
162 159 104
169 165 109
157 154 102
162 159 106
170 166 110
167 163 108
163 160 106
159 155 102
166 162 106
164 160 103
166 162 106
163 160 104
163 159 104
158 155 101
158 154 101
160 157 103
167 163 104
165 160 104
161 156 101
169 165 106
160 155 100
164 158 99
159 154 98
156 151 98
163 158 100
158 153 97
164 158 101
163 158 99
161 155 97
159 153 96
151 145 91
152 147 91
152 146 90
147 141 84
154 147 87
148 142 87
149 144 85
146 139 82
152 147 87
147 141 83
139 132 77
146 141 80
153 151 81
147 150 63
148 155 53
158 172 45
160 177 32
169 190 19
172 194 11
173 196 0
173 197 0
175 198 0
175 198 0
173 196 0
175 198 0
173 196 0
172 195 0
174 197 0
174 196 0
174 197 0
173 196 0
175 197 0
175 198 0
175 198 0
174 197 0
174 197 0
174 197 0
174 197 0
176 199 0
173 196 0
173 197 0
174 198 0
173 196 0
172 196 0
172 196 0
174 198 0
171 195 0
174 198 0
172 196 0
173 197 0
173 197 0
172 195 0
173 197 0
173 197 0
175 198 0
173 197 0
174 197 0
173 196 0
174 197 0
174 198 0
174 197 0
173 196 0
175 198 0
173 196 0
171 195 0
172 196 0
174 197 0
173 196 0
174 198 0
174 198 0
175 198 0
173 197 0
171 195 0
172 195 0
173 197 0
172 195 0
171 195 0
174 197 0
176 199 0
174 197 0
171 195 0
175 197 0
174 197 0
174 197 0
173 196 0
174 197 0
173 197 0
175 198 0
175 198 0
174 197 0
173 196 0
174 197 0
172 196 0
175 198 0
173 196 0
170 194 0
170 194 0
172 196 0
174 197 0
172 196 0
173 197 0
174 197 0
173 197 0
175 198 0
174 198 0
174 197 0
170 194 0
174 197 0
173 196 0
173 197 0
172 196 0
172 196 0
173 197 0
172 196 0
174 196 0
175 198 0
171 193 0
174 197 0
170 194 0
175 198 0
173 197 0
172 195 0
173 197 0
171 195 0
174 197 0
173 196 0
173 196 0
175 198 0
174 198 0
172 195 0
175 198 0
174 197 0
171 195 0
170 195 0
173 197 0
174 197 0
174 197 0
174 197 0
173 197 0
173 196 0
173 196 0
174 197 0
172 196 0
171 195 0
172 196 0
170 193 0
173 197 0
172 196 0
174 197 0
175 198 0
173 196 0
172 196 0
174 198 0
171 196 0
176 198 0
174 197 0
174 196 0
171 195 0
172 194 0
173 197 0
172 196 0
170 193 0
172 196 0
173 196 0
173 197 0
173 197 0
174 197 0
173 196 0
172 196 0
172 195 0
173 197 0
172 195 0
173 196 0
172 196 0
171 194 0
171 194 0
173 197 0
175 197 0
171 195 0
174 197 0
171 195 0
172 196 0
174 197 0
172 195 0
173 196 0
171 195 0
170 193 0
172 195 0
169 193 0
170 195 0
174 197 0
173 196 0
173 196 0
172 195 0
171 194 0
173 196 0
173 196 0
173 196 0
173 196 0
167 190 0
171 195 0
173 196 0
175 198 0
171 193 0
172 195 0
173 196 0
173 196 0
173 197 0
173 196 0
170 195 0
172 195 0
173 196 0
172 196 0
172 195 0
174 198 0
173 196 0
173 196 0
174 197 0
172 194 0
173 197 0
174 196 0
172 196 0
175 197 0
172 195 0
173 196 0
173 196 0
172 196 0
173 196 0
172 196 0
170 194 0
174 196 0
171 194 0
172 195 0
169 192 0
171 194 0
174 197 0
173 196 0
174 197 0
174 197 0
172 195 0
173 197 0
173 196 0
172 194 0
173 196 0
172 196 0
171 194 0
173 197 0
174 197 0
173 196 0
173 196 0
174 196 0
171 194 0
173 197 0
171 195 0
173 196 0
173 197 0
172 194 0
172 195 0
173 196 0
172 195 0
173 195 0
170 193 0
170 194 0
172 195 0
171 195 0
171 195 0
172 195 0
171 193 0
170 193 0
175 197 0
172 195 0
171 193 11
168 189 22
163 183 22
158 176 16
164 178 41
153 163 51
154 162 51
144 147 58
152 155 62
149 149 67
133 129 69
147 144 81
138 134 80
146 140 80
145 139 82
137 134 76
153 148 88
146 141 88
154 148 94
154 148 88
149 145 92
151 146 89
158 153 94
154 149 91
154 149 95
149 145 92
153 148 95
149 145 94
153 149 96
156 152 95
159 154 100
158 153 99
151 147 93
154 150 100
156 153 101
155 151 99
163 159 105
162 158 105
159 155 103
163 159 105
156 153 101
160 156 103
159 156 105
165 161 107
162 159 107
161 157 103
160 157 104
162 158 105
165 161 107
163 161 107
162 158 105
166 162 108
161 157 105
162 160 107
164 161 107
163 162 109
161 159 107
167 164 109
169 165 110
163 160 107
168 166 111
164 162 108
169 166 111
165 162 108
167 164 109
168 166 110
163 161 108
165 162 108
164 161 108
167 164 110
168 165 110
161 159 106
166 163 109
167 163 109
168 166 110
169 166 110
164 161 107
168 165 110
164 162 108
168 164 109
167 165 110
164 161 107
168 167 112
167 164 109
168 165 110
172 169 112
167 164 109
169 167 111
167 164 109
166 164 109
167 163 109
167 165 110
170 167 111
162 160 106
166 163 109
163 161 108
172 169 112
168 165 110
163 160 106
167 164 108
170 166 110
164 161 108
160 158 105
170 166 110
168 163 107
167 163 108
164 160 105
164 160 106
164 161 106
160 156 104
166 161 106
163 158 102
162 158 101
166 163 106
163 159 104
161 157 101
159 154 101
168 162 104
158 154 101
165 160 103
159 155 99
162 157 101
161 156 101
163 157 99
159 154 97
157 151 90
163 157 98
159 154 100
153 148 94
143 137 82
163 156 97
154 148 93
152 148 94
154 147 86
159 152 93
147 142 87
150 143 87
145 139 84
148 142 81
141 136 75
141 136 77
133 130 70
142 144 61
149 152 62
160 173 48
165 178 45
167 187 30
169 191 11
174 197 0
174 196 0
173 197 0
174 198 0
173 197 0
174 197 0
176 198 0
174 197 0
174 197 0
172 195 0
174 197 0
174 197 0
174 197 0
173 196 0
173 197 0
175 198 0
173 196 0
173 197 0
173 197 0
173 197 0
175 198 0
171 195 0
172 196 0
174 197 0
175 198 0
172 196 0
172 196 0
173 197 0
174 198 0
173 197 0
174 197 0
174 197 0
173 196 0
174 197 0
173 197 0
172 196 0
172 195 0
175 198 0
174 197 0
172 195 0
176 199 0
173 197 0
171 194 0
173 196 0
174 198 0
173 197 0
171 195 0
173 197 0
173 196 0
174 198 0
172 196 0
174 197 0
173 197 0
174 197 0
174 196 0
171 195 0
172 195 0
173 197 0
174 197 0
173 196 0
174 197 0
173 197 0
174 197 0
172 196 0
174 197 0
172 195 0
172 196 0
172 196 0
174 197 0
174 198 0
175 198 0
172 196 0
171 194 0
175 198 0
173 196 0
175 198 0
174 197 0
173 197 0
172 195 0
173 196 0
174 198 0
174 197 0
173 197 0
173 196 0
175 197 0
174 197 0
174 196 0
173 196 0
172 196 0
173 196 0
174 197 0
172 195 0
171 195 0
172 196 0
171 195 0
172 196 0
173 197 0
173 196 0
173 196 0
174 197 0
174 197 0
175 198 0
173 196 0
172 195 0
172 196 0
174 197 0
173 196 0
174 197 0
176 199 0
172 196 0
175 198 0
174 197 0
174 198 0
171 194 0
174 197 0
173 196 0
173 196 0
174 198 0
173 197 0
172 196 0
171 194 0
173 196 0
174 197 0
171 194 0
172 195 0
173 196 0
173 196 0
174 197 0
173 196 0
172 195 0
171 195 0
172 196 0
172 195 0
173 196 0
175 197 0
175 198 0
173 196 0
172 196 0
172 196 0
170 192 0
173 197 0
172 195 0
173 197 0
173 197 0
170 193 0
173 196 0
174 197 0
173 196 0
174 196 0
175 197 0
170 194 0
173 196 0
171 194 0
175 197 0
173 196 0
171 195 0
172 195 0
173 196 0
174 197 0
173 196 0
171 195 0
172 196 0
172 195 0
173 197 0
173 196 0
171 195 0
173 195 0
173 196 0
172 195 0
171 194 0
172 195 0
169 193 0
175 198 0
173 196 0
170 194 0
173 197 0
170 193 0
173 197 0
173 196 0
173 197 0
170 194 0
168 191 0
170 193 0
173 197 0
174 196 0
171 195 0
170 192 0
174 197 0
173 196 0
171 194 0
172 195 0
175 198 0
170 194 0
173 196 0
174 197 0
174 197 0
171 195 0
171 196 0
172 196 0
172 195 0
172 195 0
170 194 0
172 195 0
171 194 0
170 193 0
172 195 0
174 197 0
173 197 0
173 196 0
175 198 0
172 195 0
174 197 0
172 195 0
170 194 0
173 196 0
172 195 0
173 196 0
174 196 0
173 197 0
173 196 0
176 197 0
173 197 0
173 196 0
172 194 0
173 197 0
171 195 0
172 194 0
172 195 0
170 194 0
171 194 0
170 193 0
173 196 0
172 196 0
172 196 0
174 196 0
171 194 0
173 196 0
173 195 0
170 194 0
174 197 0
173 196 0
173 196 0
173 196 0
175 198 0
171 195 0
171 194 0
172 195 0
171 194 0
173 196 0
173 196 0
173 196 0
174 196 0
173 194 16
167 188 22
165 183 34
155 171 33
157 169 45
147 157 37
154 158 62
153 157 63
143 144 69
134 132 70
140 136 75
144 139 78
146 141 81
145 139 86
143 137 82
151 146 89
150 144 90
146 142 86
152 147 91
153 148 95
143 139 88
159 154 98
156 151 98
155 150 92
146 143 91
158 153 96
149 146 96
155 150 96
147 144 92
152 149 95
151 147 95
162 158 104
152 150 98
151 148 98
155 151 98
163 158 103
163 160 106
157 153 100
167 163 108
157 154 102
159 155 101
164 160 107
156 152 101
155 152 101
162 159 106
154 151 100
163 160 106
164 160 107
160 157 104
164 161 107
167 164 108
169 165 108
164 161 107
157 155 103
160 158 106
169 165 109
164 162 108
165 162 108
160 158 107
168 166 111
163 160 107
163 161 108
165 162 108
161 158 105
170 168 112
172 169 113
162 160 107
161 159 107
164 161 108
166 164 109
172 169 113
166 164 109
168 165 110
167 164 109
164 162 108
167 164 109
168 165 110
169 166 111
165 162 108
166 164 109
168 165 110
168 166 111
167 164 109
166 163 109
168 164 109
169 167 111
167 164 110
171 168 112
167 164 109
168 165 110
164 161 106
168 165 109
172 168 112
170 166 110
171 167 111
165 161 107
162 160 106
169 166 110
170 166 109
166 162 108
171 167 110
163 160 106
167 163 108
164 160 105
166 163 108
168 164 108
166 162 108
167 163 108
167 164 109
160 156 103
158 155 103
163 159 104
166 161 104
163 159 104
161 156 102
162 158 102
162 158 101
166 162 105
161 156 102
160 155 101
164 159 101
161 156 99
164 159 100
164 159 101
155 150 95
160 155 98
156 151 95
155 150 92
152 147 90
160 154 96
149 144 92
153 148 93
159 152 93
152 145 89
154 147 93
153 148 88
135 130 77
150 144 81
149 142 80
149 144 85
139 133 79
132 128 74
136 134 65
144 145 68
150 156 60
159 173 42
162 178 42
170 191 22
173 195 0
173 196 0
175 198 0
171 195 0
172 196 0
172 195 0
173 196 0
173 197 0
173 197 0
172 196 0
175 198 0
174 197 0
173 196 0
172 196 0
174 198 0
172 196 0
174 198 0
173 197 0
173 196 0
174 197 0
175 198 0
174 197 0
174 197 0
173 196 0
173 196 0
173 197 0
173 197 0
172 196 0
171 196 0
172 195 0
173 196 0
173 196 0
173 196 0
174 198 0
174 197 0
173 196 0
171 195 0
173 197 0
171 194 0
171 195 0
172 196 0
173 196 0
172 196 0
173 197 0
172 196 0
174 197 0
175 198 0
173 197 0
173 197 0
173 197 0
173 197 0
174 197 0
174 197 0
173 195 0
173 197 0
172 196 0
175 197 0
174 197 0
173 197 0
174 197 0
173 196 0
174 197 0
171 195 0
173 196 0
171 194 0
172 195 0
171 195 0
174 197 0
175 198 0
174 197 0
175 198 0
172 196 0
171 195 0
174 197 0
174 197 0
173 197 0
174 198 0
173 196 0
174 197 0
176 198 0
172 195 0
173 196 0
173 197 0
173 197 0
176 198 0
173 196 0
175 198 0
172 196 0
172 196 0
173 197 0
174 198 0
173 196 0
171 195 0
174 198 0
172 196 0
174 197 0
176 198 0
173 197 0
172 196 0
173 196 0
172 195 0
173 196 0
174 197 0
172 196 0
172 196 0
173 197 0
175 198 0
173 197 0
170 194 0
173 197 0
173 197 0
175 198 0
173 197 0
175 198 0
170 194 0
171 195 0
174 197 0
170 194 0
171 196 0
173 197 0
173 196 0
173 197 0
172 196 0
173 196 0
173 197 0
170 193 0
174 197 0
172 195 0
171 194 0
170 193 0
173 196 0
173 196 0
175 198 0
174 197 0
174 197 0
174 197 0
173 196 0
175 197 0
174 197 0
174 197 0
171 195 0
172 195 0
173 196 0
175 198 0
173 197 0
172 196 0
175 198 0
171 195 0
173 196 0
172 195 0
173 197 0
172 195 0
173 196 0
174 197 0
171 195 0
171 195 0
169 192 0
174 197 0
173 196 0
170 193 0
174 196 0
173 196 0
171 194 0
175 197 0
174 197 0
174 197 0
171 195 0
171 195 0
170 193 0
172 196 0
172 196 0
172 196 0
172 195 0
173 196 0
172 195 0
171 194 0
175 198 0
170 194 0
174 197 0
173 196 0
173 196 0
172 195 0
172 195 0
173 197 18
172 195 0
169 194 18
175 198 0
173 197 0
173 196 0
171 195 0
173 196 0
172 195 0
172 196 0
174 197 0
173 197 0
173 196 0
168 192 0
174 197 0
171 195 0
170 193 0
172 194 0
171 194 0
172 195 0
174 196 0
171 194 0
172 196 0
170 193 0
170 193 0
172 195 0
174 197 0
173 197 0
173 196 0
172 195 0
173 196 0
169 193 0
172 195 0
174 197 0
172 195 0
171 194 0
172 195 0
174 198 0
173 196 0
173 196 0
172 195 0
169 192 0
170 193 0
171 195 0
174 196 0
172 194 0
173 195 0
171 194 0
174 197 0
169 193 0
172 195 0
173 196 0
170 193 0
172 195 0
171 194 0
173 196 0
172 195 0
173 195 0
173 196 0
173 197 0
169 192 0
172 195 0
174 197 0
169 192 0
171 194 0
169 192 0
171 193 0
169 192 0
170 193 0
169 192 11
171 191 22
163 180 37
159 173 45
150 160 48
154 159 62
146 149 61
149 154 67
141 140 65
141 137 72
135 131 73
135 130 74
144 139 83
150 144 84
146 140 86
140 135 83
155 149 94
140 136 86
157 152 92
141 135 85
163 158 99
150 146 94
158 152 95
145 141 90
156 150 97
163 158 101
145 142 90
148 145 94
156 153 100
154 150 98
160 156 100
159 156 103
153 149 95
151 148 98
157 154 101
163 159 103
160 156 103
156 153 101
157 153 102
162 159 105
166 162 107
163 160 106
163 159 104
162 159 105
163 158 104
161 157 105
161 158 105
163 160 107
163 159 106
168 164 109
167 163 108
161 158 106
163 160 106
169 167 111
165 162 109
162 159 105
167 164 110
166 163 109
168 165 110
166 163 109
164 163 109
168 166 112
170 167 111
171 168 112
166 164 109
169 165 110
163 160 107
170 168 112
168 166 111
166 163 108
168 165 110
165 163 108
166 164 109
171 168 112
168 166 111
170 167 111
172 169 112
167 165 110
166 164 110
169 166 110
171 168 112
166 163 108
171 168 112
165 162 108
167 164 109
166 164 109
167 164 109
167 164 110
170 167 112
165 162 108
163 160 106
167 164 109
169 167 111
170 167 112
165 163 109
169 165 110
163 161 108
168 164 108
165 162 107
161 159 106
165 161 107
166 162 108
166 163 108
162 158 105
169 164 108
166 162 108
166 162 107
163 160 106
158 155 101
163 160 106
162 157 103
166 162 106
166 162 105
165 161 105
164 160 104
164 159 101
164 159 100
163 159 101
161 156 99
162 157 101
156 151 95
163 158 102
158 154 101
165 159 100
164 158 99
149 145 93
156 151 96
159 154 96
160 154 97
153 148 89
158 151 95
151 145 87
154 148 90
165 159 99
154 147 89
149 144 89
154 148 90
156 151 89
143 137 81
150 144 82
153 146 83
138 132 75
147 141 78
142 140 60
147 150 61
156 166 44
156 171 30
163 182 25
169 191 11
174 198 0
174 197 0
174 198 0
175 197 0
171 194 0
173 197 0
175 198 0
174 196 0
173 196 0
172 196 0
174 197 0
173 197 0
173 196 0
172 196 0
173 196 0
173 197 0
174 198 0
175 198 0
173 197 0
174 197 0
172 196 0
174 197 0
171 195 0
173 197 0
172 196 0
172 195 0
173 197 0
175 198 0
174 197 0
175 197 0
174 197 0
173 196 0
172 196 0
174 197 0
174 197 0
174 197 0
172 196 0
174 197 0
175 198 0
174 197 0
174 197 0
171 194 0
174 197 0
175 198 0
174 197 0
173 197 0
172 195 0
173 197 0
170 194 0
175 198 0
173 196 0
172 195 0
174 197 0
172 196 0
174 197 0
173 195 0
174 197 0
170 194 0
173 197 0
174 197 0
175 198 0
173 196 0
172 195 0
173 197 0
172 196 0
172 196 0
175 198 0
172 196 0
173 197 0
172 196 0
173 196 0
169 194 0
173 197 0
175 198 0
175 198 0
174 198 0
172 196 0
173 197 0
174 198 0
171 195 0
172 196 0
173 197 0
173 196 0
172 195 0
175 197 0
174 197 0
172 196 0
172 195 0
169 193 0
173 197 0
172 196 0
172 195 0
173 197 0
172 196 0
173 195 0
174 197 0
172 195 0
175 198 0
171 194 0
175 198 0
173 197 0
172 196 0
175 197 0
172 195 0
173 197 0
174 197 0
174 197 0
170 193 0
174 197 0
172 196 0
173 196 0
172 196 0
172 195 0
173 197 0
175 198 0
172 195 0
172 196 0
175 198 0
173 195 0
173 197 0
174 195 0
172 195 0
172 195 0
172 196 0
171 195 0
174 197 0
174 197 0
173 197 0
173 196 0
170 194 0
171 194 0
174 197 0
170 193 0
174 197 0
171 195 0
171 194 0
174 197 0
173 196 0
174 197 0
172 196 0
172 195 0
174 198 0
172 195 0
174 196 0
170 193 0
175 198 0
172 195 0
173 196 0
173 197 0
174 197 0
174 197 0
170 194 0
172 195 0
173 195 0
171 195 0
174 196 0
172 196 0
172 195 0
173 195 0
175 198 0
173 197 0
174 197 0
172 195 0
172 196 0
170 193 0
174 198 0
172 195 0
172 195 0
169 192 0
170 194 0
173 196 25
171 195 25
173 196 25
169 192 44
166 190 54
168 191 47
164 187 62
161 185 70
163 187 67
155 178 84
152 177 90
155 179 86
146 170 99
161 185 72
151 176 94
149 172 95
159 183 68
156 179 82
156 179 76
156 181 80
162 185 72
165 189 57
161 184 65
168 192 47
168 191 31
166 190 36
168 190 25
173 195 0
173 195 0
171 194 0
174 198 0
171 195 0
171 194 0
170 194 0
171 193 0
174 197 0
172 195 0
173 196 0
172 194 0
172 195 0
171 194 0
172 194 0
173 195 0
174 197 0
172 195 0
172 194 0
172 195 0
174 197 0
174 198 0
173 196 0
173 197 0
172 194 0
176 198 0
170 194 0
169 193 0
173 195 0
173 196 0
169 192 0
172 195 0
172 195 0
170 193 0
172 195 0
172 195 0
171 194 0
172 195 0
173 195 0
174 196 0
174 197 0
172 195 0
171 195 0
170 193 0
170 193 0
172 195 0
172 195 0
171 195 0
172 195 0
172 195 0
173 196 0
173 195 0
175 197 0
169 190 11
169 191 16
166 184 28
153 170 36
158 173 39
152 162 51
148 157 53
148 151 68
135 137 59
149 145 80
125 122 60
141 136 76
148 142 84
129 125 71
146 141 82
143 139 83
150 145 86
153 148 91
150 145 89
149 144 87
154 149 94
157 151 95
151 147 94
162 156 98
147 144 90
149 145 96
146 142 94
144 140 93
154 150 98
162 157 100
160 155 99
152 148 95
156 152 101
157 154 101
168 163 108
156 152 99
150 147 97
157 153 102
160 157 103
160 156 103
154 151 101
157 155 103
163 159 104
160 157 105
163 160 106
154 152 101
165 161 107
165 161 107
167 163 108
163 160 107
161 158 106
165 162 108
168 164 110
163 159 105
167 164 109
165 162 108
162 160 107
166 163 108
166 163 108
170 167 111
165 162 108
164 162 108
166 164 110
170 167 111
168 166 111
168 166 111
162 161 108
167 164 109
169 167 111
171 169 113
166 163 109
170 167 111
168 165 110
169 166 111
172 168 112
167 165 110
166 163 109
165 162 108
163 161 108
169 166 110
170 167 112
168 166 110
163 161 108
167 164 109
167 164 109
168 165 110
171 168 112
170 168 112
167 164 109
166 164 109
170 167 111
170 167 111
167 164 109
164 161 107
168 166 110
169 165 109
169 166 110
169 165 109
167 164 109
167 164 108
163 160 107
168 164 109
172 168 111
165 161 107
165 161 105
162 159 106
165 162 108
161 158 104
159 155 103
160 155 101
163 159 104
164 161 104
168 164 105
166 163 106
161 157 103
164 160 104
165 160 101
163 158 103
169 163 104
167 162 104
163 159 101
162 157 101
157 152 99
168 163 100
163 160 103
160 154 97
158 152 97
163 159 103
167 161 103
164 158 99
166 161 104
151 146 89
159 152 94
159 153 93
155 148 90
152 147 87
149 143 90
149 143 82
155 148 91
151 145 84
154 146 87
143 137 81
150 143 82
144 138 80
144 144 69
144 144 67
150 157 54
160 171 52
163 180 36
167 187 22
173 196 0
174 197 0
174 197 0
174 197 0
174 197 0
174 198 0
173 197 0
174 197 0
171 195 0
174 198 0
175 198 0
172 196 0
175 198 0
173 197 0
173 197 0
172 196 0
171 195 0
173 196 0
174 197 0
172 196 0
174 197 0
173 196 0
174 197 0
172 196 0
175 198 0
172 196 0
174 197 0
172 196 0
176 199 0
173 197 0
175 198 0
175 198 0
175 198 0
173 196 0
174 198 0
174 197 0
173 196 0
173 196 0
174 198 0
173 196 0
174 197 0
174 197 0
174 197 0
172 196 0
174 197 0
173 197 0
174 197 0
173 197 0
172 196 0
174 197 0
173 196 0
175 198 0
174 197 0
172 196 0
172 195 0
175 198 0
176 198 0
173 197 0
172 196 0
173 197 0
173 196 0
174 197 0
172 195 0
169 193 0
173 196 0
173 197 0
172 196 0
174 198 0
172 196 0
173 196 0
174 197 0
173 197 0
173 197 0
174 197 0
172 195 0
172 195 0
172 195 0
171 196 0
175 197 0
173 195 0
172 196 0
172 195 0
175 198 0
173 196 0
172 195 0
171 195 0
173 196 0
171 195 0
172 195 0
174 197 0
173 196 0
174 198 0
173 197 0
174 197 0
173 197 0
172 196 0
172 196 0
171 195 0
174 197 0
174 198 0
173 196 0
172 195 0
173 197 0
174 198 0
173 196 0
173 196 0
173 197 0
172 196 0
173 197 0
173 196 0
173 196 0
175 198 0
174 197 0
172 196 0
170 194 0
171 195 0
168 192 0
173 196 0
172 196 0
173 196 0
173 196 0
171 194 0
171 194 0
172 195 0
174 196 0
173 196 0
173 196 0
172 195 0
173 196 0
170 194 0
172 196 0
173 197 0
170 194 0
174 197 0
173 197 0
173 195 0
172 196 0
173 197 0
172 195 0
172 196 0
173 196 0
172 195 0
174 197 0
173 196 0
174 197 0
172 196 0
172 196 0
173 196 0
173 197 0
171 194 0
173 196 0
172 195 0
172 195 0
171 194 0
172 196 0
173 196 0
172 195 0
174 197 0
173 196 0
173 197 0
173 196 0
170 194 0
170 194 0
172 196 0
171 195 18
172 196 18
170 193 36
168 191 51
163 186 62
157 181 76
149 173 100
152 176 92
136 161 120
130 156 125
131 157 126
110 137 148
103 131 155
105 133 155
106 133 153
107 135 152
97 126 159
97 127 159
95 124 159
89 119 166
78 111 169
91 122 162
96 125 159
91 121 163
90 121 164
109 137 150
102 130 153
110 137 146
123 149 133
127 153 131
124 150 128
134 159 122
141 164 108
147 170 99
159 182 72
162 185 65
169 192 40
170 194 18
172 195 18
173 197 0
172 195 0
173 197 0
173 195 0
172 195 0
173 195 0
171 194 0
173 195 0
169 193 0
172 194 0
174 197 0
173 196 0
174 196 0
173 195 0
173 197 0
173 196 0
173 196 0
169 192 0
174 197 0
172 196 0
172 195 0
173 196 0
170 192 0
173 195 0
174 198 0
173 196 0
171 194 0
172 195 0
172 195 0
174 197 0
174 197 0
171 194 0
174 197 0
172 194 0
172 195 0
173 196 0
174 197 0
171 195 0
174 197 0
173 196 0
173 196 0
173 194 0
170 194 0
170 193 0
173 196 0
170 193 0
169 191 0
166 188 0
168 188 25
155 169 32
160 174 45
152 161 52
147 155 49
151 154 62
145 144 71
147 145 74
157 153 81
143 137 81
143 136 82
152 147 86
138 132 75
154 147 89
149 144 85
148 143 87
152 146 91
149 144 89
156 151 92
152 148 93
141 137 87
153 148 95
152 148 93
152 148 94
151 146 91
157 151 97
150 146 95
148 144 92
156 152 101
148 146 98
150 147 96
163 159 103
156 152 100
159 156 104
152 149 98
153 151 100
164 159 105
154 151 100
161 158 105
157 154 102
159 155 103
165 161 107
166 163 108
164 160 106
166 162 109
165 161 107
158 154 102
165 162 108
161 157 104
165 161 108
168 164 109
161 158 105
167 164 110
163 161 107
167 164 109
156 154 104
165 162 108
164 161 108
167 164 110
166 163 109
168 165 110
163 161 108
172 169 112
167 164 109
170 168 113
169 167 112
168 165 110
169 167 112
168 166 111
164 161 108
171 168 112
166 164 110
171 168 112
170 168 112
168 166 111
171 168 112
170 167 111
168 165 110
169 166 110
165 162 108
174 171 113
167 165 110
170 167 111
170 166 110
172 169 113
168 166 110
170 167 110
171 168 112
169 165 110
168 165 110
170 167 111
167 164 109
167 164 109
168 165 109
171 167 110
167 164 109
169 165 109
173 169 110
165 163 109
168 165 109
170 166 110
167 164 108
162 159 104
173 169 111
166 161 106
169 166 109
167 164 109
168 163 106
169 165 109
167 163 106
163 159 103
159 156 103
164 159 103
168 164 107
164 159 103
166 162 105
166 162 106
155 150 95
162 157 102
163 158 102
153 149 96
167 162 101
166 161 102
166 161 103
151 147 95
163 158 101
164 159 101
155 148 93
158 153 98
163 158 99
155 149 91
149 144 90
161 155 95
157 151 92
156 150 91
147 141 85
143 137 82
156 150 90
148 142 81
147 141 80
147 141 84
143 137 81
141 135 80
138 135 71
143 142 68
154 157 62
142 150 51
161 175 41
164 180 41
173 194 16
174 196 0
174 198 0
174 197 0
174 197 0
174 197 0
173 196 0
173 197 0
173 196 0
173 196 0
174 197 0
173 197 0
171 195 0
172 195 0
174 197 0
171 195 0
174 198 0
174 197 0
175 198 0
174 197 0
174 197 0
172 195 0
175 198 0
174 197 0
174 197 0
175 198 0
174 198 0
171 194 0
172 195 0
174 197 0
173 196 0
173 197 0
171 194 0
173 196 0
174 197 0
172 196 0
173 197 0
174 197 0
174 197 0
172 197 0
173 196 0
176 198 0
175 198 0
173 197 0
172 196 0
172 195 0
171 195 0
173 196 0
172 195 0
171 195 0
173 197 0
172 195 0
174 197 0
172 196 0
174 196 0
172 196 0
172 196 0
174 198 0
173 196 0
174 197 0
173 196 0
174 198 0
172 196 0
173 196 0
174 198 0
174 197 0
173 197 0
173 196 0
173 197 0
174 198 0
173 197 0
170 194 0
174 197 0
174 198 0
173 196 0
172 196 0
172 195 0
173 196 0
174 197 0
174 197 0
173 197 0
173 197 0
172 196 0
172 196 0
177 199 0
173 196 0
171 194 0
172 196 0
172 195 0
172 196 0
173 197 0
174 197 0
172 195 0
175 198 0
172 196 0
175 198 0
176 199 0
171 194 0
170 194 0
173 196 0
174 197 0
174 196 0
174 197 0
175 198 0
174 197 0
171 195 0
173 197 0
174 197 0
175 198 0
173 197 0
172 196 0
172 196 0
171 194 0
170 193 0
171 195 0
171 195 0
171 196 0
174 197 0
170 195 0
169 193 0
170 193 0
173 196 0
175 197 0
173 195 0
172 196 0
173 196 0
172 196 0
172 195 0
172 196 0
173 197 0
173 196 0
172 196 0
174 198 0
173 196 0
172 197 0
173 197 0
171 194 0
173 197 0
173 196 0
172 195 0
173 197 0
171 194 0
173 196 0
175 198 0
170 192 0
171 195 0
175 198 0
172 195 0
173 197 0
173 196 0
173 196 0
170 192 0
173 196 0
173 196 0
172 196 0
174 197 0
173 197 0
172 195 0
173 196 0
172 195 18
173 196 0
171 194 25
167 191 51
163 186 54
152 177 84
151 174 94
134 159 121
125 152 131
110 138 147
104 132 153
98 127 156
84 116 168
75 108 174
71 105 176
66 102 179
61 99 181
61 99 181
61 99 180
62 99 180
62 99 180
61 98 180
61 98 180
62 99 181
62 99 179
62 99 180
61 98 179
62 99 180
62 99 180
62 99 180
61 98 179
62 99 180
62 99 181
62 99 180
61 99 180
64 100 179
73 107 173
80 111 167
89 120 164
96 125 161
103 131 154
126 152 130
133 157 120
148 171 94
154 178 86
165 188 54
171 194 31
172 194 0
171 194 0
171 194 0
169 192 0
171 195 0
174 197 0
172 195 0
173 196 0
171 194 0
174 197 0
174 197 0
171 194 0
174 195 0
175 198 0
173 196 0
171 195 0
175 197 0
169 193 0
173 196 0
170 194 0
173 196 0
173 196 0
172 195 0
174 197 0
173 195 0
172 195 0
172 194 0
171 195 0
174 196 0
172 195 0
170 194 0
175 197 0
172 194 0
171 194 0
172 195 0
169 191 0
172 196 0
172 196 0
173 197 0
171 195 0
171 194 0
172 195 0
173 196 0
172 195 0
171 190 25
166 185 30
162 178 40
161 173 45
143 156 37
148 156 49
134 137 59
146 146 65
139 139 65
128 124 64
136 132 71
144 138 82
142 137 83
149 144 86
140 135 80
150 145 90
151 145 89
136 133 84
148 144 90
156 150 95
151 147 91
159 153 96
142 138 90
152 147 95
155 150 95
154 150 96
155 151 99
156 150 94
161 157 103
160 155 100
153 150 99
161 156 100
156 152 98
158 154 100
153 151 102
167 162 107
156 153 101
148 146 98
150 146 96
155 152 100
160 157 104
160 158 106
156 153 103
155 154 103
165 162 107
167 163 108
164 161 108
166 162 108
161 159 107
164 162 109
169 165 109
162 159 106
157 155 105
164 161 108
158 155 104
164 162 109
165 162 108
166 164 110
167 164 109
168 165 110
162 159 106
170 168 112
164 162 108
168 166 111
167 165 110
172 169 113
164 162 109
168 166 111
171 167 111
166 164 110
168 166 110
169 166 110
166 163 109
169 166 111
171 168 112
170 168 112
168 166 110
166 163 109
170 168 112
174 171 113
167 164 109
169 166 110
173 169 112
171 167 110
172 169 113
164 162 108
168 165 109
168 165 110
170 167 111
170 168 112
169 166 110
169 166 110
168 165 109
171 167 110
165 163 108
174 170 112
167 163 107
170 166 110
169 165 109
170 167 110
166 162 108
172 168 110
168 165 110
163 160 106
161 158 104
170 166 108
170 167 109
168 163 107
163 160 106
167 163 106
163 159 105
163 160 103
167 164 108
162 157 102
169 164 106
167 163 105
159 155 101
162 157 103
162 157 101
164 159 101
158 154 99
167 161 102
164 159 101
164 159 100
160 155 95
158 153 98
162 158 98
159 154 95
159 154 99
165 159 101
161 157 98
156 150 93
162 158 97
153 147 85
157 151 94
157 151 91
147 141 83
152 145 88
147 140 83
145 139 80
150 144 80
138 132 79
149 143 80
146 140 77
142 137 76
144 140 70
144 145 66
160 168 54
152 162 52
165 178 45
163 183 19
170 192 0
172 194 0
174 196 0
174 197 0
173 196 0
173 196 0
175 197 0
173 196 0
174 198 0
176 199 0
173 197 0
171 195 0
174 197 0
172 195 0
174 197 0
172 196 0
172 196 0
173 197 0
171 195 0
174 198 0
174 197 0
174 197 0
175 198 0
174 198 0
174 198 0
172 196 0
173 197 0
175 198 0
174 197 0
173 196 0
174 197 0
172 196 0
173 196 0
172 195 0
172 195 0
173 197 0
171 195 0
174 198 0
172 195 0
173 196 0
174 197 0
172 195 0
174 197 0
173 197 0
174 197 0
172 195 0
173 197 0
171 194 0
173 196 0
173 196 0
172 196 0
174 198 0
173 196 0
172 196 0
173 196 0
171 195 0
173 196 0
173 196 0
172 195 0
174 197 0
173 197 0
175 198 0
174 197 0
173 195 0
172 196 0
174 197 0
174 197 0
173 197 0
173 197 0
172 195 0
174 198 0
173 197 0
174 197 0
173 196 0
172 196 0
173 197 0
171 195 0
173 196 0
172 196 0
171 195 0
173 197 0
175 198 0
172 195 0
170 193 0
173 197 0
173 197 0
170 194 0
174 197 0
176 199 0
170 193 0
170 194 0
171 194 0
172 195 0
174 197 0
171 195 0
172 196 0
173 197 0
173 196 0
172 195 0
172 195 0
174 197 0
174 197 0
172 194 0
172 195 0
172 196 0
172 196 0
173 197 0
172 196 0
172 196 0
172 195 0
172 196 0
174 197 0
171 194 0
172 195 0
171 194 0
174 197 0
175 197 0
172 196 0
174 197 0
172 196 0
174 197 0
173 196 0
172 195 0
174 197 0
172 195 0
172 196 0
175 198 0
173 196 0
174 197 0
174 196 0
172 196 0
169 193 0
173 196 0
172 196 0
174 197 0
169 193 0
172 195 0
173 196 0
174 197 0
175 198 0
171 195 0
172 195 0
171 194 0
173 196 0
173 196 0
170 193 0
172 195 0
171 193 0
174 197 0
170 193 0
170 194 0
169 192 0
173 197 0
172 195 0
172 195 0
170 193 18
170 194 25
168 191 40
163 187 60
161 186 70
144 168 108
128 153 129
112 140 148
99 128 155
82 114 169
81 113 168
64 100 180
61 98 180
62 99 181
62 99 181
61 99 180
61 99 181
61 99 181
61 99 180
62 99 180
61 98 180
61 98 178
62 99 180
62 99 181
62 99 181
61 98 181
62 99 180
61 99 180
61 99 181
61 99 181
61 99 181
62 99 181
62 99 181
62 99 181
62 99 180
61 98 180
62 99 180
61 98 180
62 99 181
62 99 181
61 98 177
61 99 181
62 99 180
62 99 178
66 102 176
68 103 177
76 110 172
91 121 159
113 139 145
132 157 124
136 161 117
159 183 70
160 184 65
171 194 31
171 195 0
172 194 0
171 194 0
170 193 0
172 194 0
171 195 0
171 194 0
171 194 0
172 195 0
174 197 0
172 195 0
173 197 0
172 195 0
173 196 0
171 193 0
172 194 0
169 193 0
173 196 0
169 192 0
171 195 0
171 195 0
170 194 0
171 195 0
173 196 0
173 196 0
172 195 0
173 195 0
173 195 0
168 191 0
169 191 0
170 194 0
170 192 0
172 195 0
171 193 0
174 197 0
172 196 0
173 196 0
172 196 0
168 189 11
171 193 11
166 186 22
165 184 28
165 177 45
151 161 47
155 160 60
149 154 62
140 140 66
146 146 73
145 142 75
137 133 75
143 138 77
137 131 77
143 137 77
143 138 81
146 141 87
148 143 86
146 142 85
149 144 91
146 142 90
146 142 88
153 149 96
156 152 96
144 140 89
156 151 94
151 148 94
147 143 89
145 142 93
151 147 96
153 150 99
149 147 96
155 151 99
150 148 99
159 156 101
154 150 98
154 151 99
159 154 101
158 155 104
155 151 100
152 149 99
148 146 97
160 157 104
153 151 101
157 155 103
151 148 99
159 157 104
162 160 107
159 155 104
154 152 102
157 155 105
158 156 104
161 159 106
158 156 105
163 161 108
163 160 107
164 159 106
165 161 107
161 158 106
165 162 108
165 162 108
163 158 105
162 160 107
168 164 109
169 166 111
169 165 110
167 165 110
174 170 113
172 169 113
168 165 110
166 164 110
170 167 111
170 167 111
172 168 112
170 167 111
171 167 111
170 166 110
171 167 111
168 165 109
168 165 110
171 168 112
168 165 110
168 165 110
171 168 112
170 166 110
170 167 110
166 163 109
172 169 112
170 166 110
168 165 109
170 167 112
170 167 110
168 165 109
172 168 112
164 162 108
171 167 111
169 166 111
170 167 111
167 164 108
167 164 109
168 165 109
171 167 110
170 166 110
164 161 107
168 165 108
172 168 110
166 162 106
169 165 108
170 166 109
162 158 102
169 165 108
168 164 105
166 161 106
166 162 106
167 163 106
160 156 101
164 160 103
160 157 101
162 157 99
171 165 107
167 162 103
163 158 98
159 155 99
163 159 103
164 159 101
160 154 96
168 163 103
163 157 101
158 154 96
159 153 96
156 151 93
153 149 93
149 144 89
157 152 93
154 149 89
158 152 93
151 145 91
153 147 90
151 145 89
153 146 86
148 143 84
148 142 87
145 139 80
138 132 77
151 145 84
148 142 84
148 142 80
133 131 56
139 138 63
157 161 64
154 164 45
157 169 45
164 182 30
168 189 19
173 196 0
172 195 0
174 196 0
171 194 0
172 195 0
173 196 0
173 196 0
174 197 0
172 196 0
174 198 0
174 198 0
173 196 0
176 199 0
172 196 0
174 198 0
174 197 0
173 197 0
174 197 0
172 195 0
173 196 0
172 195 0
173 197 0
175 198 0
173 197 0
173 197 0
171 195 0
174 197 0
174 198 0
173 197 0
172 196 0
172 196 0
173 196 0
174 197 0
173 197 0
173 197 0
172 196 0
172 195 0
175 198 0
174 196 0
171 194 0
173 196 0
173 197 0
173 196 0
174 197 0
173 197 0
173 197 0
172 196 0
172 196 0
174 197 0
172 196 0
173 197 0
173 196 0
174 197 0
172 195 0
175 198 0
174 197 0
172 196 0
174 197 0
173 197 0
169 192 0
173 197 0
175 198 0
172 196 0
172 196 0
171 195 0
170 194 0
175 198 0
175 198 0
174 197 0
173 197 0
173 197 0
174 197 0
174 197 0
172 195 0
170 194 0
174 197 0
173 196 0
174 198 0
174 198 0
173 196 0
174 196 0
174 198 0
173 196 0
171 194 0
173 196 0
172 196 0
172 196 0
170 194 0
168 192 0
172 196 0
175 198 0
173 196 0
173 196 0
173 196 0
171 195 0
174 198 0
173 197 0
174 197 0
172 195 0
173 196 0
172 195 0
174 197 0
172 195 0
174 197 0
174 198 0
171 193 0
171 194 0
170 192 0
173 196 0
171 194 0
172 196 0
174 196 0
173 196 0
173 196 0
174 197 0
172 196 0
172 195 0
173 197 0
174 197 0
173 197 0
172 196 0
174 197 0
169 192 0
173 196 0
171 194 0
172 195 0
174 196 0
172 196 0
172 196 0
173 197 0
172 196 0
173 196 0
171 195 0
172 195 0
172 195 0
171 195 0
172 195 0
173 197 0
171 194 0
174 197 0
174 197 0
172 196 0
173 196 0
171 194 0
169 193 0
172 196 0
171 193 0
170 194 0
172 194 0
173 195 0
173 196 0
174 197 18
171 194 31
166 190 51
161 186 67
147 171 102
139 163 113
112 139 145
106 134 153
84 115 167
74 107 174
65 101 180
62 99 181
62 99 181
61 99 179
62 99 181
61 99 181
62 99 181
62 99 181
62 99 181
62 99 181
62 99 181
62 99 181
61 99 181
62 99 181
61 99 181
62 99 181
61 98 180
61 99 181
62 99 181
61 98 181
61 99 181
61 99 181
61 98 180
62 99 181
62 99 181
62 98 179
61 98 181
61 98 181
62 99 179
63 100 181
62 99 181
61 98 180
62 99 181
61 98 180
61 99 180
61 99 181
62 99 180
62 99 180
62 99 181
62 99 179
62 99 179
62 98 178
61 98 177
81 112 167
91 121 161
117 143 138
141 165 110
150 174 97
165 189 60
170 192 25
171 195 0
173 196 0
175 198 0
172 195 0
172 196 0
172 195 0
174 196 0
172 195 0
170 193 0
174 197 0
173 195 0
172 194 0
171 194 0
172 195 0
173 196 0
172 195 0
171 193 0
171 194 0
171 195 0
171 193 0
169 191 0
172 195 0
170 192 0
172 195 0
174 197 0
170 193 0
172 194 0
173 197 0
171 194 0
169 194 0
170 193 0
169 193 0
172 195 0
173 196 0
173 195 11
167 188 11
166 186 22
161 183 11
163 177 45
154 168 34
151 161 51
137 141 54
148 152 57
150 149 74
138 136 70
143 138 79
136 131 76
144 139 82
150 145 85
148 142 85
139 134 80
148 145 87
150 145 90
150 146 94
149 144 92
142 138 82
153 148 94
141 138 88
145 141 84
141 138 84
147 143 93
153 148 92
151 145 95
147 143 94
149 146 95
144 141 93
156 152 100
148 145 94
155 151 98
155 152 101
165 162 107
159 155 102
164 159 104
157 153 102
156 153 103
164 160 106
163 161 106
153 151 102
153 151 100
158 155 104
158 156 104
157 154 104
158 156 104
161 157 104
168 164 109
163 160 107
162 160 108
164 161 108
164 161 107
165 162 108
165 162 108
159 156 105
167 164 110
160 158 105
169 166 111
164 162 108
163 161 108
170 167 111
170 168 112
167 164 109
166 164 110
169 166 111
170 167 112
167 164 109
167 163 108
173 170 114
164 163 109
172 169 112
164 162 108
170 167 111
169 166 111
168 166 111
171 168 112
169 166 110
169 167 111
170 166 110
170 168 112
171 169 113
169 166 110
170 167 111
172 169 112
167 164 109
164 161 108
170 167 111
174 171 113
170 166 110
170 167 111
167 164 109
166 163 109
164 161 108
169 166 110
167 164 108
169 165 108
170 166 110
169 165 109
172 168 110
163 160 106
168 164 108
168 164 109
169 164 109
164 161 106
171 167 110
161 158 104
171 167 110
164 160 104
164 161 106
161 158 104
168 165 107
171 167 108
165 160 103
167 163 107
166 162 106
165 160 104
169 164 106
162 158 101
164 160 103
164 160 101
165 160 103
170 165 107
158 154 101
161 156 101
157 152 95
166 161 101
157 153 94
162 156 96
164 159 99
150 145 90
167 160 101
154 150 94
159 155 96
165 158 97
158 151 91
144 138 83
152 147 91
153 147 86
157 151 87
147 141 83
150 145 84
156 150 92
154 147 87
138 132 74
148 142 82
155 149 79
137 134 69
142 146 58
146 150 58
152 165 45
164 181 32
172 192 19
172 196 0
175 198 0
174 197 0
173 197 0
175 198 0
173 196 0
173 197 0
173 196 0
175 198 0
173 196 0
174 198 0
172 196 0
171 195 0
174 197 0
174 198 0
173 196 0
173 197 0
173 196 0
173 196 0
173 196 0
172 197 0
175 198 0
172 195 0
173 197 0
174 198 0
172 196 0
174 198 0
173 197 0
172 196 0
173 197 0
175 198 0
173 197 0
175 198 0
175 198 0
174 197 0
174 197 0
176 198 0
174 198 0
172 196 0
171 194 0
172 196 0
173 196 0
172 195 0
173 197 0
172 196 0
176 198 0
174 197 0
172 196 0
172 196 0
173 196 0
173 197 0
173 197 0
173 197 0
173 196 0
171 195 0
173 197 0
173 197 0
174 198 0
173 197 0
175 198 0
174 198 0
174 198 0
172 196 0
173 196 0
173 196 0
175 198 0
172 196 0
171 194 0
173 196 0
172 195 0
173 197 0
174 197 0
174 197 0
173 197 0
175 198 0
175 198 0
173 197 0
172 194 0
174 196 0
173 197 0
176 199 0
174 197 0
174 197 0
173 197 0
172 196 0
174 197 0
172 195 0
169 193 0
173 197 0
171 195 0
173 197 0
172 195 0
174 198 0
174 197 0
173 196 0
175 198 0
173 196 0
172 196 0
174 197 0
170 194 0
173 196 0
174 198 0
173 196 0
174 196 0
173 197 0
171 195 0
175 198 0
173 196 0
171 195 0
174 197 0
174 197 0
173 196 0
173 197 0
174 197 0
170 194 0
173 196 0
172 196 0
173 197 0
172 195 0
174 197 0
170 194 0
175 198 0
172 194 0
174 197 0
172 196 0
173 196 0
173 196 0
171 195 0
172 195 0
172 196 0
174 197 0
171 194 0
169 192 0
173 195 0
175 198 0
172 196 0
172 196 0
172 196 0
172 195 0
172 195 0
172 197 0
174 197 0
173 196 0
173 196 0
170 194 0
170 194 0
173 196 0
172 196 0
173 196 0
174 197 18
171 193 36
161 184 70
153 177 90
128 153 128
118 145 140
87 118 164
69 104 178
61 98 179
62 99 181
62 99 179
61 99 180
62 99 181
62 99 181
62 99 181
62 99 181
62 99 181
62 99 181
61 99 180
62 99 181
62 99 181
61 98 181
62 99 180
62 99 181
62 99 181
61 99 181
61 98 181
62 99 181
61 98 181
61 98 181
61 99 181
62 99 181
61 98 181
62 99 181
61 99 181
61 98 180
61 99 181
61 99 181
62 99 181
61 99 181
61 98 180
61 98 180
61 99 181
62 99 180
61 98 181
62 99 179
61 99 181
62 99 181
61 98 177
61 98 180
61 98 179
62 99 180
62 99 180
61 98 179
61 98 178
61 97 174
61 98 178
62 98 178
67 102 174
81 113 169
106 133 152
136 160 114
143 167 103
163 186 54
171 195 25
170 192 0
171 194 0
173 196 0
173 195 0
173 196 0
171 193 0
170 193 0
170 193 0
172 195 0
166 189 0
169 192 0
170 192 0
173 196 0
172 195 0
172 194 0
173 196 0
173 195 0
172 195 0
175 197 0
171 193 0
170 192 0
173 195 0
171 193 0
173 195 0
171 195 0
169 191 0
172 195 0
172 195 0
173 196 0
173 196 0
172 194 0
168 190 11
167 189 11
164 184 19
160 176 41
159 170 54
143 154 42
149 156 52
155 163 57
143 144 66
144 142 71
148 147 79
138 132 69
142 136 75
139 134 79
145 139 81
148 143 88
152 146 87
142 137 76
148 144 87
139 136 82
146 142 90
155 150 93
142 138 86
151 146 93
152 148 96
141 137 89
156 151 95
148 144 93
149 146 92
154 149 93
147 144 93
150 146 95
150 147 96
153 149 98
154 151 99
154 151 98
149 147 99
155 153 103
158 155 102
160 157 105
157 153 102
156 153 102
157 155 104
157 154 102
160 156 102
161 159 107
165 161 108
161 158 106
169 165 110
164 161 107
165 163 109
161 158 106
167 163 108
164 161 107
162 160 107
162 159 106
165 163 109
171 167 111
166 163 109
168 165 110
169 166 110
165 163 110
169 166 111
165 163 109
164 162 109
168 164 108
169 165 110
168 165 109
167 164 110
170 166 110
167 164 109
167 165 111
171 168 112
166 163 109
169 165 110
167 163 109
172 169 113
171 168 112
172 168 111
172 169 113
170 166 110
168 165 110
168 165 109
172 169 113
171 168 112
169 166 110
170 167 112
165 162 107
170 167 111
170 167 111
170 167 112
168 165 109
170 167 110
171 168 111
165 162 108
170 167 111
169 165 110
163 160 104
174 169 112
168 165 109
168 165 109
168 165 109
168 164 108
168 164 108
165 161 107
164 161 106
168 164 107
166 163 108
168 164 108
164 161 108
166 162 107
163 158 101
172 167 109
168 163 104
169 164 106
165 162 106
159 156 102
164 160 104
168 164 107
170 165 108
171 165 106
170 164 104
164 159 103
163 157 100
163 158 101
165 160 101
163 158 99
162 157 99
165 160 101
158 153 95
161 156 98
167 161 102
157 153 94
159 154 99
159 153 95
160 154 96
160 155 90
160 154 92
160 154 94
151 146 85
154 148 85
151 146 90
133 128 76
149 142 86
158 151 88
140 134 75
136 131 72
142 137 78
138 133 75
143 138 76
134 134 65
155 160 66
150 157 53
161 174 49
163 182 22
169 192 0
173 196 0
172 196 0
173 197 0
175 198 0
174 197 0
174 197 0
175 198 0
173 197 0
172 196 0
173 197 0
172 196 0
175 198 0
173 197 0
174 197 0
173 195 0
173 196 0
176 198 0
171 194 0
173 197 0
174 197 0
174 197 0
174 197 0
174 197 0
173 197 0
174 197 0
173 196 0
173 197 0
174 197 0
173 197 0
172 196 0
174 197 0
173 196 0
173 196 0
172 195 0
174 196 0
173 197 0
173 195 0
171 196 0
173 197 0
172 195 0
174 197 0
174 197 0
174 197 0
171 195 0
173 197 0
173 197 0
173 197 0
173 196 0
174 197 0
173 196 0
173 197 0
174 197 0
173 197 0
176 199 0
170 194 0
174 198 0
172 195 0
171 194 0
172 196 0
173 196 0
172 195 0
173 197 0
173 197 0
173 195 0
172 195 0
173 197 0
173 197 0
174 196 0
172 196 0
173 196 0
173 197 0
176 198 0
171 195 0
174 197 0
173 197 0
173 197 0
173 196 0
169 193 0
174 197 0
173 197 0
174 196 0
172 195 0
172 195 0
172 195 0
172 195 0
173 196 0
171 195 0
173 197 0
173 196 0
173 196 0
172 195 0
173 197 0
173 197 0
173 196 0
173 196 0
172 196 0
172 195 0
172 196 0
172 195 0
173 197 0
173 197 0
174 197 0
174 197 0
173 197 0
170 193 0
170 193 0
174 197 0
174 197 0
174 197 0
170 193 0
175 198 0
171 195 0
173 196 0
171 194 0
173 197 0
173 196 0
175 198 0
173 196 0
171 196 0
171 194 0
173 196 0
172 195 0
173 196 0
175 198 0
172 195 0
173 196 0
173 196 0
171 194 0
175 197 0
171 194 0
171 195 0
173 197 0
172 195 0
173 196 0
172 195 0
171 195 0
171 195 0
174 197 0
171 194 0
172 196 0
173 196 0
175 198 0
173 197 0
170 194 0
170 193 0
171 194 18
168 191 31
166 190 51
158 182 76
128 153 128
115 142 142
93 123 161
74 108 175
62 99 181
61 99 178
63 100 179
62 99 180
62 99 181
62 99 181
62 99 181
62 99 181
61 99 181
62 99 180
62 99 181
62 99 181
62 99 180
61 99 181
61 99 181
62 99 181
62 99 181
62 99 181
62 99 181
62 99 181
61 98 181
62 99 181
62 99 181
62 99 181
61 98 181
61 99 181
61 98 181
61 99 181
61 98 181
62 99 181
62 99 180
62 99 181
61 99 181
61 98 181
61 98 181
61 99 181
62 99 181
62 99 180
62 99 180
61 98 179
62 99 180
61 99 181
62 99 180
61 98 179
61 99 180
62 99 179
62 99 181
62 99 181
61 98 181
62 99 180
62 99 181
62 98 178
61 98 178
62 99 178
61 98 179
61 98 177
66 101 176
81 113 167
109 137 150
131 156 118
146 170 93
163 186 55
171 194 18
174 197 0
171 195 0
169 192 0
174 196 0
168 191 0
171 194 0
172 195 0
172 195 0
171 194 0
171 194 0
174 197 0
173 196 0
173 197 0
171 195 0
173 196 0
171 193 0
170 193 0
174 196 0
172 195 0
172 195 0
170 193 0
173 197 0
172 194 0
175 198 0
173 197 0
173 197 0
172 195 0
171 195 0
172 194 19
167 189 16
165 185 29
153 167 39
158 171 45
159 167 63
145 151 51
149 150 68
147 147 70
146 144 72
143 140 71
136 132 74
134 130 74
133 128 73
143 138 81
133 128 81
138 133 81
146 142 82
146 140 89
144 141 89
151 146 92
140 136 83
149 144 90
147 143 89
155 150 95
150 146 93
149 146 95
141 138 89
152 149 96
147 144 94
155 152 98
144 142 92
157 153 103
149 146 98
150 147 96
158 155 104
162 158 104
148 146 95
162 159 106
160 157 105
151 149 100
154 152 102
157 154 103
154 151 100
169 165 109
155 152 100
165 161 108
166 163 108
159 157 106
160 156 104
164 161 109
155 153 104
160 157 104
160 158 107
159 156 105
165 163 109
164 161 108
163 160 107
160 157 104
164 161 108
168 163 109
172 169 112
164 161 108
171 167 110
173 169 112
168 164 110
170 167 111
164 162 108
172 169 113
166 164 110
168 166 111
168 165 110
170 167 111
165 163 109
167 165 110
170 168 112
164 162 108
171 168 112
169 166 111
172 169 111
172 168 112
167 164 109
170 167 110
173 169 112
169 167 111
168 165 110
170 168 112
171 167 111
173 169 112
170 168 112
172 168 111
168 165 109
167 163 108
171 168 112
174 170 112
173 168 111
168 165 109
168 165 109
170 167 110
170 166 110
169 165 109
170 166 109
170 167 109
169 166 108
167 164 108
170 166 110
167 163 106
164 161 106
171 167 109
168 163 106
168 163 106
162 158 102
172 168 110
160 156 100
162 158 104
163 159 103
169 164 106
168 162 103
164 160 103
162 157 100
171 165 104
163 159 102
162 157 101
160 156 101
167 162 102
167 162 103
160 156 98
162 157 101
161 156 98
156 151 96
161 157 97
164 157 99
166 161 101
151 146 91
156 151 95
159 153 95
158 152 93
164 157 94
148 143 87
154 147 90
155 149 86
154 148 85
141 135 78
157 150 90
146 139 79
136 131 72
145 139 79
145 138 83
136 130 73
144 138 78
138 136 72
136 140 56
152 160 54
154 167 41
165 182 34
167 187 19
171 195 0
174 197 0
173 196 0
175 197 0
172 194 0
174 196 0
173 197 0
173 197 0
174 197 0
173 197 0
175 198 0
174 197 0
174 197 0
173 197 0
175 198 0
174 197 0
174 197 0
174 197 0
172 196 0
173 197 0
174 197 0
172 195 0
172 196 0
173 197 0
173 197 0
173 197 0
173 196 0
173 197 0
173 197 0
173 197 0
174 197 0
174 197 0
173 196 0
174 197 0
172 196 0
173 196 0
172 195 0
173 197 0
174 196 0
175 197 0
173 196 0
173 196 0
173 197 0
172 196 0
173 197 0
171 195 0
173 197 0
174 198 0
172 196 0
175 198 0
174 197 0
173 197 0
172 196 0
174 197 0
174 198 0
174 198 0
171 195 0
174 197 0
171 195 0
172 196 0
174 197 0
172 196 0
174 197 0
175 198 0
173 197 0
172 196 0
171 194 0
174 197 0
173 197 0
172 196 0
172 195 0
174 197 0
172 196 0
170 193 0
172 195 0
174 197 0
173 196 0
172 196 0
174 198 0
174 198 0
173 197 0
172 196 0
174 196 0
173 196 0
174 196 0
170 195 0
173 196 0
172 194 0
172 195 0
174 197 0
172 195 0
172 196 0
172 195 0
175 198 0
174 196 0
173 196 0
171 195 0
173 196 0
173 196 0
173 197 0
173 196 0
172 196 0
174 197 0
171 194 0
172 195 0
172 196 0
173 196 0
173 197 0
171 195 0
170 194 0
170 194 0
175 198 0
171 196 0
171 194 0
174 197 0
174 197 0
169 193 0
171 194 0
171 194 0
173 196 0
173 196 0
173 196 0
170 195 0
173 195 0
171 195 0
173 196 0
172 195 0
173 197 0
171 195 0
168 192 0
169 192 0
173 197 0
171 195 0
173 196 0
174 196 0
174 197 0
174 196 0
168 192 0
173 196 0
173 196 0
170 193 0
172 195 0
172 195 0
172 195 18
166 189 54
164 188 57
145 170 102
120 146 135
99 128 158
69 104 177
64 100 178
62 99 180
62 99 179
62 99 180
62 99 181
62 99 181
62 99 181
61 99 181
61 98 180
61 98 180
62 99 180
61 99 181
61 99 181
62 99 181
61 98 181
62 99 181
62 99 181
61 98 180
61 99 181
61 99 181
62 99 181
61 99 181
61 99 181
62 99 181
61 98 181
61 98 181
61 99 181
61 98 181
61 99 181
61 98 181
61 99 181
62 99 181
61 99 181
62 99 181
61 99 181
61 99 181
61 99 181
61 99 181
61 98 181
61 99 181
62 99 181
62 99 181
62 99 180
62 99 181
62 99 181
62 99 181
62 99 181
61 98 180
62 99 179
62 99 180
62 99 180
61 98 180
62 99 180
62 99 181
62 99 180
62 99 179
62 98 179
62 99 177
61 99 180
62 99 178
62 99 179
62 98 177
62 98 175
94 123 157
108 135 146
144 169 103
164 188 62
171 194 31
173 196 0
172 195 0
173 196 0
172 196 0
172 195 0
171 193 0
171 193 0
173 195 0
167 191 0
173 196 0
170 194 0
172 194 0
172 195 0
171 194 0
173 195 0
170 194 0
172 194 0
168 191 0
171 193 0
169 193 0
173 195 0
168 190 0
169 192 0
171 194 0
170 193 0
166 188 0
169 192 0
166 186 11
159 178 28
161 176 37
156 166 49
155 162 51
154 161 61
143 143 68
142 141 67
144 142 72
140 135 80
142 137 79
147 142 83
138 133 78
139 134 78
137 133 83
148 143 86
152 147 90
152 146 90
143 138 89
149 144 90
144 140 89
145 142 88
147 143 91
146 144 94
151 148 96
151 148 96
153 149 98
144 141 94
149 147 97
149 146 95
153 149 95
146 143 93
149 147 99
155 151 100
145 143 95
151 149 99
152 148 96
156 154 101
158 156 104
152 149 100
159 155 104
158 155 103
149 148 101
155 153 103
156 153 103
158 155 104
160 157 105
158 156 104
157 154 103
166 163 109
160 158 106
162 159 106
166 163 109
163 161 107
168 165 110
166 163 108
160 158 106
168 165 110
163 161 108
161 158 105
162 159 106
162 159 105
171 167 110
164 162 109
164 162 108
169 166 111
167 164 110
167 164 110
169 166 110
170 167 112
167 165 110
172 168 112
169 167 111
174 170 113
166 162 108
166 164 109
170 166 110
171 168 112
170 167 112
171 168 112
172 168 112
172 169 112
170 167 110
172 168 111
170 166 109
168 165 109
173 169 112
169 166 110
169 165 109
170 166 110
171 168 111
171 167 110
168 165 110
170 166 110
170 167 110
174 170 112
167 163 108
173 170 110
173 169 109
165 162 108
171 167 108
169 166 110
171 168 111
171 166 109
169 165 108
167 164 108
170 166 109
169 165 108
161 158 104
167 163 106
164 160 103
169 164 106
164 160 104
164 160 104
166 162 105
164 160 104
170 164 105
162 158 101
165 161 105
165 160 103
166 162 104
169 163 101
164 160 100
162 157 101
162 158 95
166 161 101
160 155 94
165 159 99
160 155 96
160 155 97
161 156 95
167 160 97
166 160 101
158 152 95
159 154 95
156 149 91
154 150 91
162 156 93
154 148 87
150 144 84
150 143 86
160 153 90
148 142 80
158 151 90
147 141 82
142 137 79
152 146 80
145 139 74
144 138 76
139 136 70
139 140 66
150 154 60
158 171 42
157 174 36
167 187 28
173 196 0
174 197 0
171 195 0
173 197 0
174 197 0
173 197 0
172 196 0
174 198 0
172 195 0
173 196 0
174 198 0
173 197 0
175 198 0
174 198 0
174 197 0
174 197 0
172 196 0
173 197 0
174 197 0
174 198 0
174 197 0
173 197 0
174 198 0
174 197 0
175 198 0
175 198 0
173 197 0
172 196 0
174 198 0
174 197 0
173 197 0
174 196 0
175 198 0
173 195 0
175 198 0
173 197 0
175 198 0
175 198 0
174 198 0
174 198 0
174 196 0
174 198 0
171 194 0
175 198 0
176 198 0
172 196 0
174 197 0
172 196 0
175 198 0
171 195 0
172 196 0
173 196 0
172 195 0
174 197 0
172 195 0
175 197 0
175 198 0
172 196 0
175 198 0
172 195 0
174 197 0
174 197 0
172 195 0
170 194 0
170 194 0
174 197 0
173 197 0
173 196 0
173 197 0
175 198 0
172 195 0
175 198 0
173 196 0
173 195 0
172 196 0
167 191 0
171 195 0
174 197 0
170 193 0
174 197 0
176 199 0
174 197 0
174 197 0
174 197 0
175 198 0
171 195 0
171 194 0
171 194 0
174 197 0
172 195 0
169 192 0
173 196 0
173 196 0
173 197 0
174 198 0
171 195 0
172 196 0
172 195 0
171 195 0
174 198 0
173 196 0
172 196 0
172 196 0
172 195 0
175 198 0
172 195 0
173 196 0
172 196 0
173 196 0
172 195 0
171 195 0
172 196 0
173 196 0
172 195 0
173 196 0
172 196 0
173 195 0
173 196 0
173 196 0
170 194 0
173 196 0
172 196 0
173 196 0
172 196 0
174 197 0
174 197 0
173 196 0
174 197 0
173 196 0
170 192 0
174 197 0
171 194 0
175 197 0
172 196 0
171 194 0
174 197 0
174 197 0
173 196 0
172 196 0
171 195 0
171 194 0
175 198 0
164 189 60
164 187 62
146 171 100
104 133 152
89 119 163
66 101 174
61 99 179
62 99 180
62 99 181
62 99 180
62 99 180
62 99 180
62 99 181
62 99 181
62 99 180
61 99 181
61 98 180
62 99 181
62 99 181
62 99 181
61 98 181
61 99 181
61 99 181
61 99 181
61 99 181
61 99 181
61 99 181
62 99 181
61 98 181
61 99 181
62 99 181
62 99 181
61 98 181
61 98 181
61 99 181
62 99 181
61 99 181
61 99 181
61 99 181
61 99 181
62 99 181
61 98 181
62 99 181
62 99 181
61 99 181
61 99 181
61 98 181
61 98 181
61 99 181
61 99 181
61 98 180
62 99 180
61 99 180
61 99 180
61 98 179
61 99 181
61 98 179
62 99 180
62 99 180
62 99 179
61 98 180
61 98 180
61 98 180
62 99 179
62 99 180
62 98 178
62 99 181
62 99 179
61 97 175
61 98 179
62 99 180
61 98 178
61 98 178
73 107 171
97 126 159
136 161 117
156 179 80
170 192 36
169 192 0
171 195 0
173 195 0
170 192 0
172 194 0
173 195 0
173 196 0
174 197 0
173 195 0
172 195 0
172 196 0
172 195 0
168 191 0
170 193 0
173 196 0
171 194 0
173 196 0
171 194 0
174 196 0
172 196 0
174 197 0
171 194 0
172 195 0
174 196 11
167 189 0
167 185 28
160 178 33
156 167 41
151 159 49
151 155 63
140 142 61
139 140 63
141 138 70
137 133 71
136 131 74
150 145 87
137 133 74
126 123 73
147 142 84
139 134 80
144 139 85
138 136 82
139 135 85
149 144 89
135 132 84
140 136 83
147 143 94
153 148 93
143 140 90
143 139 92
140 136 88
149 146 96
147 144 93
147 145 95
158 154 102
143 141 91
155 151 98
144 142 93
149 146 96
151 147 96
146 144 97
163 159 106
155 152 101
144 144 99
153 150 101
162 159 105
160 157 104
158 155 105
151 149 98
155 153 102
160 158 106
159 157 106
157 155 104
157 155 105
157 154 103
159 156 105
162 159 107
166 164 110
163 160 107
167 165 109
164 161 108
161 158 106
168 164 110
163 161 108
165 162 108
169 166 111
167 165 110
165 162 108
167 164 109
166 164 110
165 162 109
160 159 106
173 169 112
168 165 110
171 167 111
169 166 111
172 169 113
172 169 112
172 169 113
170 166 109
167 163 108
169 167 112
169 166 110
170 165 109
170 167 110
171 166 109
168 163 108
172 168 111
167 164 109
170 167 109
170 167 110
168 166 110
171 169 112
172 167 110
174 170 113
173 169 111
170 166 110
172 168 110
173 170 113
170 166 110
168 165 109
173 169 112
161 158 104
166 163 106
173 168 110
172 168 110
171 166 109
170 167 110
171 167 109
171 167 109
172 168 109
160 156 101
171 166 107
172 168 110
168 164 106
167 164 106
168 164 105
169 164 106
168 164 104
172 168 109
164 160 104
169 164 104
164 161 104
169 164 106
162 157 101
164 159 103
165 160 104
160 154 95
170 164 106
169 163 98
157 152 98
161 156 96
163 158 101
162 157 95
161 157 95
167 160 99
158 153 95
161 155 97
160 155 95
161 155 93
162 155 95
156 151 93
156 150 91
153 147 87
159 152 93
156 150 88
160 153 91
147 141 84
156 149 88
155 148 90
141 135 79
139 134 76
148 141 79
146 139 76
141 135 77
139 139 63
145 150 53
157 166 47
161 176 36
165 181 32
171 193 19
173 196 0
172 196 0
175 197 0
173 196 0
172 195 0
174 197 0
172 196 0
173 196 0
173 197 0
173 196 0
174 197 0
176 198 0
176 198 0
173 197 0
174 197 0
173 195 0
176 199 0
174 197 0
175 198 0
171 195 0
175 198 0
173 196 0
172 196 0
175 197 0
173 197 0
174 197 0
174 197 0
174 198 0
174 197 0
172 195 0
175 198 0
172 196 0
173 197 0
173 196 0
174 197 0
173 197 0
175 198 0
172 195 0
174 198 0
174 198 0
170 194 0
173 196 0
172 195 0
171 195 0
172 196 0
169 193 0
173 196 0
174 198 0
171 195 0
173 197 0
173 197 0
175 198 0
174 198 0
173 197 0
174 197 0
171 195 0
170 194 0
173 196 0
176 198 0
173 197 0
173 196 0
174 197 0
172 196 0
176 198 0
175 198 0
175 198 0
173 196 0
175 197 0
173 197 0
173 197 0
172 195 0
173 196 0
174 198 0
174 198 0
172 195 0
172 196 0
173 197 0
171 195 0
173 197 0
174 197 0
172 195 0
171 195 0
173 196 0
169 192 0
171 195 0
172 195 0
173 197 0
173 197 0
173 197 0
172 195 0
173 197 0
173 196 0
174 197 0
173 196 0
171 195 0
173 196 0
174 197 0
173 196 0
170 194 0
174 198 0
171 195 0
172 195 0
170 193 0
171 195 0
175 198 0
171 195 0
175 198 0
171 194 0
174 197 0
170 195 0
173 196 0
173 197 0
170 193 0
172 195 0
171 195 0
170 194 0
170 194 0
174 197 0
170 193 0
173 197 0
173 195 0
172 196 0
171 195 0
172 196 0
172 195 0
172 195 0
171 195 0
171 195 0
173 196 0
170 194 0
172 194 0
172 196 0
171 194 0
172 196 0
171 194 0
171 194 0
173 197 0
171 195 0
168 192 25
165 189 54
159 183 65
135 159 118
107 133 151
78 111 168
69 104 175
62 99 179
61 99 178
62 99 180
62 99 181
61 99 178
61 99 180
62 99 180
61 99 181
62 99 181
62 99 181
61 99 181
61 99 181
62 99 181
62 99 181
62 99 181
62 99 181
61 99 181
62 99 181
61 99 181
62 99 181
61 99 181
61 99 181
62 99 181
62 99 181
61 98 181
61 99 181
61 98 180
61 98 181
62 99 181
62 99 181
61 98 181
61 98 181
61 98 181
61 99 181
61 99 181
61 99 181
62 99 181
61 99 181
61 98 180
61 99 181
61 98 180
62 99 181
61 98 181
62 99 181
61 99 181
61 98 181
61 99 181
61 98 180
61 98 181
62 99 180
62 99 181
61 99 180
62 99 181
61 99 181
61 98 180
61 98 179
61 98 179
61 98 180
61 98 178
62 99 180
61 99 181
61 98 179
62 98 179
61 98 177
62 98 177
62 99 178
61 98 179
62 99 178
62 98 176
61 97 173
61 97 175
63 99 176
92 121 158
126 151 127
153 177 83
171 193 0
170 194 0
174 196 0
172 195 0
173 195 0
171 195 0
174 197 0
174 197 0
170 194 0
173 195 0
171 194 0
169 193 0
172 195 0
173 195 0
172 195 0
173 195 0
171 195 0
174 196 0
172 195 0
172 195 0
174 196 0
169 192 0
168 191 16
164 185 19
162 181 25
157 173 32
151 161 49
149 158 48
146 149 58
146 150 59
140 139 67
147 144 76
132 129 68
140 135 70
141 137 81
132 128 69
137 132 79
138 135 79
149 143 92
136 132 83
147 142 87
145 141 84
140 136 81
147 144 91
144 140 88
141 138 87
148 145 94
153 149 94
130 128 83
141 137 90
149 145 93
154 150 97
146 143 94
147 144 94
151 147 98
145 143 96
154 152 102
153 150 99
149 147 99
157 153 102
157 153 102
149 147 101
148 146 99
151 149 100
145 143 97
158 155 105
155 152 101
159 156 104
155 153 103
155 152 103
161 157 105
155 152 102
161 158 106
162 159 106
164 160 106
155 155 105
157 154 103
161 159 107
167 164 110
165 162 108
169 165 110
166 163 110
165 163 109
170 167 112
170 167 110
163 160 107
166 163 109
168 164 109
163 161 109
169 166 111
167 164 108
169 167 111
168 165 110
169 166 110
168 164 109
173 169 113
170 166 110
173 169 113
171 168 111
172 169 112
171 167 111
171 168 111
172 169 112
171 167 110
169 166 110
172 169 112
171 168 111
169 167 111
174 169 111
174 170 113
174 170 112
173 170 113
172 169 112
173 169 111
175 170 112
171 168 111
169 166 110
173 169 112
173 168 110
172 168 110
173 170 112
169 165 109
168 164 107
170 166 109
165 162 104
167 163 108
168 164 106
170 166 109
167 165 108
166 163 106
170 165 107
172 167 108
172 168 106
170 166 109
169 165 109
167 162 106
170 165 107
171 166 108
167 163 106
169 165 105
166 162 102
167 162 105
168 163 106
160 156 95
165 161 103
157 152 95
161 155 97
164 159 99
164 160 101
154 149 94
158 153 96
157 152 94
167 161 99
160 155 95
165 159 97
162 156 94
158 152 93
167 161 101
155 150 91
162 155 94
165 159 97
152 146 88
154 149 87
144 139 83
160 154 93
146 140 85
148 142 83
155 148 87
149 143 84
147 142 82
149 144 84
139 134 76
152 145 79
141 135 78
129 126 67
136 139 51
151 157 57
161 174 51
162 180 34
168 188 22
172 193 16
172 195 0
172 196 0
174 196 0
174 197 0
174 198 0
170 193 0
174 197 0
174 197 0
173 196 0
174 197 0
171 195 0
175 198 0
173 197 0
173 197 0
173 197 0
174 197 0
174 197 0
175 198 0
174 197 0
174 197 0
173 197 0
175 198 0
177 199 0
172 196 0
171 194 0
172 195 0
173 196 0
174 197 0
173 196 0
171 196 0
171 195 0
173 197 0
173 196 0
171 194 0
173 197 0
175 198 0
174 197 0
173 197 0
174 197 0
173 196 0
173 196 0
175 198 0
174 198 0
169 192 0
171 195 0
171 195 0
175 198 0
175 197 0
173 196 0
174 198 0
174 197 0
173 196 0
172 195 0
171 195 0
173 196 0
172 196 0
172 195 0
171 195 0
174 197 0
171 195 0
173 196 0
174 197 0
173 196 0
174 197 0
173 196 0
171 194 0
172 195 0
174 197 0
171 195 0
174 198 0
173 196 0
172 195 0
173 196 0
174 198 0
173 196 0
174 197 0
170 194 0
173 196 0
170 194 0
173 196 0
171 194 0
174 197 0
171 195 0
172 196 0
172 195 0
172 196 0
173 197 0
172 195 0
171 194 0
174 198 0
171 195 0
173 196 0
174 196 0
170 193 0
171 195 0
173 195 0
174 197 0
172 196 0
172 196 0
172 195 0
171 195 0
172 196 0
172 196 0
173 196 0
172 194 0
173 196 0
173 195 0
173 196 0
173 196 0
175 198 0
173 196 0
173 196 0
173 196 0
173 196 0
172 196 0
173 197 0
169 193 0
168 192 0
173 197 0
174 196 0
170 193 0
171 194 0
170 195 0
171 195 0
172 195 0
173 196 0
173 196 0
173 196 0
173 196 0
171 194 0
170 194 0
170 194 0
172 195 0
173 195 0
172 196 0
172 195 0
168 191 54
151 176 90
133 158 122
107 135 147
75 108 170
62 99 181
62 99 180
63 100 180
62 99 179
62 99 179
61 98 181
61 98 179
61 98 181
62 99 181
61 99 179
62 99 181
61 99 181
61 99 181
62 99 181
61 99 180
61 99 181
61 99 181
62 99 181
61 99 181
62 99 181
62 99 181
61 99 181
62 99 181
61 99 181
61 99 181
62 99 181
61 99 181
61 98 181
61 98 181
61 98 181
61 98 181
61 98 181
61 98 181
61 98 181
62 99 181
61 98 181
61 99 181
61 99 181
61 98 180
61 98 181
61 99 181
61 98 180
61 98 181
61 99 181
62 99 181
62 99 181
62 99 181
62 99 181
61 98 181
61 99 181
61 98 181
61 98 179
61 99 181
61 99 181
62 99 180
61 98 181
62 99 181
61 98 181
62 99 181
61 98 180
62 98 179
61 99 180
61 98 178
62 99 180
62 99 179
61 99 177
62 99 179
62 99 178
60 97 176
61 99 180
61 97 176
62 99 178
62 99 178
62 99 177
62 98 178
61 98 176
63 98 170
93 121 155
125 150 124
158 182 75
165 189 41
173 196 0
170 192 0
171 194 0
170 191 0
173 196 0
174 197 0
172 195 0
170 194 0
170 193 0
170 192 0
173 196 0
170 191 0
174 197 0
174 196 0
170 193 0
174 196 0
173 195 0
172 195 0
173 196 0
167 190 0
167 187 25
157 173 32
152 164 47
151 160 48
149 158 57
144 149 53
131 135 53
143 140 71
148 145 82
137 132 75
133 129 69
141 136 83
139 134 82
148 143 83
143 138 85
138 133 78
139 136 82
148 144 91
141 138 88
148 145 95
147 144 90
138 137 90
141 137 89
133 130 84
144 140 92
142 139 92
143 139 89
153 150 99
147 144 92
146 143 95
140 138 92
154 150 99
143 140 93
153 150 98
145 143 94
155 151 100
145 144 97
163 159 105
158 155 102
164 160 105
155 153 103
155 153 103
158 155 102
159 156 105
153 151 102
157 154 104
162 159 106
163 159 106
155 153 103
157 154 104
160 158 106
160 158 106
163 160 107
162 159 107
165 161 108
162 160 108
164 161 108
165 161 108
164 162 109
165 162 108
164 161 107
168 166 111
163 161 108
162 161 108
168 165 110
170 168 111
170 167 111
168 165 110
168 165 110
166 164 109
173 169 112
170 167 111
170 167 112
167 164 109
170 167 110
171 168 111
169 166 110
169 166 110
171 168 113
170 167 111
172 168 110
171 168 111
170 168 111
173 170 112
173 170 113
172 167 110
170 167 110
172 168 111
168 164 108
176 171 113
174 170 111
174 169 111
173 169 112
172 168 110
170 167 110
172 169 111
173 169 110
172 168 109
168 165 109
174 169 110
170 166 109
171 167 109
164 161 104
169 165 107
169 165 106
172 167 108
168 164 108
174 169 110
167 163 106
169 165 106
170 166 107
169 165 108
166 161 105
164 159 101
168 163 105
168 164 106
164 160 103
171 166 107
166 161 103
161 156 100
163 159 103
161 157 101
166 162 103
168 162 105
167 162 103
169 164 103
161 155 97
160 154 97
156 150 93
168 162 98
160 156 97
161 155 98
166 160 97
165 158 98
154 149 94
156 151 93
158 153 94
157 152 93
150 144 84
156 150 89
163 158 93
162 155 91
159 153 95
156 150 87
146 140 83
154 148 84
147 141 81
148 142 83
149 142 84
144 138 73
134 129 64
128 125 59
151 150 64
153 158 57
149 162 37
160 172 51
168 186 36
171 194 16
174 197 0
174 198 0
173 196 0
172 195 0
173 196 0
174 198 0
175 198 0
173 197 0
174 197 0
174 197 0
173 197 0
175 197 0
174 197 0
172 196 0
175 198 0
172 195 0
174 197 0
174 197 0
176 198 0
174 198 0
174 197 0
172 196 0
173 196 0
174 197 0
173 197 0
174 198 0
174 197 0
173 196 0
174 197 0
174 197 0
173 197 0
172 196 0
172 196 0
172 195 0
173 196 0
172 196 0
173 196 0
174 197 0
171 195 0
171 195 0
174 198 0
175 197 0
172 196 0
172 195 0
172 196 0
173 196 0
173 196 0
173 196 0
172 196 0
174 198 0
173 196 0
174 198 0
175 198 0
172 195 0
172 195 0
171 195 0
173 196 0
174 197 0
173 197 0
172 195 0
171 194 0
172 195 0
173 197 0
174 197 0
171 195 0
175 198 0
171 195 0
173 197 0
176 198 0
172 196 0
173 196 0
174 197 0
172 196 0
170 192 0
174 197 0
171 195 0
173 196 0
172 195 0
172 195 0
172 196 0
174 198 0
173 197 0
173 197 0
175 197 0
174 196 0
172 195 0
172 196 0
172 195 0
173 197 0
173 196 0
172 196 0
172 196 0
172 195 0
174 197 0
172 195 0
174 196 0
173 196 0
171 195 0
173 197 0
171 194 0
172 195 0
173 195 0
174 198 0
173 197 0
171 193 0
172 196 0
171 194 0
172 196 0
170 193 0
172 195 0
175 198 0
168 193 0
171 194 0
174 197 0
172 195 0
172 196 0
173 196 0
171 195 0
171 194 0
173 195 0
172 196 0
172 195 0
170 193 0
169 193 0
170 194 0
173 197 0
174 197 0
170 194 0
173 196 0
169 192 0
167 191 0
168 191 0
170 194 0
173 196 0
170 192 31
156 180 80
134 159 120
104 132 153
73 107 172
64 100 175
62 99 180
62 99 179
62 99 179
62 99 180
61 98 180
62 99 179
62 99 181
62 99 180
61 98 180
62 99 181
63 100 181
61 99 181
61 99 181
62 99 181
61 99 180
61 99 181
62 99 181
61 98 181
61 98 181
61 99 181
62 99 181
62 99 181
61 99 181
61 99 181
61 99 181
62 99 181
61 99 181
62 99 181
61 99 181
61 99 181
61 98 181
61 99 181
61 99 181
61 99 181
61 99 181
61 98 180
62 99 181
62 99 181
61 99 181
62 99 181
61 99 181
62 99 181
61 99 181
62 99 181
61 99 181
62 99 181
62 99 180
61 99 181
61 98 180
61 99 181
62 99 181
62 99 181
62 99 181
61 98 180
62 99 181
61 98 181
60 98 180
61 99 181
62 99 180
62 99 180
61 99 181
61 99 180
62 99 180
61 99 180
61 99 180
62 98 177
62 99 181
62 99 180
61 98 178
62 99 181
62 99 178
61 98 179
61 98 178
61 98 177
62 98 177
59 95 173
62 98 177
62 98 177
61 97 174
61 97 174
89 117 161
126 151 127
155 179 86
166 187 25
174 197 0
173 196 0
172 196 0
172 196 0
171 194 0
169 192 0
169 192 0
173 196 0
172 195 0
171 194 0
172 195 0
171 193 0
169 191 0
172 194 0
172 195 0
171 194 0
168 191 0
170 191 11
169 189 25
165 182 28
158 173 41
150 159 51
144 151 52
145 151 54
140 139 65
138 136 72
145 140 78
135 131 76
134 129 77
145 139 81
140 135 81
138 132 78
141 137 83
142 138 83
149 144 89
135 132 82
140 136 82
150 146 91
137 133 83
150 145 92
136 133 88
143 139 93
140 137 90
143 140 89
143 141 95
146 142 89
138 136 90
147 144 96
143 141 95
147 144 94
147 144 95
153 150 100
155 151 100
153 150 99
141 139 94
142 140 93
153 151 98
160 157 104
153 149 99
158 155 104
162 158 105
149 146 97
155 152 101
152 150 101
159 157 106
157 155 104
162 159 106
159 156 105
166 162 107
164 162 108
159 157 105
168 164 110
164 162 110
165 162 107
161 158 105
160 158 106
165 163 109
164 161 108
168 165 110
164 162 108
169 165 110
169 166 111
167 164 109
166 163 109
162 160 109
167 163 108
170 166 110
167 165 109
171 167 110
172 169 112
170 167 110
172 168 112
171 167 111
171 167 111
171 168 112
172 169 112
174 170 112
169 167 111
175 170 112
171 168 111
173 169 112
174 169 110
176 171 113
172 168 110
174 170 113
171 168 109
172 168 112
172 169 111
172 168 109
174 170 111
171 168 111
171 167 110
173 168 110
172 168 110
175 170 110
168 165 109
170 166 109
170 167 108
166 162 106
173 168 110
173 169 111
172 168 110
172 168 109
166 162 106
173 168 109
170 166 108
164 162 106
172 167 109
173 169 112
174 169 109
173 168 109
168 163 106
173 167 108
167 162 104
165 161 103
165 162 105
171 166 104
169 164 104
165 161 103
172 167 106
159 153 97
167 163 105
165 160 101
169 162 100
164 159 102
161 156 97
164 159 99
165 160 97
158 153 93
167 161 101
165 159 97
159 153 91
159 154 94
152 147 85
156 151 88
163 157 93
158 152 90
160 155 94
157 151 90
160 154 94
164 157 92
153 147 85
153 148 84
145 140 79
147 142 80
145 139 82
143 137 78
147 141 71
136 130 68
152 146 80
138 135 67
145 149 54
160 171 45
161 175 39
158 177 19
165 187 19
173 195 11
174 197 0
174 198 0
173 196 0
172 195 0
176 199 0
172 195 0
174 198 0
175 198 0
173 197 0
173 197 0
174 197 0
174 198 0
174 197 0
173 197 0
174 197 0
173 197 0
175 197 0
174 197 0
175 198 0
174 197 0
171 195 0
172 196 0
175 198 0
172 196 0
171 195 0
174 198 0
173 196 0
174 196 0
172 196 0
173 196 0
174 197 0
175 198 0
171 195 0
174 197 0
173 197 0
173 197 0
174 197 0
171 195 0
173 196 0
169 194 0
173 195 0
175 198 0
173 197 0
171 195 0
172 195 0
173 196 0
172 195 0
173 197 0
172 195 0
173 197 0
169 193 0
173 196 0
172 196 0
173 196 0
175 198 0
175 197 0
173 196 0
173 197 0
171 194 0
172 196 0
172 196 0
173 197 0
175 198 0
173 195 0
174 197 0
172 195 0
171 195 0
171 195 0
170 194 0
173 196 0
172 195 0
176 198 0
175 198 0
173 197 0
169 193 0
172 195 0
173 195 0
171 195 0
173 196 0
171 194 0
172 196 0
171 194 0
173 197 0
171 194 0
170 194 0
171 194 0
172 195 0
171 193 0
172 195 0
174 198 0
173 197 0
173 197 0
175 198 0
173 196 0
174 197 0
171 194 0
174 197 0
174 197 0
173 196 0
174 197 0
172 196 0
175 198 0
171 195 0
174 197 0
174 197 0
172 195 0
173 196 0
173 196 0
172 194 0
171 193 0
172 196 0
172 196 0
173 196 0
173 197 0
173 197 0
172 196 0
173 196 0
172 196 0
171 195 0
173 196 0
173 197 0
174 198 0
173 196 0
172 196 0
174 197 0
171 195 0
172 194 0
169 194 0
170 193 0
171 195 0
170 193 0
167 191 44
158 183 65
137 162 114
113 140 144
81 113 167
64 100 178
62 99 176
62 99 178
62 99 181
61 98 180
61 99 179
61 99 179
61 98 180
62 99 180
62 99 180
61 99 180
62 99 181
61 99 181
62 99 181
61 98 181
61 99 181
61 99 181
62 99 181
61 98 181
62 99 181
61 99 181
62 99 181
61 99 181
62 99 181
61 99 181
62 99 181
61 99 181
61 99 181
61 98 181
61 98 180
61 99 181
61 98 181
62 99 181
61 99 181
61 99 181
61 99 181
61 99 181
62 99 181
61 98 179
61 98 179
61 99 181
61 99 181
61 99 181
61 98 181
61 99 181
62 99 181
61 99 181
61 98 181
62 99 181
62 99 181
61 98 180
62 99 181
61 99 181
61 98 181
61 98 181
61 99 180
62 99 181
61 98 180
62 99 181
62 99 181
62 99 180
61 98 180
61 99 181
61 99 181
61 99 181
61 98 180
61 99 181
61 99 180
62 99 180
61 98 180
61 99 181
61 99 180
61 98 178
62 98 177
62 98 179
62 99 181
62 98 178
61 98 180
61 98 178
62 99 178
61 98 175
61 97 174
61 97 173
61 97 172
62 97 168
98 127 155
130 154 128
159 183 70
169 193 0
172 194 0
172 194 0
172 196 0
170 193 0
173 195 0
167 189 0
173 196 0
172 194 0
171 193 0
171 194 0
171 193 0
170 193 0
171 194 0
169 192 0
167 189 11
167 188 19
160 180 11
152 167 41
158 171 41
141 148 47
146 148 60
147 149 66
148 147 72
139 135 73
132 128 73
135 132 75
146 141 80
152 146 85
146 141 85
135 131 80
140 136 79
144 141 85
142 138 86
144 139 89
149 144 91
141 137 86
135 132 84
132 129 82
142 139 89
138 136 91
149 145 95
144 140 92
145 142 94
146 142 95
143 140 92
140 137 92
150 147 98
145 142 94
149 146 96
153 150 100
150 148 98
153 150 100
151 149 100
146 144 97
151 149 100
149 147 99
153 152 104
151 149 100
157 154 103
154 151 102
159 156 105
156 154 103
158 156 105
156 153 104
158 156 105
160 157 105
163 161 108
163 159 107
163 160 106
170 166 110
159 157 104
165 161 106
160 158 107
164 161 107
163 160 107
161 159 107
166 163 109
166 162 108
170 166 110
163 160 107
168 165 110
171 167 111
167 164 110
168 164 110
169 166 110
164 162 108
170 167 110
170 167 110
169 166 109
170 167 111
171 168 111
172 169 113
167 164 109
170 167 111
170 167 110
172 169 113
171 167 110
171 168 112
172 168 111
173 169 110
173 169 111
174 169 111
173 169 112
175 171 113
175 170 112
175 170 113
168 165 108
171 168 112
173 169 112
173 169 112
172 168 110
171 167 109
171 167 110
174 170 112
169 166 110
170 166 109
173 169 111
172 169 111
171 166 108
172 168 109
171 168 109
170 166 107
170 165 105
169 164 106
171 167 109
170 166 108
168 164 106
170 166 108
171 166 107
165 161 104
167 162 104
168 164 103
167 162 104
170 164 106
166 161 104
166 160 103
164 159 97
166 162 103
166 160 101
167 162 102
162 157 99
165 161 103
165 159 97
162 156 99
163 157 98
160 154 97
159 152 93
160 154 95
164 160 98
147 143 84
164 157 96
165 159 100
159 153 94
155 149 88
161 155 91
147 142 87
158 153 90
161 155 93
148 142 84
146 142 79
145 139 82
154 148 80
145 139 81
145 139 82
155 148 85
146 140 76
149 143 80
146 141 75
147 143 75
131 133 60
150 158 56
155 167 44
162 178 39
170 189 30
172 195 11
172 196 0
173 195 0
173 195 0
174 197 0
175 198 0
175 198 0
173 197 0
173 196 0
173 197 0
173 197 0
172 196 0
173 197 0
173 197 0
172 195 0
174 197 0
174 197 0
173 197 0
171 196 0
174 197 0
172 196 0
172 196 0
172 196 0
173 196 0
174 197 0
174 198 0
172 196 0
173 197 0
175 198 0
172 195 0
174 198 0
174 196 0
174 198 0
175 198 0
173 196 0
175 198 0
174 196 0
174 197 0
171 195 0
174 197 0
172 196 0
174 197 0
174 198 0
172 196 0
172 196 0
173 196 0
173 197 0
174 197 0
172 196 0
174 198 0
172 195 0
172 195 0
176 198 0
171 194 0
174 197 0
172 195 0
174 197 0
174 197 0
173 196 0
173 196 0
173 197 0
173 197 0
175 197 0
170 194 0
174 197 0
172 196 0
173 197 0
173 197 0
174 197 0
173 197 0
172 195 0
172 196 0
170 195 0
172 196 0
170 194 0
170 192 0
173 197 0
174 197 0
172 195 0
172 195 0
173 197 0
171 195 0
173 196 0
174 196 0
171 195 0
172 195 0
169 191 0
174 198 0
174 197 0
173 196 0
172 194 0
172 196 0
172 195 0
173 196 0
170 193 0
173 195 0
172 196 0
172 195 0
173 197 0
172 194 0
173 196 0
173 197 0
171 195 0
173 196 0
173 196 0
173 196 0
173 197 0
173 197 0
172 195 0
173 197 0
173 197 0
171 194 0
173 197 0
172 195 0
171 195 0
171 195 0
172 196 0
172 195 0
173 196 0
170 193 0
171 194 0
173 196 0
174 197 0
171 194 0
172 196 0
171 194 0
172 195 0
169 193 0
172 195 0
173 197 0
167 190 31
165 188 54
149 172 88
112 139 141
79 111 166
62 99 176
61 99 178
61 98 173
62 99 178
62 99 181
61 98 178
62 99 180
61 99 180
62 99 180
62 99 181
61 99 181
62 99 181
62 99 181
62 99 181
61 99 181
62 99 180
62 99 181
62 99 181
62 99 181
62 99 181
62 99 181
62 99 181
61 99 181
62 99 181
62 99 181
61 98 181
62 99 181
61 98 180
62 99 181
62 99 181
61 99 181
62 99 181
62 99 181
61 99 181
61 98 181
61 98 181
61 99 181
61 98 181
61 99 181
62 99 181
61 99 181
61 99 181
61 99 181
61 99 181
62 99 181
61 99 181
61 98 181
61 98 181
62 99 181
61 98 181
61 99 181
62 99 181
62 99 181
61 99 181
61 98 180
62 99 181
61 99 181
61 99 181
62 99 181
61 98 181
62 99 181
62 99 181
62 99 181
62 99 181
61 99 181
62 99 181
61 98 180
62 99 181
61 99 181
61 99 181
61 99 181
61 98 180
61 98 179
61 98 178
61 98 179
62 98 178
61 98 176
62 99 179
62 98 178
62 99 179
61 97 178
62 98 177
62 98 178
61 98 173
60 97 176
62 98 177
61 97 173
61 97 173
74 107 169
102 129 146
132 157 114
169 191 47
172 194 0
172 194 0
172 194 0
171 193 0
172 194 0
171 195 0
169 191 0
171 194 0
170 193 0
174 196 0
167 190 0
170 194 0
171 194 0
172 195 11
167 186 25
165 180 39
157 168 47
145 156 41
143 150 49
139 143 57
143 143 71
137 135 67
142 138 77
125 121 65
140 135 75
140 135 76
141 137 78
136 132 77
126 123 70
128 125 76
143 138 87
129 125 76
140 138 87
150 145 90
141 137 86
139 136 88
143 140 92
145 142 89
148 144 94
146 143 95
139 136 89
141 139 89
144 141 94
153 150 100
142 140 93
131 131 88
150 147 98
147 144 95
148 145 98
151 148 98
146 145 97
154 151 101
149 146 96
148 146 99
154 151 101
158 156 105
154 152 101
158 155 103
151 150 102
152 151 102
152 150 101
159 156 105
151 149 101
157 155 105
158 155 104
161 159 107
162 159 105
163 160 108
161 158 106
168 164 109
166 162 109
163 161 106
167 163 109
163 161 108
164 160 106
159 157 105
163 161 108
162 160 107
167 164 109
170 166 110
163 161 109
167 164 110
166 162 108
170 167 110
170 166 111
170 166 110
167 164 108
173 169 111
171 168 112
170 167 111
172 168 110
168 166 110
172 168 111
174 170 113
172 168 110
172 168 111
172 168 110
173 169 111
173 169 113
171 167 110
174 171 113
172 169 112
171 167 109
173 169 111
172 168 111
172 168 110
174 170 110
172 169 111
171 167 110
177 172 113
174 170 112
172 168 109
172 169 109
173 167 108
169 165 108
177 171 110
169 165 107
172 168 111
171 167 108
170 166 108
168 164 107
171 166 108
163 160 101
171 167 107
169 165 106
169 164 106
167 163 103
168 164 107
168 163 107
160 157 101
167 161 103
172 167 106
169 164 107
169 164 103
174 168 106
173 167 106
168 162 103
161 157 99
165 159 101
165 160 102
170 164 103
163 157 97
167 162 101
167 161 100
162 157 98
161 155 98
162 156 97
158 154 93
167 162 99
163 157 95
160 154 97
157 151 90
165 160 97
160 154 89
165 159 92
155 149 90
159 152 93
149 143 85
160 154 92
158 151 87
151 146 84
148 141 80
147 142 78
146 139 77
150 143 78
139 134 71
142 136 75
146 141 71
139 137 63
142 149 54
159 172 47
165 181 34
168 188 28
172 192 22
171 194 0
172 195 0
174 198 0
171 195 0
175 198 0
174 197 0
174 197 0
174 197 0
174 198 0
172 196 0
173 197 0
174 197 0
172 195 0
174 198 0
176 198 0
172 196 0
173 197 0
173 197 0
172 197 0
173 197 0
174 197 0
174 197 0
172 196 0
173 196 0
176 198 0
172 196 0
175 198 0
172 195 0
173 196 0
174 198 0
173 196 0
174 197 0
173 197 0
176 198 0
174 197 0
174 197 0
172 196 0
173 197 0
174 197 0
174 198 0
172 195 0
170 194 0
173 197 0
173 197 0
174 197 0
174 197 0
173 196 0
173 197 0
168 192 0
173 197 0
174 197 0
172 196 0
171 194 0
171 194 0
172 195 0
174 197 0
172 196 0
174 197 0
174 197 0
174 197 0
173 197 0
174 197 0
172 195 0
174 196 0
174 197 0
173 197 0
173 196 0
171 195 0
171 195 0
173 196 0
171 195 0
172 196 0
174 197 0
175 198 0
175 198 0
174 198 0
172 196 0
173 197 0
169 192 0
174 196 0
171 195 0
173 197 0
174 197 0
173 196 0
172 196 0
173 196 0
170 194 0
173 196 0
172 196 0
171 195 0
172 196 0
172 196 0
174 197 0
173 197 0
172 194 0
172 195 0
173 197 0
172 195 0
174 197 0
172 195 0
173 197 0
172 195 0
173 196 0
170 194 0
173 196 0
173 196 0
170 193 0
173 197 0
171 195 0
170 193 0
172 195 0
173 197 0
172 196 0
172 196 0
172 196 0
173 196 0
171 195 0
172 196 0
173 195 0
173 196 0
175 198 0
173 196 0
175 197 0
170 194 0
170 193 0
171 194 0
169 193 0
171 195 25
167 190 44
160 183 72
118 145 142
82 114 167
64 101 178
62 99 178
62 99 177
62 99 178
61 99 179
62 99 180
62 99 180
62 99 179
62 99 181
62 99 181
62 99 180
62 99 179
62 99 180
62 99 180
62 99 181
62 99 181
62 99 181
62 99 181
62 99 181
62 99 181
62 99 181
61 99 181
61 98 181
61 99 181
61 98 181
62 99 181
62 99 181
61 99 181
61 98 181
61 98 181
61 98 181
61 99 181
61 99 181
61 99 181
62 99 181
61 98 181
61 99 181
62 99 181
61 99 181
61 98 181
62 99 181
62 99 181
61 98 181
60 98 181
61 99 181
61 99 181
61 99 181
61 99 181
62 99 181
61 98 181
62 99 181
62 99 181
61 98 181
61 99 181
61 99 181
61 99 181
62 99 181
62 99 181
61 98 181
62 99 180
61 98 181
62 99 181
62 99 181
62 99 181
61 99 181
61 99 181
61 99 181
62 99 181
61 98 178
62 99 180
62 99 179
62 99 180
62 99 180
62 99 181
63 99 180
62 99 178
61 98 178
60 97 174
61 98 179
61 98 179
61 98 178
62 99 180
62 98 176
61 97 176
61 98 179
62 99 178
62 98 177
61 97 176
61 98 178
62 98 176
61 98 178
62 98 174
81 112 163
119 145 135
155 176 75
172 195 18
170 194 0
173 195 0
173 195 0
172 194 0
170 192 0
170 192 0
171 193 0
173 196 0
169 192 0
170 194 0
174 196 0
168 191 11
164 183 16
158 172 36
149 161 39
150 161 44
147 150 62
139 141 62
142 141 62
140 137 70
143 138 77
138 132 77
135 130 75
137 133 77
136 131 75
136 133 80
141 137 85
143 139 85
134 131 83
128 126 80
150 145 90
137 134 85
130 128 82
141 138 90
130 128 82
146 143 88
134 132 88
144 142 94
144 141 95
144 141 91
136 133 86
144 142 96
133 132 89
142 140 92
151 149 96
147 145 98
151 148 98
145 142 97
145 143 96
147 144 97
141 140 94
153 149 100
157 153 103
147 146 100
151 148 100
160 158 106
149 148 101
152 149 101
150 148 100
153 151 103
155 153 103
157 154 104
161 158 105
159 156 105
159 156 105
162 160 108
163 160 108
157 155 105
164 161 108
168 164 110
167 163 108
153 152 102
167 165 111
164 161 107
164 161 106
164 162 108
173 169 112
163 161 108
168 165 110
167 165 111
170 167 111
168 165 109
173 169 110
169 166 111
172 169 112
171 167 110
170 166 109
174 170 111
172 168 111
170 165 109
169 166 110
169 164 108
175 171 112
174 171 112
172 169 112
173 168 110
169 165 108
169 165 108
173 169 112
172 169 110
173 169 110
174 170 111
172 169 110
174 170 110
170 166 109
175 170 111
172 169 111
171 167 109
171 167 109
174 169 110
173 169 111
174 169 110
170 166 107
170 166 108
169 165 108
173 168 109
171 167 110
172 168 109
171 166 106
169 164 104
172 168 109
170 166 107
171 166 106
172 168 112
174 169 109
170 166 108
170 165 104
170 165 106
168 164 103
167 162 101
170 165 106
169 165 106
164 160 98
168 163 104
164 159 103
166 162 102
168 163 104
169 163 101
174 168 104
169 163 101
170 164 104
162 157 95
161 156 95
161 155 95
166 159 101
167 161 101
153 148 90
157 153 91
157 151 90
157 152 95
159 154 90
161 154 93
153 147 87
149 144 84
158 152 90
159 153 90
153 147 81
149 144 80
153 146 90
151 145 87
148 142 80
153 146 83
148 142 81
143 137 77
131 126 64
147 140 79
140 137 66
150 155 57
154 162 52
163 178 39
166 184 30
169 189 16
171 193 11
173 196 0
175 197 0
172 196 0
173 197 0
170 194 0
173 197 0
173 196 0
174 196 0
173 196 0
172 195 0
172 195 0
174 197 0
173 196 0
173 196 0
173 196 0
173 197 0
173 197 0
173 197 0
175 197 0
172 195 0
172 194 0
174 197 0
171 195 0
173 197 0
173 197 0
172 196 0
174 197 0
172 195 0
173 196 0
174 197 0
171 195 0
173 197 0
174 198 0
174 197 0
173 196 0
172 196 0
173 196 0
174 197 0
175 197 0
172 195 0
174 197 0
172 196 0
171 194 0
176 198 0
172 196 0
173 197 0
172 196 0
173 197 0
171 194 0
173 197 0
172 195 0
175 198 0
173 196 0
173 197 0
175 197 0
171 194 0
175 198 0
170 194 0
172 194 0
172 195 0
172 195 0
174 197 0
172 196 0
169 193 0
172 196 0
175 197 0
171 196 0
171 194 0
171 195 0
172 195 0
172 195 0
174 197 0
174 197 0
173 197 0
171 194 0
172 195 0
171 195 0
172 195 0
172 196 0
171 195 0
171 196 0
173 197 0
173 196 0
172 196 0
171 195 0
171 194 0
171 195 0
171 195 0
173 196 0
173 197 0
171 195 0
173 196 0
171 194 0
171 194 0
173 196 0
173 196 0
171 194 0
170 193 0
172 195 0
173 197 0
173 197 0
174 198 0
171 195 0
175 198 0
172 196 0
171 194 0
172 195 0
174 197 0
174 197 0
173 196 0
174 197 0
172 194 0
172 196 0
171 194 0
172 195 0
173 197 0
174 197 0
170 193 0
173 196 0
173 197 0
171 195 0
172 196 0
175 198 0
170 194 0
172 195 0
169 193 36
165 188 47
135 160 120
105 133 151
68 104 175
61 98 176
62 99 178
63 99 177
61 98 175
62 98 177
62 99 180
62 99 178
62 99 179
62 99 180
62 99 181
62 99 181
62 99 181
61 99 181
61 99 181
62 99 181
61 98 181
62 99 181
61 98 181
62 99 180
62 99 181
61 99 181
62 99 181
61 99 181
62 99 181
61 99 181
61 99 181
62 99 181
61 99 181
61 98 181
62 99 181
61 99 181
61 99 181
61 99 181
61 99 181
61 99 181
62 99 181
61 99 181
61 99 181
61 99 181
61 98 181
61 99 181
61 99 181
61 98 181
62 99 181
61 99 181
61 98 180
61 98 180
62 99 181
61 99 181
61 99 181
61 98 181
61 99 181
61 99 181
61 99 181
62 99 181
61 98 181
62 99 181
62 99 181
62 99 181
61 99 181
62 99 181
61 99 181
61 98 180
61 98 180
61 99 180
61 99 181
61 99 181
62 99 181
61 98 180
61 98 177
62 99 181
61 99 181
62 99 181
62 99 179
62 99 181
62 99 179
61 99 180
62 99 180
62 99 179
61 98 177
61 98 176
62 99 179
61 98 178
62 99 178
62 99 178
62 99 181
61 98 176
61 98 177
62 98 177
61 97 175
61 97 175
62 98 176
62 98 176
62 98 176
61 97 173
93 122 157
134 159 114
161 184 65
172 195 0
171 194 0
171 194 0
167 191 0
173 195 0
171 194 0
171 194 0
172 196 0
172 195 0
166 188 11
169 190 22
164 181 19
157 171 41
153 167 37
146 154 48
144 149 56
130 133 51
129 129 60
144 139 77
134 129 67
132 128 75
145 141 77
139 134 77
134 130 77
139 134 76
129 127 81
130 127 75
134 130 79
145 141 88
136 133 86
134 131 82
142 138 90
127 125 85
148 144 94
145 142 91
137 136 89
132 132 88
149 145 94
146 143 95
146 143 95
131 128 87
136 134 87
153 149 100
146 143 95
142 140 94
149 146 98
155 150 100
138 136 93
137 137 94
147 145 100
139 139 95
155 152 102
147 145 97
148 147 100
153 151 103
154 153 104
156 154 102
147 146 100
160 157 104
154 152 102
157 155 104
162 159 107
159 157 106
162 159 106
155 153 105
163 161 108
160 158 105
159 156 105
160 157 106
169 165 109
168 165 110
167 163 108
165 162 107
167 164 107
164 161 107
164 162 109
162 159 105
173 169 111
169 165 110
168 165 110
172 168 111
174 170 112
174 169 112
168 164 109
173 169 112
170 167 110
171 167 109
169 166 109
169 166 108
173 169 111
173 169 112
169 167 110
175 171 109
174 169 112
171 168 110
173 169 112
170 166 108
173 169 110
170 166 109
171 168 112
174 170 110
175 171 111
173 168 110
175 171 113
173 169 111
175 170 112
173 168 108
173 168 110
173 169 111
171 168 110
176 171 112
173 169 112
172 167 109
171 166 108
176 170 110
172 168 108
172 167 109
174 170 110
168 163 104
171 167 106
168 163 104
166 161 103
170 165 107
169 165 108
172 166 107
172 167 108
170 165 105
165 160 103
166 161 102
170 165 104
173 167 106
169 164 106
169 163 102
167 162 103
168 162 100
166 161 97
165 159 98
171 164 103
161 156 95
162 156 97
159 154 95
168 162 101
166 161 100
170 164 101
171 166 102
160 154 93
160 154 95
150 144 85
162 156 97
156 150 88
163 157 95
160 154 93
158 152 88
157 152 88
157 151 87
147 141 84
157 149 87
153 147 87
155 149 83
150 144 78
149 143 81
143 138 75
151 145 80
143 138 73
138 133 72
139 134 68
139 141 53
152 159 53
158 170 45
163 182 30
168 190 22
171 194 0
175 197 0
173 196 0
174 197 0
173 197 0
174 198 0
171 195 0
172 195 0
174 197 0
174 197 0
175 198 0
172 196 0
173 197 0
173 197 0
170 194 0
174 197 0
173 196 0
175 198 0
172 196 0
169 193 0
175 198 0
173 197 0
173 197 0
173 197 0
174 197 0
174 197 0
174 197 0
171 195 0
174 197 0
173 197 0
173 195 0
171 195 0
173 197 0
172 196 0
172 195 0
173 196 0
172 196 0
172 196 0
170 194 0
172 196 0
174 198 0
173 196 0
171 195 0
175 198 0
173 197 0
173 196 0
173 197 0
174 197 0
175 198 0
174 197 0
173 197 0
174 197 0
171 195 0
172 196 0
171 195 0
173 196 0
172 194 0
172 196 0
170 193 0
172 195 0
173 196 0
170 193 0
171 195 0
173 196 0
173 196 0
170 193 0
173 197 0
171 194 0
170 194 0
172 196 0
174 197 0
171 195 0
174 197 0
172 195 0
173 196 0
171 195 0
174 196 0
173 197 0
172 195 0
172 195 0
174 197 0
173 196 0
173 197 0
173 196 0
175 198 0
174 197 0
173 196 0
171 194 0
171 194 0
174 196 0
170 194 0
173 196 0
174 197 0
172 195 0
172 196 0
171 195 0
170 193 0
170 194 0
175 198 0
173 196 0
171 194 0
168 192 0
171 195 0
170 194 0
171 195 0
170 194 0
171 195 0
171 194 0
174 197 0
174 197 0
172 195 0
171 195 0
173 196 0
171 194 0
170 193 0
171 194 0
173 197 0
173 196 0
173 196 0
171 195 0
171 193 0
170 194 0
173 197 0
171 195 0
172 196 0
167 191 25
156 180 80
124 150 134
93 123 162
66 101 174
62 99 178
62 99 178
62 99 179
62 99 178
62 99 180
62 99 179
62 99 180
62 99 180
62 99 181
62 99 180
62 99 179
62 99 180
62 99 180
61 99 179
62 99 179
62 99 181
62 99 180
62 99 181
62 99 181
61 99 181
62 99 181
62 99 181
62 99 181
61 99 181
62 99 181
61 99 181
61 99 181
62 99 181
61 98 181
61 99 181
61 99 181
62 99 181
61 99 181
62 99 181
61 98 181
61 98 181
61 99 181
61 99 181
61 98 181
61 99 181
61 99 181
61 99 181
61 99 181
61 99 181
61 99 181
62 99 181
62 99 181
61 98 181
62 99 181
61 99 181
62 99 181
61 98 181
62 99 181
61 98 181
61 98 181
62 99 181
61 98 181
61 99 181
61 99 181
61 99 180
61 99 181
62 99 181
61 99 181
61 99 181
62 99 181
62 99 180
61 99 181
62 99 180
62 99 181
61 99 181
61 99 180
61 99 181
62 99 180
62 99 180
61 98 178
61 98 179
61 98 177
62 99 181
61 98 177
62 99 180
61 98 180
62 99 180
62 99 181
62 99 179
61 98 176
61 98 178
61 98 176
61 98 177
62 98 177
62 98 176
61 98 179
62 99 180
62 98 175
61 98 178
61 98 177
61 97 171
61 97 173
74 106 166
111 137 144
155 179 72
170 193 0
171 195 0
172 195 0
173 196 0
172 194 0
173 195 0
173 195 0
171 193 0
168 191 0
167 187 25
165 184 25
156 168 41
142 151 47
140 149 42
150 153 65
130 131 58
130 130 59
133 129 71
130 125 70
131 126 73
142 137 83
143 138 77
133 129 76
139 135 82
138 133 82
128 124 75
133 130 84
136 134 86
121 119 76
129 127 77
134 132 82
148 145 90
136 132 85
135 133 89
147 143 94
142 140 92
141 138 90
142 140 91
137 135 92
136 134 89
148 145 98
143 141 93
140 138 94
137 135 92
147 145 96
147 143 96
151 148 99
137 137 95
151 148 99
147 146 99
148 146 100
155 152 102
148 146 97
159 156 105
152 150 100
154 151 101
151 150 102
158 155 105
152 150 103
156 154 104
156 154 104
161 158 106
154 151 102
157 155 103
156 154 104
157 155 104
162 160 107
161 158 107
162 159 106
160 158 105
163 161 108
169 166 111
163 161 108
168 164 109
172 168 112
165 162 109
166 163 109
162 159 106
170 166 109
170 166 109
167 164 109
167 164 110
166 163 108
170 167 111
172 168 110
173 169 112
171 168 111
172 169 112
170 167 110
170 167 110
172 168 111
172 169 110
171 167 109
176 171 112
173 169 111
172 168 111
169 165 106
175 170 111
173 170 112
173 169 108
177 172 112
175 171 111
174 170 109
174 169 110
175 171 111
173 169 109
174 169 111
175 170 111
173 169 109
172 168 109
177 171 112
172 167 106
170 165 106
168 163 105
170 166 107
173 168 108
171 166 108
172 167 106
173 168 109
168 162 104
166 163 103
164 160 104
166 162 104
172 167 107
173 167 108
170 164 105
171 166 106
168 163 104
170 165 102
170 164 104
166 162 101
172 166 101
166 161 103
169 163 102
170 165 102
167 162 103
165 160 97
170 165 100
164 158 99
160 154 94
163 157 95
167 161 101
168 163 101
166 160 96
166 160 99
162 156 90
164 158 95
161 155 93
160 155 93
162 156 96
160 154 91
159 153 94
147 141 84
155 150 86
149 144 80
143 139 81
151 146 82
147 142 80
152 146 84
142 137 78
145 139 76
151 144 84
145 139 77
140 134 69
153 147 79
150 149 60
150 159 52
157 167 48
158 171 47
167 186 25
172 194 11
172 195 0
171 194 0
174 197 0
174 198 0
172 196 0
174 197 0
175 198 0
173 196 0
173 197 0
169 193 0
170 194 0
174 197 0
173 196 0
171 195 0
173 195 0
173 197 0
173 196 0
170 193 0
173 197 0
174 197 0
175 197 0
173 197 0
174 197 0
174 197 0
174 197 0
171 196 0
173 197 0
174 197 0
173 197 0
174 197 0
175 197 0
174 197 0
174 197 0
173 196 0
173 196 0
170 193 0
174 197 0
175 198 0
172 195 0
170 193 0
174 197 0
173 197 0
174 197 0
175 197 0
173 197 0
175 198 0
171 195 0
171 194 0
172 196 0
174 198 0
173 196 0
175 198 0
173 196 0
173 197 0
171 195 0
174 197 0
172 195 0
173 196 0
173 196 0
174 197 0
173 197 0
173 197 0
172 196 0
175 197 0
173 197 0
171 195 0
173 196 0
173 196 0
174 198 0
171 194 0
175 198 0
171 195 0
175 198 0
170 193 0
174 197 0
172 195 0
173 197 0
174 197 0
170 194 0
173 196 0
174 198 0
173 197 0
172 196 0
172 195 0
172 195 0
172 196 0
173 196 0
171 194 0
173 196 0
171 194 0
173 197 0
171 195 0
173 197 0
172 195 0
171 193 0
175 198 0
170 194 0
172 196 0
174 196 0
171 194 0
172 196 0
171 194 0
173 196 0
174 197 0
172 195 0
171 195 0
171 194 0
171 194 0
174 197 0
172 195 0
169 192 0
173 196 0
170 194 0
173 196 0
171 194 0
172 197 0
170 194 0
171 194 0
172 195 0
172 195 0
174 198 0
172 194 0
169 192 18
163 187 60
137 162 117
107 135 147
77 110 170
62 99 179
62 99 176
62 99 179
62 99 177
62 99 178
62 99 180
62 99 180
62 99 178
62 99 181
61 99 180
62 99 179
62 99 180
62 99 181
62 99 180
62 99 181
62 99 181
62 99 181
61 99 179
61 99 181
61 99 180
61 98 180
62 99 181
62 99 181
61 99 181
61 99 181
61 99 181
61 99 181
62 99 180
61 99 181
61 98 181
61 98 181
62 99 181
62 99 181
61 99 181
62 99 181
61 99 181
62 99 180
62 99 181
62 99 181
61 98 181
61 98 181
61 99 181
61 99 181
61 98 181
61 98 181
61 99 181
62 99 181
61 99 181
61 98 181
61 98 181
61 98 181
61 99 181
61 98 181
61 98 180
61 98 181
61 99 181
61 98 181
61 99 181
62 99 181
61 99 181
62 99 181
61 99 181
61 99 181
62 99 181
62 99 181
61 99 181
61 99 181
62 99 181
62 99 180
62 99 181
62 99 181
62 99 181
62 99 181
62 99 181
61 98 178
62 99 180
61 98 179
62 99 181
62 99 179
63 100 181
62 99 178
61 98 178
62 99 181
61 98 178
61 98 179
60 97 174
62 98 178
61 97 176
61 98 178
62 99 181
62 99 178
62 99 179
61 98 175
61 99 180
61 98 177
61 98 178
61 97 175
61 97 173
60 96 169
60 96 170
63 98 174
98 124 153
129 154 119
168 191 47
169 191 0
173 195 0
171 193 0
171 193 0
169 192 0
169 192 0
175 197 11
157 176 11
161 180 19
152 165 30
151 160 43
146 150 56
143 147 58
141 141 62
141 137 69
133 129 70
140 136 77
137 132 72
134 131 74
139 133 79
130 126 71
130 127 77
136 133 80
129 127 80
139 134 82
133 130 79
127 125 79
136 133 84
131 130 86
138 134 87
139 136 89
144 140 90
135 134 88
134 132 86
141 139 91
144 141 93
139 136 90
136 134 88
134 132 87
142 140 95
148 145 97
136 136 93
134 133 92
150 148 100
138 137 96
153 149 100
150 149 99
139 139 96
150 149 101
146 145 99
151 149 101
144 143 98
153 151 102
157 155 104
151 149 100
144 143 98
156 154 104
152 150 101
163 161 107
151 149 100
165 162 108
161 157 105
161 158 107
161 158 106
159 157 105
155 153 104
163 160 108
163 160 107
165 163 109
167 164 109
164 162 109
165 163 109
165 162 108
169 165 109
162 159 107
168 165 109
167 163 108
169 165 109
171 167 109
169 165 108
173 168 109
170 166 110
171 167 110
170 166 110
170 167 111
169 165 109
172 168 110
173 168 110
174 169 110
170 166 109
169 166 109
168 164 108
172 169 110
174 170 111
172 167 109
171 168 110
175 170 108
173 169 110
173 168 110
176 171 111
176 171 112
171 166 108
175 170 110
175 170 109
171 168 106
176 171 112
171 167 108
174 169 110
176 169 111
171 167 109
172 168 110
172 168 108
176 171 108
172 168 108
169 165 109
170 166 108
173 168 106
168 164 106
169 165 105
173 168 109
174 169 109
169 164 105
170 166 108
172 166 106
177 171 109
170 165 104
170 166 108
171 165 106
166 161 99
170 164 98
168 162 99
165 161 101
167 161 99
169 164 101
166 159 100
161 157 98
165 159 98
158 152 93
164 159 99
164 158 97
159 154 94
161 156 96
161 156 94
166 160 96
162 157 97
167 160 95
165 159 94
156 151 90
157 152 90
157 151 90
155 149 87
153 148 83
159 153 91
154 148 87
150 144 81
152 146 87
146 142 79
154 148 87
149 143 82
149 142 83
144 139 71
135 130 67
132 127 67
143 143 67
147 151 59
145 156 37
160 177 30
172 189 30
165 185 16
172 195 0
174 197 0
173 197 0
172 196 0
174 197 0
174 196 0
173 196 0
174 197 0
173 196 0
175 198 0
173 197 0
171 195 0
171 195 0
173 197 0
173 196 0
172 195 0
173 197 0
174 197 0
172 195 0
174 197 0
173 196 0
172 196 0
172 196 0
175 198 0
173 197 0
173 196 0
174 198 0
174 198 0
171 193 0
172 195 0
173 196 0
174 197 0
172 196 0
174 197 0
172 196 0
172 196 0
173 196 0
175 198 0
174 198 0
173 197 0
174 197 0
172 195 0
172 195 0
170 193 0
172 196 0
172 196 0
173 197 0
170 194 0
172 196 0
174 197 0
174 197 0
172 195 0
171 195 0
175 198 0
173 197 0
171 195 0
172 195 0
173 196 0
174 198 0
174 197 0
169 193 0
172 194 0
171 194 0
174 197 0
172 195 0
174 197 0
170 193 0
175 198 0
172 195 0
172 196 0
173 196 0
171 195 0
175 198 0
171 195 0
172 195 0
173 197 0
169 192 0
172 195 0
174 197 0
171 195 0
173 196 0
173 196 0
171 195 0
171 195 0
172 196 0
171 195 0
172 196 0
175 198 0
172 195 0
172 196 0
171 195 0
172 195 0
172 196 0
175 198 0
170 194 0
171 194 0
174 197 0
171 195 0
172 194 0
172 194 0
171 195 0
172 195 0
173 196 0
171 195 0
172 195 0
172 194 0
172 195 0
173 196 0
171 194 0
171 194 0
174 197 0
170 193 0
171 194 0
175 198 0
167 191 0
167 191 0
174 197 0
171 194 0
172 194 0
171 195 0
170 193 0
168 192 36
159 183 62
117 144 137
86 117 163
62 99 177
62 99 178
62 99 178
63 100 180
62 99 178
62 99 178
62 99 176
63 100 181
62 99 181
61 99 179
62 99 181
62 99 178
61 99 181
61 99 179
62 99 180
62 99 179
62 99 181
62 99 180
62 99 181
62 99 180
62 99 181
62 99 181
62 99 181
62 99 181
62 99 181
62 99 181
62 99 181
62 99 181
62 99 181
61 99 181
62 99 181
61 99 181
61 99 181
61 98 180
62 99 181
62 99 181
61 99 181
61 99 181
61 99 181
61 99 181
62 99 181
62 99 181
61 98 180
62 99 181
61 98 181
62 99 181
61 99 181
61 99 181
61 99 181
61 99 181
61 98 181
62 99 181
61 99 181
62 99 181
62 99 181
62 99 181
61 99 181
61 99 181
61 99 181
61 99 181
62 99 181
61 99 181
61 99 181
62 99 181
62 99 181
61 99 181
63 100 181
61 99 181
62 99 181
62 99 181
62 99 180
61 99 180
61 98 181
62 99 181
62 99 180
61 99 181
61 98 178
62 99 180
61 98 178
62 99 181
62 99 179
61 99 180
61 98 180
61 98 177
62 99 181
61 99 181
62 98 177
62 99 179
62 99 180
61 97 176
61 98 176
61 98 178
61 97 175
62 99 178
62 98 178
62 99 179
62 99 178
61 98 177
62 99 178
62 98 176
62 99 179
60 96 172
61 97 171
60 95 168
70 103 168
122 147 131
154 176 67
168 192 0
168 191 0
172 195 0
171 194 0
170 194 0
167 189 11
157 174 30
158 173 34
157 171 36
144 150 55
148 154 56
144 145 64
147 146 71
136 133 68
134 129 75
134 129 75
141 136 75
126 122 76
145 140 83
135 132 84
129 125 75
134 131 79
142 138 83
134 131 84
122 120 78
142 139 88
133 131 86
130 128 82
144 142 90
142 139 90
143 139 91
143 139 86
135 134 89
134 132 87
129 127 86
140 139 94
132 129 88
137 135 91
141 140 96
138 136 93
144 141 95
144 142 97
150 148 100
152 149 100
147 145 98
147 145 99
148 147 100
147 145 98
153 150 101
150 148 100
157 155 104
151 149 100
157 155 104
153 151 102
148 147 99
149 147 100
152 150 101
158 155 104
159 157 105
161 158 104
161 159 107
155 152 102
158 155 105
162 158 106
165 162 107
164 161 108
158 155 105
163 161 108
163 160 106
167 164 109
165 162 105
170 166 109
166 162 108
167 164 109
168 165 109
166 163 108
175 170 112
169 166 110
168 164 109
170 166 107
171 166 108
168 165 109
172 167 109
171 167 108
174 169 111
173 168 109
172 168 110
169 165 107
169 166 107
172 168 110
172 169 112
175 171 113
177 171 112
174 169 112
172 168 110
174 169 108
174 169 110
175 171 113
171 167 108
172 168 108
175 170 110
172 168 110
171 167 108
174 169 109
170 167 106
170 166 110
175 171 111
174 170 111
172 168 109
174 170 109
169 166 106
172 168 106
174 169 108
172 168 108
173 168 107
170 166 104
172 167 106
168 164 105
170 166 108
173 168 108
169 163 104
168 164 104
164 160 100
172 167 106
170 165 104
169 164 104
170 165 104
160 156 97
172 165 101
165 159 101
168 162 104
161 157 98
168 163 97
165 161 99
161 157 97
160 154 97
164 160 98
163 157 99
168 163 99
168 162 99
160 154 95
169 162 97
159 154 92
159 153 90
159 153 95
158 153 90
149 144 82
160 155 95
170 163 99
167 160 97
157 151 87
153 148 82
156 149 84
152 147 80
152 145 86
156 148 90
152 146 81
148 142 80
151 144 78
140 133 74
141 134 75
142 136 74
133 132 62
144 147 53
153 163 44
149 162 41
164 182 30
166 188 19
175 197 0
171 195 0
173 196 0
172 197 0
173 197 0
174 197 0
173 197 0
174 197 0
173 197 0
174 197 0
174 198 0
173 196 0
174 197 0
174 197 0
172 196 0
174 196 0
173 197 0
172 195 0
174 198 0
172 195 0
171 195 0
175 198 0
173 197 0
170 194 0
174 198 0
173 197 0
172 196 0
172 195 0
174 197 0
175 198 0
171 194 0
174 197 0
173 197 0
174 197 0
174 197 0
171 195 0
173 197 0
174 198 0
172 195 0
173 197 0
173 197 0
171 195 0
173 196 0
170 194 0
174 196 0
172 195 0
173 197 0
173 197 0
171 195 0
172 196 0
171 195 0
174 197 0
174 197 0
171 194 0
172 195 0
171 195 0
172 195 0
173 197 0
173 196 0
172 195 0
170 194 0
175 197 0
173 197 0
173 196 0
174 197 0
172 195 0
171 195 0
173 197 0
173 196 0
173 196 0
172 195 0
170 194 0
173 197 0
175 197 0
175 197 0
172 195 0
173 196 0
171 194 0
173 196 0
173 196 0
171 195 0
172 196 0
172 195 0
173 197 0
172 196 0
172 195 0
172 196 0
172 196 0
171 194 0
173 196 0
171 194 0
173 196 0
172 196 0
171 195 0
171 194 0
172 196 0
173 197 0
170 194 0
169 192 0
173 197 0
175 197 0
170 193 0
172 196 0
173 197 0
171 195 0
172 195 0
171 194 0
172 195 0
173 196 0
172 195 0
172 195 0
172 196 0
171 195 0
171 194 0
169 193 0
172 195 0
171 194 0
172 195 0
172 195 0
172 196 18
172 195 31
153 177 80
120 146 133
78 110 168
62 99 177
62 99 178
62 99 181
62 99 180
62 99 178
61 98 176
62 99 180
62 99 179
62 99 179
62 99 180
62 99 179
63 100 180
62 99 180
62 99 180
61 99 179
62 99 181
62 99 181
62 99 180
61 98 181
61 99 181
62 99 180
62 99 181
62 99 180
61 99 181
61 98 181
61 99 181
61 99 181
61 99 181
61 99 181
61 99 181
61 98 181
62 99 181
61 98 181
62 99 181
61 99 181
61 98 181
61 98 181
62 99 181
61 99 181
61 99 181
61 98 181
62 99 181
61 99 181
61 99 181
61 99 181
61 99 181
61 99 181
61 98 181
62 99 181
62 99 181
61 98 181
61 98 181
61 98 181
62 99 181
61 99 181
61 99 181
62 99 181
62 99 181
61 99 181
62 99 181
61 99 181
62 99 181
61 99 181
61 99 181
62 99 181
61 99 181
62 99 180
62 99 181
62 99 181
61 99 181
61 99 181
61 98 180
61 99 181
62 99 180
62 99 181
61 98 180
61 98 178
61 98 178
61 99 181
61 99 180
62 99 180
62 99 181
62 99 179
61 98 180
61 99 179
62 99 177
62 99 180
61 99 179
62 99 180
62 98 178
62 99 177
62 99 180
62 98 177
61 98 177
62 99 178
62 99 177
62 98 177
61 98 177
62 98 178
61 97 173
62 99 176
61 97 174
61 97 172
61 98 177
61 98 176
61 97 174
65 99 169
93 120 150
139 163 109
168 191 0
171 193 0
170 192 0
166 187 0
164 183 28
160 174 37
149 163 32
139 152 25
146 154 49
141 146 53
146 144 67
144 143 70
131 128 69
135 131 68
136 131 71
138 133 72
133 129 72
126 123 74
131 127 77
130 127 80
135 133 81
134 131 79
132 129 77
126 125 82
131 128 83
128 126 81
139 137 89
130 128 85
135 132 86
126 125 84
130 129 88
127 125 84
136 135 92
136 135 91
143 141 93
134 131 89
138 136 92
141 140 94
134 132 89
150 148 100
147 145 99
144 142 95
151 149 98
142 140 95
135 134 91
144 142 97
145 143 96
148 146 98
150 147 98
141 141 97
154 151 102
151 149 101
155 153 103
149 147 101
152 150 102
160 157 104
154 153 104
163 160 108
160 157 105
162 159 105
154 153 102
155 153 104
165 162 108
168 165 108
156 154 104
162 160 106
164 161 108
167 164 108
163 160 107
163 160 107
162 158 105
170 167 111
163 160 106
167 163 107
162 160 107
171 167 110
170 167 109
170 166 111
169 166 108
171 168 111
169 166 108
173 169 112
173 169 111
171 168 110
169 165 109
172 168 110
172 168 109
174 170 112
172 168 110
174 169 110
175 171 111
174 170 111
174 170 111
172 168 110
176 171 112
173 169 107
173 168 110
177 171 109
174 169 108
175 170 109
173 169 109
172 168 110
175 171 110
175 170 110
174 169 109
170 166 106
175 170 108
172 168 110
176 170 110
172 167 108
174 169 109
174 169 108
173 168 110
171 166 108
170 165 104
171 166 108
169 165 104
173 169 108
172 167 106
172 167 106
172 167 110
172 166 100
170 164 103
168 164 106
169 164 103
171 166 103
169 162 103
163 159 97
168 164 100
164 159 97
166 160 97
167 162 101
159 154 96
167 162 99
168 163 99
162 157 93
163 157 97
172 166 100
162 156 93
165 158 97
168 161 99
166 160 98
162 156 93
163 157 93
156 150 84
158 152 88
152 146 85
152 146 81
162 155 94
160 153 86
163 157 92
156 151 89
156 149 84
148 142 80
159 152 81
155 148 88
147 140 77
152 145 83
134 129 75
143 137 71
139 134 72
129 125 63
141 146 58
150 159 49
160 174 42
161 177 32
164 184 22
173 196 11
172 195 0
176 198 0
173 197 0
171 195 0
170 194 0
174 197 0
173 196 0
174 197 0
170 194 0
174 197 0
174 198 0
171 196 0
172 195 0
173 196 0
175 198 0
172 196 0
173 197 0
173 195 0
173 196 0
175 198 0
174 197 0
172 196 0
175 197 0
175 198 0
171 195 0
173 197 0
172 196 0
173 196 0
175 198 0
172 195 0
169 192 0
172 195 0
172 196 0
174 197 0
172 194 0
174 198 0
174 197 0
173 196 0
174 197 0
171 194 0
174 197 0
171 195 0
173 197 0
174 197 0
174 197 0
173 196 0
172 196 0
173 197 0
173 196 0
172 196 0
172 196 0
173 196 0
173 197 0
173 197 0
173 196 0
172 195 0
172 195 0
170 194 0
174 197 0
172 195 0
173 195 0
173 196 0
175 198 0
169 193 0
172 196 0
172 195 0
171 194 0
172 196 0
171 194 0
173 196 0
174 197 0
170 194 0
172 196 0
172 195 0
172 196 0
175 198 0
173 196 0
169 193 0
173 197 0
171 195 0
172 196 0
173 196 0
173 197 0
175 197 0
173 196 0
171 195 0
170 195 0
172 196 0
172 196 0
171 195 0
171 195 0
173 195 0
171 195 0
171 194 0
174 197 0
172 195 0
170 193 0
174 197 0
172 196 0
172 196 0
172 196 0
175 198 0
172 196 0
172 195 0
170 193 0
170 194 0
174 197 0
173 196 0
173 196 0
173 196 0
171 195 0
172 196 0
171 194 0
172 196 0
172 196 0
173 196 0
171 194 0
175 198 0
165 188 57
150 174 90
101 130 152
76 109 166
62 99 179
63 100 178
62 99 179
62 99 178
62 99 176
62 99 177
62 99 176
63 100 181
62 99 178
62 99 180
61 98 179
62 99 179
62 99 181
62 99 181
62 99 181
62 99 181
62 99 180
62 99 181
61 99 181
62 99 180
61 99 181
62 99 181
61 99 181
61 99 180
62 99 181
62 99 181
62 99 181
62 99 181
61 98 180
62 99 181
61 99 180
62 99 181
62 99 181
61 99 181
62 99 181
62 99 181
61 99 181
61 99 181
61 99 181
62 99 181
61 99 181
61 98 179
61 99 181
61 99 180
61 98 181
61 98 181
62 99 181
62 99 181
61 99 181
61 99 181
61 99 181
62 99 181
61 98 181
61 99 181
61 99 181
62 99 181
62 99 181
62 99 181
62 99 181
62 99 181
62 99 181
61 99 181
61 99 181
61 99 181
61 98 181
61 99 181
62 99 181
61 99 181
62 99 181
61 98 181
62 99 181
61 99 181
61 99 181
61 98 180
61 98 179
62 99 181
61 99 181
61 98 180
61 99 180
61 98 180
62 99 180
61 99 178
62 99 179
62 99 180
62 99 178
61 98 180
61 99 180
62 99 179
62 99 179
62 99 179
61 99 180
61 98 177
61 98 179
62 99 179
61 98 176
62 99 178
62 98 176
61 97 175
62 99 178
62 99 177
60 97 176
62 98 174
61 98 176
61 97 172
62 98 173
61 97 173
62 98 174
61 97 173
59 95 167
93 120 144
125 151 123
163 186 54
173 195 0
165 186 0
168 189 19
168 187 30
152 165 36
147 158 43
144 153 51
141 146 58
140 140 58
136 136 64
134 130 72
135 131 69
124 120 65
136 131 78
139 134 78
135 130 75
132 129 72
131 127 77
135 132 80
134 131 80
143 139 86
127 125 77
125 124 83
135 132 85
135 133 85
121 120 79
123 122 82
137 134 89
136 135 90
140 138 90
135 133 89
130 129 86
135 134 89
134 132 90
130 130 89
129 129 88
134 132 91
150 147 98
138 137 94
141 140 95
154 152 102
143 142 95
147 144 97
139 138 95
144 143 99
142 141 97
149 147 98
147 146 100
152 149 101
150 147 98
159 155 103
155 152 102
155 152 102
157 154 102
154 152 103
145 144 99
158 155 103
148 146 99
164 161 107
163 160 107
161 158 104
160 157 106
161 159 106
164 161 107
166 162 107
163 160 106
167 164 109
171 167 110
165 162 108
171 167 109
168 164 107
169 165 107
170 166 110
168 166 109
169 165 109
170 167 110
172 168 108
167 164 108
170 167 108
171 167 110
172 168 110
174 170 111
172 168 110
174 169 111
171 167 110
174 170 112
172 168 108
173 169 110
174 170 110
173 169 109
171 167 110
177 171 112
174 168 107
174 170 110
173 168 108
174 170 110
175 171 110
176 170 109
174 169 108
173 169 108
172 167 107
176 171 112
171 166 104
170 166 108
171 168 108
174 169 109
172 168 108
177 171 106
174 170 109
174 169 108
171 166 105
174 168 108
171 165 104
173 168 108
171 167 106
174 169 108
167 163 103
172 166 104
169 164 104
171 167 107
166 162 103
169 165 103
172 166 103
170 164 103
170 163 99
171 165 103
170 166 106
166 161 97
165 160 99
161 156 96
169 163 102
161 155 95
167 162 101
165 160 97
167 161 96
160 154 96
165 160 98
160 155 95
170 164 100
166 160 99
159 153 91
164 158 97
156 150 86
154 149 86
161 155 90
159 153 90
158 152 87
153 146 86
159 153 87
159 153 87
151 145 79
151 145 83
151 145 82
148 143 82
145 139 80
141 136 69
139 133 75
149 142 77
144 139 75
136 131 68
142 143 56
150 153 57
159 171 45
163 180 37
167 187 16
169 190 11
171 194 0
175 198 0
174 197 0
173 197 0
174 197 0
173 196 0
173 197 0
174 197 0
170 194 0
174 197 0
174 198 0
173 197 0
173 197 0
173 197 0
174 198 0
172 196 0
175 198 0
171 196 0
172 195 0
172 195 0
174 196 0
172 195 0
174 197 0
174 197 0
174 198 0
172 196 0
172 196 0
172 196 0
171 194 0
172 196 0
172 195 0
172 196 0
172 197 0
174 198 0
175 198 0
173 196 0
173 196 0
172 196 0
174 196 0
174 197 0
175 198 0
174 197 0
175 198 0
172 196 0
174 197 0
170 194 0
172 195 0
170 193 0
171 194 0
171 194 0
173 195 0
171 196 0
172 194 0
172 196 0
173 197 0
174 197 0
174 197 0
173 197 0
172 195 0
171 195 0
173 197 0
169 192 0
172 195 0
173 197 0
174 196 0
173 197 0
171 194 0
171 195 0
172 196 0
171 195 0
173 197 0
174 197 0
173 196 0
173 196 0
174 197 0
173 196 0
175 198 0
172 196 0
173 197 0
171 195 0
172 195 0
172 196 0
173 197 0
171 194 0
170 194 0
173 197 0
173 196 0
172 195 0
172 195 0
172 194 0
169 191 0
171 195 0
171 195 0
172 196 0
172 196 0
176 199 0
172 195 0
172 195 0
171 195 0
171 194 0
171 193 0
172 196 0
173 197 0
173 196 0
172 194 0
171 195 0
172 196 0
173 197 0
175 197 0
174 197 0
171 194 0
170 192 0
170 193 0
170 193 0
173 197 0
169 193 0
172 195 0
151 175 86
144 168 102
88 118 155
70 104 171
63 100 179
62 99 174
61 98 174
62 99 178
62 99 178
61 99 178
62 99 180
62 99 178
62 99 178
63 100 181
62 99 180
62 99 180
61 99 179
61 99 180
61 99 181
62 99 181
62 99 181
61 99 180
62 99 181
61 99 181
62 99 181
62 99 181
62 99 181
62 99 181
62 99 180
62 99 180
61 99 181
62 99 181
61 99 181
62 99 181
61 99 181
61 99 181
61 99 180
61 99 181
61 98 181
62 99 181
62 99 181
62 99 181
62 99 181
61 98 181
62 99 181
61 99 181
61 99 181
62 99 181
62 99 181
61 99 181
62 99 181
61 98 181
62 99 181
61 99 181
62 99 181
61 99 181
61 98 181
61 99 181
62 99 181
61 98 181
62 99 181
61 99 181
62 99 181
62 99 181
62 99 181
62 99 181
62 99 181
62 99 181
62 99 181
61 98 180
62 99 181
61 99 181
62 99 181
62 99 181
61 99 180
61 99 180
61 99 181
61 98 180
61 98 181
62 99 181
63 100 181
61 98 180
62 99 180
62 99 180
62 99 178
61 98 180
62 99 181
62 99 180
61 98 178
62 99 180
62 99 179
61 98 178
61 98 176
61 99 179
62 98 178
62 99 180
61 98 174
62 99 179
62 99 179
62 98 177
61 98 177
61 98 177
62 99 177
62 99 177
61 98 174
61 98 178
62 98 177
61 98 176
62 98 177
60 96 170
62 98 175
62 98 174
62 97 173
61 97 172
61 97 170
80 111 163
127 151 115
159 181 63
168 190 11
164 182 11
156 175 25
147 161 32
155 166 48
146 153 50
132 137 45
133 134 64
128 127 57
129 127 67
132 128 69
133 128 70
129 125 71
124 121 71
124 122 71
142 137 84
120 117 76
134 131 84
129 127 80
135 132 82
130 128 78
123 122 75
127 125 82
116 115 78
129 127 79
130 129 87
134 132 87
128 128 84
121 121 83
134 132 88
133 131 88
135 133 88
137 134 88
149 145 96
138 136 91
137 136 93
130 130 87
127 127 87
144 142 96
135 135 93
156 154 104
139 137 93
146 144 98
144 143 97
146 144 98
143 142 97
147 145 97
138 137 94
146 144 99
152 150 103
155 154 104
150 149 102
156 153 103
155 153 103
149 148 101
158 155 104
152 151 102
159 157 105
158 156 104
159 157 105
161 158 106
161 158 105
161 157 103
164 161 106
165 162 108
167 163 109
162 159 106
166 162 107
163 160 105
168 164 109
171 167 110
169 165 108
161 159 106
171 167 109
166 163 107
168 165 108
169 166 110
174 170 111
175 170 111
171 166 109
172 168 108
173 169 110
174 170 111
174 170 110
172 168 111
175 170 111
173 168 109
176 171 112
174 170 112
172 168 110
169 166 108
172 168 110
174 169 110
173 169 108
173 170 110
173 169 110
174 169 108
173 170 111
175 170 109
175 170 110
172 168 109
168 164 103
173 170 110
170 166 105
171 167 107
174 169 109
174 168 108
176 170 109
171 167 107
170 166 104
175 170 108
174 168 106
173 169 108
164 160 103
173 168 108
173 167 106
169 164 101
167 163 105
175 169 108
174 168 107
170 164 101
166 161 100
168 162 97
171 166 102
169 163 100
172 166 103
167 162 102
171 165 104
168 162 103
169 163 98
167 162 102
167 161 98
171 165 103
168 163 99
163 158 97
166 159 93
165 159 97
165 159 95
160 154 94
160 154 89
159 154 93
162 155 91
157 151 87
156 151 91
160 153 89
159 153 87
156 150 89
149 143 81
142 137 76
151 145 82
149 142 80
147 141 78
156 150 87
149 142 80
136 131 69
147 141 75
153 146 79
145 138 75
137 132 63
146 147 63
152 156 58
155 168 42
165 178 48
166 185 25
165 184 22
171 195 0
172 195 0
175 198 0
171 195 0
172 196 0
172 196 0
170 193 0
171 195 0
175 198 0
173 197 0
174 197 0
173 196 0
170 194 0
176 199 0
173 197 0
175 198 0
174 197 0
174 197 0
175 198 0
174 198 0
175 198 0
173 197 0
171 195 0
173 196 0
173 197 0
172 195 0
172 196 0
174 197 0
174 197 0
173 197 0
171 195 0
173 196 0
171 195 0
173 196 0
173 197 0
172 196 0
175 198 0
173 197 0
173 196 0
174 197 0
174 197 0
173 197 0
171 195 0
171 195 0
173 196 0
173 195 0
175 198 0
170 194 0
171 195 0
173 196 0
173 197 0
174 197 0
170 195 0
173 196 0
174 197 0
173 196 0
172 196 0
174 197 0
171 195 0
175 198 0
174 196 0
173 196 0
171 194 0
171 195 0
175 198 0
170 194 0
174 197 0
174 196 0
174 197 0
173 197 0
170 192 0
173 196 0
170 193 0
172 196 0
172 195 0
172 195 0
174 198 0
175 198 0
171 195 0
172 196 0
172 195 0
173 196 0
175 198 0
172 195 0
173 196 0
175 198 0
173 196 0
174 197 0
172 196 0
172 195 0
174 197 0
169 192 0
173 196 0
172 196 0
175 198 0
169 192 0
170 193 0
171 194 0
172 196 0
172 195 0
170 194 0
172 196 0
173 197 0
172 195 0
172 196 0
169 193 0
171 195 0
172 195 0
174 197 0
171 193 0
170 193 0
173 195 0
173 197 0
171 194 0
174 197 0
169 192 25
160 183 65
130 155 115
91 121 159
67 102 173
62 99 174
62 98 175
62 99 179
61 99 178
62 99 177
62 99 178
62 99 179
63 100 180
62 99 178
62 99 181
61 98 178
61 98 181
61 98 177
62 99 180
62 99 179
62 99 181
62 99 179
62 99 181
61 98 180
62 99 181
62 99 181
62 99 181
62 99 181
61 99 181
62 99 181
62 99 181
62 99 180
61 99 181
62 99 181
62 99 181
62 99 181
62 99 181
62 99 181
61 98 180
62 99 181
61 98 181
62 99 181
62 99 181
62 99 181
62 99 181
62 99 181
61 99 181
61 99 181
62 99 181
61 98 181
61 99 181
61 98 181
62 99 181
62 99 181
62 99 181
61 99 181
61 99 181
61 98 181
61 98 181
61 99 181
62 99 181
62 99 181
61 98 181
62 99 181
61 99 181
61 99 180
61 99 181
61 99 181
62 99 181
62 99 181
62 99 180
61 99 181
62 99 181
62 99 180
62 99 181
62 99 180
61 99 181
61 98 180
61 98 180
62 99 181
62 99 181
62 99 181
62 99 181
62 99 181
61 98 180
62 99 179
62 99 181
62 99 180
61 99 180
61 99 177
61 98 179
62 99 179
62 99 179
62 99 181
62 99 179
62 99 178
62 99 181
62 99 180
62 99 179
62 99 177
62 99 179
61 98 177
62 98 175
62 99 177
61 98 178
62 98 176
62 98 176
62 98 178
61 97 173
61 98 176
61 98 174
61 97 173
61 97 172
61 97 173
62 98 172
61 97 170
59 95 169
61 96 169
63 97 161
117 142 130
152 173 76
163 182 11
154 169 25
154 165 45
146 155 47
145 150 54
129 133 50
137 139 56
134 129 70
138 134 68
125 121 62
126 122 68
118 117 66
133 130 80
127 124 74
117 115 70
136 132 73
131 128 77
133 130 83
130 127 80
130 127 81
127 125 79
127 125 82
134 132 86
131 130 84
117 117 80
131 129 83
131 130 87
143 140 95
128 128 84
131 129 87
132 131 87
132 132 91
144 142 94
132 131 88
139 138 93
148 146 100
134 133 93
136 135 91
143 142 96
135 134 93
143 142 96
141 141 97
149 147 100
139 138 94
151 150 101
138 137 93
139 137 94
149 148 100
139 139 95
149 147 99
158 154 102
155 152 100
153 152 103
154 152 102
154 151 102
159 157 105
154 153 104
154 151 102
155 153 102
160 157 105
162 158 106
160 158 106
161 159 105
160 157 105
164 160 105
162 159 106
166 163 106
165 162 107
169 166 108
169 165 107
165 161 105
167 163 107
164 161 103
168 165 106
171 166 108
170 166 107
168 164 105
173 169 109
172 168 108
171 167 110
172 169 109
173 169 110
172 168 111
172 168 108
173 169 108
176 171 113
173 168 108
173 169 107
174 170 111
173 168 109
175 170 111
174 168 109
171 168 108
173 169 108
171 167 109
177 172 111
171 167 106
178 172 112
173 169 110
170 167 108
174 170 109
175 171 110
174 169 108
173 168 108
172 168 108
172 167 106
172 168 108
175 170 109
174 169 106
174 169 109
173 168 105
175 170 109
169 164 103
171 166 104
172 167 106
172 168 104
169 165 104
170 166 105
170 165 104
171 166 104
168 163 103
169 165 103
173 167 105
166 162 101
171 165 102
172 166 105
164 159 98
167 161 98
166 162 99
166 161 101
167 161 97
170 164 101
167 161 99
162 157 94
160 155 96
170 164 97
164 158 94
166 160 97
160 153 95
162 155 93
159 153 91
160 154 91
159 152 95
157 151 92
159 152 84
157 151 88
152 147 83
154 147 85
154 147 85
146 140 73
146 140 82
154 148 82
149 142 76
138 132 74
149 143 76
147 141 74
134 128 62
147 141 75
145 141 69
146 150 59
155 166 48
159 173 41
167 185 32
168 190 16
172 195 0
174 198 0
174 198 0
173 197 0
171 195 0
171 194 0
174 197 0
173 197 0
172 195 0
173 196 0
173 196 0
174 197 0
173 197 0
173 197 0
171 195 0
173 197 0
172 196 0
173 195 0
173 197 0
171 194 0
175 197 0
174 198 0
174 198 0
173 197 0
172 196 0
170 194 0
172 195 0
172 196 0
172 195 0
173 197 0
173 196 0
174 197 0
174 197 0
170 193 0
172 195 0
172 196 0
170 193 0
172 196 0
172 194 0
170 195 0
172 195 0
172 196 0
174 197 0
172 196 0
172 196 0
171 195 0
175 198 0
174 197 0
172 194 0
172 195 0
170 193 0
172 196 0
171 195 0
172 195 0
174 197 0
174 198 0
171 195 0
174 198 0
172 196 0
173 196 0
171 195 0
173 196 0
173 196 0
173 196 0
172 196 0
172 195 0
173 196 0
174 197 0
172 196 0
175 198 0
172 195 0
170 194 0
173 197 0
173 197 0
173 197 0
170 193 0
173 196 0
173 195 0
172 195 0
171 195 0
172 195 0
172 196 0
171 195 0
174 197 0
172 196 0
171 195 0
174 197 0
171 194 0
172 195 0
174 197 0
173 196 0
173 196 0
172 195 0
172 195 0
173 196 0
171 194 0
171 195 0
173 197 0
172 196 0
173 196 0
172 195 0
172 195 0
173 196 0
171 195 0
170 194 0
172 195 0
171 195 0
172 194 0
174 197 0
169 192 0
170 193 0
170 193 0
171 195 0
170 193 0
168 191 36
155 179 74
104 132 144
75 109 169
62 99 174
62 99 174
62 99 177
62 99 180
62 99 177
62 99 177
62 99 177
62 99 178
62 99 180
62 99 181
62 99 179
62 99 178
61 99 178
62 99 179
62 99 181
62 99 181
62 99 181
62 99 181
61 98 179
62 99 180
62 99 180
61 99 180
62 99 181
61 98 180
62 99 179
61 99 180
61 99 180
62 99 181
62 99 181
61 98 179
62 99 181
61 98 180
62 99 181
62 99 180
62 99 181
61 99 181
61 99 181
61 99 181
61 98 181
61 98 181
62 99 181
62 99 181
62 99 181
62 99 181
62 99 181
62 99 181
61 98 180
61 99 181
61 99 181
62 99 181
61 99 181
61 98 180
61 98 181
62 99 181
61 99 181
61 98 181
62 99 181
62 99 181
61 99 181
61 98 180
62 99 181
62 99 181
61 99 181
61 99 181
61 98 181
62 99 181
61 99 181
61 98 181
61 99 181
61 99 181
61 99 181
61 99 181
62 99 181
62 99 181
62 99 181
61 98 178
62 99 181
62 99 180
61 98 181
61 99 181
61 99 181
62 99 181
62 99 180
62 99 179
61 99 181
62 99 177
62 99 179
62 99 179
63 100 181
62 99 181
61 98 179
61 98 178
61 99 179
62 99 178
61 98 175
62 99 180
62 99 181
61 98 175
61 98 178
62 99 178
62 99 178
62 99 180
62 98 178
62 98 177
61 98 178
62 98 175
62 98 175
61 97 172
61 97 175
62 98 175
62 99 178
61 97 174
61 97 175
62 98 177
60 96 168
62 97 170
60 96 170
103 129 141
144 164 87
154 169 30
153 164 42
138 148 42
141 145 60
136 137 61
131 130 58
128 124 66
129 125 68
135 130 71
123 119 68
134 131 75
126 122 73
128 125 74
123 121 68
123 121 75
129 126 76
128 125 80
122 119 74
121 119 76
130 127 81
125 123 76
131 129 85
123 123 79
139 137 88
128 126 81
123 122 81
134 132 88
123 123 85
136 135 92
122 122 84
140 138 93
135 134 92
136 135 92
136 135 92
131 131 89
142 141 96
133 133 91
136 135 93
147 145 97
144 142 95
150 149 102
137 137 94
143 142 96
137 136 92
135 135 95
150 149 101
142 141 96
157 154 104
152 150 102
148 146 95
151 148 99
158 155 104
156 153 103
156 154 103
149 148 101
160 158 105
160 157 104
162 159 106
157 155 104
158 155 101
160 156 104
164 161 106
154 153 103
160 157 103
162 159 105
167 164 108
169 165 108
167 162 106
164 161 105
169 165 108
171 167 109
162 159 103
165 161 105
168 164 109
169 166 108
173 169 110
168 166 107
172 167 106
168 164 106
170 166 106
174 168 109
173 169 110
176 170 111
175 170 110
171 167 109
173 169 112
175 170 110
173 169 108
174 168 106
174 169 106
173 169 108
176 170 109
173 168 109
174 169 107
173 169 108
176 171 110
175 170 110
175 169 106
175 170 106
171 167 104
173 168 108
178 172 111
173 168 107
171 167 107
175 169 108
176 170 109
174 170 109
176 171 108
175 169 106
172 166 107
179 173 112
171 166 103
173 168 105
175 169 106
177 171 105
169 164 101
168 163 101
174 168 106
165 161 102
167 162 101
174 168 104
164 160 100
167 161 99
167 163 100
170 164 100
170 163 99
166 161 99
165 160 96
165 160 99
163 158 96
174 168 103
167 160 96
160 156 93
167 161 97
159 153 93
170 163 99
161 155 86
168 162 98
160 155 88
164 157 90
155 149 90
156 149 87
159 154 88
157 151 87
152 146 85
157 151 86
152 146 84
147 141 74
150 145 79
154 148 80
151 145 79
156 149 86
141 136 72
141 135 69
145 140 75
139 133 72
141 135 68
141 139 69
142 144 53
150 158 52
148 162 32
163 180 22
169 188 19
172 194 11
172 196 0
172 196 0
174 196 0
174 197 0
172 196 0
175 198 0
173 196 0
173 197 0
173 196 0
174 198 0
172 196 0
170 194 0
175 197 0
173 197 0
171 193 0
172 196 0
171 195 0
175 197 0
174 197 0
172 196 0
173 197 0
173 196 0
174 197 0
172 196 0
173 196 0
173 196 0
171 194 0
173 196 0
172 195 0
172 195 0
175 198 0
172 195 0
173 196 0
173 196 0
174 197 0
173 195 0
173 197 0
174 198 0
174 198 0
173 197 0
171 194 0
172 195 0
170 194 0
174 197 0
172 196 0
173 196 0
174 197 0
172 195 0
171 195 0
174 197 0
170 194 0
173 196 0
171 194 0
172 196 0
175 198 0
175 198 0
175 198 0
173 197 0
173 196 0
170 194 0
174 197 0
171 195 0
171 194 0
174 196 0
170 194 0
172 195 0
174 197 0
172 195 0
173 196 0
174 197 0
172 196 0
171 195 0
173 195 0
172 196 0
174 197 0
171 194 0
169 193 0
174 197 0
173 196 0
173 196 0
173 197 0
173 196 0
173 196 0
171 194 0
174 197 0
173 195 0
172 195 0
173 196 0
173 195 0
172 195 0
172 196 0
171 194 0
172 195 0
173 196 0
171 194 0
170 193 0
172 196 0
168 191 0
170 193 0
172 195 0
174 197 0
170 193 0
172 195 0
172 195 0
172 195 0
172 195 0
172 195 0
172 194 0
174 197 0
170 194 0
171 194 0
172 196 0
166 190 31
156 179 86
108 135 142
75 108 166
63 99 174
63 99 170
62 99 174
62 99 175
62 99 176
62 99 174
63 100 179
61 98 178
62 99 178
62 99 179
62 99 181
62 99 178
61 99 177
63 100 181
61 99 179
62 99 179
63 100 181
62 99 179
62 99 180
62 99 180
61 99 181
62 99 181
62 99 179
61 99 180
62 99 181
62 99 181
61 99 181
61 99 180
62 99 180
62 99 181
62 99 181
62 99 181
62 99 181
61 99 180
62 99 181
61 99 181
62 99 181
61 99 181
62 99 181
61 98 181
61 99 181
61 99 181
62 99 181
62 99 181
61 98 181
62 99 181
62 99 181
61 98 181
61 99 181
62 99 181
61 99 181
61 98 181
61 99 181
61 99 181
61 98 180
61 98 181
62 99 181
62 99 181
61 99 181
61 98 181
61 99 181
62 99 180
61 98 181
61 99 181
61 99 181
62 99 181
62 99 181
61 99 181
62 99 181
62 99 181
61 99 181
62 99 181
62 99 181
61 98 179
61 99 180
62 99 181
62 99 181
62 99 181
62 99 180
62 99 181
62 99 180
61 99 180
62 99 180
62 99 180
62 99 181
62 99 181
62 99 181
61 99 181
61 98 178
61 98 177
62 99 178
62 99 180
61 99 179
62 99 181
62 98 178
61 98 177
62 98 176
62 99 179
61 98 174
61 98 177
62 99 178
62 99 179
62 99 179
62 99 177
61 98 176
62 99 176
61 98 177
62 98 174
63 99 177
62 98 175
62 99 178
61 97 174
61 98 174
62 98 173
62 98 174
61 96 171
61 98 175
61 96 166
59 94 165
110 133 130
131 147 99
157 169 48
143 153 37
139 142 54
135 135 60
134 131 65
127 124 62
130 126 64
133 128 73
138 134 75
131 127 75
127 123 71
118 116 70
116 114 70
118 115 71
126 124 76
106 106 69
131 129 78
107 106 69
132 129 86
124 122 79
121 120 79
125 124 81
125 124 81
115 116 79
133 132 91
131 130 89
117 117 81
127 126 85
132 132 90
133 132 90
126 125 86
128 128 87
122 123 85
137 136 93
137 136 93
133 133 89
139 138 96
129 130 91
131 131 91
137 136 94
134 132 92
146 144 98
141 141 97
142 140 95
151 148 99
145 143 96
149 148 99
146 144 99
142 141 97
156 154 104
153 151 100
154 152 103
151 150 103
152 150 99
158 155 103
157 154 102
149 147 100
156 154 102
155 153 103
167 163 106
166 163 107
169 165 109
161 158 104
162 159 104
162 159 105
166 163 108
171 167 108
170 165 106
170 166 108
167 163 107
161 158 106
172 167 107
167 163 108
175 170 109
169 165 107
173 169 108
175 171 112
174 170 112
173 168 108
170 166 106
174 169 111
174 170 108
169 165 107
174 170 109
170 166 107
174 170 110
176 171 111
171 167 105
173 167 107
175 170 110
176 171 109
173 169 109
174 169 107
176 171 109
173 168 107
177 171 110
173 167 106
175 170 110
174 169 109
171 167 106
172 166 101
174 169 106
178 172 110
175 170 108
177 171 110
171 166 103
176 170 106
174 169 106
172 167 102
173 167 104
173 167 105
171 165 104
170 166 103
169 164 101
170 165 105
175 170 107
170 165 103
173 168 104
175 169 105
168 163 100
170 164 102
173 168 106
168 164 103
165 159 96
170 162 98
166 160 96
162 157 95
169 163 99
165 159 95
163 157 92
161 155 95
164 158 95
158 153 91
162 156 94
167 161 97
167 161 97
161 156 92
159 152 92
155 149 87
156 151 85
158 153 89
158 151 89
156 149 86
151 145 80
140 134 78
165 158 88
150 144 81
145 139 79
147 142 81
147 141 73
144 138 75
148 142 80
144 138 71
133 127 70
127 123 54
142 136 70
134 129 67
150 153 57
155 163 53
156 166 41
167 185 22
168 188 22
171 194 0
174 197 0
174 197 0
173 196 0
173 196 0
173 197 0
173 197 0
173 196 0
172 196 0
173 196 0
172 196 0
175 198 0
172 195 0
172 197 0
173 196 0
171 194 0
173 196 0
173 197 0
173 196 0
174 198 0
175 197 0
170 194 0
173 196 0
173 196 0
173 197 0
171 194 0
172 195 0
170 194 0
173 196 0
171 195 0
173 197 0
173 196 0
176 199 0
173 196 0
169 193 0
173 197 0
171 195 0
173 197 0
171 195 0
174 197 0
171 195 0
173 196 0
171 194 0
174 198 0
172 196 0
172 196 0
172 195 0
172 195 0
172 195 0
173 196 0
174 198 0
175 197 0
174 197 0
170 193 0
171 195 0
172 195 0
172 195 0
174 198 0
171 194 0
171 195 0
171 194 0
170 194 0
175 198 0
172 195 0
173 196 0
172 196 0
172 196 0
173 196 0
173 195 0
171 194 0
173 197 0
174 196 0
172 195 0
173 197 0
172 196 0
172 195 0
171 195 0
172 196 0
173 196 0
172 196 0
172 195 0
172 196 0
173 196 0
171 196 0
172 195 0
171 194 0
172 196 0
172 194 0
172 196 0
172 196 0
173 196 0
170 195 0
172 195 0
172 196 0
172 197 0
173 196 0
171 194 0
171 195 0
172 195 0
170 193 0
170 194 0
173 196 0
172 196 0
169 192 0
169 192 0
171 195 0
170 193 0
173 196 0
172 195 0
169 193 0
169 193 0
170 192 0
174 196 0
149 172 94
111 138 139
66 102 171
62 99 175
63 100 177
62 99 176
62 99 174
62 99 174
62 99 178
62 99 180
62 99 179
61 98 176
63 100 181
61 99 178
62 99 180
62 99 177
62 99 178
62 99 179
61 98 179
62 99 180
63 99 179
62 99 179
62 99 179
62 99 179
62 99 181
61 99 180
62 99 178
62 99 181
62 99 180
62 99 179
62 99 180
61 98 178
62 99 180
61 99 181
61 99 181
62 99 180
61 98 179
63 100 181
62 99 181
62 99 181
61 99 181
62 99 181
61 99 181
61 99 181
61 99 181
62 99 181
61 98 181
62 99 181
62 99 180
61 99 181
61 99 180
61 98 181
61 98 180
62 99 181
62 99 181
62 99 181
61 99 181
61 98 179
62 99 181
61 99 181
62 99 181
62 99 181
61 99 181
62 99 181
62 99 180
62 99 181
62 99 181
62 99 181
62 99 181
62 99 180
62 99 181
62 99 181
61 99 181
62 99 181
61 98 181
62 99 181
61 99 181
62 99 181
61 99 181
61 98 179
62 99 181
62 99 179
61 98 179
62 99 181
62 99 180
61 99 180
61 98 180
62 99 178
61 99 179
62 99 179
62 99 181
62 98 178
62 99 179
62 99 179
62 99 179
61 99 181
62 99 180
61 98 178
62 98 177
62 99 177
61 98 176
62 99 180
62 99 180
62 99 180
61 98 176
62 99 178
62 99 178
61 99 179
61 98 175
61 98 176
61 98 176
61 97 175
62 99 178
61 98 175
61 97 171
62 98 176
62 98 176
61 98 174
62 97 173
61 98 175
61 97 174
60 95 168
61 95 164
60 96 171
85 110 147
124 138 96
141 150 42
141 145 56
137 138 59
137 137 57
123 120 61
130 127 72
132 126 71
130 126 67
110 110 60
133 128 78
132 129 77
126 122 73
125 121 77
117 116 70
125 122 77
132 128 79
128 126 78
124 123 81
123 123 84
121 120 78
129 127 80
133 131 85
116 116 80
123 123 83
134 133 92
136 134 90
127 126 87
132 133 92
125 125 83
129 128 88
132 131 90
139 139 93
135 134 88
138 137 94
132 132 92
134 133 92
137 136 95
143 141 95
142 140 96
134 134 92
137 136 94
147 145 97
141 141 97
146 145 99
136 135 91
146 145 99
149 147 100
148 146 96
150 148 101
151 149 102
149 148 101
159 156 104
153 151 103
159 156 105
158 156 104
161 157 102
164 161 106
161 158 105
160 158 105
164 161 106
163 160 105
162 160 106
161 158 105
165 162 106
160 158 104
163 161 105
163 160 105
163 160 105
170 166 108
166 163 106
170 166 108
170 166 107
172 167 110
171 167 111
171 168 109
173 169 108
169 165 107
172 168 108
174 170 110
177 172 112
174 170 109
172 168 109
173 169 107
173 168 108
174 169 108
176 170 109
175 169 107
174 170 110
173 169 106
175 170 110
171 167 106
175 170 109
170 167 107
174 169 109
177 172 109
175 170 110
175 170 108
174 169 107
174 169 106
175 171 108
173 168 109
176 170 106
176 170 107
174 168 102
173 167 103
175 170 110
174 169 108
170 165 103
175 169 108
172 167 106
171 166 103
170 166 105
170 164 101
172 166 102
169 163 99
169 164 101
168 162 98
174 168 103
168 162 99
168 163 102
166 161 97
170 165 99
168 162 97
169 163 100
170 165 102
163 157 99
167 161 95
161 156 95
156 152 88
166 160 93
162 158 93
161 155 91
161 155 93
170 163 99
167 160 95
167 161 95
159 154 89
160 154 92
160 154 91
154 149 86
165 159 92
156 151 86
155 148 81
158 153 89
160 154 83
159 152 90
152 146 81
151 145 76
153 146 80
139 133 72
148 142 77
148 142 75
128 124 63
147 142 77
144 139 69
139 135 62
147 149 60
155 164 47
156 166 44
165 180 36
166 185 22
174 196 11
172 196 0
172 195 0
174 197 0
174 198 0
173 197 0
172 196 0
173 197 0
173 196 0
176 199 0
173 197 0
173 197 0
171 194 0
173 196 0
173 197 0
172 196 0
171 195 0
173 197 0
175 197 0
171 194 0
176 198 0
175 198 0
171 194 0
171 194 0
173 197 0
172 195 0
172 196 0
172 196 0
172 194 0
173 196 0
172 195 0
172 195 0
173 197 0
175 198 0
174 197 0
171 195 0
173 196 0
173 196 0
175 198 0
171 194 0
171 195 0
172 196 0
174 198 0
174 197 0
171 194 0
174 197 0
174 197 0
172 196 0
174 197 0
174 198 0
174 197 0
171 194 0
175 197 0
172 194 0
173 196 0
173 197 0
174 197 0
174 197 0
172 196 0
172 195 0
172 195 0
172 196 0
171 195 0
172 196 0
174 197 0
170 194 0
172 195 0
175 198 0
173 197 0
173 196 0
173 196 0
172 195 0
172 196 0
172 195 0
170 192 0
169 192 0
172 195 0
173 196 0
171 195 0
171 195 0
172 196 0
174 197 0
172 195 0
173 196 0
173 196 0
169 192 0
172 195 0
172 195 0
171 195 0
172 195 0
170 193 0
173 196 0
173 197 0
175 198 0
174 197 0
174 197 0
174 197 0
172 195 0
174 196 0
173 196 0
171 195 0
173 197 0
172 195 0
169 193 0
171 195 0
171 195 0
171 195 0
169 192 0
170 194 0
172 195 0
173 197 0
171 194 31
150 175 88
116 143 140
69 104 169
62 99 176
61 99 176
62 99 177
62 99 175
62 99 175
62 99 176
62 99 175
62 99 176
62 99 174
62 99 176
62 99 181
62 99 178
62 99 177
62 99 177
62 99 176
62 99 179
62 99 178
62 99 180
62 99 180
61 98 180
62 99 180
61 98 180
62 99 181
62 100 181
62 99 180
62 99 181
62 99 180
61 99 180
62 99 181
62 99 180
61 99 181
62 99 181
61 99 181
62 99 181
62 99 180
62 99 180
61 98 181
62 99 181
62 99 181
61 99 181
62 99 181
61 99 181
61 99 181
62 99 180
62 99 181
61 99 181
62 99 181
62 99 181
61 98 181
62 99 181
61 99 181
62 99 181
62 99 181
61 99 181
62 99 181
62 99 181
62 99 181
62 99 181
62 99 181
61 98 181
61 98 181
62 99 181
62 99 181
62 99 181
61 99 181
62 99 181
61 99 181
62 99 180
62 99 179
62 99 180
61 99 181
62 99 181
62 99 181
61 99 180
62 99 181
61 99 181
61 99 181
61 99 181
62 99 178
61 99 181
62 99 180
62 99 181
62 99 181
61 98 179
62 99 181
61 99 181
61 98 181
62 99 180
62 99 179
62 99 180
61 99 180
62 99 179
61 99 180
62 99 177
62 99 177
62 99 180
62 99 180
62 99 178
63 99 179
61 98 178
62 99 179
62 99 178
62 99 180
62 98 174
62 99 179
63 99 176
61 98 175
62 99 180
62 99 178
62 98 176
62 98 172
61 97 172
61 98 175
61 97 173
62 99 178
61 96 171
61 97 172
62 98 177
60 95 165
60 96 169
61 98 174
61 97 171
61 95 166
85 107 150
126 137 96
130 134 49
131 130 59
124 122 56
130 128 64
129 124 67
112 109 63
123 121 70
134 130 74
109 107 59
132 128 72
115 114 71
121 119 73
129 126 80
116 115 76
129 127 78
123 121 77
132 129 83
112 111 77
134 131 85
121 122 81
119 119 82
126 124 83
126 126 87
124 122 82
128 127 86
125 125 84
128 127 85
117 117 81
129 128 88
127 127 88
125 126 89
133 133 92
136 134 91
127 127 87
133 133 91
131 130 90
141 140 96
135 135 93
143 141 95
133 133 92
148 147 99
144 143 97
152 149 100
144 142 96
146 145 99
157 154 103
149 146 99
142 142 97
157 154 101
149 148 101
161 158 106
158 155 103
162 159 106
154 152 103
161 156 102
158 155 102
157 154 104
161 158 104
159 157 104
164 162 108
171 167 106
158 156 100
165 162 107
167 163 107
168 164 106
163 160 104
168 165 107
162 159 105
165 163 105
169 166 109
169 165 107
173 169 111
171 166 105
171 166 107
170 166 105
175 171 110
170 167 107
171 167 108
168 164 106
175 170 107
170 166 107
175 170 110
174 169 108
174 170 109
176 170 107
173 168 102
176 171 108
175 170 108
175 170 107
174 169 109
172 167 107
176 171 110
173 168 110
173 168 107
176 171 108
171 167 106
173 168 106
174 169 104
174 169 106
178 172 109
176 170 106
174 169 103
173 167 101
174 169 107
171 167 107
173 168 106
171 167 103
174 168 108
175 169 106
169 164 101
168 164 102
169 164 100
168 163 101
171 165 103
173 166 102
171 165 101
169 165 99
170 165 103
167 161 100
169 164 102
167 163 99
164 159 95
168 163 98
167 162 98
165 160 98
162 157 97
169 164 93
165 159 95
173 166 101
156 151 90
166 160 98
167 161 97
165 159 91
167 161 96
168 161 96
155 150 84
158 152 87
160 154 90
166 160 88
162 155 90
162 156 90
160 154 85
154 149 83
163 156 86
154 149 86
154 148 79
151 146 77
153 147 80
149 144 75
151 145 78
134 129 68
141 135 72
147 140 75
140 134 72
139 134 71
146 147 58
144 149 48
148 159 39
160 177 28
163 182 19
174 195 22
173 197 0
174 197 0
173 196 0
172 196 0
172 196 0
172 196 0
174 197 0
172 196 0
172 196 0
172 196 0
175 198 0
174 197 0
171 195 0
175 197 0
174 197 0
173 196 0
175 198 0
171 194 0
174 197 0
172 196 0
173 196 0
172 196 0
173 197 0
172 196 0
170 194 0
173 196 0
173 196 0
174 198 0
172 196 0
171 195 0
174 198 0
173 197 0
173 197 0
172 195 0
172 195 0
173 196 0
173 197 0
173 195 0
174 197 0
173 196 0
170 194 0
174 197 0
172 195 0
173 197 0
172 195 0
169 193 0
170 193 0
172 195 0
171 196 0
174 197 0
173 195 0
173 196 0
174 198 0
173 196 0
172 196 0
175 198 0
174 197 0
174 197 0
173 197 0
173 196 0
175 198 0
171 194 0
174 197 0
173 196 0
173 196 0
174 197 0
173 197 0
170 194 0
171 195 0
174 197 0
171 195 0
169 193 0
173 196 0
168 192 0
172 195 0
172 195 0
174 197 0
173 197 0
171 195 0
170 194 0
172 195 0
173 195 0
173 197 0
173 196 0
171 194 0
170 193 0
169 193 0
171 194 0
174 197 0
173 197 0
172 196 0
171 194 0
173 197 0
172 196 0
170 194 0
174 197 0
172 195 0
172 196 0
171 193 0
171 194 0
171 195 0
170 194 0
173 196 0
169 192 0
172 195 0
170 193 0
173 196 0
169 193 0
173 197 0
171 194 25
155 179 78
114 142 137
65 101 175
62 99 171
62 99 176
62 99 178
62 99 174
62 99 178
63 99 177
62 99 178
62 99 178
62 99 178
62 99 177
62 99 179
62 99 177
61 98 177
63 99 178
62 99 181
62 99 178
62 99 179
62 99 179
62 99 180
62 99 179
62 99 179
63 100 180
62 99 181
62 99 181
61 98 178
61 99 179
62 99 180
61 99 181
62 99 181
62 99 181
62 99 181
62 99 181
61 99 180
62 99 181
61 99 177
61 98 180
62 99 181
62 99 181
61 99 180
62 99 181
62 99 181
61 99 180
62 99 179
61 98 181
62 99 181
61 99 180
61 99 181
62 99 180
62 99 181
62 99 181
62 99 181
62 99 180
62 99 181
61 99 181
62 99 180
61 99 181
61 99 181
61 99 181
62 99 181
62 99 181
62 99 181
61 99 181
62 99 180
62 99 180
61 99 181
61 98 179
61 98 181
61 99 181
62 99 181
61 98 180
62 99 180
61 99 181
62 99 180
61 99 181
61 99 181
61 98 179
62 99 181
62 99 181
61 98 180
62 99 181
62 99 181
62 99 181
61 99 179
61 99 181
62 99 181
61 99 179
62 99 180
62 99 179
62 99 177
61 98 180
61 99 181
62 99 180
62 99 180
63 100 181
62 99 178
62 98 179
62 99 179
62 99 180
62 99 180
62 99 179
62 98 179
62 99 178
62 99 179
62 99 180
61 98 178
62 99 177
62 99 177
61 98 178
61 97 174
62 99 175
61 98 174
62 98 173
61 98 174
62 99 179
62 99 179
62 98 175
61 98 173
61 97 174
62 98 174
62 97 169
61 97 171
61 97 171
61 98 173
61 95 165
60 94 163
72 97 147
113 120 116
132 132 58
131 127 62
123 120 65
127 123 64
129 125 71
125 121 67
128 124 72
117 115 70
126 123 76
120 117 66
129 127 81
125 123 73
124 122 76
129 126 79
128 126 81
125 124 81
120 120 79
118 118 78
124 123 82
134 132 84
118 116 78
111 113 77
119 118 79
128 127 87
120 120 84
135 134 90
122 122 85
125 125 88
132 131 91
124 124 85
137 136 95
130 130 88
142 140 95
131 131 91
137 136 93
136 135 95
139 138 95
137 137 95
138 138 96
136 136 93
137 136 94
149 147 99
145 143 96
148 146 99
147 145 99
150 149 100
145 144 98
145 144 99
152 150 102
153 151 103
158 156 104
152 150 100
152 150 100
153 151 101
159 156 104
156 154 98
161 158 103
158 156 103
162 160 106
165 162 108
159 157 104
165 161 106
161 158 104
169 165 108
168 164 108
167 163 108
170 166 107
165 162 106
170 166 109
171 167 110
171 167 106
172 168 108
171 167 107
171 166 108
173 169 110
174 168 107
169 166 108
174 170 110
172 168 107
174 170 110
173 169 107
172 167 105
174 169 110
171 167 106
176 170 107
174 169 110
174 170 108
176 171 110
174 170 107
175 170 106
173 169 107
175 170 107
172 168 106
174 169 106
176 171 106
177 171 108
175 169 107
176 170 106
178 172 108
176 170 105
175 169 108
177 170 106
175 169 103
170 165 104
174 169 108
176 169 104
170 165 101
171 165 104
173 168 105
173 168 104
170 165 102
169 165 104
173 166 101
176 170 103
173 168 104
171 166 103
171 164 103
167 161 99
167 161 101
168 163 100
175 168 104
168 162 101
164 159 97
167 161 99
164 158 94
163 157 96
167 161 94
165 159 97
170 164 99
160 155 94
161 156 90
162 157 92
160 155 87
156 152 90
165 158 93
159 153 89
166 159 95
159 153 92
161 155 86
156 150 84
156 150 84
153 147 85
156 150 82
149 144 78
152 145 82
146 140 80
150 144 83
139 134 74
153 147 79
153 146 82
140 133 69
143 136 71
146 140 62
140 135 70
139 138 59
151 156 49
153 162 47
164 178 41
171 190 30
171 192 16
174 198 0
171 195 0
174 198 0
173 197 0
172 196 0
174 197 0
173 196 0
173 196 0
174 197 0
175 198 0
172 196 0
171 195 0
174 196 0
174 197 0
173 196 0
170 193 0
175 198 0
175 198 0
174 197 0
176 199 0
172 196 0
174 197 0
172 195 0
170 193 0
170 194 0
169 192 0
173 196 0
174 197 0
174 197 0
173 196 0
172 195 0
174 196 0
174 197 0
173 197 0
173 196 0
172 196 0
173 196 0
174 197 0
172 195 0
173 196 0
170 193 0
170 193 0
170 194 0
174 197 0
173 196 0
172 195 0
171 194 0
174 197 0
175 197 0
172 195 0
173 196 0
169 193 0
173 196 0
174 198 0
175 198 0
172 195 0
174 198 0
172 196 0
173 196 0
173 196 0
173 197 0
175 198 0
169 192 0
172 197 0
174 196 0
172 196 0
176 198 0
170 194 0
171 194 0
172 195 0
172 196 0
166 191 0
171 194 0
171 195 0
172 195 0
172 196 0
169 192 0
172 195 0
170 194 0
169 193 0
171 194 0
172 195 0
172 194 0
172 194 0
172 195 0
172 196 0
168 191 0
171 193 0
168 191 0
169 192 0
171 195 0
170 194 0
171 195 0
174 196 0
170 194 0
169 192 0
170 194 0
174 197 0
169 193 0
171 195 0
170 194 0
170 193 0
172 194 0
170 193 0
171 194 0
172 195 0
172 195 0
173 196 0
171 194 25
146 170 90
104 132 147
67 102 174
62 99 170
62 99 173
62 99 177
63 99 176
63 99 177
62 99 179
61 98 169
62 99 177
62 99 180
62 99 179
63 99 177
63 99 179
62 99 180
61 98 175
62 99 180
62 99 179
62 99 176
62 99 179
62 99 179
62 99 178
62 99 180
63 100 181
62 99 179
62 99 181
61 99 179
62 99 181
62 99 180
62 99 180
61 99 180
62 99 180
62 99 180
61 99 181
62 99 180
61 99 181
62 99 181
62 99 181
62 99 180
62 99 181
62 99 180
62 99 181
62 99 181
62 99 181
62 99 180
62 99 181
62 99 180
62 99 181
62 99 181
61 99 181
62 99 181
62 99 181
61 98 180
61 99 181
61 98 180
62 99 181
61 98 180
62 99 180
61 99 181
62 99 181
62 99 181
62 99 181
62 99 181
62 99 181
62 99 181
62 99 181
61 98 180
62 99 181
62 99 181
62 99 181
62 99 181
62 99 181
62 99 181
61 99 180
62 99 181
62 99 181
61 99 181
62 99 180
62 99 181
61 99 180
62 99 181
62 99 181
62 99 181
62 99 181
62 99 181
61 99 180
61 98 180
62 99 180
62 99 180
62 99 181
62 99 179
62 99 178
61 98 178
62 99 179
61 98 180
61 98 176
62 99 179
62 99 179
62 99 180
62 99 178
62 99 179
62 99 176
62 99 180
62 99 178
62 99 179
61 98 177
61 99 181
61 98 179
62 99 177
62 99 178
61 98 176
62 99 177
62 99 176
62 99 178
62 98 177
61 98 174
61 97 173
61 97 174
62 99 174
61 97 172
61 98 174
61 98 172
62 98 173
61 97 172
60 95 168
62 97 172
61 96 169
61 97 169
59 93 162
82 101 145
103 111 113
131 130 62
125 123 64
120 117 67
125 121 67
133 128 73
124 121 70
114 114 65
118 116 68
111 109 66
123 120 71
127 125 78
110 109 71
121 119 74
124 121 80
112 111 76
115 115 75
118 117 78
118 119 81
109 108 72
121 120 82
113 114 78
134 134 91
123 123 87
120 121 84
121 122 85
130 130 88
119 119 82
126 126 86
123 124 85
132 131 89
138 136 93
137 135 92
131 131 90
139 140 96
142 142 96
130 130 91
134 133 92
136 136 94
132 131 92
139 138 94
135 135 92
142 141 96
143 141 96
139 138 94
152 150 101
140 140 95
150 148 99
153 151 101
142 141 97
157 154 102
155 152 100
159 157 104
158 155 103
158 155 103
163 159 102
156 154 102
162 158 105
164 160 104
161 158 104
166 163 105
168 163 107
169 165 107
162 158 102
156 154 101
166 163 106
169 165 107
167 164 105
166 162 103
169 165 107
166 162 99
170 165 107
169 164 106
170 166 108
170 166 106
175 169 108
170 166 107
173 168 108
172 168 106
173 168 106
173 169 107
173 168 107
172 168 105
172 168 108
176 171 108
173 169 108
173 169 108
173 168 103
173 169 107
172 167 102
173 168 106
174 170 106
173 167 104
174 169 104
168 164 103
172 166 104
179 172 107
175 170 106
174 168 104
175 170 107
170 164 105
175 169 108
172 167 103
176 170 105
173 167 102
173 167 104
170 165 101
175 169 108
173 167 106
175 169 106
173 167 104
174 167 102
171 166 103
170 164 103
172 167 103
163 159 93
166 161 98
168 164 99
168 164 99
171 166 100
169 163 101
168 163 100
164 159 98
165 160 95
165 159 98
169 163 99
171 165 97
166 161 95
166 160 94
164 159 90
169 162 93
165 159 93
166 161 93
161 155 90
159 153 90
170 164 98
159 152 86
160 153 87
155 148 86
156 150 78
158 151 83
155 149 84
160 154 84
153 147 80
153 148 80
153 147 84
141 135 72
160 153 80
149 143 78
142 136 75
136 131 71
147 141 74
143 137 74
139 133 60
144 142 64
141 147 45
145 150 42
154 168 36
166 183 28
173 193 19
173 196 0
172 196 0
174 198 0
172 196 0
174 198 0
173 197 0
173 197 0
172 196 0
174 197 0
174 197 0
173 196 0
170 194 0
170 194 0
173 196 0
169 192 0
169 193 0
171 195 0
174 197 0
173 197 0
172 195 0
171 194 0
173 196 0
173 197 0
176 198 0
174 197 0
174 197 0
173 197 0
173 196 0
173 196 0
173 196 0
172 194 0
169 191 0
172 196 0
173 196 0
174 197 0
172 196 0
173 196 0
171 195 0
171 194 0
172 195 0
173 197 0
172 195 0
172 195 0
173 197 0
172 194 0
173 196 0
173 196 0
172 196 0
169 192 0
173 196 0
175 198 0
174 197 0
173 196 0
172 196 0
173 196 0
174 197 0
172 196 0
170 194 0
173 196 0
175 198 0
173 196 0
170 194 0
174 197 0
172 196 0
172 195 0
171 194 0
172 195 0
173 196 0
171 195 0
171 194 0
173 196 0
171 194 0
172 195 0
168 191 0
172 195 0
166 190 0
171 195 0
173 196 0
169 192 0
172 196 0
171 195 0
173 196 0
171 195 0
172 196 0
171 195 0
173 196 0
173 195 0
172 195 0
172 195 0
174 197 0
173 196 0
170 195 0
173 196 0
171 195 0
175 198 0
171 195 0
172 195 0
170 194 0
173 197 0
173 196 0
170 193 0
172 195 0
169 192 0
169 193 0
171 195 0
173 197 0
173 197 0
168 192 40
158 181 76
111 138 141
67 102 171
63 99 176
63 99 177
62 99 177
62 99 178
62 99 174
62 99 176
62 99 176
62 99 176
62 98 174
63 99 178
62 99 176
62 99 180
62 99 178
62 99 177
62 99 177
62 99 177
62 99 181
61 98 176
62 99 178
62 99 181
61 98 178
62 99 180
63 100 181
62 99 180
62 99 181
62 99 180
61 99 181
61 99 181
62 99 181
62 99 179
61 99 181
62 99 180
62 99 180
61 99 181
62 99 181
61 99 179
62 99 180
62 99 181
62 99 181
62 99 179
62 99 181
61 99 180
61 98 181
61 99 181
62 99 179
62 99 180
62 99 181
62 99 181
61 98 180
62 99 180
62 99 181
61 99 181
61 98 180
62 99 180
61 99 181
62 99 180
61 99 181
62 99 181
61 98 181
62 99 180
62 99 181
61 99 181
62 99 181
61 99 181
62 99 181
61 99 181
61 99 180
62 99 180
61 98 180
62 99 181
62 99 181
61 98 181
62 99 181
61 99 180
61 99 179
61 99 181
62 99 180
62 99 179
62 99 181
62 99 179
62 99 181
61 98 178
62 99 180
61 98 181
62 99 181
62 99 181
62 99 180
62 99 181
62 99 179
62 99 180
62 99 180
62 99 179
62 99 179
62 99 181
62 99 180
62 99 181
62 99 180
62 99 180
61 99 177
61 98 178
62 99 180
61 98 177
63 100 181
62 99 179
62 99 181
61 98 178
61 98 176
62 99 177
62 99 179
63 100 180
62 99 178
61 98 179
62 98 174
62 99 176
62 99 177
62 99 175
62 98 177
61 98 175
62 98 174
61 97 170
62 98 171
61 97 172
61 96 172
61 96 171
62 98 173
61 97 168
61 98 172
61 97 168
62 97 170
83 104 145
104 108 87
125 120 62
125 121 69
122 119 63
111 111 69
108 107 62
114 111 68
120 118 70
115 113 71
126 124 77
108 107 67
117 115 71
121 120 77
115 115 77
118 117 74
102 103 68
114 115 80
119 119 78
116 117 79
124 124 85
116 116 79
114 115 77
120 120 81
121 121 85
126 125 85
119 119 82
124 124 87
116 118 83
129 129 87
123 124 88
141 138 92
134 134 92
135 135 93
127 128 90
128 129 88
136 135 93
138 137 94
136 135 93
148 146 99
146 144 98
136 135 91
151 149 100
132 133 93
143 142 96
143 142 95
150 148 99
149 147 98
153 151 99
156 154 103
155 152 102
156 153 100
152 150 99
153 151 100
159 157 103
156 154 101
156 154 101
160 157 103
158 155 103
158 155 100
166 163 106
165 162 107
167 164 109
161 159 105
171 166 109
169 164 107
166 163 100
171 166 103
169 165 107
169 166 110
166 163 105
169 165 107
172 168 108
165 162 106
173 168 108
166 164 104
171 167 105
171 167 107
173 168 106
173 168 105
174 169 107
173 169 107
173 168 106
174 169 109
172 168 106
170 165 103
172 167 107
174 170 105
174 169 107
176 170 107
175 168 105
172 168 107
178 172 110
173 168 107
173 169 106
175 169 106
173 169 107
176 171 108
174 169 108
177 172 109
175 169 103
175 169 104
174 168 105
174 169 104
175 170 104
169 164 103
176 170 108
170 164 99
169 163 99
171 166 102
170 165 103
172 166 104
173 167 101
171 167 105
172 165 101
172 166 103
173 167 104
168 162 99
169 164 99
166 160 95
162 157 96
170 165 101
164 159 94
166 160 95
171 165 103
166 160 98
168 162 94
165 160 97
169 162 96
164 157 88
164 159 92
162 156 91
165 159 95
163 156 90
164 157 89
159 153 86
164 157 89
159 153 86
161 155 85
159 154 84
155 149 83
148 143 73
160 154 90
159 153 82
152 146 77
156 149 84
153 147 77
152 146 77
146 140 74
148 142 72
150 144 71
146 140 74
156 149 75
139 133 68
144 144 66
149 153 52
150 158 42
156 168 36
164 183 0
167 187 11
174 197 0
172 197 0
173 197 0
174 197 0
171 195 0
174 198 0
174 197 0
174 197 0
176 198 0
172 195 0
174 197 0
176 199 0
173 197 0
173 196 0
172 196 0
173 196 0
171 196 0
171 194 0
173 197 0
174 197 0
175 198 0
170 195 0
173 195 0
171 195 0
174 197 0
173 196 0
173 196 0
173 197 0
173 197 0
173 197 0
172 195 0
170 194 0
173 197 0
171 195 0
174 197 0
171 195 0
173 196 0
172 195 0
172 196 0
172 195 0
173 197 0
172 195 0
172 196 0
172 196 0
174 197 0
172 196 0
173 196 0
173 197 0
172 195 0
171 195 0
174 197 0
174 197 0
173 196 0
171 194 0
172 195 0
171 194 0
171 194 0
174 196 0
174 196 0
173 195 0
174 197 0
172 196 0
171 195 0
172 195 0
173 197 0
174 197 0
171 194 0
172 196 0
175 198 0
173 196 0
171 195 0
173 196 0
173 195 0
170 194 0
174 197 0
173 197 0
172 196 0
172 196 0
171 194 0
174 197 0
173 195 0
172 195 0
171 196 0
169 192 0
170 194 0
171 194 0
174 196 0
171 195 0
172 196 0
170 194 0
171 195 0
174 196 0
173 196 0
171 194 0
169 192 0
172 196 0
173 195 0
172 195 0
170 193 0
174 196 0
174 196 0
172 195 0
167 191 0
172 196 0
172 195 0
173 196 0
170 193 0
155 180 82
114 141 134
71 105 168
61 98 172
62 99 172
62 99 175
63 99 177
62 99 178
62 99 175
62 99 177
61 98 173
62 99 174
62 99 178
61 98 177
62 99 180
62 99 176
62 99 180
61 98 177
62 99 179
62 99 179
61 99 180
62 99 180
62 99 176
62 99 180
62 99 180
62 99 179
61 99 180
62 99 180
62 99 181
62 99 180
62 99 181
62 99 181
62 99 180
62 99 180
62 99 181
62 99 180
62 99 181
62 99 180
62 99 181
61 99 181
62 99 180
62 99 181
62 99 181
62 99 181
62 99 180
62 99 181
62 99 181
62 99 181
61 98 180
61 98 180
62 99 181
62 99 181
62 99 181
61 99 181
62 99 179
62 99 181
61 98 180
61 98 180
61 98 179
61 99 181
62 99 181
62 99 180
61 98 180
62 99 180
62 99 181
61 99 181
62 99 179
61 99 181
61 99 181
62 99 180
62 99 180
61 99 180
62 99 181
62 99 179
62 99 181
62 99 181
62 99 181
62 99 179
62 99 180
62 99 181
61 99 178
62 99 181
62 99 180
62 99 180
62 99 180
62 99 180
62 99 181
62 99 180
62 99 181
61 99 179
62 99 179
62 99 181
61 99 180
62 99 181
62 99 180
61 99 178
61 99 180
62 99 180
62 99 177
61 99 179
62 99 180
62 99 180
62 99 181
61 98 175
62 98 175
61 98 177
62 99 178
61 98 175
62 99 178
62 99 177
62 99 178
61 98 176
61 98 178
61 98 178
62 98 177
62 99 176
62 99 177
62 98 174
61 98 175
62 99 179
62 98 176
62 98 171
61 98 175
61 97 168
62 98 172
62 98 170
60 96 170
61 97 171
62 98 174
61 96 170
60 96 170
61 96 169
60 95 164
59 94 164
78 101 149
114 116 100
121 118 65
125 121 72
123 119 69
117 115 70
123 120 74
116 113 66
121 118 73
111 110 70
117 114 72
113 112 71
113 113 70
132 128 85
120 118 74
107 108 73
117 115 73
119 118 81
116 115 77
120 120 82
119 118 81
122 121 84
117 117 80
116 117 82
118 119 83
126 125 87
116 116 81
113 113 78
117 118 82
125 125 87
124 123 84
115 116 82
140 138 94
128 127 89
135 135 91
134 134 92
129 130 92
131 131 92
152 150 100
144 142 94
138 138 92
137 137 92
147 146 97
143 142 93
151 148 100
140 138 91
154 152 102
155 152 99
149 148 98
152 150 100
143 142 95
154 152 103
149 147 97
153 150 99
163 160 105
153 150 101
160 157 102
161 157 105
159 156 102
159 157 102
161 159 104
159 156 102
160 157 103
172 168 109
164 161 106
165 161 104
172 168 110
169 165 104
171 167 108
169 165 106
171 167 107
166 161 101
169 165 103
167 163 106
174 168 110
175 170 108
172 166 104
172 167 107
174 168 108
169 165 105
172 168 106
172 168 105
174 169 107
172 167 105
172 168 106
173 168 107
172 167 104
175 170 108
172 168 104
176 170 107
174 168 106
177 171 110
176 171 108
174 168 105
173 168 104
175 169 106
175 169 104
177 171 108
177 171 109
175 169 104
170 166 102
174 169 105
174 168 104
172 166 100
178 171 104
176 170 107
174 168 106
167 162 99
171 165 99
172 166 103
176 169 105
168 162 99
172 166 99
175 169 101
173 167 104
174 167 103
168 163 98
163 159 94
171 165 99
169 164 101
169 164 99
173 166 99
168 162 95
171 164 98
169 163 99
169 162 99
169 164 101
169 162 95
161 155 89
167 161 93
161 155 86
164 158 91
166 159 93
165 158 87
156 151 86
155 149 82
155 149 85
164 158 94
153 147 80
156 150 86
163 157 84
160 154 86
158 151 87
155 149 84
159 153 83
153 146 80
153 147 84
146 140 75
145 138 72
137 131 67
138 132 68
147 141 75
143 136 71
141 138 60
144 151 56
153 164 37
156 166 49
164 180 28
165 185 19
173 197 0
174 197 0
173 196 0
172 196 0
174 197 0
174 197 0
170 194 0
174 197 0
175 198 0
172 195 0
174 198 0
172 195 0
172 195 0
174 196 0
172 196 0
174 197 0
174 197 0
173 197 0
172 196 0
171 196 0
174 196 0
174 197 0
174 197 0
174 197 0
173 197 0
173 196 0
174 197 0
169 193 0
170 194 0
171 194 0
174 197 0
174 197 0
175 197 0
171 195 0
173 197 0
173 196 0
172 196 0
173 196 0
173 197 0
174 197 0
173 196 0
170 194 0
171 195 0
170 194 0
169 193 0
170 194 0
173 196 0
175 198 0
173 197 0
174 196 0
174 198 0
171 194 0
174 197 0
173 196 0
171 194 0
173 196 0
174 198 0
172 196 0
171 195 0
171 194 0
170 193 0
173 196 0
172 195 0
175 198 0
172 196 0
174 197 0
172 195 0
171 195 0
173 197 0
170 194 0
172 195 0
174 197 0
173 196 0
171 195 0
173 196 0
170 193 0
173 197 0
172 196 0
170 193 0
173 197 0
171 195 0
169 192 0
172 195 0
172 195 0
171 194 0
172 196 0
169 192 0
171 195 0
173 195 0
171 194 0
173 196 0
172 195 0
170 193 0
170 194 0
174 196 0
171 195 0
173 196 0
173 197 0
170 193 0
170 193 0
169 193 0
171 194 0
173 196 0
171 194 0
170 193 0
170 193 18
153 178 80
109 137 140
75 108 168
62 98 171
61 98 174
62 99 176
62 98 173
62 99 175
62 99 173
62 99 179
62 99 178
61 98 176
62 98 174
62 99 177
62 99 178
62 99 178
62 99 178
62 99 179
61 99 177
62 99 178
62 99 177
62 99 180
62 99 180
62 99 179
62 99 179
62 99 181
62 99 180
62 99 181
62 99 180
62 99 178
61 98 175
62 99 179
61 99 179
62 99 181
62 99 180
61 98 181
62 99 181
62 99 181
62 99 179
61 99 181
62 99 181
62 99 181
62 99 181
62 99 180
62 99 180
62 99 181
61 99 180
61 99 181
62 99 181
62 99 181
62 99 181
61 99 181
62 99 179
62 99 180
61 99 181
62 99 181
62 99 181
62 99 181
62 99 181
61 99 180
61 99 181
61 99 180
62 99 181
62 99 181
62 99 181
62 99 181
61 99 181
62 99 181
61 99 181
61 99 180
62 99 181
62 99 181
62 99 181
62 99 181
61 99 181
61 98 179
62 99 180
62 99 181
61 99 181
61 99 181
62 99 180
62 99 181
62 99 179
61 99 181
62 99 181
62 99 179
62 99 181
62 99 181
62 99 179
61 98 180
62 99 181
62 99 179
62 99 180
62 99 178
62 99 181
62 99 181
62 99 179
61 99 179
62 99 180
62 99 180
62 99 180
62 99 176
62 99 178
62 99 179
61 98 175
62 99 179
62 99 178
62 98 178
62 99 178
62 98 176
61 98 175
62 99 176
61 98 177
61 98 174
62 99 178
61 98 175
62 98 173
61 98 175
62 99 177
62 98 174
61 97 172
62 99 174
61 98 174
61 97 173
62 98 174
62 98 174
62 98 170
61 97 175
61 98 173
61 97 170
62 98 175
59 93 161
60 95 169
59 95 170
60 96 166
60 94 164
81 102 148
104 106 84
123 120 65
109 107 55
121 118 66
121 118 69
124 120 71
118 116 73
109 109 70
111 110 69
119 118 75
109 108 69
117 116 77
112 111 76
117 116 75
116 116 77
106 107 73
131 130 86
125 124 86
100 102 70
115 115 80
114 115 80
106 108 78
119 120 82
131 130 88
116 118 84
114 115 81
121 122 85
127 127 86
131 131 91
121 122 87
124 123 84
137 135 92
115 118 84
137 137 95
132 132 91
136 135 91
126 126 87
140 139 95
146 144 98
130 131 88
137 137 93
145 144 99
143 142 95
145 143 94
141 140 93
151 150 99
147 146 98
153 151 100
152 149 97
154 151 99
157 155 102
160 156 101
155 153 102
153 151 97
161 158 104
159 156 98
160 157 102
161 158 102
166 162 107
159 155 98
159 156 101
164 161 107
168 163 103
170 166 106
167 163 104
169 165 106
171 165 106
171 167 103
168 165 106
169 164 104
170 166 108
172 168 109
169 165 105
171 167 107
169 164 104
173 168 107
172 168 106
175 170 109
175 169 108
172 168 105
171 166 105
174 169 106
177 172 110
170 166 104
173 168 103
174 170 106
178 172 109
177 171 108
176 170 108
175 170 105
176 170 108
175 169 106
176 170 104
172 166 101
170 165 102
177 171 107
172 167 104
170 165 103
174 168 104
174 168 104
176 169 106
174 168 103
170 165 98
172 168 101
170 165 101
173 168 103
172 167 103
171 166 101
170 164 102
172 167 99
172 166 99
171 165 99
169 164 100
172 167 101
170 164 100
170 163 96
167 161 97
161 156 91
170 165 102
164 159 97
167 161 97
169 163 98
165 159 94
162 156 93
168 162 95
169 162 94
167 160 93
163 157 93
162 156 93
163 156 93
166 160 90
158 151 88
164 157 91
166 159 94
157 150 84
158 152 85
162 156 85
155 149 84
158 152 82
149 143 75
153 147 82
154 147 83
146 141 73
157 151 77
142 136 72
144 138 75
141 135 69
144 138 67
142 136 66
142 135 69
143 136 71
142 139 65
143 144 58
150 157 45
158 173 41
169 188 25
169 189 25
173 196 0
172 196 0
172 196 0
172 196 0
174 198 0
175 198 0
174 197 0
171 195 0
170 194 0
173 196 0
174 197 0
172 196 0
173 197 0
173 196 0
170 194 0
174 197 0
174 197 0
170 194 0
175 198 0
173 196 0
171 194 0
174 197 0
172 196 0
173 196 0
172 196 0
175 198 0
172 196 0
174 197 0
174 197 0
175 198 0
173 196 0
170 194 0
173 196 0
171 196 0
169 193 0
174 197 0
172 196 0
174 197 0
171 195 0
170 194 0
173 197 0
174 197 0
172 195 0
170 194 0
173 197 0
174 196 0
173 196 0
168 192 0
168 193 0
172 195 0
173 197 0
173 196 0
172 196 0
173 196 0
172 196 0
171 195 0
170 194 0
173 197 0
172 194 0
170 195 0
171 194 0
170 194 0
171 195 0
169 193 0
174 197 0
174 198 0
171 194 0
172 196 0
173 196 0
171 195 0
172 196 0
173 196 0
172 197 0
172 196 0
172 195 0
174 197 0
170 194 0
174 198 0
171 195 0
174 197 0
172 196 0
172 195 0
172 194 0
174 197 0
173 196 0
168 192 0
170 195 0
172 196 0
168 191 0
171 194 0
169 192 0
170 192 0
170 194 0
171 194 0
171 195 0
171 195 0
172 196 0
170 194 0
169 193 0
173 196 0
172 196 0
172 195 0
174 197 0
173 196 0
170 194 0
157 181 67
116 142 139
86 117 159
63 100 175
62 98 168
62 99 174
62 99 175
62 98 173
62 99 178
62 98 174
62 99 174
63 100 178
62 99 179
62 99 176
62 99 180
62 99 175
62 99 179
61 98 177
62 99 179
62 99 181
62 99 178
61 98 178
62 99 178
62 99 178
62 99 180
62 99 181
62 99 180
62 99 177
62 99 178
62 99 180
63 100 181
63 100 181
62 99 180
63 99 179
62 99 179
61 99 181
63 100 181
62 99 179
62 99 181
61 98 179
62 99 180
61 99 180
61 98 180
62 99 181
62 99 180
61 99 179
62 99 181
62 99 180
62 99 180
62 99 181
61 99 181
63 100 181
61 99 181
61 99 180
62 99 181
61 99 180
61 99 181
62 99 181
62 99 181
62 99 181
62 99 181
61 98 180
61 99 181
61 99 181
62 99 181
61 99 181
62 99 181
61 99 180
61 99 181
61 99 181
62 99 181
62 99 180
62 99 180
62 99 180
61 99 180
62 99 180
62 99 181
61 99 181
62 99 180
62 99 181
62 99 180
61 99 180
62 99 180
62 99 180
62 99 179
62 99 179
62 99 177
62 99 181
61 99 181
62 99 180
62 99 181
61 98 176
61 99 179
62 99 181
61 98 180
62 99 181
61 99 181
62 99 180
62 99 178
62 98 177
62 99 180
61 99 179
61 98 177
62 99 176
62 99 177
62 99 180
62 99 177
62 99 179
62 99 177
61 98 180
61 98 179
61 98 177
61 98 174
61 98 174
61 98 175
62 98 176
62 99 178
61 98 173
62 99 171
62 99 178
62 99 176
62 99 176
61 98 173
61 98 170
61 98 175
63 99 177
62 98 172
61 97 171
62 98 175
62 98 176
61 97 172
61 96 168
61 97 172
61 97 173
61 95 163
60 94 160
59 94 160
62 95 161
89 107 147
109 112 97
110 108 62
116 114 63
111 110 66
99 99 63
116 115 73
98 98 63
108 107 68
114 114 75
99 99 64
109 108 73
110 110 72
107 108 71
106 105 69
102 104 71
109 110 75
118 118 80
109 109 77
115 117 83
106 109 81
100 104 78
114 115 77
119 120 84
117 117 83
110 112 80
115 116 83
121 121 84
115 117 82
122 124 87
136 136 95
129 128 89
129 130 91
134 133 93
137 136 91
125 127 89
128 128 89
137 136 92
141 140 94
140 139 95
147 145 99
137 136 93
142 142 98
148 147 97
143 143 95
155 152 101
156 153 100
142 140 92
156 154 103
157 154 100
154 152 101
160 156 102
155 154 104
166 162 106
164 160 103
158 155 99
159 157 103
156 153 100
163 160 101
166 162 107
167 164 102
164 161 104
164 161 99
164 160 103
169 165 106
168 164 109
168 163 104
165 162 106
168 164 106
165 162 102
168 165 104
171 166 106
169 165 104
168 164 105
175 169 110
173 168 106
174 168 104
176 170 105
169 165 103
171 167 104
174 169 107
177 171 110
174 169 105
173 168 105
173 168 98
173 168 105
176 170 110
175 169 107
177 171 109
175 169 104
175 169 106
176 170 106
178 170 105
174 168 104
175 169 103
173 167 102
174 168 104
177 171 107
172 166 102
174 168 103
171 166 103
175 169 103
169 164 98
173 167 101
171 166 99
172 167 102
171 165 97
174 169 106
170 164 100
168 163 98
175 168 106
174 169 106
175 168 103
173 167 99
167 161 96
175 168 104
171 165 97
176 169 103
165 160 95
169 162 96
165 160 95
167 161 93
168 161 94
165 159 97
167 160 90
162 157 89
162 156 86
160 154 89
167 161 93
162 157 86
159 152 86
168 161 99
150 145 80
165 159 91
161 155 87
152 147 75
156 150 87
155 149 84
150 144 80
151 145 76
143 138 68
147 141 77
156 150 80
147 142 74
142 137 73
141 136 75
145 140 70
147 141 75
138 133 63
143 138 64
127 122 54
142 139 65
142 146 54
152 163 41
159 174 37
163 181 25
167 186 25
175 198 0
173 196 0
173 197 0
172 195 0
171 195 0
173 196 0
172 196 0
173 196 0
172 195 0
173 197 0
172 194 0
173 197 0
173 196 0
172 196 0
174 197 0
174 197 0
174 197 0
172 196 0
172 195 0
172 195 0
173 197 0
173 196 0
172 194 0
172 196 0
175 198 0
172 196 0
172 196 0
172 195 0
173 197 0
173 196 0
173 196 0
171 194 0
171 195 0
172 195 0
173 197 0
172 195 0
171 195 0
171 194 0
173 196 0
173 196 0
172 196 0
174 197 0
173 196 0
171 195 0
174 197 0
170 193 0
173 196 0
170 194 0
172 196 0
173 197 0
174 198 0
169 193 0
172 196 0
173 197 0
170 193 0
171 194 0
172 195 0
171 195 0
173 196 0
175 198 0
173 196 0
171 195 0
171 195 0
173 196 0
173 196 0
171 195 0
173 196 0
171 194 0
173 195 0
171 195 0
172 195 0
174 197 0
173 197 0
172 195 0
172 195 0
171 195 0
172 195 0
171 195 0
169 193 0
172 196 0
172 195 0
172 194 0
170 194 0
171 194 0
171 194 0
171 195 0
172 194 0
172 196 0
170 193 0
173 197 0
169 192 0
169 193 0
170 194 0
172 195 0
169 191 0
168 191 0
171 194 0
171 195 0
173 196 0
170 193 0
167 190 0
168 192 0
169 193 0
174 197 0
160 184 54
147 170 90
84 116 154
62 99 174
62 98 171
62 99 174
61 98 169
62 99 177
62 99 177
62 99 179
61 98 175
61 98 175
63 99 177
62 99 176
62 99 175
62 99 177
62 99 178
62 99 179
62 99 178
62 99 178
62 99 177
61 99 178
61 99 178
62 99 180
61 99 181
62 99 180
61 99 180
61 99 181
62 99 180
62 99 181
62 99 179
63 100 180
62 99 181
62 99 179
62 99 180
61 98 179
61 98 180
62 99 180
61 99 179
62 99 179
62 99 180
62 99 181
62 99 180
62 99 181
62 99 180
62 99 181
62 99 180
61 99 180
61 98 179
61 99 180
61 99 180
62 99 181
62 99 181
62 99 181
61 99 179
62 99 181
62 99 181
62 99 181
62 99 180
61 98 179
62 99 179
62 99 181
61 99 181
61 98 181
62 99 180
62 99 180
62 99 179
62 99 181
61 99 180
62 99 180
61 99 181
62 99 178
61 98 180
62 99 179
62 99 181
62 99 181
62 99 181
61 99 180
62 99 181
62 99 181
62 99 180
62 99 179
62 99 181
62 99 179
62 99 181
62 99 180
62 99 181
61 98 174
61 99 180
62 99 179
62 99 180
62 99 181
62 99 181
62 99 179
62 99 181
62 99 178
63 100 181
61 99 178
61 99 180
61 98 177
62 99 177
63 100 180
62 99 180
62 99 179
62 99 180
61 98 175
61 99 179
62 98 176
61 98 176
62 99 179
62 99 178
62 99 176
61 98 177
61 99 177
61 98 176
62 99 177
62 99 178
62 99 180
62 99 179
61 98 178
61 98 175
62 99 177
62 98 175
61 97 173
61 97 175
61 97 173
62 99 175
62 98 173
62 99 175
61 98 173
61 98 175
61 97 173
60 95 165
61 98 175
60 95 167
61 96 168
60 95 166
60 95 166
59 93 162
63 96 163
88 104 137
108 108 72
117 114 68
114 111 67
106 105 63
119 117 72
99 99 62
97 97 58
101 102 69
104 104 68
112 110 73
112 111 75
95 97 68
103 104 71
100 102 75
105 106 74
103 105 73
101 102 70
116 117 83
116 117 81
114 115 80
113 114 80
108 109 77
111 114 80
125 125 87
114 115 80
121 122 85
126 127 89
129 128 89
123 124 85
135 133 92
129 129 88
130 130 87
124 125 86
139 139 96
133 134 95
133 132 90
132 133 91
148 147 97
149 146 98
137 135 90
144 143 93
149 147 96
145 143 97
137 137 94
155 153 102
151 148 98
155 152 99
143 142 96
161 158 104
157 154 98
160 156 99
159 156 101
161 158 101
164 160 104
156 154 99
148 147 98
161 158 104
163 160 104
163 159 102
160 156 102
163 160 104
166 162 104
168 164 104
162 158 101
164 161 104
165 162 105
165 162 105
167 163 101
168 164 107
173 169 108
172 167 106
173 168 106
173 169 106
173 169 106
175 170 106
173 169 108
173 168 104
174 168 104
176 170 107
170 165 101
176 170 106
172 167 106
177 171 108
175 169 103
173 168 102
174 169 103
172 167 105
174 168 106
172 167 104
177 171 105
176 170 105
177 171 107
177 170 106
171 166 100
175 169 105
179 172 109
173 166 98
173 166 101
171 166 103
171 165 102
172 166 99
174 168 104
175 168 104
169 164 99
170 165 98
173 167 101
176 169 104
171 165 96
172 165 97
172 166 99
164 159 95
178 172 107
165 160 98
167 161 98
170 164 99
169 163 97
175 168 102
166 159 93
166 160 95
169 163 97
165 159 92
171 164 104
168 161 96
169 163 95
167 161 93
158 153 87
156 150 87
167 161 93
162 155 87
161 155 87
162 156 87
156 150 81
159 152 87
161 153 90
158 150 84
160 154 86
161 155 89
156 149 77
162 154 85
160 153 83
148 142 76
148 143 76
142 137 68
153 146 83
144 138 74
140 135 66
144 138 71
142 137 66
143 138 64
140 138 57
147 151 48
146 153 52
155 170 28
166 185 22
166 187 16
173 196 0
174 198 0
175 198 0
174 198 0
173 197 0
173 196 0
174 197 0
173 196 0
171 195 0
174 197 0
169 193 0
172 196 0
173 197 0
175 198 0
172 196 0
174 198 0
171 195 0
172 195 0
173 196 0
171 194 0
170 195 0
173 196 0
173 196 0
171 195 0
173 196 0
171 195 0
172 195 0
174 197 0
174 197 0
171 195 0
173 196 0
174 197 0
173 196 0
170 194 0
171 195 0
172 196 0
167 191 0
174 198 0
172 196 0
172 197 0
171 195 0
173 197 0
172 196 0
172 196 0
172 196 0
171 195 0
172 196 0
168 192 0
171 195 0
172 195 0
173 196 0
172 196 0
167 191 0
174 197 0
171 195 0
175 198 0
171 195 0
173 196 0
170 194 0
172 195 0
173 196 0
173 197 0
172 196 0
173 196 0
173 196 0
173 196 0
171 196 0
170 194 0
173 196 0
169 194 0
173 196 0
171 195 0
169 192 0
172 196 0
172 196 0
171 193 0
168 191 0
169 193 0
170 194 0
173 197 0
169 193 0
171 194 0
173 196 0
170 193 0
171 194 0
169 193 0
169 193 0
173 196 0
169 193 0
167 190 0
172 195 0
169 193 0
172 195 0
173 196 0
173 195 0
171 194 0
175 197 0
170 193 0
170 194 0
171 194 0
172 195 0
172 195 0
172 194 0
172 195 31
144 168 99
86 116 153
62 98 167
62 98 174
62 99 173
61 98 169
62 99 175
62 99 175
62 98 171
62 99 177
62 99 175
61 98 177
62 99 175
63 99 177
62 99 177
62 99 180
62 99 178
62 99 175
62 99 178
62 99 180
62 99 178
62 99 178
62 99 177
62 99 179
62 99 179
62 99 179
62 99 178
62 99 178
63 100 181
62 99 180
62 99 180
62 99 180
62 99 181
62 99 180
63 100 180
62 99 179
62 99 180
62 99 179
62 99 180
63 100 180
62 99 180
62 99 180
61 99 181
62 99 181
61 99 181
62 99 181
61 98 179
61 99 180
62 99 180
61 98 180
62 99 179
62 99 181
62 99 181
62 99 180
62 99 180
62 99 180
61 99 180
62 99 180
62 99 181
62 99 181
62 99 179
62 99 180
61 99 181
62 99 181
61 99 180
62 99 180
62 99 180
61 98 178
62 99 181
62 99 180
62 99 181
61 99 180
61 98 180
61 99 180
62 99 181
62 99 179
61 99 181
62 99 181
61 99 179
62 99 179
62 99 181
61 99 180
62 99 180
61 99 180
61 99 181
62 99 181
62 99 180
62 99 177
62 99 179
61 99 180
62 99 179
62 99 178
62 99 181
62 99 181
62 99 181
61 99 179
62 99 179
62 99 180
61 99 178
62 99 176
63 99 179
62 99 177
61 98 178
62 99 176
62 99 176
62 99 180
62 99 180
62 99 180
62 99 179
61 98 175
62 98 176
62 99 177
61 98 179
62 99 179
62 99 177
63 100 180
62 98 177
61 98 172
62 98 173
61 98 177
62 98 177
62 99 175
61 98 176
63 99 177
62 99 175
62 98 173
61 98 172
62 99 176
62 98 173
62 98 174
62 98 174
61 98 171
61 98 174
60 96 165
62 98 173
60 96 170
61 96 168
60 94 165
60 94 158
60 95 165
68 95 149
77 92 117
109 107 62
106 106 65
114 112 68
117 114 67
113 111 69
99 100 69
107 107 68
108 108 70
97 98 65
105 106 71
110 110 77
92 94 66
107 108 72
107 107 73
117 118 82
118 117 79
104 106 75
104 106 77
110 113 80
103 104 76
121 122 84
123 123 82
104 106 74
112 114 80
114 115 80
119 119 83
121 121 85
114 117 85
133 133 92
127 127 89
145 144 98
130 131 90
133 132 88
134 134 92
145 143 95
136 136 91
132 133 92
143 141 93
134 134 92
137 137 95
133 133 88
142 142 96
148 146 96
150 148 99
148 146 97
155 152 99
162 158 103
156 154 101
159 156 100
161 158 103
160 156 103
156 152 98
156 153 100
157 154 101
158 155 101
166 162 105
158 155 102
153 152 98
162 158 98
161 158 105
172 167 106
168 164 105
164 161 100
167 162 105
168 164 102
165 161 99
168 163 101
169 164 104
169 165 106
174 168 105
169 165 103
167 163 103
172 168 108
172 166 104
169 165 105
170 165 104
169 166 103
174 168 103
173 168 103
172 166 103
175 170 108
171 166 103
171 165 101
176 170 106
175 169 105
175 169 105
175 169 103
172 167 103
175 169 103
174 168 101
175 171 107
174 169 105
176 170 104
173 168 104
175 169 103
175 168 101
173 167 103
174 168 98
174 169 105
170 164 96
172 166 100
171 165 99
165 160 93
168 163 99
172 166 97
175 169 103
171 165 100
170 164 99
170 163 98
171 165 100
168 163 96
168 163 94
170 163 99
166 160 95
170 165 99
170 164 99
170 164 95
163 156 93
161 155 90
164 158 88
166 160 90
162 156 89
153 147 82
169 162 93
165 159 92
164 158 93
162 156 91
159 154 88
161 155 87
163 157 91
165 159 90
163 156 90
160 154 84
151 145 81
159 152 84
154 148 84
145 140 75
151 145 75
147 141 71
155 148 84
147 141 70
140 134 72
149 142 74
149 144 71
149 142 74
136 129 64
139 134 62
141 135 72
134 132 62
147 151 48
152 159 45
162 177 30
168 186 25
168 188 0
172 195 0
171 195 0
174 197 0
173 196 0
173 197 0
174 197 0
173 197 0
175 198 0
174 196 0
175 198 0
171 194 0
172 196 0
172 195 0
170 194 0
174 198 0
174 197 0
172 196 0
172 195 0
172 196 0
174 196 0
172 196 0
173 196 0
172 196 0
171 195 0
174 197 0
173 196 0
172 196 0
171 194 0
173 197 0
172 195 0
173 197 0
171 195 0
168 192 0
171 195 0
172 196 0
171 194 0
172 195 0
172 196 0
171 194 0
173 196 0
171 194 0
171 194 0
173 196 0
171 194 0
171 195 0
172 195 0
173 197 0
172 196 0
174 197 0
172 196 0
171 194 0
174 197 0
172 196 0
171 194 0
172 196 0
172 194 0
174 196 0
173 196 0
173 197 0
173 197 0
171 194 0
174 197 0
172 195 0
171 195 0
172 196 0
170 192 0
173 196 0
170 193 0
170 193 0
171 195 0
174 197 0
171 194 0
171 194 0
171 194 0
170 194 0
173 196 0
171 195 0
171 194 0
171 194 0
172 195 0
171 194 0
173 196 0
170 193 0
172 195 0
173 196 0
171 194 0
173 197 0
173 196 0
172 196 0
171 194 0
173 197 0
170 194 0
172 195 0
169 192 0
173 196 0
170 194 0
171 194 0
170 194 0
171 194 0
172 195 0
173 195 0
170 193 0
169 192 0
149 173 88
89 119 156
66 102 173
63 99 172
63 99 173
62 99 177
63 99 173
63 100 177
62 99 175
62 99 175
62 99 174
62 98 174
62 99 175
62 99 175
63 100 177
62 99 177
62 99 177
62 99 180
62 99 178
62 99 178
63 100 179
62 99 178
63 100 181
62 99 179
62 99 178
63 100 180
61 99 178
62 99 179
63 100 181
62 99 181
61 99 181
62 99 179
62 99 180
62 99 181
62 99 180
62 99 180
61 99 179
61 99 180
62 99 180
62 99 181
61 99 181
62 99 180
61 99 180
62 99 178
62 99 181
62 99 180
61 99 179
61 98 180
62 99 181
62 99 180
61 99 179
61 99 180
62 99 180
62 99 180
62 99 181
62 99 180
62 99 181
61 99 181
62 99 181
61 99 181
62 99 181
62 99 180
62 99 181
62 99 181
62 99 181
61 98 181
62 99 180
62 99 179
62 99 180
62 99 180
62 99 179
61 99 180
62 99 180
62 99 181
61 99 181
61 99 180
62 99 179
62 99 181
62 99 180
61 98 179
62 99 179
62 99 178
62 99 180
62 99 179
62 99 180
63 100 180
62 99 181
61 99 180
62 99 179
62 99 180
62 99 179
63 99 180
61 99 179
62 99 181
62 99 179
62 99 181
62 99 180
62 99 179
62 99 181
61 99 181
61 98 178
62 99 181
62 99 180
62 99 177
62 99 180
62 99 179
62 99 178
62 99 177
63 99 177
62 99 177
62 99 180
63 99 178
62 99 178
62 99 180
62 99 177
62 99 175
62 98 174
61 97 173
62 99 177
62 99 178
61 98 174
62 99 175
61 98 174
62 99 178
62 98 175
62 99 176
61 98 173
62 99 174
62 97 172
61 98 174
62 98 174
62 98 173
62 98 175
62 98 171
62 98 173
61 98 174
61 97 170
61 97 169
61 97 169
60 95 163
61 96 169
60 95 161
73 97 147
89 99 107
110 109 65
97 98 61
117 114 69
112 111 71
109 108 66
109 109 67
96 98 64
108 108 73
95 96 62
90 92 62
92 95 68
111 111 76
110 111 76
94 96 67
101 103 74
102 104 73
111 111 76
105 106 75
123 122 83
119 120 82
100 103 75
109 111 79
106 108 75
118 119 85
123 125 89
121 121 84
117 119 84
126 127 86
132 132 91
128 126 87
122 123 84
127 127 89
133 132 92
129 129 91
140 138 91
138 137 92
144 142 96
147 146 95
143 141 95
143 142 94
152 150 101
147 145 95
141 140 95
141 140 93
156 154 102
150 148 96
149 147 98
154 151 99
160 156 102
156 154 101
149 147 97
158 155 100
161 158 97
157 154 99
158 155 98
158 155 100
167 163 104
164 161 101
161 157 101
164 161 103
167 163 102
170 166 105
166 162 101
169 164 105
168 163 104
171 166 109
174 168 104
167 163 104
172 167 102
173 168 106
170 166 107
172 167 101
174 169 103
171 167 105
171 166 104
171 166 102
173 168 102
173 168 107
176 170 104
173 168 102
174 169 106
173 168 102
174 169 104
177 172 110
177 170 106
174 168 99
174 169 108
174 169 100
177 171 105
176 170 106
174 169 104
178 171 106
172 166 102
173 168 101
171 166 103
175 168 101
170 165 99
173 167 103
174 168 104
177 170 101
173 167 100
171 166 99
173 167 107
171 165 101
172 167 101
169 163 102
169 163 99
175 168 103
166 161 97
170 164 96
168 162 97
165 160 93
168 162 95
169 162 96
168 162 98
167 162 94
173 166 99
167 161 93
169 162 99
170 163 93
169 162 95
165 159 91
161 155 93
166 159 93
165 158 93
166 159 93
161 154 84
163 157 87
159 152 90
161 155 87
161 155 82
163 156 90
159 154 84
157 150 87
151 146 81
147 142 72
159 152 85
155 150 82
148 142 78
154 148 75
150 143 78
159 152 80
146 140 71
137 132 64
137 132 64
137 131 67
143 137 57
137 133 63
153 154 64
161 166 59
147 159 41
160 177 32
167 187 11
172 196 0
174 197 0
176 199 0
173 195 0
174 197 0
175 197 0
174 198 0
173 196 0
173 197 0
173 197 0
173 196 0
174 198 0
173 196 0
173 197 0
174 197 0
175 197 0
174 198 0
173 195 0
173 197 0
172 196 0
170 193 0
171 195 0
173 197 0
174 197 0
171 195 0
173 196 0
174 197 0
172 195 0
173 197 0
171 194 0
172 196 0
172 196 0
174 197 0
170 193 0
174 198 0
174 197 0
170 194 0
173 197 0
173 196 0
173 196 0
174 197 0
172 196 0
171 196 0
172 194 0
173 196 0
172 195 0
173 196 0
174 197 0
174 197 0
172 196 0
170 194 0
174 196 0
171 194 0
170 194 0
171 195 0
173 196 0
172 195 0
172 194 0
170 194 0
170 193 0
174 196 0
172 195 0
172 196 0
173 195 0
172 195 0
173 196 0
174 196 0
174 198 0
169 192 0
172 195 0
170 194 0
170 194 0
169 193 0
172 195 0
168 192 0
172 195 0
170 194 0
173 197 0
174 197 0
168 191 0
171 194 0
171 195 0
173 196 0
172 196 0
174 197 0
170 194 0
172 196 0
169 192 0
171 194 0
172 195 0
170 194 0
167 191 0
168 192 0
168 191 0
172 195 0
170 193 0
173 195 0
173 197 0
174 197 0
170 193 0
172 195 0
169 192 25
155 179 76
110 137 144
64 100 170
62 99 173
62 99 174
61 98 171
62 99 172
62 99 175
62 99 177
62 98 170
62 99 176
62 98 171
62 99 179
62 99 179
62 99 178
63 100 179
61 98 171
62 99 178
62 99 177
63 99 178
62 99 177
63 99 179
62 99 179
62 99 179
63 99 178
62 99 179
62 99 179
62 99 178
62 99 179
61 99 178
62 99 179
62 99 179
61 99 180
62 99 181
62 99 179
62 99 181
62 99 179
62 99 179
62 99 180
62 99 180
62 99 180
61 99 180
61 99 181
62 99 181
61 99 180
62 99 180
63 100 179
62 99 180
61 98 179
61 99 181
62 99 179
62 99 181
61 98 179
62 99 178
62 99 181
62 99 181
61 99 180
62 99 181
61 99 179
62 99 180
62 99 181
62 99 181
62 99 181
62 99 180
61 99 180
61 98 178
62 99 181
62 99 181
62 99 181
62 99 180
62 99 180
61 99 181
62 99 180
62 99 180
62 99 180
63 100 179
62 99 180
63 100 181
62 99 180
62 99 181
62 99 180
62 99 179
62 99 181
62 99 179
61 99 177
62 99 178
61 99 178
62 99 179
61 99 181
62 99 180
62 99 181
62 99 179
62 99 180
62 99 179
61 99 179
62 99 180
62 99 177
61 99 179
61 98 176
62 99 179
61 99 181
62 99 178
62 99 181
61 99 180
62 99 180
62 99 181
62 99 177
62 99 180
62 99 176
61 98 177
62 99 176
63 99 178
63 99 178
62 99 177
61 98 173
62 99 177
62 99 178
62 98 173
62 99 177
62 98 174
61 98 175
62 98 174
62 98 174
62 99 176
62 98 176
62 99 178
62 98 172
62 99 175
63 99 176
62 99 174
61 98 174
62 98 170
62 98 175
61 97 168
62 98 175
61 97 169
62 98 172
61 97 172
61 97 170
61 96 167
62 97 170
61 96 163
61 96 166
61 95 165
76 99 149
103 106 88
109 108 63
95 94 59
107 107 65
98 98 65
93 95 62
96 97 66
85 88 65
91 93 63
104 103 69
92 94 67
100 101 68
109 109 75
103 105 74
104 106 76
108 108 74
106 107 77
103 105 73
108 110 78
99 102 74
111 112 80
111 112 79
113 114 79
116 118 83
120 122 85
121 122 85
131 130 90
121 122 84
127 129 90
127 127 89
124 125 86
126 127 87
129 130 90
123 125 88
134 133 90
139 138 93
137 136 90
140 139 91
130 132 89
141 140 94
148 146 96
136 136 93
141 139 92
150 149 97
144 143 97
149 148 97
147 145 98
147 146 94
154 152 100
156 154 97
157 155 100
159 155 102
159 156 100
163 160 103
161 157 100
156 153 98
157 154 99
161 157 98
165 162 104
166 162 102
166 162 104
170 165 106
159 157 98
166 162 103
169 164 104
163 159 102
171 166 103
172 167 104
170 165 103
172 167 103
168 163 102
174 168 104
174 168 101
174 169 106
176 170 105
172 167 103
176 170 104
173 168 101
171 167 102
170 165 98
173 168 104
176 170 105
174 169 104
175 170 103
174 169 103
175 170 107
177 171 106
172 167 101
173 168 104
172 167 106
174 168 101
173 167 100
172 167 98
174 168 101
178 170 103
169 163 98
169 164 98
171 166 98
172 167 102
174 167 102
175 168 100
171 165 99
175 168 101
170 164 97
170 165 100
173 167 97
173 167 101
177 170 104
173 167 99
169 164 99
174 167 103
170 165 97
170 163 98
171 164 95
169 163 95
165 158 92
166 160 91
169 163 97
165 159 96
171 164 97
164 158 95
170 163 95
164 157 87
162 157 86
164 157 87
163 157 88
156 150 81
163 157 93
160 154 81
155 149 84
158 153 86
155 151 82
155 150 80
159 153 80
154 147 85
145 138 76
148 143 75
153 146 80
155 149 78
142 136 66
142 137 67
147 140 72
153 146 78
139 134 72
146 140 73
144 138 72
129 125 51
143 139 65
147 150 61
149 160 42
155 170 32
161 179 22
164 184 22
173 196 0
174 197 0
172 196 0
171 195 0
174 198 0
173 197 0
173 197 0
170 194 0
171 195 0
174 198 0
171 194 0
174 197 0
171 195 0
175 198 0
172 196 0
170 193 0
173 197 0
169 193 0
173 196 0
171 196 0
172 195 0
175 198 0
170 193 0
173 196 0
175 198 0
175 198 0
172 195 0
169 193 0
172 196 0
171 194 0
174 198 0
173 196 0
170 194 0
172 194 0
172 196 0
172 195 0
174 196 0
171 194 0
172 196 0
172 196 0
174 197 0
171 194 0
173 197 0
172 195 0
173 196 0
173 197 0
171 194 0
173 197 0
171 194 0
174 197 0
171 195 0
169 194 0
173 196 0
173 196 0
173 197 0
171 194 0
172 195 0
171 195 0
172 195 0
171 195 0
172 195 0
171 195 0
171 195 0
173 196 0
171 195 0
171 194 0
170 193 0
172 194 0
171 194 0
171 195 0
173 196 0
173 196 0
171 195 0
173 196 0
173 196 0
172 196 0
173 196 0
172 195 0
172 196 0
173 196 0
173 196 0
171 194 0
170 193 0
170 194 0
170 192 0
172 195 0
172 196 0
174 197 0
172 196 0
172 195 0
171 195 0
171 194 0
172 194 0
170 194 0
171 195 0
168 192 0
173 196 0
173 197 0
170 194 0
170 194 0
172 196 0
168 190 40
116 142 133
81 113 164
61 98 166
62 98 173
62 98 168
62 98 167
62 99 173
62 99 177
62 99 176
62 99 173
62 99 176
62 98 173
62 99 174
62 99 178
61 98 174
62 99 179
61 98 177
62 99 177
62 99 177
62 99 177
61 98 176
63 100 181
62 99 175
62 99 180
62 99 180
62 99 180
61 98 180
62 99 179
62 99 181
62 99 180
62 99 178
62 99 175
62 98 176
62 99 181
62 99 181
62 99 178
62 99 180
62 99 181
62 99 179
62 99 181
62 99 181
61 99 180
62 99 176
62 99 180
62 99 181
63 100 180
62 99 181
62 99 180
63 100 180
62 99 180
62 99 179
62 99 180
62 99 180
62 99 179
62 99 181
62 99 181
62 99 179
62 99 181
62 99 180
62 99 179
61 99 180
62 99 180
62 99 180
62 99 181
62 99 177
62 99 181
62 99 181
61 99 179
62 99 181
62 99 181
63 100 180
61 98 179
62 99 180
62 99 181
62 99 181
62 99 181
62 99 180
62 99 181
62 99 181
62 99 181
62 98 178
62 99 179
62 99 179
61 99 178
62 99 180
62 99 181
62 99 180
61 99 179
61 98 179
61 99 179
62 99 180
62 99 178
61 98 178
62 99 180
62 99 179
62 99 179
62 99 180
62 99 180
62 99 180
63 100 181
62 99 180
62 99 179
61 98 176
62 99 179
62 99 179
61 99 179
62 99 181
62 99 178
62 99 179
62 99 177
61 98 176
62 99 179
62 99 179
62 99 178
62 99 177
62 99 176
62 99 180
61 98 177
62 99 180
62 99 175
61 97 172
61 98 174
62 98 173
62 99 179
62 99 179
62 99 178
62 98 176
61 98 175
62 98 171
61 97 171
61 97 169
61 98 174
62 98 174
62 98 175
62 98 173
61 97 172
61 97 166
61 96 169
60 96 169
60 95 165
60 94 163
61 96 170
60 96 170
60 96 167
62 95 160
76 94 128
99 103 83
105 103 61
94 94 55
117 115 71
106 106 66
91 92 64
94 95 64
104 104 71
98 99 67
95 97 67
103 104 70
102 102 70
97 99 70
92 95 68
98 101 73
92 94 69
104 106 75
101 103 74
102 105 77
105 106 74
101 102 73
108 110 77
111 113 81
122 122 86
116 116 81
117 119 82
120 122 84
125 126 87
129 128 88
128 127 87
134 132 89
128 129 88
123 125 89
134 134 90
141 140 94
139 138 93
136 136 92
136 135 91
138 137 92
146 144 97
138 139 92
146 144 96
150 148 100
146 145 93
156 153 101
153 151 100
144 143 94
154 152 99
144 142 93
158 153 98
163 159 102
164 160 99
160 157 100
162 158 100
156 154 100
167 163 101
162 158 100
159 155 97
166 161 103
160 157 99
165 160 103
163 160 102
168 163 104
170 165 105
171 166 105
166 162 105
170 165 100
168 164 101
171 166 105
167 164 104
169 165 103
169 165 101
174 168 106
171 166 104
170 165 101
174 167 103
172 167 102
177 170 104
172 167 102
171 166 96
178 172 110
175 169 104
175 169 105
173 167 101
174 168 105
174 168 100
174 168 99
175 169 102
174 169 101
173 167 101
176 170 104
169 164 101
175 169 103
172 166 100
171 166 98
169 164 99
174 168 101
172 167 103
173 166 99
173 168 103
172 166 99
171 165 96
175 169 103
168 161 94
172 166 99
170 164 95
172 167 99
172 166 99
173 167 101
168 163 97
163 157 93
171 165 97
163 158 94
162 156 87
160 155 84
168 161 95
170 163 93
166 159 94
167 161 97
166 160 91
162 156 87
162 156 89
165 159 89
157 151 80
168 161 95
160 154 87
160 153 84
159 153 87
158 152 84
162 155 89
158 152 80
159 152 82
162 156 84
155 147 82
162 155 84
160 153 87
157 150 87
150 143 75
148 141 72
149 142 75
149 144 77
152 146 73
148 141 76
140 135 66
138 133 63
140 134 64
145 141 61
152 156 52
149 158 44
157 170 36
160 177 22
168 187 25
173 196 0
173 197 0
173 196 0
172 195 0
174 197 0
174 197 0
172 196 0
173 196 0
173 197 0
171 194 0
170 194 0
174 197 0
173 196 0
175 198 0
172 196 0
174 197 0
173 196 0
174 196 0
172 196 0
168 192 0
170 194 0
174 196 0
173 197 0
175 198 0
172 195 0
171 196 0
171 194 0
171 194 0
172 195 0
175 198 0
173 196 0
169 192 0
175 197 0
172 196 0
172 196 0
173 197 0
172 196 0
170 194 0
170 194 0
173 196 0
170 194 0
173 196 0
172 195 0
172 196 0
173 195 0
172 195 0
173 197 0
173 197 0
173 196 0
173 197 0
171 195 0
173 197 0
173 196 0
173 196 0
171 196 0
172 196 0
169 193 0
172 196 0
173 196 0
171 195 0
171 194 0
172 195 0
175 198 0
170 192 0
171 194 0
174 197 0
174 197 0
171 195 0
171 194 0
174 197 0
173 196 0
174 197 0
170 193 0
172 195 0
174 197 0
175 197 0
172 195 0
171 194 0
172 195 0
170 193 0
172 195 0
170 193 0
172 195 0
171 194 0
167 191 0
172 196 0
172 195 0
170 194 0
173 196 0
169 193 0
172 195 0
173 196 0
173 197 0
171 194 0
173 196 0
171 195 0
173 196 0
167 190 0
171 194 0
168 192 0
171 193 18
123 150 120
83 114 160
61 97 163
62 98 173
62 99 170
63 100 176
63 99 175
62 99 173
62 99 172
62 99 176
62 99 177
62 99 177
62 99 177
62 99 173
62 99 175
62 99 176
62 99 175
61 98 177
63 100 177
62 99 177
62 99 177
62 99 180
62 99 179
62 99 179
62 99 179
62 99 179
62 99 179
62 99 178
62 99 178
62 99 179
62 99 178
62 99 179
62 99 180
62 99 178
62 99 180
62 99 180
62 99 179
62 99 181
62 99 179
62 99 178
62 99 181
61 99 180
62 99 180
62 100 181
62 99 180
62 99 180
63 99 177
62 99 180
62 99 180
62 99 179
61 98 177
62 99 178
62 99 181
62 99 180
62 99 181
63 100 181
62 99 179
61 99 181
62 99 180
62 99 177
61 98 181
61 98 178
61 99 181
61 99 181
62 99 180
62 99 180
62 99 181
62 99 179
62 99 179
62 99 180
62 99 180
62 99 179
62 99 178
62 99 179
62 99 181
62 99 181
61 99 179
62 99 180
62 99 181
61 98 181
62 99 180
62 99 181
61 99 181
62 99 178
62 99 180
62 99 181
62 99 180
62 99 178
62 99 179
62 99 181
62 99 181
62 99 180
61 98 179
62 99 180
61 98 178
62 99 179
61 99 180
62 99 179
61 98 176
62 99 177
62 99 177
61 99 178
61 98 174
61 98 175
61 98 178
61 99 180
62 99 179
62 99 179
61 99 178
62 99 177
62 99 177
62 99 178
63 99 177
62 99 177
62 99 177
62 99 180
62 99 178
62 99 180
61 98 176
62 99 176
61 98 174
62 99 176
62 98 172
61 98 176
62 98 172
61 97 170
61 97 172
61 97 173
61 98 177
62 98 174
61 97 170
62 99 177
61 97 167
61 97 171
61 97 172
61 97 172
60 96 166
61 96 167
62 99 174
61 97 169
61 97 169
59 94 162
61 97 173
60 96 166
60 95 162
60 94 158
70 98 157
88 99 114
97 98 69
98 99 64
98 97 63
96 96 61
105 105 64
91 90 59
101 101 69
93 95 66
104 104 70
96 97 66
79 84 63
94 97 67
100 102 72
100 102 73
101 103 73
103 105 75
104 106 77
109 111 81
102 103 70
123 122 84
111 112 78
119 120 85
104 107 77
113 114 80
128 127 85
125 125 86
134 132 88
127 127 89
124 125 89
122 123 85
131 131 89
136 135 90
143 142 95
132 131 88
136 135 88
138 138 89
142 140 94
144 143 93
134 134 89
139 138 92
138 137 90
148 146 92
143 142 97
152 150 101
150 148 94
147 146 96
151 150 99
150 148 94
164 159 102
159 156 100
162 158 103
152 150 95
164 159 99
153 150 97
157 154 98
164 160 99
162 159 96
160 156 96
164 161 101
165 161 100
169 165 106
165 161 97
167 162 103
170 165 103
167 163 101
168 164 106
171 167 105
169 164 99
173 167 104
168 163 101
173 168 104
167 162 96
176 169 103
172 167 103
172 167 100
176 169 102
173 168 103
174 169 103
172 167 101
174 169 103
172 167 102
174 168 102
169 165 99
171 166 104
174 168 104
171 166 102
176 169 99
172 167 101
175 169 103
175 169 101
172 166 105
171 165 94
174 168 96
173 168 103
179 172 104
175 168 102
175 168 100
174 169 101
169 164 90
170 165 99
173 167 100
168 162 93
172 167 96
173 167 101
171 165 101
171 165 98
174 168 99
173 167 101
171 165 98
166 160 90
172 165 96
168 161 91
171 164 99
167 161 90
165 160 95
167 161 97
158 153 89
171 163 91
165 159 89
164 158 92
162 155 90
163 156 87
161 155 90
164 157 87
159 152 87
162 155 87
162 156 88
151 146 80
162 154 88
155 149 83
158 153 83
155 149 80
154 148 82
157 150 80
145 138 72
151 145 80
153 147 79
148 143 77
145 139 70
147 141 72
149 143 68
150 143 73
136 131 56
136 130 63
138 133 59
140 136 68
151 150 60
153 159 51
162 177 36
161 176 32
160 179 0
169 193 0
171 195 0
174 197 0
171 195 0
172 195 0
172 196 0
173 196 0
172 196 0
172 196 0
171 195 0
174 197 0
173 196 0
173 196 0
174 198 0
174 197 0
170 194 0
172 195 0
170 194 0
169 193 0
173 196 0
169 192 0
173 196 0
174 197 0
169 193 0
172 196 0
175 198 0
174 197 0
172 196 0
170 193 0
172 195 0
174 197 0
172 195 0
171 195 0
172 196 0
172 196 0
170 193 0
173 196 0
173 197 0
172 196 0
172 196 0
174 198 0
176 199 0
172 196 0
169 192 0
175 198 0
175 198 0
174 198 0
171 194 0
174 197 0
173 197 0
173 196 0
169 193 0
171 195 0
171 195 0
172 195 0
172 196 0
173 195 0
173 196 0
173 197 0
171 195 0
172 195 0
171 194 0
170 193 0
170 193 0
172 195 0
169 193 0
169 193 0
172 196 0
171 194 0
171 194 0
168 191 0
165 188 0
171 195 0
173 197 0
171 194 0
172 195 0
171 194 0
174 197 0
173 197 0
172 196 0
170 194 0
173 196 0
171 195 0
172 195 0
172 195 0
173 196 0
170 194 0
166 190 0
173 196 0
171 195 0
170 194 0
170 193 0
172 195 0
170 193 0
171 195 0
172 195 0
172 195 0
170 193 0
164 187 0
169 193 25
155 179 78
94 123 142
64 100 171
62 98 168
62 99 175
62 99 170
62 99 174
62 99 173
62 98 171
62 99 174
62 99 175
61 98 175
62 99 176
62 99 177
62 99 176
62 99 174
62 99 177
61 98 173
62 99 177
62 99 177
61 98 173
62 99 177
62 99 178
62 99 177
62 99 180
63 99 178
62 99 178
62 99 177
62 99 179
62 99 180
62 99 176
63 100 180
62 99 181
61 98 178
63 100 180
61 98 178
63 100 181
62 99 179
62 99 180
63 100 179
62 99 179
62 99 179
62 99 181
62 99 181
61 98 178
61 99 178
61 98 179
62 99 181
61 99 180
62 99 180
61 99 180
62 99 180
62 99 181
62 99 180
61 98 177
61 99 181
62 99 180
61 99 181
62 99 180
62 99 178
62 99 179
62 99 178
61 99 180
62 99 180
62 99 180
62 99 179
62 99 179
62 99 180
62 99 180
61 99 180
62 99 180
62 99 180
62 99 181
61 99 179
62 99 180
63 100 180
62 99 181
62 99 179
61 99 178
62 99 181
62 99 179
62 99 180
61 98 177
62 99 180
63 100 181
61 98 177
61 99 181
62 99 180
62 99 180
62 99 181
62 99 178
61 99 181
62 99 180
62 99 180
62 99 175
62 99 180
62 99 179
63 100 180
62 99 176
62 99 178
62 99 179
62 99 177
62 99 176
62 99 178
62 99 178
62 99 180
62 99 177
62 99 179
61 99 178
62 99 177
62 99 177
62 99 177
62 99 176
62 99 177
62 99 175
63 99 179
62 99 179
61 98 177
62 98 176
62 99 176
62 99 175
62 99 175
61 98 174
62 98 172
62 99 178
61 97 170
62 98 173
62 99 175
61 98 174
62 99 174
62 98 173
62 99 176
61 98 173
62 98 173
63 99 174
61 97 170
62 98 172
62 98 173
62 99 176
61 97 170
62 98 170
60 95 166
62 97 171
60 95 163
60 95 164
60 95 164
61 96 166
61 95 163
68 95 150
93 100 101
91 93 60
88 88 59
93 93 63
99 99 66
93 93 60
93 94 63
91 92 58
92 94 66
97 97 65
99 101 70
89 93 67
110 110 77
104 104 73
104 106 75
97 100 72
100 103 74
112 113 80
107 108 76
114 115 81
95 99 71
116 118 84
119 118 81
106 108 76
119 119 82
116 117 83
123 124 88
114 117 80
125 126 85
126 126 84
120 122 87
131 130 89
125 126 84
136 137 92
132 133 90
140 139 89
145 144 94
142 140 92
136 136 92
141 139 93
142 140 92
151 149 97
142 140 91
157 153 97
143 141 95
145 143 95
145 144 92
156 152 94
149 147 94
159 155 99
155 152 92
150 149 99
157 154 98
162 159 102
155 152 95
154 151 92
156 154 95
161 157 98
165 161 102
166 162 105
167 163 101
168 163 103
166 162 101
158 155 93
166 162 100
168 162 100
168 163 99
173 168 104
167 164 103
171 166 103
173 167 102
173 166 103
172 166 103
168 164 102
175 169 102
177 170 106
172 166 101
170 165 99
174 168 99
175 170 104
174 169 104
174 168 101
175 169 103
171 166 95
172 167 102
177 170 103
173 169 101
172 167 100
175 169 101
176 169 105
170 164 98
172 167 101
176 169 104
173 167 101
171 165 95
176 170 103
174 167 97
170 164 94
172 166 98
171 165 95
174 167 99
162 157 89
173 167 101
172 165 95
167 162 95
171 165 97
174 167 97
171 165 93
167 162 96
171 164 98
173 166 90
165 159 89
166 161 89
172 166 99
162 156 89
166 160 91
174 166 98
167 160 97
161 156 87
165 160 93
168 161 93
160 154 87
161 155 87
159 154 88
163 157 90
158 152 80
159 154 84
158 152 80
152 146 78
161 154 84
156 149 84
158 152 78
151 146 80
148 143 72
149 143 73
151 145 75
152 146 78
136 130 60
140 135 64
145 139 68
149 143 70
141 136 68
137 131 67
150 144 71
134 128 64
131 130 54
146 149 54
147 156 37
153 165 37
161 177 36
170 190 22
173 196 0
174 197 0
173 196 0
174 197 0
173 197 0
173 196 0
173 197 0
173 196 0
174 197 0
175 198 0
173 196 0
171 195 0
172 195 0
173 196 0
173 197 0
171 194 0
174 196 0
174 197 0
174 197 0
173 197 0
173 196 0
173 196 0
174 197 0
171 194 0
174 198 0
168 193 0
169 193 0
173 195 0
172 196 0
172 195 0
173 196 0
174 197 0
173 196 0
172 195 0
173 196 0
174 197 0
174 198 0
169 194 0
171 195 0
170 194 0
171 194 0
169 193 0
172 195 0
172 195 0
172 195 0
172 195 0
174 197 0
171 195 0
170 194 0
173 196 0
170 193 0
172 195 0
172 194 0
173 197 0
172 196 0
170 193 0
171 194 0
172 196 0
171 194 0
170 194 0
169 192 0
170 194 0
173 195 0
170 193 0
172 195 0
171 195 0
175 197 0
170 193 0
170 194 0
172 195 0
173 196 0
169 193 0
171 194 0
172 195 0
168 192 0
172 194 0
171 194 0
172 195 0
173 196 0
174 196 0
173 195 0
172 196 0
172 196 0
172 196 0
172 196 0
170 194 0
172 195 0
172 195 0
171 195 0
172 196 0
170 193 0
171 194 0
171 194 0
171 193 0
167 190 0
169 193 0
172 195 0
168 192 0
167 191 0
159 183 60
121 146 126
65 101 171
62 99 170
62 99 171
61 98 171
62 99 175
62 99 172
61 98 175
63 99 176
63 99 175
63 100 177
62 99 176
62 99 178
62 99 173
62 99 175
62 99 178
62 99 174
62 99 178
62 99 176
62 99 177
62 99 177
62 99 179
62 99 178
63 100 180
61 99 177
62 99 181
62 99 177
62 99 178
62 99 178
62 99 180
62 99 178
62 99 180
62 99 179
62 99 180
61 99 179
61 99 181
62 99 179
61 98 178
62 99 179
63 100 181
63 100 181
62 99 181
62 99 181
62 99 179
62 99 179
62 99 181
62 99 180
62 99 179
61 99 180
61 99 180
61 98 180
62 99 181
62 99 180
61 99 180
62 99 179
61 98 179
62 99 179
62 99 178
61 99 178
62 99 177
62 99 180
62 99 180
62 99 178
62 99 181
62 99 181
62 99 180
62 99 180
62 99 181
62 99 180
62 99 181
62 99 180
62 99 180
61 98 179
62 99 178
61 99 178
62 99 181
62 99 180
61 98 177
62 99 179
61 99 180
62 99 180
62 99 179
62 99 180
62 99 180
61 98 179
61 99 180
61 98 176
62 99 178
63 100 181
61 98 179
62 99 178
62 99 179
63 99 177
62 99 180
62 99 178
62 99 179
62 99 176
62 99 177
62 99 177
62 99 177
61 98 177
62 99 177
63 100 180
62 99 179
62 99 177
62 99 178
62 99 179
62 99 177
63 100 179
62 99 178
62 99 178
61 98 176
62 98 173
61 98 173
62 99 177
63 99 178
62 99 176
62 98 171
62 99 179
62 99 176
62 99 175
62 98 174
62 99 176
62 99 176
61 98 174
62 99 176
63 99 178
62 98 176
61 98 172
61 98 172
61 98 172
61 98 170
62 98 172
61 98 173
61 96 166
62 98 171
62 97 167
60 96 167
61 96 165
62 97 168
62 98 170
60 95 164
62 97 168
61 96 160
62 98 172
61 97 169
60 95 163
59 93 158
59 93 159
78 99 139
82 89 93
107 106 65
91 90 58
101 102 66
91 92 58
97 98 66
92 94 62
95 96 66
83 86 60
103 103 71
89 90 63
87 90 68
99 100 70
99 100 71
107 109 78
91 95 70
107 109 76
98 101 74
105 108 77
99 102 73
101 104 76
106 108 79
111 112 79
99 103 76
111 114 80
119 120 83
115 116 80
120 121 81
115 117 81
124 126 87
124 123 84
133 132 90
138 137 92
122 122 83
139 139 92
138 137 90
137 135 89
140 139 93
137 137 90
139 138 92
146 144 96
144 141 93
145 144 94
149 147 95
153 150 93
149 147 97
155 153 99
154 151 97
151 149 97
153 151 96
163 159 100
149 147 90
160 157 98
160 156 98
161 158 97
160 157 98
163 159 98
157 154 98
161 157 100
168 164 101
166 161 102
165 161 96
162 159 97
161 158 99
167 163 99
169 164 100
170 165 99
172 166 102
171 167 101
168 164 99
174 168 104
172 167 105
171 166 98
173 168 102
174 167 103
175 169 104
177 170 106
174 169 101
174 169 103
170 165 101
172 166 100
176 170 108
173 167 103
175 169 102
175 169 101
174 168 100
175 169 101
173 168 99
172 167 97
174 168 101
173 167 95
172 165 93
173 167 103
172 165 97
171 165 98
173 167 99
172 166 101
170 164 97
172 164 96
171 165 97
172 166 102
173 167 97
175 168 100
175 168 99
170 163 96
168 162 95
169 162 93
169 162 95
170 163 97
171 164 93
166 160 88
161 155 87
166 160 87
170 164 94
172 166 96
159 153 86
161 155 88
157 152 84
161 156 85
164 158 89
158 152 84
160 154 87
160 154 90
153 149 80
164 157 84
159 154 84
159 153 87
157 151 86
156 150 83
158 151 85
147 141 75
139 134 62
149 144 67
143 137 61
143 138 71
146 141 71
146 141 66
151 145 77
150 144 71
145 139 69
145 140 71
146 140 70
142 136 62
130 125 56
137 136 56
147 150 53
156 162 58
154 167 37
163 178 32
166 186 0
171 194 0
173 196 0
170 193 0
173 197 0
173 197 0
175 198 0
175 198 0
170 194 0
172 195 0
172 196 0
172 195 0
172 195 0
172 195 0
174 197 0
175 198 0
173 196 0
172 195 0
169 193 0
174 198 0
172 195 0
172 195 0
173 196 0
171 195 0
174 196 0
171 195 0
174 198 0
174 197 0
170 194 0
173 197 0
173 196 0
171 195 0
172 196 0
174 197 0
172 196 0
172 196 0
172 195 0
172 196 0
174 197 0
174 197 0
169 192 0
170 194 0
170 193 0
174 197 0
169 193 0
171 195 0
173 196 0
172 196 0
171 195 0
170 194 0
171 195 0
169 192 0
173 196 0
172 196 0
174 197 0
173 196 0
171 195 0
173 196 0
171 195 0
174 197 0
172 196 0
171 194 0
173 196 0
172 195 0
171 194 0
170 194 0
170 193 0
171 195 0
174 196 0
173 196 0
173 196 0
170 194 0
171 194 0
172 196 0
171 193 0
169 193 0
172 196 0
173 197 0
171 194 0
173 197 0
169 192 0
170 194 0
172 195 0
172 194 0
170 194 0
170 194 0
170 192 0
172 195 0
172 195 0
171 193 0
172 195 0
172 195 0
171 193 0
171 194 0
171 195 0
171 194 0
172 196 0
169 192 0
172 194 0
167 190 36
138 163 100
82 114 156
63 99 171
62 99 173
63 99 172
62 99 173
63 99 174
63 100 177
62 99 172
62 99 175
62 99 174
63 99 177
62 99 178
61 98 173
62 99 174
62 98 174
62 99 177
62 99 174
62 99 177
63 100 178
62 99 174
62 99 177
62 99 178
61 98 174
63 100 180
62 99 175
62 99 178
62 99 178
62 99 179
62 99 180
62 99 178
62 99 175
62 99 180
62 99 178
62 99 180
63 99 179
61 99 180
61 98 176
62 99 177
62 99 180
62 99 180
62 99 181
61 98 177
62 99 180
62 99 181
62 99 181
61 98 176
62 99 181
62 99 180
62 99 179
62 99 181
62 99 180
62 99 180
62 99 181
62 99 180
62 99 179
62 99 181
61 98 179
62 99 180
62 99 179
61 99 180
62 99 180
62 99 180
62 99 181
62 99 179
62 99 179
62 99 181
61 99 181
62 99 181
62 99 175
62 99 179
62 99 180
62 99 181
62 99 180
61 99 179
62 99 181
62 99 180
63 99 179
62 99 180
62 99 177
62 99 179
62 99 177
62 99 181
62 99 181
63 100 181
61 99 180
62 99 177
62 99 179
62 99 179
62 99 181
62 99 179
61 98 177
62 99 178
62 99 181
62 99 180
62 99 180
62 99 181
62 99 177
62 99 178
62 99 178
62 99 179
62 99 180
62 99 176
62 99 178
62 99 178
62 99 179
62 99 177
62 99 176
62 99 178
63 100 179
62 99 177
62 99 177
62 99 176
62 99 177
62 99 177
61 98 174
62 99 177
62 99 180
62 98 176
62 99 178
62 99 176
62 99 174
62 99 174
62 99 178
62 98 170
63 99 177
61 98 176
61 98 174
61 98 170
61 98 170
61 98 172
61 97 171
61 98 174
62 98 168
62 98 176
62 98 173
62 98 173
61 98 173
61 97 167
61 96 166
61 96 164
61 97 167
61 96 163
62 98 176
61 96 165
59 94 165
60 94 156
61 95 161
61 95 160
60 95 163
59 91 154
72 91 124
88 90 68
84 84 55
97 97 61
81 83 55
81 83 57
84 87 59
85 88 63
93 96 68
101 101 67
90 94 67
88 92 65
78 83 60
93 96 67
100 102 70
98 100 70
101 103 73
116 116 80
109 111 79
111 112 79
109 111 80
114 114 80
106 109 77
108 110 79
109 110 74
113 114 81
116 117 81
114 114 79
127 127 87
113 115 80
133 133 89
135 134 88
124 126 88
121 122 81
142 141 92
136 135 89
140 139 94
140 140 94
142 141 94
139 138 93
147 144 91
139 137 86
144 142 90
147 144 92
147 146 94
146 143 95
147 146 94
149 147 94
150 148 96
160 157 103
155 152 98
152 150 98
161 157 98
151 149 92
164 160 99
154 151 94
162 157 95
166 161 100
167 162 103
166 162 99
165 160 98
166 161 99
170 165 102
174 168 105
166 162 98
167 162 97
166 162 97
171 165 101
168 164 101
173 167 102
169 164 103
172 166 100
168 163 95
174 168 104
174 167 98
173 168 102
172 166 101
172 168 105
175 169 103
174 168 102
171 166 100
173 167 95
172 166 99
175 170 101
174 169 103
171 166 100
172 166 99
169 165 98
175 168 99
170 165 101
171 166 97
174 168 100
172 167 98
175 169 101
170 164 93
173 168 101
171 165 99
169 163 93
174 167 98
172 165 99
172 166 99
173 168 99
174 167 99
175 167 98
171 165 99
168 162 90
170 164 94
170 163 97
170 163 96
163 157 84
169 162 93
163 158 89
168 161 92
170 163 93
165 159 87
166 160 88
168 161 95
168 161 91
162 156 84
156 151 83
163 157 83
166 160 92
155 149 78
160 154 87
161 154 89
162 156 87
160 154 75
163 156 89
161 155 82
151 145 72
154 148 80
152 146 73
150 144 73
144 138 71
158 151 82
160 153 77
151 144 76
154 147 79
146 139 64
150 143 69
144 138 67
134 128 67
140 134 65
129 125 52
137 135 53
143 146 51
149 157 39
165 180 37
157 173 36
165 184 16
173 196 0
172 195 0
171 195 0
170 193 0
173 197 0
169 193 0
175 198 0
171 195 0
172 196 0
173 195 0
175 197 0
171 195 0
171 194 0
173 196 0
171 194 0
173 197 0
172 195 0
172 195 0
171 194 0
172 196 0
171 195 0
174 197 0
173 196 0
174 197 0
171 195 0
175 198 0
171 195 0
173 196 0
174 197 0
171 195 0
173 197 0
175 198 0
171 195 0
168 192 0
171 195 0
174 198 0
174 197 0
173 197 0
173 195 0
171 195 0
171 195 0
171 196 0
174 196 0
171 194 0
168 192 0
172 195 0
171 194 0
173 195 0
173 197 0
173 196 0
169 193 0
174 197 0
172 195 0
172 196 0
169 192 0
175 198 0
170 193 0
172 196 0
171 195 0
172 196 0
171 194 0
173 196 0
173 196 0
170 193 0
171 194 0
175 198 0
172 196 0
169 193 0
171 194 0
171 194 0
171 194 0
173 196 0
171 194 0
171 195 0
171 195 0
169 192 0
173 196 0
171 195 0
170 194 0
169 193 0
168 192 0
170 193 0
173 195 0
170 194 0
172 196 0
171 194 0
171 195 0
172 195 0
170 193 0
170 193 0
171 194 0
171 193 0
172 196 0
172 196 0
172 196 0
167 190 0
171 195 0
169 193 18
152 176 88
100 128 147
63 99 172
62 98 163
62 99 173
63 100 176
63 99 170
62 99 175
62 99 172
63 99 175
61 98 168
62 99 176
62 99 176
62 99 175
62 99 173
62 99 177
62 99 175
62 99 176
63 99 176
62 99 177
62 99 177
62 99 177
62 99 178
63 99 178
62 99 176
63 99 178
62 99 179
62 99 180
62 99 179
62 99 175
62 99 178
61 99 179
62 99 181
61 98 178
63 100 179
62 99 178
62 99 176
62 99 180
61 99 179
62 99 181
61 99 181
62 99 179
62 99 179
62 99 178
62 99 179
62 99 178
62 99 181
62 99 181
62 99 179
62 99 180
62 99 181
62 99 180
62 99 181
62 99 179
61 99 181
62 99 180
62 99 179
62 99 180
62 99 179
62 99 180
62 99 180
62 99 180
61 99 178
62 99 181
61 98 180
62 99 178
62 99 180
61 99 179
62 99 180
61 99 180
62 99 181
61 99 178
62 99 181
63 100 181
62 99 179
62 99 180
62 99 180
62 99 179
62 99 180
62 99 180
62 99 179
62 99 181
62 99 180
62 99 179
62 99 179
62 99 177
62 99 179
61 99 178
62 99 181
62 99 178
62 99 179
62 99 179
62 99 179
62 99 175
62 99 179
62 99 179
61 98 178
61 98 179
62 99 178
62 99 180
62 99 179
62 99 178
62 99 180
62 99 174
62 99 179
63 99 178
62 99 179
62 99 173
61 98 173
62 99 179
62 99 176
62 99 178
62 99 175
62 99 175
62 99 176
62 99 177
62 99 173
62 99 178
61 98 177
62 98 172
62 99 177
62 99 176
62 99 176
62 98 174
62 99 178
62 99 174
62 99 177
61 98 173
62 98 172
62 98 173
61 98 173
61 97 167
62 98 174
61 98 172
62 98 172
62 99 174
62 98 166
62 98 173
61 97 169
62 99 179
61 97 167
61 97 166
63 99 170
62 98 171
62 98 172
60 96 164
61 96 169
62 97 170
60 95 164
60 95 165
59 94 155
58 91 152
60 90 144
78 86 93
90 90 59
91 92 59
85 86 54
87 89 61
88 91 63
86 89 62
90 92 63
79 82 60
90 94 68
94 96 69
88 91 63
88 90 64
87 91 64
99 102 73
94 96 66
106 108 77
99 101 72
101 103 73
104 108 78
104 107 77
118 118 80
106 109 79
116 117 79
127 126 82
122 123 83
123 124 85
123 123 83
121 123 82
121 123 87
118 120 83
125 125 84
122 123 81
123 123 80
135 134 88
133 133 85
134 134 86
137 137 87
139 137 90
151 147 95
142 141 93
146 143 91
141 140 92
152 150 96
156 152 94
148 147 96
154 151 92
154 151 96
155 152 90
154 151 97
153 150 94
160 156 100
154 152 97
158 156 99
167 161 99
166 161 99
166 161 99
163 160 98
163 159 100
165 160 99
162 158 100
164 160 99
165 160 101
169 164 102
169 164 100
170 165 101
171 165 100
171 166 99
172 165 98
168 164 96
168 163 98
169 164 100
167 162 96
168 163 94
175 169 104
171 166 98
175 168 102
173 167 101
175 168 101
177 170 102
176 170 104
177 170 103
171 166 95
175 169 101
175 168 99
172 167 95
175 169 100
174 168 99
173 168 104
175 168 100
174 168 100
174 167 97
176 169 101
174 168 102
169 164 93
172 166 93
167 162 91
173 166 102
173 167 102
172 164 94
176 168 96
169 162 91
171 164 93
168 162 95
170 164 97
172 165 95
166 160 96
167 161 93
164 158 87
169 162 91
165 159 85
161 156 84
165 159 90
166 160 87
158 152 78
169 162 92
161 155 84
159 154 84
164 157 82
163 157 87
159 154 79
170 162 96
162 155 85
161 155 83
164 157 89
149 143 74
152 146 77
154 149 75
156 149 80
152 146 80
159 153 87
152 145 75
150 145 78
148 141 73
157 150 80
150 144 76
145 140 71
145 139 67
149 143 65
138 133 66
138 132 63
142 136 64
136 132 59
148 146 54
152 155 56
152 158 52
149 162 36
161 177 22
166 186 0
174 197 0
172 196 0
174 196 0
171 195 0
175 198 0
174 197 0
171 195 0
173 196 0
171 195 0
171 194 0
174 198 0
172 195 0
173 196 0
175 198 0
171 194 0
171 194 0
171 194 0
173 196 0
171 194 0
175 197 0
173 197 0
172 196 0
173 197 0
175 198 0
174 197 0
173 197 0
172 195 0
172 195 0
172 195 0
173 197 0
171 194 0
170 194 0
172 195 0
171 195 0
172 195 0
168 191 0
173 196 0
174 197 0
173 196 0
173 196 0
171 195 0
171 195 0
173 197 0
172 195 0
170 194 0
171 195 0
169 193 0
170 193 0
170 194 0
172 196 0
171 194 0
171 195 0
173 196 0
170 194 0
172 195 0
172 195 0
171 195 0
170 194 0
171 194 0
171 195 0
172 194 0
173 196 0
171 194 0
168 191 0
174 197 0
172 194 0
173 195 0
172 196 0
172 196 0
174 197 0
170 194 0
169 192 0
170 193 0
170 193 0
169 193 0
172 195 0
169 192 0
172 195 0
171 195 0
170 192 0
174 197 0
171 194 0
169 191 0
171 194 0
171 194 0
170 193 0
171 195 0
173 196 0
169 193 0
168 191 0
171 193 0
171 195 0
170 194 0
167 191 0
172 195 0
172 195 0
173 196 0
156 181 65
120 145 126
65 100 157
62 98 169
62 99 172
63 100 178
61 98 166
62 98 173
61 98 168
63 99 177
62 99 168
62 99 174
62 99 176
61 98 170
62 99 175
62 99 174
62 99 174
62 99 175
63 99 177
61 98 176
62 99 177
62 99 176
62 99 181
62 99 179
62 99 180
62 99 178
62 99 176
62 99 178
62 98 174
61 99 180
62 99 179
63 100 180
62 99 179
62 99 180
62 99 180
63 100 180
62 99 180
62 99 179
62 99 178
62 99 180
62 99 180
62 99 181
62 99 180
62 99 180
62 99 180
62 99 180
62 99 177
62 99 180
62 99 180
62 99 178
62 99 180
61 99 180
62 99 181
62 98 179
62 99 179
62 99 180
62 99 176
62 99 180
62 99 181
61 98 179
63 100 181
62 99 181
61 99 180
62 99 180
62 99 180
62 99 177
63 99 180
61 98 178
62 99 180
62 99 179
62 99 180
61 98 177
62 99 180
62 99 181
62 99 179
61 98 179
62 99 178
61 98 176
61 98 180
62 99 180
62 99 180
62 99 180
62 99 179
62 99 181
61 98 175
62 99 177
61 99 179
61 99 177
61 98 175
62 99 178
62 99 181
62 99 180
62 99 176
62 99 177
62 99 178
62 99 177
62 99 178
63 99 177
61 99 177
63 99 179
62 99 180
62 99 177
62 99 178
62 99 181
62 99 180
61 98 175
62 99 178
62 99 175
62 98 176
62 99 178
62 99 176
62 99 176
62 99 176
62 99 177
62 98 174
63 99 177
62 99 179
62 99 177
62 99 176
61 99 178
62 98 174
62 99 174
61 98 177
62 99 173
62 99 178
61 98 172
62 99 173
63 99 180
62 98 175
62 99 176
62 98 177
61 98 171
61 98 172
61 98 172
62 98 165
62 98 171
62 98 167
62 98 174
62 97 168
62 99 174
60 97 167
62 99 174
61 98 172
61 97 165
62 98 172
61 96 164
61 96 164
60 96 164
60 95 161
61 96 160
62 97 168
59 93 158
59 95 164
61 94 159
70 92 134
81 85 78
82 83 56
67 71 51
77 80 57
95 97 67
91 92 61
74 78 57
83 86 59
91 94 69
81 85 61
87 89 65
87 91 66
82 87 65
79 84 62
96 98 71
97 101 72
108 109 75
92 97 73
106 108 75
106 108 75
107 109 75
102 105 73
120 121 83
104 107 76
113 114 79
119 120 80
128 127 85
133 132 88
131 130 82
121 123 82
124 124 79
134 132 86
123 124 81
136 135 88
130 130 85
134 133 83
136 136 91
142 141 94
132 133 90
139 138 91
149 146 89
148 145 92
155 151 95
148 147 92
151 149 95
156 153 99
153 149 94
154 151 94
159 155 92
154 150 91
162 159 100
160 156 100
162 158 100
159 156 99
162 158 101
165 161 102
162 158 94
164 160 100
164 160 100
165 160 101
161 158 97
162 158 99
169 163 94
172 168 104
170 165 101
167 163 101
172 166 104
171 166 101
175 169 103
173 167 101
171 166 101
174 169 102
175 168 99
173 167 103
171 165 98
173 168 102
171 166 97
170 165 96
169 163 92
174 167 101
173 166 98
175 169 100
171 166 94
175 168 100
177 169 99
172 167 99
172 166 97
174 168 102
174 168 103
175 169 98
174 168 97
176 170 102
171 165 96
172 166 95
169 163 91
174 167 98
172 166 97
174 168 101
172 166 96
169 163 94
174 167 102
163 157 87
164 159 92
168 162 90
167 161 93
173 165 92
161 156 85
176 168 97
169 161 90
172 165 96
170 164 95
171 164 90
170 163 92
170 163 91
167 160 92
164 157 87
162 157 82
165 158 90
162 155 84
163 157 87
159 152 85
156 150 84
162 156 85
158 151 85
160 154 78
161 154 81
162 155 84
157 151 85
159 152 79
148 143 71
147 142 66
148 142 73
152 146 71
142 136 68
151 144 78
141 136 70
146 140 77
146 140 71
140 134 61
134 128 61
143 137 63
130 124 57
132 131 54
146 150 49
149 158 37
154 167 32
168 184 25
165 185 19
172 196 0
173 197 0
174 197 0
173 196 0
169 193 0
172 196 0
174 197 0
174 196 0
171 194 0
173 197 0
173 197 0
172 196 0
173 196 0
173 197 0
173 196 0
174 198 0
169 193 0
173 197 0
172 195 0
174 197 0
174 197 0
172 196 0
172 196 0
173 197 0
173 195 0
170 194 0
171 194 0
172 196 0
172 195 0
173 196 0
172 196 0
171 194 0
175 197 0
170 194 0
170 193 0
172 195 0
173 196 0
171 194 0
172 194 0
173 196 0
171 194 0
171 194 0
172 196 0
171 194 0
169 193 0
169 192 0
172 195 0
173 196 0
174 197 0
173 196 0
172 195 0
174 197 0
171 195 0
171 195 0
172 195 0
173 196 0
171 194 0
171 195 0
170 193 0
173 196 0
172 195 0
172 195 0
173 196 0
171 194 0
173 196 0
169 193 0
170 194 0
170 193 0
170 193 0
172 195 0
174 197 0
172 196 0
170 193 0
170 194 0
172 195 0
170 193 0
169 192 0
174 197 0
169 191 0
173 196 0
171 194 0
170 193 0
172 194 0
170 192 0
170 194 0
173 196 0
170 193 0
172 194 0
169 192 0
172 196 0
173 196 0
172 195 0
172 196 0
171 195 0
171 194 0
170 194 0
161 184 40
147 171 92
89 119 154
62 98 166
62 98 167
62 98 166
62 99 172
62 99 170
62 99 177
62 98 168
62 99 173
62 98 173
62 99 178
61 98 168
62 99 176
62 99 173
63 99 176
63 99 176
62 98 171
63 100 180
63 99 178
62 99 174
62 99 174
62 99 176
62 99 176
62 99 177
62 99 174
62 99 178
62 98 172
62 99 173
63 99 180
62 99 176
62 99 178
62 99 178
62 99 179
61 98 177
62 99 180
62 99 179
62 99 177
62 99 180
62 99 181
62 99 179
62 99 180
62 99 178
62 99 179
62 99 180
62 99 178
62 99 178
62 99 180
61 99 181
62 99 181
62 99 179
62 99 181
62 99 179
62 99 179
63 100 181
61 98 179
62 99 179
62 99 180
61 99 180
62 99 175
62 99 180
62 99 180
62 99 181
62 99 180
62 99 180
62 99 180
62 99 180
62 99 179
62 99 179
62 99 179
62 99 179
62 99 179
61 99 180
61 98 175
62 99 176
62 99 178
62 99 179
62 99 177
62 99 179
62 99 180
62 99 179
62 99 180
62 99 178
62 99 176
62 99 179
62 99 180
63 99 180
62 99 179
62 99 181
63 100 180
62 99 180
62 99 178
62 99 181
62 99 180
62 99 178
62 99 175
62 99 180
62 99 178
62 99 177
62 99 178
62 99 179
62 98 173
62 99 177
62 99 179
62 99 178
62 99 178
62 99 179
61 99 177
62 99 178
62 99 179
62 99 176
62 99 176
62 99 179
62 99 177
62 99 180
62 99 179
61 98 178
61 98 177
62 99 176
62 99 177
62 99 177
62 99 178
61 98 177
62 98 172
61 98 173
62 99 174
62 99 172
62 98 175
62 98 175
61 97 170
61 98 175
62 99 175
61 98 170
62 99 174
62 98 170
62 98 170
61 97 174
62 98 174
62 99 176
62 98 173
62 98 167
62 98 171
62 98 172
62 98 169
62 98 174
61 97 165
60 96 161
61 96 164
62 98 173
59 94 156
60 95 163
60 95 161
59 94 160
59 94 162
64 94 157
74 87 108
88 88 55
76 80 54
82 83 58
85 87 59
62 67 47
75 77 57
85 88 61
80 83 60
72 76 58
77 82 61
70 77 61
89 92 68
102 103 73
85 89 64
89 91 65
99 102 69
85 91 67
104 107 77
106 108 75
106 108 74
108 111 77
123 123 84
111 112 77
113 114 78
120 120 81
129 128 84
121 121 83
127 127 85
125 125 86
125 126 82
127 128 87
128 128 85
139 138 85
141 139 92
135 134 87
143 142 91
136 136 87
145 143 92
140 138 90
140 138 90
143 141 86
148 146 89
138 137 93
154 151 93
154 152 97
160 155 95
153 151 95
151 148 92
161 157 95
154 152 95
161 157 96
161 157 97
153 150 93
159 156 97
163 158 98
164 160 97
162 157 99
159 156 96
166 161 98
167 162 98
165 161 97
167 162 98
167 163 100
169 164 100
168 164 98
173 168 100
171 165 100
175 168 101
173 168 98
173 168 102
173 167 99
173 167 102
172 167 101
173 167 99
172 166 94
176 169 99
173 167 99
172 167 97
174 169 97
176 169 103
172 166 95
175 169 101
172 166 95
176 169 102
172 165 99
177 170 101
174 167 96
171 166 98
175 169 101
171 165 96
167 161 92
169 163 93
173 166 98
174 168 101
171 165 96
167 162 87
172 165 96
170 165 95
172 164 93
169 163 94
169 163 95
171 164 96
171 164 93
174 166 97
165 158 85
169 162 90
168 162 91
168 162 94
166 159 93
168 161 89
159 154 84
166 159 91
164 158 87
166 159 85
165 159 87
165 159 88
168 162 85
163 157 83
157 151 81
165 158 89
161 154 82
161 154 87
161 155 83
160 153 81
151 145 69
157 151 79
151 145 75
155 150 80
156 149 76
152 146 83
155 148 79
152 145 72
152 146 69
143 137 69
145 139 75
144 138 72
145 139 69
137 133 58
137 132 57
141 135 64
130 127 48
135 135 53
149 155 49
151 162 37
160 174 34
164 181 28
165 184 16
172 195 0
174 197 0
173 197 0
174 197 0
172 196 0
174 197 0
171 195 0
173 196 0
172 196 0
172 196 0
172 196 0
173 196 0
174 197 0
173 196 0
171 196 0
171 195 0
172 195 0
173 196 0
173 196 0
173 195 0
171 195 0
171 194 0
173 197 0
173 196 0
173 196 0
171 194 0
173 196 0
170 193 0
173 196 0
172 195 0
170 194 0
172 195 0
172 195 0
174 197 0
174 197 0
171 194 0
172 196 0
173 197 0
170 195 0
172 195 0
173 197 0
174 196 0
171 195 0
171 195 0
170 193 0
168 192 0
175 198 0
172 195 0
169 193 0
170 193 0
170 193 0
171 195 0
171 195 0
173 196 0
168 192 0
173 196 0
171 195 0
171 193 0
171 194 0
171 194 0
175 197 0
173 197 0
170 195 0
172 194 0
171 194 0
167 191 0
173 196 0
170 194 0
170 192 0
170 193 0
172 195 0
171 194 0
171 194 0
172 195 0
174 197 0
173 196 0
172 195 0
171 194 0
170 193 0
171 194 0
169 193 0
171 194 0
171 194 0
170 194 0
172 196 0
169 193 0
168 192 0
172 196 0
171 195 0
169 191 0
170 193 0
171 195 0
172 196 0
170 194 0
170 194 0
170 194 0
158 182 65
101 130 140
64 100 170
62 99 165
63 99 167
62 99 173
62 98 164
61 98 172
62 99 172
62 99 175
62 99 177
62 99 174
62 99 172
62 99 177
62 98 171
63 99 174
62 99 175
62 99 173
62 99 178
61 98 173
63 100 177
62 99 178
62 99 180
61 98 177
63 100 178
62 99 179
63 100 177
62 99 175
62 99 178
62 99 179
62 99 176
62 99 177
62 99 180
62 99 180
62 99 176
62 99 181
62 99 178
61 99 178
62 99 176
62 99 178
61 98 177
62 99 179
63 100 177
61 99 180
62 99 181
61 99 178
62 99 178
62 99 178
62 99 180
61 99 180
62 99 178
62 99 178
62 99 180
62 99 180
62 99 178
61 99 180
62 99 181
62 99 177
61 99 181
61 99 180
62 99 179
62 99 179
61 98 176
62 99 177
62 99 180
62 99 180
62 99 179
62 99 179
62 99 181
62 99 179
63 100 179
62 99 179
62 100 181
62 99 179
61 98 177
62 99 181
62 99 175
62 99 179
62 99 179
62 99 177
63 99 178
62 99 178
63 100 178
62 99 178
62 99 179
62 99 180
62 99 181
62 99 180
62 99 178
62 99 178
62 99 178
62 99 181
62 99 181
62 99 180
62 99 177
61 98 175
62 99 180
62 99 176
62 99 178
62 99 175
62 99 179
61 98 174
62 99 178
62 99 178
62 99 176
62 99 178
62 99 176
61 98 174
62 99 178
62 99 173
62 99 176
62 99 175
61 98 174
62 99 176
62 99 177
62 99 179
62 99 178
61 98 176
62 99 177
62 98 177
62 99 178
62 99 173
62 98 174
63 100 174
62 99 179
62 99 174
61 98 172
62 99 175
62 99 178
61 98 173
62 99 174
61 98 171
62 98 173
62 98 171
62 99 174
62 99 176
60 97 168
62 99 175
60 97 170
62 99 175
62 98 172
62 99 174
61 97 172
62 98 171
61 97 165
61 97 170
61 97 165
61 96 162
62 98 172
60 94 160
62 97 168
60 94 162
60 94 158
60 94 162
60 94 159
58 91 153
66 93 141
74 83 89
76 78 56
78 79 55
67 71 48
73 77 55
85 88 59
69 74 56
76 80 59
71 75 53
74 81 62
75 80 60
87 89 63
84 87 64
79 83 58
88 93 67
92 95 69
88 92 65
96 100 72
97 101 72
103 106 74
102 105 76
100 103 71
98 102 73
114 115 78
111 112 75
114 115 77
113 114 79
112 114 79
126 126 84
129 128 83
132 130 84
125 126 85
131 130 85
129 130 85
125 126 80
129 129 83
143 141 89
141 140 89
136 135 88
143 140 89
146 144 89
154 150 93
154 151 95
142 141 91
144 142 89
151 148 94
146 144 89
157 153 93
156 153 99
163 159 95
152 149 90
157 154 93
162 158 98
167 162 99
161 157 92
163 159 98
158 155 97
160 157 93
164 159 96
165 160 97
166 162 97
165 160 95
164 160 95
176 169 103
167 162 96
173 167 98
169 163 96
170 164 99
171 166 99
169 164 97
167 163 96
169 164 95
171 167 99
173 168 98
171 166 98
174 167 96
172 167 96
173 167 95
171 166 99
173 167 103
177 170 103
175 168 99
172 166 99
173 167 99
172 166 98
173 166 97
173 166 98
175 168 101
172 165 90
170 164 93
167 161 90
171 165 94
172 166 97
174 168 97
172 165 92
170 164 93
173 167 96
172 165 95
168 162 92
163 158 85
168 162 92
170 164 94
169 163 94
174 167 97
172 166 91
166 160 94
164 159 86
160 155 87
167 159 92
163 157 86
167 161 96
164 158 90
164 157 84
165 160 86
169 161 97
164 158 88
163 156 83
157 152 80
161 154 84
162 155 82
161 154 84
158 152 79
160 154 85
156 150 79
156 149 67
154 148 80
152 145 76
149 144 75
149 143 70
157 150 86
152 146 75
155 148 81
152 146 78
145 140 65
149 144 65
145 139 68
146 139 67
135 130 63
152 146 71
141 134 61
130 125 52
140 141 56
145 152 44
145 156 30
163 178 30
166 182 30
167 186 28
173 197 0
170 194 0
171 195 0
170 194 0
173 196 0
173 196 0
173 196 0
172 196 0
175 198 0
172 196 0
171 194 0
171 194 0
173 197 0
175 198 0
173 197 0
172 195 0
173 197 0
171 194 0
173 196 0
171 195 0
170 195 0
173 196 0
171 194 0
172 195 0
170 194 0
171 195 0
170 194 0
172 195 0
173 197 0
174 196 0
175 198 0
172 195 0
172 195 0
169 193 0
172 195 0
171 195 0
170 194 0
171 194 0
173 197 0
170 193 0
172 195 0
172 196 0
172 195 0
173 196 0
171 194 0
172 196 0
171 194 0
169 192 0
172 194 0
171 194 0
170 194 0
171 194 0
170 194 0
169 193 0
173 196 0
171 194 0
169 193 0
171 194 0
170 193 0
171 195 0
172 195 0
172 195 0
169 192 0
171 194 0
169 192 0
173 196 0
172 195 0
171 195 0
170 193 0
172 195 0
171 194 0
172 195 0
171 194 0
170 193 0
173 195 0
170 194 0
170 194 0
172 195 0
171 195 0
170 193 0
171 195 0
166 189 0
170 195 0
173 196 0
172 195 0
170 195 0
170 192 0
170 193 0
173 196 0
171 195 0
172 195 0
169 193 0
169 192 0
169 194 0
170 194 0
164 186 51
131 157 117
66 101 168
62 99 170
61 97 158
62 99 170
62 99 177
62 99 171
62 98 170
62 98 168
63 99 173
62 99 173
62 98 169
61 98 173
62 99 173
62 99 174
63 99 176
62 99 173
62 99 177
62 99 173
63 100 176
62 99 176
61 98 173
62 99 176
62 99 176
62 99 178
62 99 173
63 100 180
62 99 179
62 99 177
63 100 179
62 99 179
62 99 178
62 99 179
62 99 181
62 99 175
62 99 176
62 99 178
62 99 178
62 99 179
62 99 179
62 99 181
62 99 179
62 99 180
62 99 178
61 98 178
62 99 180
63 100 181
62 99 179
62 99 180
62 99 179
62 99 178
62 99 179
62 99 181
63 100 181
61 98 177
62 99 179
62 99 178
61 98 178
62 99 177
62 99 178
62 99 180
62 99 179
61 98 177
61 99 179
62 99 178
62 99 180
62 99 180
62 99 176
62 99 177
62 99 179
62 99 180
62 99 180
62 99 181
62 99 181
62 99 179
61 98 175
62 99 180
62 99 178
61 98 179
62 99 181
61 98 179
61 98 178
62 99 178
62 99 177
62 99 178
62 99 178
62 99 179
62 99 180
62 99 177
62 99 179
63 100 178
62 99 176
62 99 180
62 99 178
62 99 176
62 99 178
62 98 173
62 99 176
62 99 176
62 99 178
62 99 177
61 98 176
62 99 180
62 99 180
62 99 175
62 99 179
62 99 174
61 98 177
62 99 177
62 99 177
62 99 178
62 99 176
62 99 178
62 99 176
61 98 173
62 99 175
62 98 174
62 99 175
62 99 177
62 99 176
62 99 179
61 98 174
62 99 172
61 98 177
62 99 171
62 99 178
63 100 178
62 98 170
62 99 177
61 98 173
62 99 174
61 98 177
61 98 175
62 99 171
62 98 172
62 98 172
62 98 176
61 98 169
62 98 172
62 98 167
62 98 171
62 98 173
60 96 167
62 98 171
62 98 168
62 97 167
61 96 162
61 96 165
60 96 163
60 94 161
61 98 173
61 96 166
61 96 163
61 95 162
61 96 163
59 93 157
62 94 156
67 84 111
90 93 70
77 80 56
73 75 51
75 78 54
66 71 50
79 83 59
76 80 59
71 76 57
79 84 63
83 87 61
89 92 67
91 93 66
90 94 68
92 94 67
79 84 62
94 98 67
100 103 72
106 107 73
105 108 73
93 97 67
99 102 70
108 110 73
114 115 79
125 125 82
112 115 77
124 125 84
114 115 76
106 109 74
117 118 81
131 130 79
132 130 83
130 130 86
141 139 93
134 133 84
141 139 88
124 124 82
139 138 86
147 145 94
143 142 91
150 148 95
142 141 92
147 144 87
149 146 88
149 146 87
153 150 92
155 152 95
146 145 90
148 146 91
160 155 95
157 154 95
158 154 93
163 158 97
159 155 95
161 156 95
162 156 96
161 156 93
166 161 101
161 157 96
163 159 97
166 161 94
167 161 98
161 157 95
171 165 98
166 161 96
170 165 98
170 165 97
171 164 95
172 166 92
174 168 101
173 167 97
174 167 100
178 171 101
169 164 92
169 164 96
177 169 100
172 166 99
171 165 100
176 169 102
175 169 101
174 168 98
168 164 97
172 166 97
172 166 97
176 170 101
171 165 94
174 168 98
173 166 94
167 161 87
172 166 97
165 159 90
171 165 97
168 162 94
170 164 93
172 166 95
171 164 93
171 165 98
166 160 95
169 164 97
169 163 92
169 163 92
171 164 93
169 164 84
167 161 89
170 164 90
170 161 91
166 160 85
169 162 93
164 158 89
168 162 88
167 160 87
172 164 93
164 157 89
166 160 90
163 157 85
164 157 84
155 150 80
165 159 87
162 156 86
163 156 88
154 149 72
164 157 90
150 145 73
158 152 82
157 151 80
162 155 84
148 142 72
155 148 82
151 144 73
155 149 72
145 139 68
151 145 75
154 147 73
152 145 74
128 123 63
148 141 73
149 143 70
142 137 63
145 139 65
139 133 63
141 136 58
139 138 54
152 157 48
155 167 39
160 175 32
163 181 19
168 187 19
172 196 0
171 194 0
174 197 0
169 192 0
173 197 0
171 195 0
172 196 0
173 196 0
174 198 0
174 197 0
172 196 0
174 197 0
173 196 0
173 196 0
170 194 0
173 197 0
175 197 0
172 196 0
171 195 0
174 197 0
173 197 0
174 197 0
175 198 0
175 197 0
173 196 0
172 195 0
173 197 0
172 196 0
173 196 0
170 194 0
172 195 0
172 196 0
174 197 0
175 197 0
173 197 0
175 197 0
173 196 0
171 194 0
173 196 0
172 195 0
174 197 0
171 195 0
171 194 0
173 196 0
172 196 0
171 195 0
173 197 0
170 193 0
172 195 0
174 197 0
174 197 0
171 195 0
171 195 0
171 195 0
175 198 0
170 194 0
169 193 0
171 194 0
173 196 0
170 194 0
168 191 0
172 195 0
170 194 0
172 196 0
169 192 0
171 194 0
172 195 0
170 194 0
170 193 0
170 194 0
172 195 0
171 195 0
172 195 0
172 195 0
172 196 0
172 195 0
171 195 0
169 193 0
171 194 0
171 194 0
171 194 0
168 191 0
170 193 0
169 193 0
172 195 0
172 196 0
170 193 0
172 194 0
170 194 0
171 194 0
173 196 0
171 194 0
170 193 0
170 192 0
164 187 0
151 175 86
90 120 148
62 98 165
61 98 166
62 98 162
62 99 175
62 99 172
62 98 166
62 99 172
62 99 174
62 99 176
62 99 173
62 99 174
62 99 169
62 99 175
62 99 176
62 99 173
61 98 174
62 99 174
62 99 173
63 100 178
63 99 178
62 98 172
63 99 175
62 99 178
63 99 175
63 99 177
62 99 180
61 98 178
63 99 177
62 99 176
61 98 177
62 99 179
62 99 178
63 100 180
63 99 176
62 99 178
62 99 179
62 99 177
62 99 180
61 98 176
62 99 179
62 99 179
63 100 180
62 99 181
62 99 177
61 99 177
62 99 180
63 99 179
62 99 179
62 99 179
62 99 180
63 99 178
61 99 179
62 99 178
62 99 179
62 99 180
62 99 177
62 99 177
62 99 178
62 99 180
61 99 180
62 99 179
62 99 178
62 99 177
62 99 178
62 99 181
62 99 180
62 99 178
62 99 178
62 99 178
62 99 179
62 99 180
62 99 177
62 99 177
62 99 180
62 99 180
61 98 178
62 99 179
62 99 177
62 99 180
62 99 179
62 99 178
62 99 177
61 98 174
62 99 177
62 99 181
62 99 179
62 99 177
62 99 174
62 99 179
61 98 176
63 99 178
62 99 179
62 99 180
62 100 181
62 99 179
62 99 176
62 99 176
61 98 176
63 99 179
62 99 176
62 99 179
62 99 174
62 99 177
62 99 180
62 99 175
63 100 181
62 99 180
62 99 180
63 100 180
62 99 178
62 99 179
62 99 180
62 99 176
62 99 176
62 99 175
62 99 177
63 99 179
62 99 176
61 98 176
62 99 172
62 98 173
62 99 174
62 99 177
62 98 172
62 99 177
62 99 178
62 99 173
61 98 171
63 99 175
61 98 176
62 99 173
62 98 170
62 98 171
61 98 172
62 99 175
62 98 170
62 99 175
62 99 172
61 97 169
60 96 167
62 98 166
63 99 174
62 98 174
60 97 169
61 97 167
61 98 171
62 97 167
60 96 164
62 97 165
61 96 162
60 95 159
62 97 165
61 95 158
60 95 162
61 96 160
60 94 156
64 90 134
66 78 97
77 79 54
68 72 51
69 72 51
71 75 50
60 66 50
61 63 44
67 73 55
81 85 61
81 86 66
70 76 56
94 97 70
79 83 60
95 99 70
96 99 70
93 96 67
90 92 65
109 110 77
85 91 68
103 105 71
113 114 76
111 113 80
105 106 71
106 109 76
123 123 84
122 122 81
121 121 78
124 123 79
129 128 83
123 124 78
129 129 85
135 133 88
140 139 94
140 138 85
134 133 86
145 143 89
140 138 88
151 149 92
139 138 89
145 142 89
146 144 83
150 148 91
146 144 92
138 137 85
149 146 90
152 149 94
143 141 84
153 150 93
152 149 85
163 158 96
151 148 90
160 156 93
155 152 94
156 153 94
155 151 90
162 158 93
167 162 98
165 160 97
166 161 102
167 162 96
162 159 96
170 165 97
176 169 103
170 164 97
168 163 99
166 162 96
164 159 94
173 167 102
177 169 99
166 162 93
171 164 99
166 162 94
170 164 96
174 168 96
170 165 97
173 167 95
174 167 96
172 167 98
171 165 95
169 164 95
174 166 98
174 168 99
171 165 95
169 164 93
172 167 96
172 167 95
172 166 98
169 163 91
173 167 98
173 167 96
171 165 90
168 163 88
165 160 87
172 165 94
169 163 94
171 164 95
169 163 92
168 162 94
172 165 95
171 164 91
166 159 87
166 159 88
171 165 97
162 156 85
170 162 89
165 161 90
164 158 84
171 163 92
163 158 87
164 158 91
164 157 84
161 155 84
159 153 80
160 154 78
167 160 85
166 159 90
167 160 88
152 147 73
159 153 82
156 150 77
155 149 80
163 156 86
151 145 73
163 157 84
154 148 76
155 149 74
155 149 80
152 145 75
153 147 75
154 147 69
142 136 70
157 150 80
151 145 65
137 132 58
148 143 70
133 126 66
147 141 63
145 139 69
140 134 61
132 129 53
138 142 44
144 156 32
157 169 36
158 170 25
164 184 22
168 187 16
171 195 0
173 196 0
171 194 0
172 196 0
172 195 0
171 195 0
170 194 0
172 197 0
170 193 0
170 194 0
174 197 0
172 196 0
173 197 0
173 196 0
174 197 0
173 196 0
172 196 0
174 198 0
171 195 0
170 193 0
171 195 0
174 197 0
173 196 0
175 198 0
172 195 0
171 194 0
171 194 0
174 198 0
172 196 0
170 193 0
168 192 0
167 190 0
173 196 0
172 196 0
171 195 0
172 196 0
172 195 0
175 198 0
172 195 0
172 194 0
170 193 0
172 195 0
171 194 0
165 189 0
175 197 0
172 195 0
174 196 0
172 195 0
169 192 0
171 195 0
170 193 0
168 192 0
168 191 0
172 195 0
170 193 0
171 194 0
169 193 0
171 195 0
172 195 0
173 196 0
173 196 0
172 194 0
172 195 0
171 195 0
173 197 0
171 195 0
172 195 0
169 193 0
172 195 0
174 197 0
170 193 0
170 194 0
173 197 0
169 192 0
169 192 0
169 193 0
170 194 0
167 191 0
169 193 0
174 197 0
173 197 0
170 194 0
169 193 0
171 195 0
167 192 0
171 195 0
169 193 0
169 193 0
170 194 0
172 195 0
166 189 0
172 195 0
169 193 0
172 196 0
164 187 47
121 148 130
66 101 162
62 98 169
62 98 169
61 98 166
62 99 173
62 99 171
62 99 170
62 99 170
62 99 172
63 99 173
62 99 173
62 99 174
62 99 170
62 99 175
62 99 174
62 99 173
63 100 176
62 99 175
62 99 172
63 100 180
62 99 174
62 99 176
62 99 180
62 99 175
63 100 181
62 99 178
62 99 180
62 98 175
62 99 175
62 99 176
62 98 175
63 99 177
63 100 179
62 99 178
62 98 175
62 99 177
62 99 180
62 99 178
62 99 177
62 99 177
62 99 176
63 99 177
63 99 179
63 100 178
62 99 180
62 99 177
62 99 177
62 99 178
62 99 180
62 99 178
62 99 180
63 99 178
62 99 179
62 99 180
62 99 179
62 99 180
62 99 176
62 99 177
61 99 179
62 99 178
62 99 180
62 99 178
62 99 179
62 99 178
62 99 181
62 99 178
62 99 179
62 99 180
62 99 179
62 99 178
62 99 181
61 98 178
62 99 178
62 99 176
63 100 181
62 99 179
62 99 180
61 98 175
62 99 177
62 99 180
62 99 178
62 99 178
61 99 180
62 99 179
63 99 178
62 99 181
61 99 179
62 99 180
62 99 178
61 98 173
62 99 180
61 98 176
62 99 180
62 99 177
62 99 178
61 99 177
62 99 178
62 98 175
62 99 176
62 99 171
62 99 179
62 99 179
62 99 178
62 99 176
62 99 175
62 99 177
62 99 179
63 99 176
61 98 173
63 99 177
62 99 180
62 99 175
61 98 174
62 99 176
62 99 174
63 99 179
62 98 172
62 99 177
63 99 176
62 99 176
62 99 177
61 98 173
62 99 177
62 99 180
62 99 175
62 99 174
62 99 178
61 98 172
63 100 177
62 99 177
62 99 175
63 99 173
63 99 176
62 99 176
61 98 171
61 98 170
61 98 172
62 99 174
62 99 173
62 98 170
62 98 168
62 98 168
60 96 168
61 97 168
61 97 163
62 98 171
61 97 163
61 97 171
61 97 166
60 95 162
61 97 166
61 97 167
61 96 163
61 96 166
59 93 154
60 94 156
58 91 151
59 92 156
55 79 126
55 63 63
63 67 45
75 78 55
60 65 48
66 70 51
69 73 54
71 75 54
71 74 52
73 76 54
90 92 65
83 87 63
94 97 66
85 89 66
90 95 67
79 85 63
90 94 67
92 95 68
98 100 66
93 97 67
107 109 74
101 103 71
109 111 73
106 108 70
122 122 81
115 117 76
118 119 82
119 119 79
126 126 81
133 133 84
121 121 80
123 124 83
142 139 85
132 131 81
136 135 84
136 135 89
137 135 88
141 139 86
149 146 94
141 140 85
147 144 89
137 136 84
147 145 88
138 138 87
150 147 92
148 146 91
154 151 97
153 151 92
159 154 93
160 155 92
151 148 92
152 150 88
159 155 92
156 152 87
161 158 99
154 150 91
167 161 94
168 162 95
162 158 91
167 161 94
171 164 97
162 157 94
168 163 95
170 164 96
169 164 99
165 161 96
165 161 96
166 161 95
168 163 95
167 163 93
167 161 90
172 166 97
170 165 100
175 168 98
173 167 104
172 165 95
174 168 100
175 169 104
175 169 99
175 168 94
171 166 101
173 167 95
176 169 95
171 165 91
172 165 95
175 169 96
164 159 91
171 165 91
169 164 93
176 170 98
174 167 94
170 164 87
172 166 96
171 165 93
167 161 90
170 164 92
167 162 93
170 164 91
169 163 93
172 165 92
162 156 85
169 161 92
167 162 90
168 162 86
164 158 87
168 161 91
161 154 85
163 157 83
167 159 91
164 158 86
167 160 90
163 156 86
164 157 85
163 156 84
158 151 81
157 151 77
161 155 82
162 155 85
163 156 87
160 154 75
157 151 80
159 152 84
163 155 84
151 146 75
162 155 80
151 145 74
147 143 71
156 150 75
145 139 76
137 131 63
151 145 69
142 136 60
139 134 58
154 147 70
148 141 69
138 134 57
144 138 69
143 137 59
134 130 57
145 143 60
134 139 32
150 155 45
163 176 37
162 178 25
164 181 25
169 189 19
171 195 0
170 194 0
175 198 0
172 196 0
173 197 0
172 195 0
171 195 0
170 194 0
173 196 0
174 198 0
174 197 0
171 195 0
173 197 0
173 196 0
174 197 0
170 194 0
173 196 0
174 197 0
172 196 0
173 196 0
172 195 0
166 190 0
171 195 0
171 195 0
170 193 0
173 196 0
171 194 0
173 196 0
172 195 0
171 195 0
174 196 0
171 194 0
172 196 0
171 194 0
171 194 0
173 196 0
173 196 0
172 196 0
171 194 0
169 192 0
173 196 0
170 194 0
171 194 0
169 193 0
169 192 0
173 197 0
172 195 0
173 196 0
171 194 0
170 194 0
172 196 0
172 194 0
173 197 0
170 194 0
168 192 0
168 191 0
170 193 0
170 194 0
172 195 0
173 196 0
170 193 0
174 197 0
172 196 0
169 193 0
172 195 0
172 196 0
172 195 0
170 194 0
168 192 0
170 194 0
171 194 0
169 192 0
173 196 0
171 195 0
168 192 0
171 194 0
173 197 0
166 189 0
167 190 0
170 194 0
169 193 0
172 196 0
170 193 0
172 193 0
170 193 0
173 196 0
170 194 0
172 195 0
169 193 0
173 196 0
170 193 0
168 191 0
169 193 0
170 192 25
146 171 82
94 124 143
61 98 165
63 99 169
62 99 167
61 98 168
61 98 165
62 98 167
62 99 173
62 99 171
62 99 171
62 99 171
62 99 175
62 99 175
62 99 173
62 98 171
62 98 170
61 98 174
62 98 171
62 99 177
63 100 178
62 98 172
61 98 174
61 98 175
62 98 171
62 99 176
62 99 177
62 99 175
62 99 173
62 99 177
62 99 175
62 99 177
62 99 177
62 99 180
62 99 177
62 99 180
62 99 176
62 99 178
62 99 180
63 99 177
63 100 180
62 98 175
61 98 176
62 99 180
62 99 176
62 99 179
62 99 177
61 98 178
62 99 176
61 98 177
62 99 178
62 99 178
62 99 179
63 100 179
62 99 177
61 98 176
63 100 180
61 99 180
63 100 179
62 99 177
62 99 180
62 99 179
62 99 179
61 98 179
61 98 179
62 99 177
62 99 179
61 98 178
62 99 178
61 99 178
62 99 180
62 99 180
62 99 176
62 99 177
62 99 177
63 100 178
62 99 175
62 99 178
62 99 180
62 99 178
62 99 178
63 99 179
62 99 178
62 99 179
62 99 180
62 99 179
62 99 178
62 99 179
62 99 175
62 99 176
62 99 175
62 99 179
62 99 179
61 98 179
61 98 173
62 99 176
62 99 173
61 98 177
62 99 178
62 98 174
63 99 178
62 99 176
62 99 176
62 99 177
62 99 178
61 99 178
62 99 177
63 99 176
62 99 177
62 99 177
63 100 180
62 98 175
62 99 175
62 99 177
62 99 175
62 99 178
62 99 174
62 99 177
63 99 177
62 99 179
62 99 174
62 99 172
61 98 172
62 99 175
62 99 176
62 99 176
61 98 175
62 99 177
63 100 177
62 99 175
62 99 173
63 100 180
62 99 174
62 99 174
61 98 175
62 99 172
63 99 177
62 99 174
62 98 169
63 99 177
62 99 170
60 96 169
62 99 174
61 97 172
61 97 171
61 97 170
61 97 170
62 98 176
61 97 167
61 97 165
62 98 167
62 98 169
61 97 162
62 97 169
61 96 162
61 97 164
60 95 164
59 93 154
60 94 153
60 95 165
64 91 143
61 77 105
80 82 49
74 75 50
58 61 42
53 61 48
68 73 52
65 71 54
61 67 54
65 69 51
75 79 56
77 81 59
88 90 64
82 86 63
88 93 68
89 93 64
90 93 63
95 98 70
93 97 74
88 92 60
108 111 76
112 113 75
105 106 73
104 106 73
110 113 75
112 113 74
115 117 80
123 122 79
132 132 84
129 129 85
123 123 75
136 135 83
127 126 79
135 133 82
134 134 85
129 128 77
135 134 85
139 137 85
137 136 83
137 135 86
137 138 86
131 131 81
143 142 89
144 142 85
140 138 87
155 151 91
145 143 88
156 152 88
147 145 84
156 153 94
166 161 100
153 149 93
162 157 93
156 153 87
165 160 96
166 160 93
160 155 89
165 160 93
163 159 90
159 155 92
166 161 95
166 160 97
166 161 89
168 163 97
169 163 94
173 167 99
172 166 102
167 161 98
171 164 95
173 167 97
170 164 97
169 164 94
169 164 95
171 166 97
172 165 92
172 166 96
173 167 95
173 166 94
174 167 96
171 165 97
177 170 103
175 169 96
172 167 97
174 167 95
171 165 91
169 162 90
173 167 96
172 165 94
174 167 93
172 165 95
171 164 90
176 169 100
172 166 95
168 161 90
170 164 91
170 163 95
169 162 90
173 166 96
168 161 89
168 161 94
171 164 91
167 160 92
164 157 89
165 158 82
169 162 92
171 164 89
167 160 90
167 160 90
161 155 75
163 157 85
163 156 86
166 161 80
165 158 82
163 157 84
165 159 85
163 157 84
160 154 88
156 149 80
159 152 82
164 157 80
162 155 82
150 144 75
156 150 78
153 147 80
149 143 69
154 147 75
156 150 80
146 140 75
148 141 72
147 140 70
158 150 75
143 137 67
128 124 53
141 135 66
150 145 69
139 134 62
144 138 67
132 126 59
144 139 60
133 131 52
143 147 51
151 160 37
153 163 34
157 170 39
165 185 16
166 186 11
173 197 0
175 198 0
171 195 0
172 196 0
173 196 0
173 196 0
172 195 0
172 195 0
172 196 0
173 196 0
171 194 0
172 194 0
175 198 0
172 195 0
172 196 0
173 196 0
171 195 0
173 196 0
170 195 0
174 198 0
173 196 0
171 194 0
172 195 0
170 194 0
173 196 0
172 195 0
172 195 0
174 197 0
171 196 0
174 197 0
173 196 0
173 195 0
170 193 0
170 193 0
172 195 0
170 194 0
173 197 0
171 195 0
170 194 0
172 196 0
173 197 0
168 191 0
173 196 0
170 193 0
171 195 0
171 194 0
172 194 0
169 192 0
171 195 0
170 193 0
171 195 0
173 196 0
169 193 0
173 196 0
173 196 0
172 195 0
171 194 0
171 195 0
172 195 0
169 193 0
170 194 0
171 195 0
169 193 0
168 192 0
169 192 0
172 195 0
172 196 0
168 191 0
170 194 0
169 193 0
171 194 0
168 191 0
170 193 0
168 192 0
168 192 0
171 194 0
170 194 0
172 195 0
168 191 0
174 196 0
170 193 0
168 191 0
168 191 0
168 192 0
170 194 0
170 194 0
171 195 0
170 193 0
173 196 0
172 195 0
168 192 0
171 193 0
171 194 0
165 189 44
121 147 125
70 104 163
62 99 173
62 98 168
63 99 173
61 98 164
62 98 168
62 98 171
62 98 170
64 100 175
62 99 171
63 99 172
63 99 171
62 98 167
62 99 179
62 99 175
61 98 168
62 98 170
62 99 178
62 99 177
62 99 174
62 99 175
62 99 174
62 99 178
62 99 177
63 100 178
61 98 176
62 99 177
61 97 172
62 99 180
62 99 175
62 99 180
62 99 177
62 99 179
62 99 173
62 99 177
62 99 180
63 99 178
62 99 179
62 99 178
62 99 178
63 100 181
62 99 179
62 99 179
62 99 179
62 99 179
62 99 180
62 99 177
62 99 181
62 99 181
63 100 181
62 99 179
62 99 179
62 99 176
62 99 179
62 99 177
63 99 178
62 99 181
62 99 177
62 99 179
62 99 180
62 99 180
61 99 177
62 99 179
62 99 179
62 99 180
62 99 179
62 99 175
63 99 177
61 98 178
62 99 176
63 100 180
62 99 179
62 99 179
62 99 178
61 98 177
62 99 177
61 99 179
61 98 179
62 99 178
62 99 175
62 99 178
63 99 179
62 99 180
61 99 177
62 99 176
62 99 177
62 99 176
62 99 177
62 99 179
62 99 177
62 99 178
61 99 179
62 99 174
62 99 178
62 99 178
62 99 174
62 99 176
62 99 175
62 99 175
62 99 175
62 99 177
63 99 179
62 99 176
62 99 180
62 99 177
62 99 176
61 98 177
62 99 178
62 99 175
63 99 175
62 99 180
62 99 177
61 98 174
62 99 177
61 98 171
62 99 176
62 99 172
62 99 177
63 99 176
62 99 174
62 99 172
62 99 175
63 99 177
62 99 172
62 99 176
62 99 175
62 99 178
62 99 171
62 99 175
62 99 175
62 99 171
62 99 173
62 99 173
62 98 170
61 98 174
62 98 171
61 98 169
61 97 167
62 99 174
62 98 172
62 98 171
61 97 168
62 98 170
62 98 170
62 98 174
61 97 169
62 97 165
61 96 166
61 97 170
61 97 167
61 96 164
62 97 167
60 96 164
60 95 156
61 96 164
61 96 162
61 96 165
60 94 159
60 94 155
58 92 155
62 84 131
61 69 66
66 71 51
71 74 49
61 65 48
63 67 47
65 69 51
80 83 59
80 85 60
69 75 57
82 85 59
69 75 55
83 87 63
84 88 62
75 81 60
87 91 62
73 80 61
96 100 71
90 93 61
102 105 72
106 108 72
106 107 72
109 111 75
113 115 76
107 109 71
120 119 75
118 119 80
125 124 79
118 120 82
123 123 78
119 120 79
123 124 79
134 133 81
129 129 81
141 138 83
142 140 86
130 130 82
143 141 88
151 148 92
145 143 91
145 144 90
145 142 86
146 143 83
155 151 86
143 141 87
148 145 89
156 152 85
158 154 93
154 151 93
160 156 95
158 154 96
155 152 88
154 150 87
152 150 92
159 155 93
167 161 94
163 158 95
167 161 98
165 160 91
162 158 91
168 162 97
167 162 99
161 157 94
167 162 97
165 160 91
167 162 100
166 161 93
168 162 92
169 163 94
174 168 94
169 163 95
172 166 96
170 164 91
168 162 92
171 165 92
172 165 92
171 165 95
175 168 99
171 164 97
172 166 92
168 162 91
174 167 96
171 165 96
173 166 93
172 165 95
173 166 91
175 169 99
165 159 88
174 167 95
174 167 99
175 167 96
168 162 89
169 163 87
170 165 95
161 155 89
172 165 93
169 162 87
169 162 89
166 160 84
172 165 90
170 163 88
169 162 90
158 153 84
169 162 89
164 158 88
159 154 80
161 155 81
161 154 86
161 155 89
166 160 84
159 153 77
159 153 77
163 157 84
163 157 85
159 152 78
160 155 80
158 151 84
153 148 75
158 151 81
156 150 73
160 153 75
151 145 75
155 149 79
154 147 75
153 147 75
143 137 66
153 146 76
154 147 75
158 151 76
155 149 73
150 143 73
151 145 66
145 138 65
153 146 65
143 137 61
135 130 58
138 132 65
140 134 66
141 137 53
134 136 47
143 150 45
159 174 32
167 184 36
165 185 0
166 185 16
173 196 0
173 195 0
174 196 0
174 197 0
174 198 0
173 197 0
172 195 0
174 198 0
172 196 0
169 192 0
173 196 0
172 195 0
172 195 0
169 192 0
173 195 0
172 196 0
172 195 0
171 195 0
170 193 0
171 194 0
173 196 0
172 195 0
173 197 0
170 192 0
170 194 0
172 196 0
173 197 0
171 195 0
170 194 0
172 196 0
171 195 0
173 196 0
172 196 0
172 196 0
173 196 0
174 197 0
174 198 0
172 195 0
173 197 0
170 194 0
172 196 0
171 195 0
170 193 0
170 194 0
170 194 0
172 195 0
173 196 0
169 192 0
168 191 0
170 193 0
172 194 0
174 197 0
169 193 0
169 191 0
170 194 0
171 194 0
172 196 0
172 195 0
171 193 0
170 193 0
172 194 0
171 195 0
171 195 0
171 194 0
170 194 0
170 193 0
168 192 0
171 193 0
173 196 0
173 197 0
170 193 0
168 191 0
171 193 0
172 196 0
169 192 0
169 192 0
173 196 0
169 192 0
170 194 0
172 195 0
171 195 0
170 195 0
172 196 0
170 194 0
168 192 0
173 196 0
171 194 0
170 194 0
173 195 0
169 192 0
171 195 0
168 192 0
170 194 0
143 168 94
96 125 149
62 99 165
62 99 169
62 98 165
63 99 169
62 99 166
62 99 172
62 98 169
62 98 175
61 98 169
62 99 175
62 99 171
62 99 171
62 99 173
63 99 178
62 98 172
62 99 176
62 98 172
62 99 176
62 99 174
62 99 176
62 99 176
62 99 174
62 99 179
62 99 173
62 99 175
63 99 177
62 99 179
62 99 175
62 99 176
62 99 176
62 99 175
62 99 179
61 98 176
62 99 174
62 99 175
63 100 180
62 99 177
62 99 175
62 99 180
62 99 176
62 99 179
62 99 177
62 99 179
62 99 176
62 99 178
63 99 176
61 99 181
62 99 177
62 99 180
62 99 180
62 99 177
62 99 180
62 99 178
62 99 178
62 99 180
63 99 179
61 98 177
62 99 181
62 99 179
62 99 176
63 100 181
62 99 179
62 99 179
62 99 178
62 99 180
62 99 178
62 99 179
62 99 178
62 99 175
62 99 178
62 99 176
62 99 175
62 99 180
62 99 178
62 99 178
62 99 180
62 99 178
62 99 180
61 98 176
61 98 178
62 99 176
61 98 176
62 99 177
62 99 177
61 99 179
63 100 180
62 99 176
61 99 179
61 99 178
63 99 179
62 99 181
62 99 179
63 100 179
62 99 179
62 99 180
62 99 177
62 99 179
62 99 179
62 99 176
62 99 178
62 99 173
63 99 179
63 99 177
62 98 174
62 99 175
62 99 177
62 99 176
62 99 178
62 99 181
62 99 175
61 98 176
62 99 178
62 99 175
62 99 174
62 99 180
62 99 177
62 99 177
63 99 176
62 99 175
62 99 174
62 99 174
62 99 175
62 99 174
62 98 172
63 99 175
62 99 175
61 98 173
61 98 172
62 99 171
63 100 178
62 98 170
62 99 176
62 99 174
61 98 170
62 98 173
62 99 173
62 98 171
61 97 170
63 99 174
61 97 170
62 99 173
61 97 168
61 97 164
61 98 172
61 97 163
62 98 165
61 97 165
62 98 168
61 97 165
62 98 168
62 98 167
61 96 162
61 97 164
61 97 163
61 96 162
61 95 159
60 94 157
59 93 157
59 93 153
57 90 147
59 89 142
50 69 101
60 64 45
58 62 44
54 60 47
52 57 42
78 81 56
66 70 48
80 84 60
70 74 56
79 82 59
75 80 60
71 77 58
74 80 58
90 94 66
84 89 62
79 85 63
87 91 65
87 91 61
89 93 66
102 104 69
102 105 71
105 107 74
118 119 77
109 110 73
114 115 76
124 125 83
108 110 75
117 118 76
117 117 71
125 125 75
126 126 83
131 130 80
126 126 77
124 124 79
132 130 82
139 138 81
140 138 85
139 137 85
128 127 80
148 145 86
142 140 82
145 142 81
140 138 82
146 144 90
148 145 86
147 144 88
149 146 89
145 142 86
156 153 93
153 151 87
159 155 92
160 156 93
154 151 91
163 158 88
164 160 94
162 159 93
161 157 90
161 156 90
165 160 95
164 159 93
165 160 95
170 163 100
170 164 91
163 158 89
165 159 87
163 158 92
165 160 91
167 163 91
167 161 92
170 165 96
171 165 94
168 163 93
171 165 95
169 163 92
168 162 91
170 164 90
169 162 89
168 163 89
170 164 91
170 164 91
171 165 92
171 165 91
171 165 92
171 165 90
172 166 90
173 166 97
170 165 90
169 163 92
172 165 95
168 162 90
173 166 90
169 162 87
165 158 93
174 168 99
168 161 90
173 166 96
173 166 88
170 164 92
161 155 84
174 166 95
168 162 87
166 159 91
165 159 85
163 156 81
162 156 87
171 163 90
162 156 78
167 160 84
167 160 91
167 161 87
162 156 79
162 156 83
162 156 80
170 162 91
158 152 76
155 149 75
155 149 80
160 153 83
157 150 76
150 144 67
153 147 67
156 149 75
143 138 62
147 142 66
148 142 70
147 142 67
145 140 67
150 145 70
157 149 75
140 134 64
144 139 67
138 132 61
148 143 60
135 130 48
136 130 61
125 120 51
137 132 58
135 136 48
146 149 48
146 156 41
152 167 22
159 177 22
167 188 11
170 192 0
170 195 0
174 197 0
169 192 0
172 196 0
172 196 0
172 195 0
172 195 0
171 195 0
172 195 0
170 194 0
172 196 0
171 195 0
173 197 0
169 192 0
171 195 0
172 196 0
174 198 0
172 196 0
172 196 0
174 197 0
168 193 0
170 195 0
173 197 0
171 195 0
175 197 0
171 194 0
168 191 0
170 194 0
172 196 0
173 196 0
174 196 0
171 194 0
171 194 0
170 194 0
171 195 0
170 193 0
170 194 0
169 193 0
169 193 0
172 194 0
171 194 0
170 194 0
170 194 0
172 196 0
172 195 0
170 194 0
173 196 0
171 195 0
168 192 0
169 193 0
169 192 0
172 195 0
174 197 0
169 192 0
172 196 0
169 192 0
172 195 0
169 192 0
171 195 0
168 192 0
174 196 0
168 192 0
170 193 0
172 195 0
173 196 0
174 197 0
174 196 0
167 191 0
170 195 0
171 194 0
170 193 0
170 192 0
169 193 0
167 190 0
170 193 0
170 194 0
173 196 0
167 191 0
168 192 0
173 196 0
169 193 0
172 196 0
172 195 0
172 196 0
167 190 0
170 193 0
169 192 0
172 195 0
169 193 0
169 192 0
169 193 0
167 190 0
164 187 47
117 144 126
64 99 165
61 98 160
62 98 165
63 100 171
61 98 168
62 99 168
63 99 171
62 98 169
62 98 168
62 99 172
63 100 174
62 99 174
62 99 171
61 98 172
62 99 174
62 99 174
62 98 171
62 99 173
62 99 177
62 99 176
63 99 173
63 99 177
62 99 176
62 99 173
62 99 177
63 100 181
62 99 176
62 99 177
62 99 177
62 99 174
61 98 172
62 99 176
62 99 177
62 99 178
62 99 173
62 99 177
63 100 179
62 99 175
62 99 178
62 99 178
62 99 179
62 99 178
62 99 177
62 99 176
62 98 176
62 99 178
63 99 176
62 99 177
63 99 177
63 100 176
63 100 179
62 99 179
63 100 179
62 99 180
62 99 177
61 99 179
62 99 180
63 100 177
62 99 179
62 99 176
62 99 181
61 99 179
62 99 178
62 99 179
62 99 177
62 99 178
62 99 179
62 99 178
62 99 180
63 99 176
62 99 178
63 99 178
62 99 181
61 98 176
62 99 180
61 99 179
61 99 178
62 99 179
62 99 177
62 99 177
62 99 177
61 98 179
62 99 178
61 99 178
63 99 175
62 99 175
62 99 176
62 99 178
62 99 181
62 99 176
61 99 176
62 99 180
62 99 179
62 99 173
62 99 178
63 99 178
62 99 176
62 99 177
62 99 176
62 99 178
62 99 177
63 99 177
63 99 178
62 99 178
62 99 178
62 99 179
62 99 179
62 99 177
62 99 177
62 99 176
62 99 174
61 98 171
63 99 178
61 98 178
62 99 176
63 100 177
62 98 176
62 99 169
62 99 175
63 100 178
62 98 170
62 99 174
63 100 179
62 99 173
62 99 175
62 99 174
61 98 173
62 99 174
62 98 173
62 99 174
62 98 174
62 99 172
62 99 178
61 98 174
62 99 172
62 98 170
62 98 170
63 100 180
62 98 172
62 99 173
61 98 170
62 99 171
62 98 171
62 98 172
61 97 163
61 98 170
62 98 171
61 97 165
62 98 169
62 99 171
62 98 169
60 96 166
61 97 166
60 94 157
62 97 167
60 95 163
62 97 164
59 93 157
61 96 165
60 94 158
61 95 159
60 93 150
50 77 122
63 69 58
52 58 43
66 69 51
53 59 45
66 70 48
68 71 52
65 70 49
58 65 48
58 66 51
82 86 61
62 70 53
82 85 58
85 90 65
78 82 57
94 97 68
107 107 74
96 99 68
87 91 60
84 88 61
94 98 68
99 103 67
110 111 73
101 102 67
105 108 74
114 116 75
117 118 79
119 120 79
131 131 83
125 125 80
125 124 78
129 128 83
128 128 80
134 132 82
131 131 81
124 124 82
144 142 85
127 128 81
141 140 85
145 143 85
142 140 82
145 142 89
136 134 82
152 148 87
142 139 80
154 151 92
150 147 92
159 154 91
158 154 93
157 153 90
157 153 85
156 151 89
156 152 88
165 160 96
160 155 91
162 157 89
160 155 87
163 158 89
169 164 95
158 154 89
161 157 90
164 160 93
168 163 92
167 162 95
166 161 95
165 161 94
167 162 87
164 159 93
166 161 90
166 160 90
168 162 94
173 166 95
176 169 99
169 164 94
173 166 98
168 163 93
164 159 87
173 166 94
171 165 93
168 162 90
171 165 91
169 163 90
171 165 93
171 165 97
175 167 92
173 166 95
170 164 93
168 161 86
172 166 90
170 164 93
168 162 86
168 162 87
164 158 84
168 162 87
168 162 86
164 158 84
166 160 89
171 164 92
169 162 85
166 160 84
166 161 85
172 165 90
167 161 87
165 159 87
167 160 85
164 158 85
166 159 85
175 168 99
166 161 87
157 151 78
161 155 83
157 151 79
158 152 76
160 154 79
161 154 78
155 148 80
156 149 78
160 154 79
159 152 77
156 149 76
157 151 75
153 146 71
151 146 76
150 145 69
147 141 68
146 141 62
154 149 74
141 136 62
152 145 72
146 141 68
152 145 66
144 138 65
143 138 62
139 132 59
135 130 51
134 129 53
141 137 57
140 142 52
152 159 39
150 159 36
153 164 32
164 182 19
171 191 22
172 193 0
171 195 0
171 194 0
171 195 0
173 196 0
173 196 0
172 194 0
170 194 0
172 196 0
173 196 0
170 194 0
172 196 0
170 194 0
169 193 0
172 195 0
170 194 0
171 194 0
174 197 0
174 197 0
172 195 0
171 195 0
172 196 0
173 197 0
171 194 0
171 194 0
170 193 0
173 196 0
172 196 0
172 195 0
171 193 0
173 196 0
173 197 0
175 198 0
171 194 0
170 194 0
170 194 0
171 194 0
172 196 0
174 197 0
174 197 0
171 194 0
171 194 0
171 196 0
171 194 0
171 195 0
173 195 0
172 195 0
173 196 0
170 193 0
172 195 0
175 197 0
172 195 0
173 196 0
172 196 0
174 197 0
172 196 0
173 197 0
169 193 0
168 192 0
170 194 0
172 195 0
172 195 0
174 197 0
170 194 0
171 195 0
172 196 0
170 193 0
173 196 0
173 195 0
171 195 0
173 196 0
169 193 0
166 189 0
168 191 0
168 191 0
171 193 0
172 195 0
172 194 0
173 195 0
173 196 0
172 196 0
172 195 0
167 190 0
169 192 0
172 195 0
166 190 0
170 194 0
170 194 0
167 190 0
171 194 0
171 194 0
170 193 0
172 195 0
156 180 67
88 119 144
61 98 161
62 98 162
62 98 161
62 99 168
62 98 168
62 99 170
62 98 169
62 99 173
62 99 171
62 98 173
61 98 168
63 99 174
62 99 174
62 98 172
62 98 171
62 99 175
62 98 170
62 99 171
62 99 170
62 98 172
62 99 176
61 98 170
62 98 166
62 99 177
63 99 177
62 99 175
62 99 170
62 99 177
61 98 176
62 99 176
62 99 177
62 99 179
62 99 176
62 99 179
62 99 178
63 99 179
62 99 180
63 100 181
63 100 177
62 99 177
62 99 175
61 98 175
62 99 179
62 99 180
62 99 180
62 99 179
62 99 179
62 99 177
62 99 177
62 98 175
62 99 175
63 100 177
62 99 177
62 99 179
62 99 178
61 98 176
62 99 175
62 99 178
62 99 178
62 99 179
62 99 175
62 99 179
62 99 176
62 99 179
62 99 178
62 99 177
62 98 173
62 99 176
62 99 177
62 99 179
62 99 177
62 99 179
62 99 175
62 99 178
62 99 177
62 99 181
61 98 175
62 99 178
62 99 175
61 98 174
62 99 177
61 98 176
62 99 175
62 99 177
62 99 179
62 99 176
62 99 178
62 99 176
62 99 173
62 99 179
62 99 171
62 99 179
62 99 176
61 98 176
63 100 179
62 99 178
62 99 178
62 99 176
62 99 177
62 99 177
62 99 176
62 99 177
62 99 176
62 99 179
62 99 177
63 100 176
62 99 178
62 99 179
62 99 175
62 99 175
62 99 173
63 99 173
62 99 174
62 99 174
62 99 177
62 98 167
62 99 175
62 99 178
61 98 176
62 99 177
62 98 173
62 99 179
62 99 178
62 99 175
62 98 170
63 100 175
61 98 178
62 99 174
62 99 173
62 99 173
62 98 175
63 99 176
62 99 171
62 99 172
62 98 171
62 99 174
62 99 175
62 99 172
62 99 178
62 99 175
61 97 171
62 98 170
62 98 167
62 98 168
61 98 167
62 98 167
62 98 170
62 99 171
61 97 164
62 98 169
62 98 171
61 98 169
60 95 158
61 96 161
62 98 169
61 97 165
60 94 156
61 95 159
60 95 163
61 96 163
60 95 154
59 93 152
61 90 145
64 74 84
47 53 41
64 68 47
61 65 45
63 69 47
61 65 45
53 58 38
67 72 51
66 70 53
79 83 60
59 67 51
92 95 62
83 88 64
82 87 61
94 99 70
93 96 66
92 94 65
91 96 65
107 108 64
91 97 69
100 102 67
96 99 64
103 104 66
112 113 68
125 125 81
105 107 67
115 117 74
116 117 73
123 123 78
129 129 82
123 123 76
133 133 83
136 134 82
134 133 81
146 143 88
139 138 82
137 136 85
145 143 88
147 144 88
141 140 84
141 140 86
150 146 84
147 145 86
147 143 87
153 149 85
142 141 85
156 152 93
157 153 89
148 145 84
152 148 91
151 147 83
153 151 91
163 158 91
160 155 95
163 158 96
164 158 89
162 157 90
166 161 92
166 161 96
163 160 95
167 162 95
155 152 83
161 156 86
162 158 88
168 163 94
165 160 87
172 165 97
171 164 92
167 162 90
170 164 91
168 162 92
169 163 86
168 162 91
168 163 92
167 162 90
172 165 92
175 168 94
172 166 93
174 168 95
173 167 93
169 162 91
172 166 88
166 160 83
175 168 97
169 163 88
170 163 92
167 160 84
168 162 85
171 164 91
171 164 96
171 164 95
166 160 89
164 158 84
165 158 84
156 151 82
171 165 89
168 161 89
162 156 81
168 161 90
165 159 89
165 159 84
164 158 84
169 161 87
168 161 89
160 154 79
169 162 84
158 152 75
167 159 90
163 157 81
159 154 76
167 161 86
158 152 77
156 150 80
157 151 75
154 148 70
164 156 82
161 154 75
155 149 76
164 156 81
164 156 87
157 150 81
146 141 67
148 142 67
153 146 75
141 135 60
149 142 67
137 132 63
153 147 73
145 139 63
145 139 65
147 142 57
147 141 63
135 131 54
135 130 53
138 133 63
139 135 59
141 143 53
148 154 45
145 155 25
152 168 16
160 176 16
167 184 16
169 189 16
174 197 0
173 197 0
172 195 0
171 195 0
168 191 0
172 196 0
171 194 0
170 193 0
175 198 0
173 197 0
171 195 0
171 195 0
174 196 0
170 194 0
174 197 0
172 195 0
170 194 0
172 196 0
173 196 0
174 197 0
170 193 0
169 192 0
169 192 0
173 197 0
172 196 0
171 193 0
172 196 0
172 196 0
173 197 0
174 196 0
173 196 0
169 192 0
173 196 0
171 195 0
170 193 0
172 196 0
171 194 0
171 194 0
172 196 0
170 194 0
172 195 0
172 196 0
172 195 0
173 197 0
169 192 0
172 196 0
171 195 0
170 192 0
171 195 0
172 194 0
170 193 0
170 193 0
173 196 0
169 192 0
174 198 0
169 193 0
169 193 0
172 195 0
168 190 0
173 197 0
172 196 0
168 192 0
171 193 0
174 196 0
170 193 0
169 193 0
167 191 0
171 193 0
171 195 0
171 193 0
169 193 0
172 195 0
167 190 0
167 189 0
170 194 0
166 190 0
166 189 0
167 190 0
172 195 0
170 193 0
167 190 0
169 192 0
166 189 0
172 196 0
169 193 0
170 193 0
169 192 0
172 194 0
171 194 0
170 192 0
171 194 0
166 190 25
130 155 115
70 104 163
62 99 165
62 98 166
62 99 172
63 100 173
61 98 165
62 99 171
63 99 174
62 99 170
62 99 170
62 99 175
62 98 165
62 99 175
62 99 172
62 99 174
62 99 174
61 98 167
62 99 175
62 99 176
62 99 172
61 97 172
62 99 173
62 99 175
62 98 172
62 99 174
62 99 179
62 99 173
62 99 177
62 99 178
62 99 175
63 99 174
62 99 177
61 98 174
62 99 177
62 99 176
63 100 178
62 99 176
62 99 176
62 99 175
62 99 176
62 99 178
63 99 177
62 99 179
62 99 178
63 99 176
62 99 176
62 99 179
62 99 178
62 99 177
62 99 177
62 99 176
62 99 180
63 100 180
62 99 177
62 99 180
62 99 178
63 100 179
62 99 180
62 99 179
62 99 177
62 98 174
62 99 178
62 99 175
62 99 177
62 99 179
62 99 178
62 99 175
62 99 179
62 99 177
63 99 176
62 99 175
62 99 176
62 99 174
62 99 180
62 99 179
62 99 178
61 99 180
62 99 179
62 99 178
62 99 179
61 98 173
62 99 175
63 99 178
62 99 176
63 99 175
62 99 175
62 99 177
62 99 177
62 99 179
62 99 179
62 99 178
61 98 177
62 99 179
62 99 175
62 99 179
62 99 178
62 99 175
63 99 179
62 99 179
62 98 173
62 99 175
62 99 175
62 99 177
62 99 176
62 99 175
62 99 180
61 98 175
62 99 175
62 99 177
62 99 178
62 98 174
62 99 175
62 99 174
62 99 176
62 99 175
62 99 174
63 100 178
62 99 176
62 99 174
62 99 175
63 100 179
63 99 176
62 99 173
62 99 172
62 99 172
62 99 175
63 99 173
62 99 172
62 99 174
63 100 176
62 99 174
63 99 174
62 98 167
61 98 172
62 99 174
60 97 168
61 97 163
62 99 174
62 99 174
63 99 170
62 99 172
61 98 169
62 98 163
62 99 170
62 98 171
62 98 168
62 98 164
62 98 169
62 98 170
61 97 161
60 95 160
62 98 170
61 97 167
62 97 167
61 97 165
62 97 164
60 95 157
61 96 162
59 93 153
59 94 158
60 95 161
60 95 159
59 92 154
60 94 159
58 77 105
65 68 49
62 66 47
63 66 45
57 63 46
58 64 45
64 68 44
61 67 49
86 90 64
56 63 46
73 78 58
84 87 58
71 77 57
71 77 58
78 82 54
93 97 61
92 96 69
90 96 65
87 91 60
106 107 65
99 101 67
109 111 72
111 113 69
103 106 71
109 111 71
107 109 71
111 111 68
118 119 73
120 121 75
120 120 72
127 126 77
126 125 80
137 136 84
133 131 79
132 131 82
143 140 83
140 138 82
144 141 81
147 144 87
149 145 87
142 141 82
146 144 85
148 145 83
153 149 91
153 150 90
157 152 88
148 144 82
157 154 89
159 155 88
163 157 91
159 154 92
167 161 96
165 160 91
162 157 90
164 159 95
169 163 95
161 157 88
164 158 89
161 156 91
166 161 91
162 159 90
162 157 83
161 156 82
172 165 93
172 166 94
166 161 90
168 162 89
166 161 88
172 165 93
170 164 91
166 161 91
170 164 94
171 164 94
168 162 91
170 164 91
172 166 90
169 163 93
170 165 91
171 164 90
172 166 94
166 160 90
174 167 94
169 163 85
166 159 84
165 159 88
165 159 87
170 164 90
169 163 87
169 163 89
168 162 91
171 164 94
170 163 88
169 162 90
168 161 88
167 161 81
163 158 84
167 161 87
163 157 84
166 159 84
166 160 89
171 164 88
168 161 90
159 152 83
160 154 78
159 153 75
161 154 84
168 161 86
160 154 81
169 162 90
161 153 84
164 157 78
160 153 76
159 152 75
152 146 75
161 154 76
161 155 81
158 152 75
155 149 72
159 152 75
162 153 82
165 157 84
154 148 65
145 140 65
150 145 69
141 136 63
145 140 63
149 144 70
145 139 70
144 138 66
145 139 68
131 126 57
134 130 53
137 131 56
129 123 52
137 132 58
137 134 58
139 143 47
150 161 36
150 162 25
157 174 25
168 186 22
161 180 0
168 190 0
173 196 0
171 195 0
173 196 0
172 195 0
172 196 0
170 194 0
173 196 0
172 195 0
171 195 0
173 197 0
173 196 0
171 194 0
172 195 0
169 192 0
173 197 0
171 194 0
168 192 0
170 195 0
172 195 0
172 196 0
173 197 0
172 195 0
170 193 0
170 194 0
171 194 0
172 195 0
173 196 0
171 195 0
172 195 0
170 194 0
170 192 0
171 195 0
171 193 0
175 197 0
173 196 0
173 197 0
169 193 0
172 196 0
171 193 0
173 196 0
172 194 0
172 196 0
170 193 0
171 195 0
174 197 0
171 194 0
172 195 0
170 195 0
171 194 0
170 194 0
171 194 0
171 193 0
171 194 0
170 193 0
171 195 0
167 191 0
172 195 0
168 192 0
169 192 0
170 194 0
171 194 0
171 194 0
172 195 0
172 195 0
172 196 0
167 191 0
171 194 0
172 194 0
170 192 0
167 191 0
172 195 0
171 195 0
173 197 0
171 194 0
169 192 0
171 194 0
170 194 0
173 196 0
172 195 0
170 194 0
172 195 0
168 192 0
168 191 0
172 195 0
170 194 0
169 192 0
172 195 0
169 192 0
167 191 0
165 188 0
171 195 0
155 179 62
100 129 139
62 99 167
63 100 174
61 97 161
62 98 163
62 99 169
62 98 169
62 98 162
61 98 168
62 99 171
62 99 169
62 99 168
62 99 175
63 99 175
62 99 175
62 98 170
62 99 172
62 99 174
61 98 174
62 98 172
62 99 172
63 100 176
63 99 175
62 99 176
62 99 174
62 99 174
62 99 171
62 98 175
63 99 177
62 99 174
62 99 176
62 99 178
62 99 176
62 99 177
62 98 173
62 99 180
62 99 179
63 100 176
63 99 176
62 99 178
62 99 178
61 98 175
62 99 177
61 99 178
62 99 177
62 99 179
62 99 175
62 99 179
63 100 180
62 99 180
62 99 177
62 99 178
62 99 180
63 100 180
63 99 176
63 99 174
62 99 177
62 99 178
62 99 178
62 99 179
62 99 173
62 99 178
62 98 177
61 98 173
62 99 179
62 99 177
62 99 175
62 99 177
62 99 175
62 99 176
62 99 176
63 100 180
63 99 178
62 99 181
62 98 173
61 99 177
62 99 177
62 99 179
62 99 174
62 99 179
62 99 178
62 99 179
62 99 176
62 99 179
62 99 176
63 99 178
62 99 177
62 99 176
61 98 175
62 99 176
62 99 176
62 99 178
62 99 178
62 99 176
61 98 176
62 99 173
62 99 174
62 99 180
62 99 174
62 99 175
62 99 177
62 99 177
62 99 177
62 99 175
62 99 173
62 99 176
62 99 175
62 99 178
62 99 171
63 100 179
62 99 175
62 99 177
61 98 174
62 99 172
62 99 174
62 99 175
62 99 178
62 99 177
63 99 175
62 99 174
62 98 174
62 99 178
62 99 171
62 99 177
62 99 177
62 99 176
62 99 176
62 99 168
63 99 175
62 98 173
61 98 168
62 99 172
62 99 173
61 97 166
62 99 173
62 99 173
62 98 169
62 99 174
62 98 173
62 99 173
62 98 167
63 100 177
62 99 174
61 97 167
62 98 169
63 99 173
62 98 173
62 98 172
62 98 165
63 99 174
61 97 168
61 97 166
62 98 172
61 97 162
61 97 164
61 96 164
62 98 169
61 97 166
61 96 163
62 96 163
61 97 167
60 95 156
60 94 156
59 93 155
58 91 151
58 85 135
54 68 89
54 59 39
44 51 40
39 48 37
49 57 41
63 67 45
61 67 51
61 66 45
63 68 48
62 69 50
73 77 51
72 77 55
73 79 54
80 85 59
86 90 65
92 94 61
103 105 68
94 97 64
98 101 68
100 101 64
89 94 61
109 111 72
112 113 77
107 109 67
118 119 76
114 115 75
123 123 76
120 120 72
122 122 79
109 111 64
119 119 73
131 129 77
131 130 80
137 136 80
131 130 80
135 134 86
136 134 75
147 144 85
136 134 77
145 142 83
144 142 85
155 151 88
152 149 85
148 145 86
157 153 85
150 147 85
153 149 88
149 146 86
155 151 84
155 151 87
160 156 90
152 149 82
155 151 87
159 155 91
167 161 95
156 152 88
166 161 93
163 159 88
154 150 82
159 155 86
161 156 82
169 163 90
162 157 86
163 158 94
165 159 87
169 162 89
168 162 94
168 163 93
170 163 93
169 163 86
172 165 89
170 164 92
161 156 76
172 165 92
170 164 90
167 161 87
166 161 87
173 166 94
173 166 92
170 164 89
171 165 93
168 162 90
172 165 91
177 169 97
171 165 90
169 162 87
169 163 90
170 164 90
163 157 83
168 160 85
166 160 87
172 164 90
165 160 89
172 165 90
160 153 77
172 166 93
165 160 84
165 158 85
164 158 85
161 155 80
163 156 81
166 160 84
167 161 85
165 158 84
167 161 86
164 157 78
164 157 81
158 152 79
157 151 77
161 155 84
154 149 70
158 151 75
156 150 73
158 152 75
157 150 76
152 146 75
160 153 76
153 146 76
155 147 75
156 150 71
153 147 74
152 145 68
152 146 74
139 133 60
151 145 66
147 142 62
147 141 69
149 143 66
142 137 58
138 132 68
138 132 58
137 132 60
131 126 51
135 130 56
146 149 47
145 149 41
154 166 36
158 171 32
154 171 0
163 179 25
163 183 11
171 192 0
175 198 0
172 194 0
173 196 0
173 196 0
171 195 0
169 193 0
173 197 0
175 198 0
171 195 0
173 196 0
173 197 0
171 194 0
174 197 0
175 198 0
172 196 0
172 196 0
174 197 0
170 193 0
173 196 0
171 195 0
168 192 0
172 196 0
172 195 0
170 193 0
173 195 0
172 196 0
171 195 0
171 195 0
172 196 0
171 194 0
170 193 0
173 196 0
171 194 0
175 198 0
170 194 0
167 191 0
171 195 0
171 195 0
169 192 0
171 195 0
172 196 0
173 196 0
173 196 0
172 195 0
170 194 0
168 192 0
174 197 0
172 195 0
171 195 0
168 192 0
168 192 0
171 194 0
173 196 0
167 191 0
172 195 0
171 194 0
170 193 0
172 195 0
169 193 0
170 193 0
169 193 0
172 196 0
169 193 0
170 194 0
169 192 0
169 193 0
168 191 0
173 197 0
167 191 0
172 195 0
170 193 0
168 192 0
169 193 0
168 191 0
170 193 0
171 194 0
172 194 0
170 194 0
169 191 0
172 194 0
168 192 0
168 191 0
171 194 0
169 192 0
170 194 0
169 191 0
169 193 0
172 196 0
168 192 0
169 192 0
170 193 0
137 162 95
79 111 155
63 100 170
61 97 158
63 99 166
62 98 164
62 98 169
62 99 174
62 98 166
61 98 171
61 97 165
62 99 172
62 98 167
62 99 174
62 98 172
61 98 166
62 99 173
63 99 173
62 99 169
63 99 174
62 98 167
62 99 177
62 99 177
62 99 171
63 100 177
62 99 176
61 98 176
62 99 177
62 99 178
62 99 174
62 99 176
62 99 177
61 98 177
62 99 178
62 99 177
62 99 177
63 99 179
62 99 174
62 99 178
63 99 177
63 100 177
62 99 178
62 99 177
62 99 175
62 99 178
62 99 175
62 99 177
61 98 178
62 99 177
62 99 179
62 99 179
62 98 176
63 100 181
62 99 177
62 99 179
61 98 177
62 99 177
63 100 180
62 99 172
62 99 173
62 99 178
63 99 178
62 99 177
62 99 175
62 99 173
62 99 176
62 99 180
62 99 177
62 99 176
62 99 179
61 98 177
62 99 180
62 99 178
62 99 175
62 99 179
62 99 176
62 99 181
62 99 178
62 99 175
61 99 177
62 99 179
62 99 176
63 100 177
62 99 176
62 99 174
63 99 177
62 98 175
62 99 179
62 99 176
62 99 176
63 99 178
62 99 176
62 99 176
62 99 177
62 99 174
63 100 177
62 99 174
62 99 177
62 99 174
62 99 176
62 99 173
62 98 174
62 99 178
61 98 172
61 98 177
62 99 176
62 99 176
62 99 178
62 99 177
62 99 177
62 99 177
62 99 178
62 99 175
61 98 173
62 99 178
62 99 178
62 99 173
62 99 176
61 98 175
62 99 176
62 99 173
62 98 171
62 98 174
62 99 175
62 99 176
62 99 176
63 99 175
63 99 175
63 99 175
62 99 175
61 98 173
62 99 172
62 99 173
62 99 173
63 99 173
62 99 173
62 99 171
62 98 174
61 98 170
62 98 161
62 99 173
62 98 166
62 98 170
62 98 167
62 98 170
62 98 166
62 98 170
62 99 173
62 98 169
61 97 165
62 98 170
60 96 161
61 97 161
61 97 167
62 97 163
61 97 167
61 96 159
61 97 164
61 96 163
62 97 167
61 96 164
61 97 167
58 92 153
60 94 159
60 96 163
60 93 151
59 89 141
59 76 104
48 54 39
47 53 36
55 63 50
61 66 48
48 55 38
71 76 56
55 62 45
62 69 53
73 77 48
67 73 46
67 74 53
65 71 49
80 85 53
76 79 51
85 88 63
89 92 58
102 103 62
102 105 64
104 105 64
101 102 68
109 110 70
120 119 76
120 119 77
112 113 75
124 123 75
128 126 71
119 119 78
123 122 71
120 120 76
119 119 67
128 127 78
135 132 79
123 123 79
132 130 76
131 130 79
131 131 79
142 140 82
147 145 82
132 130 79
147 144 79
141 139 83
137 135 76
146 144 88
141 139 77
158 153 87
153 149 89
157 153 86
153 151 89
161 156 94
159 154 89
155 150 86
160 155 91
162 157 89
161 157 89
157 152 89
159 154 84
163 158 87
159 154 87
170 164 94
161 156 84
164 159 89
166 160 89
167 162 93
162 157 87
167 161 86
162 157 85
171 164 91
171 164 92
164 159 86
168 162 93
173 166 96
169 163 91
170 163 85
165 159 87
171 165 92
166 161 87
175 167 95
170 163 90
169 163 90
171 164 89
165 159 84
169 162 91
169 161 89
172 165 88
169 162 88
170 164 92
169 163 93
163 157 78
170 163 89
169 162 83
167 161 81
163 156 84
161 156 82
166 159 81
164 158 82
167 162 87
162 155 83
169 162 88
158 151 74
166 159 85
165 159 78
161 155 72
161 155 80
162 155 83
162 156 83
163 157 81
166 160 84
160 154 75
157 151 78
158 152 80
166 159 83
152 145 75
164 158 76
159 153 75
155 149 75
149 143 70
159 152 77
153 146 73
158 152 69
160 154 80
145 140 65
142 137 67
151 145 67
149 143 66
153 147 64
136 130 58
145 139 64
140 135 63
147 141 68
125 121 51
135 130 60
139 133 59
140 135 57
138 140 53
145 150 51
148 161 28
157 172 22
165 183 19
167 185 11
167 188 0
172 194 0
171 195 0
172 196 0
172 195 0
173 196 0
174 197 0
174 196 0
173 196 0
173 196 0
171 195 0
172 196 0
171 195 0
173 196 0
173 196 0
175 198 0
172 196 0
171 195 0
170 194 0
173 195 0
172 196 0
172 196 0
172 195 0
169 193 0
172 196 0
170 194 0
169 193 0
172 196 0
171 194 0
172 195 0
173 196 0
172 195 0
173 196 0
172 195 0
169 192 0
171 194 0
174 197 0
173 197 0
172 195 0
169 192 0
173 195 0
171 195 0
170 194 0
172 195 0
172 196 0
172 196 0
172 195 0
171 194 0
172 194 0
174 196 0
171 195 0
172 195 0
169 193 0
170 194 0
172 195 0
174 197 0
170 193 0
171 194 0
168 191 0
172 195 0
171 194 0
171 194 0
170 193 0
174 196 0
171 194 0
169 193 0
172 195 0
171 195 0
172 195 0
173 196 0
169 192 0
168 192 0
172 195 0
170 194 0
172 195 0
173 196 0
175 197 0
171 193 0
174 197 0
168 192 0
169 192 0
172 196 0
170 193 0
169 192 0
170 194 0
170 192 0
172 195 0
170 192 0
173 196 0
167 189 0
167 190 0
165 189 0
160 184 65
108 135 130
62 99 169
62 98 160
63 99 170
62 98 165
62 98 168
61 97 162
62 98 161
62 98 166
62 99 173
62 98 170
63 100 175
61 98 170
62 99 175
62 98 171
62 99 173
62 99 171
62 98 173
62 98 172
63 99 174
61 98 172
61 98 171
63 99 174
63 99 175
62 99 176
63 99 177
63 99 173
62 99 174
63 99 177
62 99 175
62 99 178
62 99 176
62 99 179
62 99 177
62 99 176
62 99 178
62 99 176
62 99 178
63 100 177
62 99 177
61 98 173
62 99 178
61 98 175
62 99 173
62 98 175
62 99 178
63 99 176
62 99 176
62 99 177
62 99 175
62 99 177
63 99 178
62 99 181
62 99 176
62 99 175
63 100 180
62 99 180
62 99 177
62 99 176
61 99 179
62 99 176
63 100 178
62 99 176
61 98 178
61 98 177
62 99 178
62 99 179
62 99 175
62 99 179
62 99 175
62 99 177
62 99 177
61 98 178
62 99 179
62 99 177
62 99 180
62 99 179
62 99 178
62 99 176
62 99 175
62 98 173
62 99 172
62 99 176
62 99 177
62 99 176
62 99 177
62 99 175
62 99 176
63 100 176
62 99 174
62 99 177
62 99 177
61 98 172
61 98 176
62 99 178
61 99 177
62 99 179
62 99 175
62 99 176
63 99 177
62 99 174
62 99 178
62 99 174
62 98 173
62 99 177
62 99 175
62 99 173
62 99 176
62 99 173
62 99 180
62 99 178
62 99 172
62 99 176
63 99 177
62 99 175
61 98 168
62 99 171
62 99 174
62 99 174
62 99 174
62 98 171
62 99 174
62 99 176
62 98 176
61 98 175
62 98 174
63 99 174
62 99 175
62 99 177
62 99 176
61 98 170
63 99 170
62 99 176
62 99 177
63 99 171
62 98 174
62 98 168
62 99 171
62 98 171
62 98 168
63 99 174
62 98 164
63 100 176
62 98 167
62 98 170
62 99 174
62 98 171
62 99 172
62 98 170
61 97 168
62 98 169
61 98 172
61 96 161
62 97 165
62 97 165
62 98 164
62 98 173
62 97 168
61 96 163
62 98 166
61 96 164
60 94 155
60 96 159
62 96 162
59 94 157
58 91 147
59 91 146
52 80 125
45 58 72
47 53 36
54 58 38
60 65 45
46 53 38
53 59 45
53 60 41
72 77 51
60 65 43
58 66 48
74 78 54
84 87 55
76 80 56
93 96 65
90 93 61
79 83 57
98 101 60
102 103 65
99 100 62
107 109 67
100 102 64
103 105 69
107 109 67
103 104 68
108 109 67
118 119 71
114 115 74
128 126 72
128 127 78
113 114 72
117 118 72
134 133 81
129 128 75
133 131 75
142 139 81
141 138 80
136 134 82
143 141 85
138 135 74
138 136 75
147 144 85
148 145 81
153 148 87
149 146 86
150 146 85
149 147 88
152 148 86
150 146 80
158 153 87
156 151 89
160 155 86
152 148 82
155 151 82
160 155 87
161 155 86
165 159 88
160 155 87
163 157 89
162 157 93
162 156 92
163 156 88
165 159 87
165 160 89
166 161 89
167 161 92
171 165 94
171 165 92
169 161 92
169 163 91
171 164 91
171 165 91
168 162 87
170 163 83
171 164 91
173 166 92
165 159 87
174 167 91
173 166 91
169 161 88
172 165 92
172 165 91
173 166 87
165 160 81
165 159 84
169 162 90
166 159 91
168 161 84
172 165 93
168 162 82
169 162 87
167 161 84
168 162 83
162 156 82
168 161 88
170 163 84
164 157 79
161 156 78
166 160 80
164 159 84
167 161 86
168 161 90
159 154 75
161 155 77
153 148 78
156 150 76
159 152 78
163 156 79
163 155 84
166 158 84
160 154 77
163 156 77
157 151 76
151 146 62
154 148 69
159 153 78
159 152 75
159 152 80
155 148 71
141 135 57
144 138 69
146 140 71
145 139 63
152 145 71
151 146 64
142 137 62
140 135 60
136 130 57
143 137 71
147 140 68
118 113 53
125 120 49
136 131 56
144 141 54
142 146 47
142 149 37
148 161 25
154 166 28
161 177 19
168 189 11
168 188 11
172 192 0
170 193 0
173 197 0
173 196 0
168 193 0
174 197 0
170 194 0
168 191 0
172 196 0
171 194 0
170 192 0
170 194 0
173 196 0
171 195 0
170 193 0
171 194 0
172 195 0
171 194 0
173 197 0
172 195 0
170 193 0
173 195 0
172 195 0
169 193 0
170 193 0
173 196 0
169 193 0
175 198 0
170 194 0
173 196 0
172 195 0
170 193 0
172 195 0
171 194 0
173 195 0
168 191 0
167 191 0
169 192 0
170 194 0
170 194 0
170 194 0
173 196 0
170 193 0
171 194 0
170 193 0
171 194 0
170 194 0
172 195 0
169 193 0
170 194 0
169 192 0
171 195 0
170 194 0
171 195 0
168 191 0
172 196 0
171 194 0
169 193 0
171 194 0
170 193 0
169 192 0
169 193 0
169 192 0
168 191 0
171 193 0
169 192 0
171 194 0
170 193 0
172 195 0
168 192 0
170 194 0
168 191 0
169 192 0
169 192 0
172 195 0
169 193 0
164 186 0
168 192 0
170 193 0
167 190 0
170 193 0
168 191 0
166 189 0
173 196 0
171 194 0
169 192 0
170 192 0
170 193 0
170 192 0
171 195 0
172 196 0
149 172 80
78 110 153
62 98 165
61 97 159
62 98 167
62 99 171
62 99 173
62 98 165
62 98 162
62 99 170
62 98 167
63 99 172
63 99 170
61 98 167
63 99 176
62 99 166
61 98 165
62 99 174
63 99 172
62 98 170
62 99 177
62 98 170
62 99 173
62 99 177
61 98 171
62 99 176
62 99 172
62 98 173
62 99 175
62 99 175
62 98 174
63 99 171
62 99 175
62 99 176
62 99 176
62 99 175
62 99 179
63 100 181
62 99 177
62 99 176
63 99 176
62 99 176
62 99 178
61 98 172
62 99 176
62 99 174
62 99 177
62 99 173
62 99 179
63 99 176
63 100 179
61 98 174
62 99 176
62 99 176
63 100 179
62 99 173
62 99 180
62 99 175
62 99 176
61 98 176
61 98 175
63 100 178
61 98 176
63 100 181
62 99 179
62 99 180
61 98 174
61 98 175
62 99 178
62 99 178
62 99 180
62 99 178
62 99 176
62 99 176
62 99 174
61 98 176
62 99 180
62 99 178
62 99 175
62 99 180
62 99 173
62 99 176
61 98 174
62 99 178
62 99 177
62 99 174
62 99 178
63 99 175
62 99 180
62 99 175
62 99 178
61 98 177
62 99 175
63 100 176
62 99 172
62 99 176
62 99 173
62 99 178
62 99 180
62 99 174
62 99 179
62 99 175
61 98 174
62 99 178
62 99 174
62 99 177
62 99 176
62 99 177
62 98 175
62 99 175
62 99 175
63 99 172
62 99 178
62 99 174
62 99 174
62 99 173
62 99 173
62 99 180
63 99 173
62 99 173
62 99 175
62 99 173
62 99 174
62 99 173
63 99 173
62 99 172
63 99 174
61 98 166
62 99 175
62 99 176
62 99 173
62 98 169
63 99 172
61 98 168
62 99 173
62 99 173
62 99 174
61 98 169
62 99 173
62 99 173
62 98 168
62 98 172
61 98 171
61 97 168
62 99 171
61 97 161
62 98 166
63 99 168
61 96 164
62 99 172
62 99 170
62 98 166
61 96 166
62 97 164
62 98 170
62 98 162
62 98 169
61 96 157
62 98 164
61 96 162
62 98 165
60 96 163
61 96 162
61 96 160
61 95 160
59 93 158
61 94 155
59 93 155
58 87 141
55 70 88
44 52 39
35 44 37
45 51 31
53 61 47
48 53 38
62 67 44
55 61 43
69 73 47
72 76 44
68 75 56
80 83 53
77 83 63
74 78 50
77 80 52
77 82 49
87 90 60
101 103 62
108 109 66
95 98 61
103 105 61
99 101 61
102 106 68
102 104 59
121 122 76
130 129 81
124 124 75
133 131 75
125 124 80
120 120 70
128 127 77
124 124 75
133 131 78
136 134 72
131 129 74
132 131 73
142 138 82
138 137 78
138 136 79
146 143 81
130 128 75
146 144 85
143 140 78
157 152 89
143 140 82
155 150 86
153 149 87
147 145 80
149 146 83
158 153 87
158 154 85
158 154 87
153 149 85
159 154 78
153 150 79
161 156 85
160 156 83
158 153 81
166 160 86
165 159 89
167 161 92
161 156 86
164 158 86
166 160 90
166 161 90
161 157 86
163 158 84
168 162 87
165 160 86
169 163 92
168 162 91
162 158 84
165 159 85
165 161 87
169 162 87
169 162 86
168 162 82
169 163 89
167 160 88
166 161 82
171 164 93
169 163 88
168 161 86
169 161 85
168 161 83
168 162 82
171 164 93
168 162 87
169 162 84
164 158 80
171 164 90
167 159 85
170 162 88
166 160 84
169 162 87
164 158 81
158 152 78
161 155 84
161 155 76
156 150 70
160 154 79
162 155 83
166 159 87
162 154 78
157 151 75
155 149 82
156 150 75
164 157 79
163 155 81
162 156 75
154 148 72
163 156 82
159 152 77
161 154 75
155 149 69
160 153 80
156 149 73
152 146 67
157 151 73
151 144 73
146 140 67
155 149 71
146 140 68
143 139 64
136 131 54
145 139 63
135 130 58
141 136 60
137 133 49
133 128 52
133 128 53
124 121 44
137 137 47
146 150 41
153 160 44
153 166 32
164 180 30
164 183 11
166 186 0
169 188 0
171 192 0
172 195 0
172 195 0
173 196 0
171 194 0
170 193 0
175 198 0
172 196 0
174 197 0
171 194 0
173 196 0
175 198 0
169 192 0
172 196 0
171 195 0
172 196 0
173 196 0
172 196 0
168 191 0
168 192 0
172 196 0
171 194 0
172 196 0
171 194 0
173 197 0
173 196 0
173 195 0
172 195 0
171 194 0
171 195 0
174 197 0
171 195 0
168 191 0
172 196 0
173 196 0
167 190 0
170 194 0
173 196 0
168 191 0
172 195 0
170 194 0
173 195 0
172 195 0
169 193 0
173 196 0
170 194 0
170 194 0
172 195 0
173 197 0
173 196 0
171 195 0
174 197 0
171 194 0
173 196 0
170 194 0
170 194 0
171 195 0
170 193 0
169 193 0
172 195 0
170 194 0
170 193 0
172 196 0
172 195 0
173 196 0
169 192 0
171 194 0
173 196 0
168 192 0
171 194 0
170 192 0
171 195 0
169 193 0
166 190 0
167 191 0
170 193 0
169 191 0
171 194 0
167 190 0
170 193 0
168 191 0
167 190 0
169 193 0
171 194 0
170 193 0
169 192 0
169 193 0
169 193 0
170 193 0
172 196 0
165 188 36
122 147 113
65 100 158
63 99 163
63 98 161
61 98 163
62 99 167
63 99 168
62 98 166
62 99 172
62 99 171
62 98 168
62 99 170
62 98 169
63 99 173
62 99 175
63 99 175
62 98 172
62 99 170
62 99 174
62 99 175
62 99 174
62 99 171
63 99 173
63 99 173
61 98 170
62 99 178
62 98 169
63 99 174
62 99 178
62 99 178
63 99 173
63 99 178
62 99 178
61 98 176
62 99 173
62 99 175
62 99 177
63 99 175
62 99 177
61 98 174
62 99 178
61 98 173
62 99 176
62 99 177
62 99 176
62 99 176
62 99 176
61 98 174
62 99 177
63 100 178
62 99 177
62 99 177
62 99 175
61 98 172
62 99 178
62 99 177
62 99 177
63 99 176
63 100 178
62 99 177
62 100 181
62 98 172
62 98 176
62 99 176
62 99 175
62 99 179
62 99 178
62 99 177
63 99 174
62 99 175
63 99 176
62 99 173
62 99 177
61 98 170
62 99 176
62 98 174
63 100 176
62 99 180
63 99 176
62 99 176
61 98 173
61 99 176
62 99 176
62 99 178
63 99 176
63 99 178
62 99 176
63 100 177
63 99 179
62 99 178
62 99 177
61 98 174
62 99 177
62 99 174
63 100 178
62 98 174
63 100 179
62 99 178
63 99 177
62 99 177
62 99 175
62 99 177
62 99 178
62 99 177
62 99 176
63 100 176
62 99 179
61 98 170
62 99 171
63 99 176
61 98 174
62 99 176
62 98 175
62 98 170
62 99 173
62 99 171
62 99 176
62 99 175
62 99 177
62 99 169
62 99 173
62 99 173
63 99 174
62 99 174
62 99 172
62 98 175
62 99 173
63 99 174
62 99 171
62 99 170
62 99 171
62 99 171
62 98 166
62 99 176
62 99 176
61 97 167
61 98 169
62 98 169
62 98 167
62 98 170
62 98 170
62 98 166
62 98 172
62 99 171
61 97 163
61 97 171
62 98 171
62 98 170
62 98 169
62 98 168
62 98 170
61 97 165
61 97 164
61 97 162
62 98 165
61 97 165
61 97 167
62 98 164
61 97 162
61 96 164
62 97 161
60 96 160
61 97 165
61 96 160
60 94 158
60 94 159
59 92 146
60 93 148
59 91 144
48 72 109
48 57 62
42 49 32
41 47 35
42 48 34
54 60 41
53 60 45
67 72 48
63 67 43
55 62 40
73 77 45
70 74 48
68 74 50
71 74 49
79 83 51
90 93 64
97 99 64
80 84 59
106 107 71
97 99 59
102 104 59
103 105 66
108 109 67
116 116 65
110 112 68
118 117 70
115 116 62
118 120 71
112 114 73
119 120 69
121 121 68
135 133 77
132 131 74
138 136 82
141 139 81
140 137 79
130 128 77
141 138 81
138 136 78
139 137 78
141 138 77
151 147 82
145 143 78
148 145 83
147 144 81
157 152 87
152 149 82
156 151 84
155 151 84
156 151 85
155 151 87
156 152 84
163 159 90
151 147 85
159 154 83
161 156 87
165 160 86
163 158 87
165 159 84
169 162 90
168 162 91
164 159 89
158 155 84
163 157 89
168 162 90
170 163 87
170 164 89
168 161 85
169 162 93
172 165 95
166 160 89
165 158 84
166 161 82
166 160 83
168 163 84
166 161 83
169 163 90
172 166 92
170 163 90
170 164 86
168 161 88
166 160 83
173 165 90
171 164 89
168 162 86
168 161 90
160 155 76
166 160 82
162 157 78
164 158 87
171 164 86
163 158 78
167 162 84
165 158 78
164 158 84
169 162 93
167 160 85
162 156 76
164 157 80
167 160 82
165 158 82
162 156 75
164 157 82
164 157 84
160 154 74
159 152 79
162 156 81
163 155 82
157 151 74
154 148 73
157 152 78
151 145 73
160 154 74
147 141 64
148 143 64
152 146 73
151 147 70
156 150 66
144 138 65
146 141 64
152 146 68
141 135 61
152 146 75
143 138 61
138 132 60
137 131 58
140 135 53
142 135 61
139 134 60
133 129 54
141 135 62
131 128 47
135 136 44
139 145 32
150 159 42
159 174 28
156 171 22
166 184 16
166 185 11
172 193 0
169 191 0
173 196 0
172 195 0
173 196 0
169 193 0
171 194 0
170 194 0
173 196 0
173 197 0
167 190 0
170 195 0
171 194 0
171 194 0
171 195 0
172 196 0
172 196 0
171 194 0
171 195 0
172 195 0
169 191 0
173 197 0
172 195 0
172 195 0
170 194 0
171 194 0
171 195 0
171 195 0
171 195 0
174 198 0
173 196 0
169 194 0
170 193 0
172 194 0
169 193 0
172 195 0
172 196 0
170 194 0
173 196 0
172 195 0
168 191 0
171 194 0
169 192 0
170 194 0
169 192 0
169 193 0
171 195 0
172 195 0
171 194 0
171 194 0
171 194 0
171 194 0
171 195 0
170 194 0
170 193 0
172 195 0
173 195 0
172 195 0
171 195 0
173 196 0
170 194 0
169 193 0
172 194 0
169 192 0
168 192 0
170 194 0
169 192 0
171 193 0
172 196 0
171 194 0
173 196 0
170 194 0
171 194 0
170 194 0
173 196 0
170 194 0
170 194 0
171 194 0
170 194 0
169 192 0
168 193 0
171 195 0
169 192 0
174 198 0
171 194 0
171 193 0
174 197 0
171 194 0
172 195 0
169 193 0
171 194 0
155 179 62
100 128 134
62 98 165
62 98 160
62 98 163
62 99 169
62 98 164
62 99 168
62 98 164
61 98 168
62 98 168
62 99 174
62 99 171
63 99 172
61 98 172
61 98 169
62 98 172
62 98 169
62 99 172
63 99 176
63 99 177
63 99 174
62 98 170
62 99 175
62 98 167
63 99 174
62 99 172
62 99 173
62 99 172
62 99 177
62 99 175
62 99 175
62 99 180
62 99 174
62 98 174
62 99 176
62 99 175
63 100 178
62 99 175
62 99 178
62 99 170
62 99 174
61 98 174
62 99 177
63 100 179
61 98 170
62 98 175
62 99 179
61 98 171
62 99 178
62 99 178
62 99 174
62 99 176
62 99 179
63 100 180
62 99 173
62 99 177
62 99 176
62 99 176
62 99 177
62 99 176
62 99 175
62 99 179
61 98 175
62 99 177
62 99 179
62 99 178
62 99 179
62 99 176
61 98 174
62 99 176
62 99 181
61 98 175
62 99 174
62 99 176
63 99 178
63 99 174
62 99 179
63 100 180
62 99 173
62 99 177
62 99 176
62 99 178
61 99 178
62 99 179
62 99 173
62 99 177
62 99 176
63 99 177
62 99 176
62 99 175
63 99 174
61 98 176
62 99 174
61 98 175
61 98 170
62 99 177
62 99 176
62 99 178
63 99 176
62 99 176
62 99 178
62 99 172
61 98 168
63 99 177
62 99 175
62 99 178
62 99 174
63 99 176
63 100 178
62 99 175
62 99 176
63 99 175
62 99 175
62 99 177
62 99 176
61 98 174
63 99 176
62 99 176
62 99 178
62 99 174
63 99 172
62 99 174
63 99 176
62 99 171
62 99 175
62 99 173
63 99 175
63 99 172
62 99 169
62 99 175
63 100 170
62 99 175
62 99 170
62 99 179
62 98 170
63 100 175
62 99 171
62 98 172
62 99 170
61 98 170
62 98 169
62 99 175
62 98 170
62 98 169
62 98 169
63 99 172
61 98 172
62 97 163
62 98 169
62 98 164
61 97 161
62 98 171
62 98 170
62 98 170
61 96 160
62 98 168
62 98 167
63 99 170
61 97 160
61 97 163
62 97 164
61 96 164
61 96 162
61 97 165
60 95 160
60 94 156
59 94 156
59 92 143
58 90 147
54 82 130
57 69 79
56 60 42
52 58 38
54 60 40
57 63 39
55 60 34
52 58 32
64 69 45
64 69 48
63 68 41
54 63 45
85 88 49
92 93 59
88 90 57
91 94 54
79 83 54
89 90 54
82 86 53
101 103 61
101 103 69
109 110 65
112 112 64
104 105 64
107 109 68
107 109 68
107 108 66
117 117 70
121 120 69
121 121 71
127 127 73
119 120 74
123 124 70
133 130 78
131 130 74
126 126 67
133 132 72
132 131 81
145 142 79
145 143 78
141 138 73
141 138 77
139 136 83
146 143 82
148 145 74
156 152 88
150 146 83
154 149 88
154 150 86
156 151 85
160 156 86
157 152 87
153 149 80
161 156 88
163 158 85
162 157 84
165 159 86
165 159 92
160 154 81
162 156 83
160 155 82
154 151 83
167 161 89
167 161 89
167 160 89
159 155 87
169 161 90
169 163 86
167 161 86
164 159 86
170 164 88
168 161 89
164 159 86
169 162 90
172 165 90
169 162 91
167 161 85
172 164 89
164 158 79
163 157 80
169 163 84
174 167 90
166 160 83
164 158 84
166 160 83
167 160 84
162 155 83
169 161 87
163 156 79
165 158 81
164 157 81
170 162 85
161 155 80
167 159 83
162 156 77
163 157 76
167 161 80
168 162 87
161 155 77
162 157 76
159 154 80
166 158 84
164 157 82
170 162 87
163 156 76
158 152 76
158 151 73
158 152 74
159 152 75
156 150 71
155 149 77
153 148 68
159 154 72
154 147 68
147 141 64
152 145 70
150 144 71
147 141 59
148 141 67
145 138 62
139 134 58
153 146 67
145 138 65
143 136 60
132 128 56
147 140 69
135 129 57
143 138 60
133 128 53
138 132 56
140 135 57
138 136 48
142 146 42
147 154 44
152 161 41
156 170 28
160 175 22
167 187 0
169 191 0
171 193 0
171 192 0
172 195 0
172 194 0
172 195 0
171 194 0
172 195 0
171 194 0
168 193 0
173 197 0
173 196 0
171 195 0
171 195 0
172 196 0
171 194 0
173 196 0
171 195 0
172 196 0
172 194 0
171 194 0
174 196 0
174 197 0
171 194 0
173 195 0
172 195 0
169 192 0
167 191 0
173 196 0
171 195 0
170 194 0
169 193 0
171 194 0
171 195 0
174 197 0
173 196 0
170 194 0
168 192 0
170 194 0
170 194 0
173 196 0
169 193 0
170 194 0
171 193 0
170 193 0
170 194 0
170 194 0
168 192 0
171 194 0
174 197 0
172 195 0
173 196 0
172 195 0
168 191 0
174 197 0
170 193 0
169 192 0
173 197 0
171 194 0
171 194 0
171 194 0
172 195 0
170 194 0
170 193 0
170 194 0
171 194 0
171 194 0
169 192 0
170 194 0
170 194 0
171 194 0
170 194 0
168 191 0
170 193 0
168 190 0
170 193 0
166 190 0
168 191 0
169 193 0
168 191 0
174 197 0
170 193 0
171 195 0
169 192 0
170 193 0
171 194 0
170 193 0
166 189 0
170 194 0
170 194 0
168 192 0
172 195 0
139 163 92
83 114 152
62 98 164
62 98 161
61 97 157
61 97 161
62 98 169
63 99 170
62 98 165
62 99 170
61 97 161
62 98 165
63 99 171
62 99 174
61 98 167
62 99 168
62 99 170
62 98 170
62 99 175
62 99 172
62 99 176
62 99 172
62 98 170
63 99 177
62 99 174
62 98 172
62 99 172
62 99 174
61 98 170
62 98 174
63 99 176
62 99 172
62 99 175
62 99 177
62 99 174
61 98 172
62 99 174
62 99 175
62 99 175
63 100 177
62 99 173
62 99 173
62 99 178
62 99 180
63 100 177
62 98 172
63 99 177
62 99 177
62 99 177
62 99 179
62 99 178
62 99 175
61 98 175
62 99 180
62 99 175
62 99 175
62 99 180
62 99 179
62 99 177
63 99 176
62 99 175
62 99 176
62 99 179
62 99 181
62 99 180
61 98 175
62 99 178
62 99 177
62 99 176
63 99 179
62 99 177
62 99 175
62 99 173
62 99 178
62 99 178
62 99 175
62 99 174
62 99 177
62 99 175
63 99 176
62 99 180
62 99 174
63 100 176
62 99 177
62 98 175
63 99 176
62 99 174
62 99 176
62 99 178
62 99 176
62 99 176
61 98 176
62 99 177
62 99 180
61 98 176
62 99 175
62 99 179
62 99 177
62 99 178
63 100 174
63 100 178
62 98 172
61 98 172
62 99 174
62 99 177
62 99 176
63 99 174
62 99 172
62 99 174
63 100 177
62 99 177
62 98 171
61 98 174
62 99 174
62 99 176
62 99 169
62 99 175
62 99 172
62 99 173
62 98 169
62 99 172
62 99 171
62 99 176
63 100 177
62 99 170
62 99 176
62 99 170
62 99 171
62 99 175
63 99 173
62 99 176
62 98 168
63 100 174
63 99 172
63 100 175
63 99 173
62 98 168
62 98 170
62 98 169
62 99 177
63 99 173
62 99 172
62 99 172
61 98 174
62 98 166
62 98 168
62 99 172
62 98 166
62 98 170
63 99 172
62 98 170
62 99 170
62 98 170
62 98 168
61 98 167
61 97 164
61 96 156
62 98 163
62 97 166
61 97 164
62 98 168
61 96 161
61 97 162
60 95 159
59 93 152
60 94 150
60 94 154
60 95 159
60 93 151
59 92 149
55 86 138
49 70 110
52 55 31
49 54 27
50 55 37
42 48 33
55 60 41
62 66 45
63 67 46
64 69 41
65 69 46
69 73 42
76 79 48
76 81 51
89 91 60
76 81 46
92 95 55
85 89 58
93 96 54
88 92 56
97 100 62
101 103 63
106 107 69
106 107 67
108 110 63
104 106 59
108 107 54
113 113 68
109 111 69
113 114 64
119 118 67
129 127 73
127 127 68
121 121 70
133 132 82
137 135 75
137 134 70
139 136 80
142 139 77
140 137 82
143 141 78
136 133 75
154 150 84
145 141 77
151 147 81
148 144 81
151 147 86
139 136 72
146 142 81
154 149 80
153 148 81
163 158 84
155 151 79
147 143 75
160 155 87
156 151 82
162 157 83
161 156 84
160 154 82
158 153 82
165 159 88
161 156 83
161 156 84
164 158 85
162 156 85
165 159 93
166 161 83
160 155 78
160 155 85
165 160 88
166 160 83
170 163 86
165 158 82
163 159 79
165 159 86
162 156 77
162 157 80
169 162 82
167 160 87
165 159 78
164 158 77
167 161 82
170 163 85
169 163 83
170 162 85
157 152 75
169 162 85
162 156 80
164 157 86
162 156 79
167 160 83
168 162 81
172 164 80
169 162 86
164 157 80
163 157 80
166 160 81
169 161 87
164 159 80
159 152 76
155 149 73
160 154 73
157 151 75
163 156 75
161 154 84
163 157 81
158 151 74
153 148 72
155 149 72
157 150 71
158 151 72
157 150 69
149 143 71
148 142 67
158 152 68
151 145 70
147 141 68
151 145 67
149 143 68
147 141 61
152 146 65
151 145 63
140 134 56
139 132 58
144 139 61
134 129 51
145 140 59
139 133 57
139 133 54
134 128 54
137 133 53
126 124 44
140 141 48
147 155 39
155 165 37
155 168 30
165 183 19
163 183 16
168 188 0
168 188 0
168 188 0
172 195 0
172 195 0
171 194 0
172 195 0
171 195 0
171 195 0
173 196 0
169 192 0
172 195 0
171 194 0
171 194 0
172 195 0
170 194 0
172 195 0
171 194 0
172 195 0
172 196 0
174 197 0
173 197 0
175 198 0
173 197 0
171 194 0
174 198 0
171 194 0
171 194 0
170 194 0
169 192 0
174 197 0
168 192 0
171 194 0
171 194 0
173 196 0
172 196 0
170 194 0
172 195 0
174 196 0
171 195 0
172 195 0
173 195 0
168 192 0
170 193 0
169 193 0
170 193 0
172 195 0
173 196 0
172 195 0
170 193 0
173 197 0
168 192 0
171 194 0
168 191 0
172 195 0
169 192 0
171 195 0
170 193 0
172 195 0
170 193 0
170 193 0
172 196 0
171 195 0
169 192 0
172 196 0
168 190 0
169 191 0
172 195 0
170 192 0
171 195 0
172 194 0
171 195 0
169 192 0
169 192 0
166 189 0
167 190 0
171 195 0
169 192 0
166 190 0
170 193 0
171 194 0
168 192 0
169 193 0
167 190 0
171 194 0
166 189 0
171 194 0
166 188 0
170 193 0
168 192 0
166 190 0
164 187 40
120 145 121
64 99 161
62 98 163
62 98 160
61 98 165
62 99 170
62 98 164
62 98 166
63 99 170
62 98 166
62 98 168
63 99 170
62 98 173
62 99 171
63 99 175
62 99 171
61 98 166
62 99 175
63 99 171
62 99 174
62 99 173
62 98 165
62 99 173
62 99 176
63 99 173
62 98 169
62 99 176
62 99 175
62 99 174
62 99 174
62 99 173
62 99 175
61 97 170
61 98 173
61 98 168
62 99 175
62 99 174
62 99 175
61 98 169
63 100 177
61 99 176
63 100 180
62 99 177
62 99 179
62 99 180
63 99 174
62 99 176
62 99 176
62 98 173
63 100 180
62 99 174
62 99 176
62 99 176
62 99 178
62 99 178
62 99 178
62 99 178
63 100 178
62 99 174
63 100 177
62 99 176
62 99 175
63 99 179
63 100 176
62 99 175
63 100 178
62 99 177
62 99 174
62 99 175
63 99 177
62 99 177
62 99 175
62 99 178
62 99 175
62 98 174
62 99 178
61 98 168
62 99 178
62 99 177
62 99 177
63 99 174
62 99 175
62 99 172
62 99 171
62 99 175
62 98 171
63 99 177
61 98 175
63 99 177
62 99 173
62 98 173
61 98 175
63 99 172
62 98 173
61 98 176
62 99 174
62 98 170
62 99 174
62 99 171
62 99 171
62 99 172
62 99 174
62 99 179
62 99 174
63 100 176
62 99 174
62 98 173
63 99 173
63 99 176
63 99 176
62 98 172
63 100 177
62 99 176
61 98 170
62 98 172
62 99 171
63 99 172
62 99 177
62 99 170
61 98 169
63 99 176
62 99 171
63 100 175
62 99 173
62 99 174
62 98 172
62 99 174
62 99 171
62 99 172
63 100 178
62 99 175
62 99 172
62 99 172
62 98 171
62 98 167
62 98 171
63 99 169
62 98 169
62 99 172
62 99 172
63 99 176
62 98 170
63 100 169
62 98 169
62 99 174
63 99 173
62 99 171
62 99 170
62 98 164
61 98 170
62 98 170
62 98 171
62 98 171
62 98 167
62 98 167
62 98 170
63 99 171
62 97 166
62 98 166
63 98 168
61 97 164
61 96 158
62 98 165
61 96 162
60 94 153
61 96 158
57 91 146
60 94 158
59 93 151
59 92 142
59 92 147
51 77 112
48 59 52
53 57 36
45 53 38
50 56 36
52 58 36
51 57 36
61 65 40
50 59 40
73 78 55
61 66 40
67 72 45
71 75 50
75 80 51
82 86 58
82 85 51
91 93 63
91 93 54
82 89 58
102 103 59
107 109 65
114 114 69
109 109 63
100 102 61
124 124 71
119 120 75
119 119 73
122 122 64
120 119 72
123 122 73
125 125 73
116 117 63
131 129 71
130 128 76
139 136 79
126 125 74
145 141 76
134 132 78
141 137 79
140 137 69
145 141 81
144 140 75
150 145 83
151 147 79
142 141 74
152 147 85
149 146 77
153 148 81
152 149 83
145 143 73
154 149 82
151 147 78
160 155 91
158 153 84
157 153 83
159 155 78
155 151 83
164 159 83
161 156 77
166 160 87
165 159 81
164 158 89
162 157 87
167 161 86
162 156 82
166 160 86
161 155 81
169 163 84
163 158 81
163 157 78
162 157 78
164 158 87
165 158 87
164 158 78
166 159 85
166 161 83
164 158 81
167 161 83
164 157 83
164 157 81
164 158 79
161 155 79
167 161 88
165 160 84
163 157 79
169 162 84
166 162 82
157 151 74
169 162 88
168 161 86
165 159 79
166 160 87
170 162 89
171 164 84
164 159 79
160 153 73
160 154 81
167 160 78
164 157 77
164 157 79
159 152 75
151 145 70
154 149 67
163 157 80
160 153 77
163 156 78
156 148 76
151 145 65
161 155 79
156 150 71
152 146 70
155 150 73
153 147 74
147 141 59
153 146 70
155 149 74
144 139 62
154 148 74
146 141 65
146 140 57
138 133 51
149 142 64
142 136 63
134 129 53
133 128 53
140 134 63
135 129 61
132 127 56
134 128 58
136 133 48
132 131 47
150 153 47
155 164 39
160 175 30
160 177 22
165 184 16
169 189 16
167 188 0
168 188 0
167 187 0
170 194 0
170 194 0
173 197 0
174 197 0
169 192 0
172 194 0
170 194 0
172 195 0
172 195 0
172 195 0
172 196 0
172 195 0
172 195 0
170 194 0
170 194 0
172 196 0
171 195 0
174 197 0
173 196 0
171 194 0
173 195 0
169 192 0
172 196 0
169 193 0
169 192 0
172 196 0
174 196 0
173 196 0
174 197 0
172 195 0
170 194 0
170 194 0
167 191 0
171 194 0
170 193 0
171 194 0
172 196 0
172 195 0
170 194 0
169 192 0
172 195 0
173 196 0
171 195 0
174 197 0
172 195 0
172 194 0
169 192 0
171 194 0
170 194 0
170 193 0
168 191 0
168 191 0
171 195 0
170 195 0
173 197 0
172 195 0
172 195 0
172 196 0
170 193 0
169 192 0
170 194 0
166 189 0
170 193 0
171 193 0
171 194 0
170 194 0
168 192 0
173 196 0
171 195 0
169 192 0
171 193 0
168 191 0
172 195 0
169 193 0
171 194 0
171 194 0
167 190 0
170 193 0
171 194 0
169 193 0
168 192 0
171 194 0
169 192 0
169 193 0
172 195 0
166 190 0
169 191 0
166 190 0
163 186 47
86 117 155
61 97 156
61 98 160
62 98 168
63 99 166
62 98 168
62 98 162
61 98 169
61 97 160
62 98 164
62 98 168
62 99 173
63 99 174
62 98 167
62 99 169
60 97 166
61 98 169
62 99 172
61 98 168
62 99 174
61 98 171
62 99 170
62 98 168
61 98 172
62 99 173
61 98 169
62 99 174
62 99 173
62 99 172
62 99 173
62 99 172
62 99 171
62 99 174
62 99 174
62 99 175
62 99 173
63 99 175
62 99 174
62 99 173
62 99 175
62 99 178
62 98 169
62 99 177
63 99 180
62 99 174
62 99 175
62 99 179
63 100 179
61 98 176
62 99 178
62 99 176
61 98 175
62 99 174
62 99 178
62 99 174
63 100 180
62 99 173
63 99 178
62 99 176
62 99 178
62 99 176
62 99 180
62 99 176
62 99 175
62 99 176
61 98 176
62 99 176
61 98 176
62 99 175
62 99 176
62 99 176
61 98 174
62 99 177
62 99 177
61 98 174
62 99 176
61 98 174
62 99 174
62 99 175
62 99 175
62 99 174
62 99 174
62 99 174
62 98 174
62 99 177
61 98 174
62 99 174
61 98 174
62 99 171
62 99 178
63 99 177
62 99 176
61 98 171
62 99 177
62 99 172
62 98 175
61 98 175
63 99 176
62 98 172
62 98 175
63 99 178
62 99 171
61 98 171
61 98 173
62 99 167
62 99 174
63 99 176
62 98 172
62 99 173
62 99 174
62 99 168
62 99 173
62 98 172
62 98 170
62 99 179
63 99 174
63 99 175
63 100 175
62 99 172
61 98 171
63 99 174
61 98 169
62 99 174
62 99 169
61 98 174
63 99 174
62 99 168
62 98 170
62 99 173
61 98 167
62 99 174
62 98 170
62 99 172
62 99 170
62 99 171
62 98 171
61 98 169
62 99 169
62 98 174
63 99 173
61 98 169
62 98 169
61 96 166
62 99 170
62 98 170
61 98 165
62 98 168
62 99 171
62 98 170
62 99 170
62 98 166
61 97 163
62 98 169
62 98 170
62 98 171
61 97 163
62 98 167
61 96 163
61 97 165
62 98 168
62 97 168
62 97 164
61 96 162
61 97 168
62 97 160
61 96 162
60 95 154
61 95 159
60 94 159
61 96 158
57 90 134
55 83 127
46 56 65
50 55 35
43 49 28
32 42 31
45 52 29
60 65 41
51 58 37
65 69 37
63 69 48
62 68 39
65 70 46
70 76 49
82 86 52
72 78 53
88 90 54
87 90 49
89 92 49
89 91 49
86 90 53
100 102 61
104 104 62
105 108 68
109 110 63
113 114 66
122 121 67
121 122 68
115 114 69
120 119 65
126 124 70
128 126 69
115 116 60
129 128 70
120 121 66
136 133 79
132 130 68
131 130 67
136 134 72
141 139 78
137 136 71
147 144 79
137 135 78
147 142 75
144 140 74
144 141 81
151 147 87
159 154 87
149 145 78
152 148 84
156 151 79
152 147 79
158 153 81
157 153 86
155 150 81
162 156 84
155 150 83
160 154 82
161 156 82
159 154 80
164 158 83
160 155 86
164 158 82
162 156 78
167 160 89
157 153 83
163 158 79
158 153 73
171 164 86
161 154 81
168 161 92
168 162 82
169 162 88
160 155 77
170 163 91
166 160 85
166 161 86
164 158 84
171 164 88
166 160 84
168 162 82
166 160 86
165 160 85
165 159 81
163 157 82
162 157 76
162 157 74
159 154 75
165 158 84
164 158 79
163 156 82
167 161 80
162 155 75
163 157 79
164 156 71
169 161 85
157 151 77
165 158 78
156 150 78
163 156 75
161 154 77
164 157 84
161 155 77
162 156 75
157 151 68
161 154 75
156 150 70
159 152 80
147 141 63
154 147 73
153 147 64
153 147 68
152 146 69
153 147 66
151 145 70
150 144 64
152 146 66
146 140 62
146 141 58
149 144 61
152 145 69
146 140 62
138 133 57
144 136 63
141 136 58
133 127 56
140 134 61
139 134 48
121 116 51
137 132 51
139 140 41
139 143 34
140 145 36
152 163 30
159 174 25
161 177 16
166 185 11
170 189 16
170 190 0
171 192 0
167 188 0
171 195 0
172 195 0
173 197 0
172 195 0
173 196 0
172 195 0
171 195 0
173 196 0
174 197 0
172 196 0
171 195 0
173 197 0
170 193 0
171 195 0
173 196 0
171 194 0
174 197 0
169 193 0
170 194 0
173 196 0
171 195 0
172 195 0
172 195 0
174 197 0
171 195 0
173 196 0
175 197 0
171 195 0
171 195 0
172 196 0
172 195 0
169 193 0
171 194 0
170 194 0
171 194 0
173 195 0
173 196 0
172 195 0
171 195 0
172 195 0
170 194 0
172 195 0
171 195 0
170 194 0
167 191 0
172 195 0
172 195 0
167 190 0
173 196 0
169 192 0
172 195 0
167 190 0
170 193 0
173 196 0
172 195 0
169 194 0
168 190 0
169 192 0
168 192 0
170 194 0
169 192 0
170 194 0
171 194 0
173 196 0
171 194 0
169 193 0
171 193 0
169 192 0
168 190 0
173 196 0
169 193 0
167 191 0
171 195 0
169 193 0
168 191 0
167 190 0
168 191 0
168 192 0
171 194 0
171 194 0
169 192 0
170 193 0
166 188 0
168 190 0
169 192 0
169 193 0
167 191 0
167 192 18
139 163 95
81 113 157
62 98 159
62 98 168
62 98 162
61 97 162
61 98 162
63 99 171
63 99 170
62 99 167
62 98 167
62 98 167
62 98 168
61 97 160
62 98 170
63 100 176
63 99 171
62 98 167
62 99 172
62 98 166
62 99 173
62 98 165
61 98 169
63 99 172
63 100 175
62 99 173
62 98 173
62 99 177
62 98 172
61 98 171
63 100 179
62 99 170
63 99 174
62 99 174
62 99 177
62 99 175
62 98 171
62 99 172
62 99 175
62 99 172
62 99 175
62 99 172
63 99 174
62 99 173
62 99 175
62 99 173
62 99 174
62 99 172
62 99 171
63 99 178
62 99 179
62 99 179
62 99 177
62 99 175
62 99 177
62 99 174
61 98 176
63 99 177
62 99 175
62 99 173
62 99 174
62 99 177
62 99 174
62 99 172
62 99 176
62 99 176
62 98 169
63 99 178
62 98 174
62 99 180
62 99 175
62 99 176
63 99 176
62 99 178
62 99 179
62 99 178
62 99 176
61 98 173
62 99 180
62 99 173
61 98 174
62 99 175
63 99 174
63 99 178
62 99 175
62 99 179
62 99 177
62 99 176
62 99 177
62 99 176
62 99 177
63 100 179
63 99 178
62 99 175
62 99 175
62 99 175
63 100 175
63 99 177
62 99 174
62 99 175
61 98 169
62 98 174
63 99 176
63 99 176
62 99 175
62 99 177
62 99 175
62 99 173
62 99 176
62 99 173
62 99 173
62 98 173
62 99 174
62 98 173
62 99 172
62 99 175
62 99 177
62 98 173
62 99 177
62 98 167
62 99 174
62 98 169
62 98 172
61 98 171
62 99 172
62 99 173
62 98 170
62 99 175
63 100 176
62 98 173
61 98 166
61 98 167
62 99 170
62 99 169
62 98 171
62 99 173
62 98 171
61 98 161
62 98 170
61 98 167
62 99 172
62 99 173
62 99 168
62 98 170
61 97 161
62 98 168
61 98 168
62 98 168
61 97 168
62 99 169
60 96 161
62 98 167
61 98 165
61 97 169
62 98 164
61 96 158
61 98 166
62 98 165
61 97 165
61 96 164
61 97 164
61 95 157
61 97 164
61 96 162
61 96 159
61 95 154
61 96 152
60 95 151
60 94 159
61 95 156
60 94 145
60 94 158
56 88 137
38 58 80
52 59 44
37 43 26
54 58 30
65 69 41
53 57 35
56 60 29
67 70 34
58 63 41
66 70 45
73 77 45
73 76 44
89 90 54
76 80 50
90 92 51
89 92 53
98 100 61
100 101 58
94 96 57
103 105 60
95 96 54
107 108 60
107 109 60
111 111 67
102 104 57
116 117 67
126 124 70
113 115 67
126 125 72
123 122 71
127 126 65
124 123 66
128 126 66
125 124 70
127 126 66
131 130 72
130 128 69
138 136 76
148 145 81
138 134 73
140 137 73
144 141 75
148 144 75
150 146 76
146 142 77
148 144 80
153 149 84
146 143 82
152 148 75
153 148 76
151 147 81
146 143 70
156 151 82
152 148 81
165 159 82
161 156 80
155 150 77
163 156 81
167 161 90
156 150 77
161 156 83
163 157 81
162 155 86
155 150 72
165 159 84
164 158 81
166 160 83
164 158 79
167 161 81
169 163 86
167 161 84
165 160 83
166 160 82
167 160 78
170 163 87
169 163 81
171 163 86
162 155 78
162 156 74
157 152 81
164 158 82
165 158 82
164 158 78
166 160 81
166 159 85
164 158 81
168 161 81
167 160 75
163 157 74
162 155 80
164 157 80
162 155 78
164 158 80
161 156 72
165 159 80
159 152 75
161 154 77
159 153 71
157 151 75
163 157 72
157 151 65
164 157 79
159 153 77
165 157 80
156 150 75
154 149 69
163 156 77
154 148 75
148 143 58
161 154 75
153 147 63
139 135 54
141 135 69
145 140 60
151 145 64
154 147 70
143 137 63
153 147 69
154 148 71
141 135 63
142 136 62
137 131 53
145 140 62
142 136 59
132 127 57
149 143 58
127 124 41
143 138 57
141 141 52
137 143 37
147 156 39
152 162 41
159 175 28
160 176 19
164 181 19
171 191 19
168 188 0
168 189 0
170 191 0
172 195 0
174 197 0
172 196 0
170 194 0
173 196 0
171 195 0
171 194 0
173 197 0
173 196 0
172 195 0
175 198 0
171 194 0
169 193 0
173 196 0
170 194 0
172 195 0
170 194 0
172 195 0
171 195 0
169 193 0
170 194 0
172 195 0
172 195 0
174 197 0
170 194 0
169 193 0
172 195 0
171 195 0
171 195 0
172 196 0
171 194 0
171 194 0
169 193 0
170 193 0
170 193 0
174 197 0
173 196 0
169 193 0
173 196 0
173 196 0
171 194 0
172 194 0
170 194 0
171 195 0
168 191 0
174 197 0
169 192 0
172 195 0
173 195 0
172 195 0
174 197 0
172 195 0
172 195 0
169 192 0
171 195 0
170 194 0
168 191 0
171 194 0
170 193 0
169 192 0
168 192 0
171 195 0
170 192 0
168 191 0
169 192 0
171 194 0
169 192 0
171 194 0
166 191 0
170 194 0
169 193 0
169 192 0
166 190 0
173 197 0
169 192 0
171 194 0
172 195 0
169 193 0
171 194 0
172 195 0
171 195 0
167 190 0
171 194 0
169 191 0
170 194 0
171 194 0
169 193 0
163 186 25
124 149 105
66 101 160
62 98 161
62 98 161
62 98 162
62 98 166
62 99 165
62 98 165
62 98 165
62 99 170
62 98 167
62 98 166
62 99 172
62 99 170
62 99 170
62 99 168
62 99 174
62 99 171
63 99 172
62 99 170
62 99 171
62 99 169
61 98 169
62 99 173
62 99 168
62 98 167
62 99 172
62 99 175
63 99 177
62 99 174
62 98 169
61 98 177
62 99 176
63 99 176
62 99 174
62 99 174
62 99 175
61 98 173
63 100 175
61 98 177
62 99 175
62 98 171
62 99 174
62 98 173
63 99 175
62 99 175
62 99 172
62 99 176
62 98 171
63 99 178
63 99 176
62 99 174
62 99 175
62 99 177
62 99 175
62 98 170
62 99 176
62 99 174
61 98 171
62 99 175
62 99 175
63 100 178
62 99 179
62 99 175
62 99 178
62 99 176
62 99 176
61 98 175
62 99 177
62 99 173
63 99 176
62 99 176
63 99 176
62 98 174
62 99 175
62 99 176
62 99 175
62 99 176
63 99 173
63 100 179
62 99 175
62 99 177
63 99 175
62 99 178
62 99 177
62 99 179
63 100 177
62 99 176
61 98 174
62 99 173
61 98 174
62 98 172
62 99 175
62 99 178
62 99 173
63 99 172
62 99 173
62 98 173
62 98 173
62 99 176
62 99 172
61 98 172
62 99 175
61 98 175
62 99 175
61 98 175
61 98 172
62 98 172
62 99 175
62 99 177
61 98 173
62 98 170
62 99 175
62 99 170
62 99 173
62 99 170
62 99 175
62 99 176
63 99 172
62 99 171
61 98 169
62 99 171
62 99 171
62 99 174
63 99 175
62 99 170
62 99 174
62 99 176
63 99 171
62 99 169
62 99 171
62 98 169
62 98 168
62 99 171
62 98 169
62 98 164
62 98 167
61 98 167
61 98 172
61 98 169
62 99 173
62 99 171
62 99 172
62 98 168
62 98 165
62 98 168
62 98 168
63 99 171
61 97 164
63 99 170
62 99 170
62 98 164
61 96 163
62 98 165
61 97 160
63 98 164
61 97 163
61 97 165
62 97 163
60 96 158
62 98 165
62 97 160
61 96 156
61 96 160
61 95 150
61 96 154
60 94 153
59 93 156
60 95 161
60 95 155
59 93 154
59 93 146
58 91 142
54 77 108
56 63 56
46 50 29
60 64 34
63 67 36
45 51 27
58 63 37
69 72 41
60 69 47
65 69 33
73 75 50
64 69 39
82 86 49
77 80 47
86 87 46
79 84 48
84 88 53
97 99 50
85 87 47
97 98 61
103 104 57
103 104 62
117 116 71
111 112 65
109 111 63
114 113 63
114 114 62
130 128 68
120 120 69
115 114 63
126 125 65
126 125 69
132 129 70
125 124 65
130 129 67
132 131 73
136 135 70
139 136 75
143 140 74
133 131 71
140 137 73
146 142 75
150 146 77
136 134 77
148 144 74
147 144 70
152 148 76
154 149 78
148 145 83
150 146 79
160 155 83
156 151 74
155 150 77
156 151 79
156 152 80
156 151 70
166 159 88
162 157 80
162 156 81
158 153 76
163 158 82
163 157 85
160 155 76
162 156 80
162 157 78
160 154 80
164 159 80
168 161 86
154 149 77
170 163 89
169 162 86
162 156 72
171 164 87
162 156 75
165 158 80
166 159 82
164 157 74
170 164 84
164 158 82
165 158 77
167 161 77
161 155 80
164 158 76
162 156 79
162 155 75
161 155 77
163 156 76
169 162 86
163 156 81
161 154 77
162 155 79
170 163 85
162 156 78
162 155 77
161 154 73
168 161 79
164 157 78
155 149 65
158 152 71
156 150 75
161 155 77
158 151 72
156 149 70
160 154 75
154 149 71
145 141 57
159 153 71
150 146 57
154 148 62
157 150 71
144 139 58
153 146 68
155 150 71
149 142 71
142 135 63
143 137 65
155 148 71
150 143 62
144 139 53
148 141 64
142 136 57
146 141 53
138 132 62
140 134 61
139 134 57
131 125 48
140 136 53
129 127 41
137 137 49
138 139 44
150 162 28
152 164 34
160 176 19
168 185 19
167 184 0
172 193 0
169 191 0
171 193 0
169 189 0
173 196 0
171 194 0
171 194 0
173 197 0
170 194 0
174 196 0
168 192 0
172 195 0
174 197 0
173 196 0
171 195 0
174 197 0
171 194 0
172 196 0
171 194 0
173 197 0
170 194 0
172 194 0
171 194 0
170 194 0
172 195 0
173 196 0
170 194 0
172 196 0
170 193 0
173 196 0
170 195 0
169 193 0
171 195 0
172 196 0
172 194 0
174 197 0
170 195 0
173 195 0
168 192 0
173 196 0
168 193 0
172 195 0
173 196 0
167 189 0
170 193 0
171 194 0
168 192 0
170 193 0
172 196 0
171 194 0
172 195 0
172 196 0
172 195 0
169 193 0
170 193 0
170 193 0
170 193 0
172 195 0
173 195 0
171 195 0
171 193 0
165 188 0
169 192 0
170 193 0
169 192 0
169 192 0
171 195 0
168 191 0
169 192 0
169 192 0
171 194 0
167 191 0
171 194 0
169 193 0
162 185 0
166 189 0
165 188 0
169 192 0
171 195 0
170 193 0
166 189 0
168 191 0
167 189 0
170 194 0
166 189 0
169 191 0
168 191 0
169 192 0
168 192 0
170 194 0
170 193 0
164 187 44
98 126 137
63 99 163
62 98 161
61 97 159
62 98 164
62 97 156
62 98 166
62 98 164
62 98 160
62 99 172
62 98 163
62 99 172
63 99 173
62 99 169
62 98 167
62 99 167
61 98 167
62 99 171
61 98 163
62 99 172
62 99 175
62 98 171
62 98 168
62 99 173
62 98 172
62 99 170
63 100 178
62 99 172
62 99 171
62 99 174
62 99 173
62 99 175
62 99 171
61 98 170
62 99 174
62 99 175
62 98 171
62 99 172
62 99 174
62 99 175
62 98 173
62 98 173
63 100 177
62 98 175
63 99 177
62 99 177
63 100 178
62 98 169
62 98 173
62 99 175
62 99 177
62 99 177
62 99 176
62 99 175
63 100 178
62 99 177
62 99 172
63 100 178
62 99 176
62 99 178
62 99 172
62 99 178
63 100 179
62 99 177
62 99 178
62 99 173
62 99 175
63 100 179
62 99 178
62 99 173
62 99 171
61 98 172
63 99 176
62 99 174
62 99 173
62 99 176
61 98 168
62 99 176
62 99 176
63 99 175
62 99 171
61 98 169
62 99 174
62 99 173
62 99 175
61 98 173
62 99 177
62 99 171
62 99 174
62 98 168
62 99 177
62 99 174
62 99 177
62 99 175
62 99 171
62 99 178
62 99 173
62 99 174
63 100 175
62 99 173
62 99 173
61 97 161
63 99 178
62 99 172
62 98 174
62 99 173
62 99 176
62 99 174
61 98 174
62 99 169
61 98 174
62 98 168
62 99 173
62 99 173
62 99 175
61 98 172
62 98 170
62 99 174
63 99 177
62 99 172
62 99 173
63 99 172
62 98 166
62 99 173
62 99 172
62 99 175
63 99 172
64 100 171
62 98 169
62 99 170
63 100 179
62 98 165
62 98 170
63 99 175
62 99 174
62 99 176
62 99 171
61 97 165
62 99 173
62 98 166
62 98 165
62 98 167
62 99 173
62 99 168
62 99 173
62 99 171
63 99 173
62 98 168
62 98 169
62 98 171
62 98 162
63 99 168
61 97 160
61 97 161
62 98 166
62 98 167
61 97 160
62 98 169
62 98 168
62 98 161
62 98 168
62 98 170
60 96 160
60 96 158
62 98 165
60 94 155
61 95 150
60 95 156
61 96 161
61 95 157
60 94 154
59 92 148
59 93 153
54 82 119
43 56 62
42 50 31
48 53 34
62 67 32
49 54 34
63 66 28
56 62 36
55 61 33
64 69 37
74 76 49
64 70 41
69 75 41
76 79 48
78 82 51
85 87 49
84 89 52
78 82 45
86 90 48
87 90 51
99 100 57
106 106 61
97 98 57
106 107 61
116 115 56
117 117 71
112 111 64
110 111 63
119 118 65
124 122 63
124 123 70
118 117 65
132 130 71
132 130 68
127 125 63
131 130 67
123 123 63
132 130 68
138 136 69
133 130 74
128 127 70
141 138 74
135 134 69
148 143 75
150 145 77
145 142 72
149 144 75
139 136 68
154 149 77
142 140 77
160 155 84
150 147 81
159 153 83
157 151 71
158 153 76
163 157 84
155 150 70
156 151 81
164 158 77
163 157 82
156 151 72
159 154 73
159 154 75
164 158 78
165 160 84
161 156 75
160 154 77
165 159 75
169 163 86
161 155 75
166 159 82
164 157 78
168 162 81
160 154 78
160 155 76
168 161 85
161 156 76
167 160 81
168 161 86
160 154 74
167 160 85
164 158 80
163 156 77
162 156 69
169 162 84
164 158 78
161 156 73
165 158 80
164 156 78
165 158 77
166 160 81
160 155 71
162 156 74
166 160 76
161 154 75
155 148 70
167 159 84
156 150 67
154 149 63
152 146 69
155 148 72
154 148 69
162 155 76
158 151 72
152 146 68
152 147 59
158 152 75
160 154 74
156 150 70
159 153 70
157 151 74
147 141 58
156 149 69
142 136 60
157 150 75
150 144 64
152 146 67
140 133 61
148 143 63
149 143 57
148 143 57
129 124 53
141 136 52
139 134 57
127 123 45
125 121 44
129 126 47
141 140 47
132 134 44
146 152 41
147 157 34
161 173 30
159 174 19
162 181 16
164 182 0
170 192 0
168 188 0
169 190 0
172 193 0
171 194 0
170 193 0
172 195 0
172 193 0
174 197 0
168 192 0
174 197 0
172 195 0
171 195 0
173 197 0
174 197 0
173 196 0
172 195 0
167 190 0
172 195 0
170 193 0
171 194 0
173 196 0
169 193 0
172 195 0
173 196 0
168 191 0
174 197 0
170 193 0
167 191 0
171 195 0
170 194 0
170 193 0
171 195 0
172 195 0
171 194 0
169 192 0
170 193 0
168 192 0
173 197 0
173 196 0
167 190 0
173 196 0
169 192 0
171 194 0
169 193 0
168 192 0
171 194 0
169 193 0
170 192 0
168 192 0
172 196 0
170 194 0
169 193 0
167 191 0
173 197 0
168 191 0
167 191 0
170 194 0
171 195 0
169 192 0
170 192 0
173 195 0
163 187 0
170 194 0
168 191 0
167 190 0
170 194 0
169 193 0
171 194 0
171 194 0
170 193 0
172 195 0
169 192 0
172 195 0
166 190 0
169 192 0
169 192 0
172 195 0
166 190 0
167 190 0
168 191 0
169 192 0
167 191 0
171 195 0
168 191 0
170 193 0
169 191 0
169 193 0
170 193 0
166 188 0
171 195 0
155 178 76
89 119 144
63 99 165
62 98 159
62 98 161
61 97 155
62 98 162
61 97 163
63 99 170
62 98 161
62 98 169
61 97 162
61 97 168
62 99 170
62 99 171
61 97 163
62 99 169
62 99 175
62 99 172
62 98 172
61 98 170
61 98 170
62 99 172
62 99 170
62 98 169
62 99 174
63 99 179
63 99 176
62 99 176
62 99 170
62 98 168
62 99 173
62 98 171
62 98 169
62 99 173
62 99 171
62 99 172
61 97 167
62 99 175
61 98 175
62 99 175
62 99 174
62 99 175
62 99 174
63 99 176
62 99 173
62 99 173
62 99 175
62 99 179
62 98 173
62 99 177
62 98 173
62 99 178
62 99 171
62 99 175
63 99 174
62 98 176
62 99 179
62 99 176
62 99 173
62 99 172
62 99 175
63 100 180
62 99 172
62 99 177
62 99 172
62 99 176
62 99 172
62 99 172
61 98 175
62 99 177
62 99 174
63 100 177
62 99 174
62 98 172
63 99 175
62 98 174
61 98 173
62 99 174
62 98 168
62 99 172
62 99 178
62 99 178
62 99 173
62 99 175
62 99 172
62 99 175
61 98 171
62 99 175
61 98 171
62 99 175
62 99 175
62 99 174
63 99 175
62 99 171
63 99 175
61 98 172
62 99 174
63 100 176
62 98 172
62 99 171
62 98 168
62 99 176
62 99 174
62 99 173
62 98 167
62 99 174
62 98 170
62 99 174
62 98 169
62 99 168
62 99 175
62 99 175
62 99 174
62 98 164
61 98 168
63 99 173
62 98 171
62 99 173
63 99 171
63 99 172
62 98 171
62 99 175
62 99 171
62 98 165
62 98 173
62 98 170
62 99 173
62 99 174
62 99 170
62 99 173
62 98 169
62 99 170
62 99 172
62 98 166
62 99 168
62 98 166
62 99 168
63 100 175
62 98 167
62 98 172
62 98 167
63 99 174
62 99 169
61 97 165
61 96 162
62 98 166
62 98 169
62 98 165
62 98 164
63 99 171
61 98 162
63 99 171
61 97 162
63 99 170
61 97 163
62 98 164
60 95 153
62 98 163
61 97 155
62 97 159
62 98 169
61 96 156
60 95 159
60 96 155
62 97 161
61 96 154
61 96 156
61 96 157
61 96 163
60 94 149
60 93 154
60 94 156
59 91 147
57 87 143
49 66 82
51 54 36
39 44 29
43 49 27
56 62 29
52 57 25
60 65 35
72 76 35
69 73 40
76 78 46
82 84 45
86 89 47
79 82 42
80 83 48
89 91 53
84 86 48
94 94 48
85 88 49
93 96 54
108 108 54
108 107 63
115 114 66
105 106 62
110 111 62
109 109 58
109 109 56
108 109 61
117 117 65
129 127 69
118 117 66
123 122 64
132 130 76
132 131 69
140 137 74
133 131 69
137 135 74
137 134 72
140 137 72
145 141 72
141 139 77
138 135 77
146 141 76
144 141 70
148 143 76
146 141 70
151 146 75
156 150 81
149 145 76
149 146 71
152 147 71
158 153 75
146 143 75
155 150 80
151 147 77
154 149 80
157 153 78
165 160 89
160 154 82
159 154 78
165 159 89
164 158 86
162 155 78
164 158 89
162 156 77
159 154 78
167 161 84
168 161 84
162 156 78
164 158 76
162 157 75
166 160 82
156 150 70
163 156 73
167 160 80
162 156 76
169 161 85
165 159 79
161 156 72
162 157 79
164 157 81
162 155 78
163 157 75
168 160 83
158 151 74
154 148 75
162 154 77
165 158 75
162 155 79
163 156 77
161 154 76
163 158 74
158 151 66
159 153 74
155 149 66
157 151 71
168 161 82
161 155 75
162 156 77
162 156 75
162 155 74
157 151 69
160 154 73
159 153 71
150 143 69
151 145 67
154 148 68
145 139 61
150 144 68
143 137 53
151 145 62
159 151 75
138 133 54
146 141 61
143 137 61
147 141 60
146 140 57
145 138 61
135 130 53
149 142 64
144 139 57
139 134 56
137 132 52
136 131 51
135 129 52
147 139 60
138 135 49
139 141 45
150 152 52
154 162 37
155 167 22
159 174 28
163 182 11
169 188 11
164 183 0
168 189 0
170 190 0
167 187 0
169 190 0
170 193 0
171 195 0
170 193 0
173 196 0
169 192 0
171 195 0
171 195 0
170 193 0
171 195 0
170 194 0
174 197 0
173 195 0
172 195 0
174 196 0
172 195 0
171 194 0
168 192 0
171 195 0
170 193 0
171 195 0
169 193 0
172 196 0
171 194 0
169 193 0
171 194 0
174 197 0
173 197 0
169 193 0
169 192 0
173 196 0
170 194 0
170 194 0
173 196 0
171 194 0
168 192 0
172 195 0
168 191 0
168 191 0
170 194 0
171 194 0
169 192 0
171 194 0
172 196 0
170 194 0
170 193 0
171 195 0
169 193 0
167 191 0
168 191 0
169 193 0
173 196 0
169 193 0
170 194 0
166 189 0
165 189 0
167 189 0
167 191 0
168 191 0
169 192 0
164 187 0
167 191 0
168 191 0
167 191 0
170 193 0
168 191 0
169 192 0
171 193 0
168 193 0
168 192 0
171 195 0
170 194 0
170 193 0
167 191 0
166 189 0
167 190 0
166 190 0
168 191 0
168 192 0
168 191 0
165 188 0
166 190 0
169 192 0
170 194 0
166 189 0
165 187 0
167 191 0
167 190 18
138 162 99
61 97 150
62 98 159
62 98 165
63 98 161
62 98 160
62 98 161
62 98 162
62 98 162
61 98 158
61 98 164
62 99 164
62 99 164
62 99 168
62 98 168
62 99 170
62 98 164
62 98 168
62 99 175
61 98 166
62 99 170
61 98 171
62 99 173
62 99 175
62 99 174
62 99 172
63 99 175
62 98 173
62 98 172
63 99 171
62 99 173
62 98 164
63 99 172
62 99 172
62 99 173
62 99 173
62 98 173
62 98 171
62 98 173
62 98 171
62 99 176
63 100 175
62 99 174
62 98 171
63 100 178
62 99 175
62 99 175
61 98 173
62 99 178
62 99 172
63 99 176
62 99 174
62 99 169
62 99 175
62 99 174
62 99 175
62 99 177
62 99 176
61 98 166
63 100 175
62 99 174
61 98 170
62 99 176
63 99 176
62 99 173
62 99 171
62 99 177
62 99 172
62 99 178
62 99 171
63 99 174
62 99 173
62 99 175
63 100 176
62 99 176
62 99 178
63 99 176
62 99 173
62 98 170
62 99 172
61 98 172
62 99 176
62 99 174
62 99 170
61 98 167
63 99 173
62 99 178
62 99 175
62 99 175
62 99 173
62 99 174
62 99 171
63 100 178
62 99 174
62 99 176
62 99 177
62 98 171
62 99 177
62 99 178
61 98 171
62 99 176
62 99 175
62 99 169
62 99 171
62 99 178
62 99 173
62 99 175
62 99 174
62 99 176
61 98 174
62 99 176
61 97 170
61 98 165
62 98 171
62 99 174
62 98 171
62 99 172
63 100 172
62 99 172
61 98 171
62 98 165
62 99 173
62 99 171
63 100 174
62 99 174
63 99 175
62 98 168
62 99 171
62 98 168
62 99 171
63 99 172
62 99 172
62 98 165
62 98 171
62 98 164
61 98 171
61 97 166
62 99 171
62 98 166
62 98 172
62 99 168
62 98 165
63 99 173
62 98 165
62 98 168
62 99 170
63 99 172
63 99 172
62 98 166
62 98 168
62 97 164
62 98 166
61 97 162
62 98 166
61 97 161
62 98 166
61 97 166
61 97 160
62 98 167
61 97 163
61 97 159
62 98 164
61 97 161
61 97 165
61 96 161
62 97 161
62 98 164
60 95 157
62 97 156
60 95 155
60 94 157
59 93 149
60 93 152
59 92 145
57 89 141
60 77 94
49 56 44
46 51 23
45 51 31
54 59 31
57 60 29
58 62 34
62 68 42
62 66 33
61 67 36
74 77 40
85 86 43
68 73 42
83 85 48
87 91 46
89 91 47
90 93 49
85 87 49
101 103 59
112 111 58
103 105 54
97 98 49
102 102 55
98 100 54
110 110 62
100 102 52
115 115 59
124 122 59
124 123 64
125 125 63
125 123 67
125 124 63
123 122 70
131 128 64
139 135 71
142 139 78
138 134 71
140 137 72
137 134 74
148 145 72
145 141 72
139 136 66
150 145 76
146 142 73
138 135 71
138 135 66
151 147 74
151 147 76
152 148 75
158 153 82
154 149 76
158 153 74
158 153 77
157 153 75
154 149 75
155 151 74
160 154 77
153 148 75
159 154 79
155 150 68
155 150 72
158 152 75
163 155 84
165 159 84
161 155 78
158 152 75
158 152 78
157 151 76
163 157 75
159 154 66
162 156 78
161 155 76
168 161 80
168 162 77
167 160 80
162 156 74
165 158 76
169 162 81
164 158 77
165 158 82
162 154 76
168 161 84
161 155 73
165 157 78
158 152 76
160 154 69
166 158 83
160 153 80
159 154 69
158 153 70
163 156 78
158 152 72
164 157 80
157 150 64
156 150 68
158 151 71
154 148 70
158 151 75
164 157 77
166 159 80
160 152 73
152 147 61
153 146 66
155 148 70
151 145 64
151 144 63
156 149 68
152 147 62
151 144 68
154 148 69
153 147 69
146 139 54
148 141 65
150 143 65
151 144 69
145 139 62
147 141 59
148 141 62
135 129 52
145 138 64
143 138 56
134 129 54
133 127 53
132 128 49
145 141 54
142 140 45
134 137 37
137 145 32
151 160 34
153 162 36
157 173 19
161 180 16
168 188 11
171 191 0
171 192 0
171 190 0
169 189 0
169 190 0
171 195 0
172 196 0
171 195 0
170 192 0
170 194 0
171 195 0
171 195 0
174 197 0
173 196 0
170 194 0
172 195 0
168 192 0
170 194 0
172 195 0
172 195 0
172 195 0
173 197 0
171 194 0
171 195 0
174 197 0
167 191 0
171 195 0
172 195 0
172 196 0
171 194 0
173 196 0
174 198 0
171 195 0
170 193 0
169 192 0
168 191 0
172 195 0
170 193 0
169 192 0
170 195 0
174 197 0
167 190 0
169 193 0
171 194 0
171 195 0
168 192 0
171 195 0
171 196 0
171 194 0
171 193 0
171 195 0
170 194 0
174 197 0
171 194 0
169 193 0
167 191 0
167 191 0
170 193 0
171 194 0
170 193 0
170 193 0
168 192 0
170 193 0
171 195 0
168 192 0
167 189 0
168 191 0
168 192 0
166 189 0
170 193 0
169 193 0
170 193 0
169 192 0
168 192 0
171 194 0
169 191 0
170 194 0
168 191 0
165 188 0
170 193 0
170 194 0
164 187 0
165 187 0
168 192 0
171 195 0
167 190 0
171 194 0
169 192 0
168 191 0
170 193 0
169 192 0
165 188 25
117 144 126
62 98 159
61 97 159
62 98 163
61 97 159
62 98 162
61 97 157
62 98 169
62 98 159
62 98 169
62 99 167
62 98 161
62 98 171
61 98 170
61 98 165
62 99 175
62 98 160
62 98 165
62 99 171
61 98 167
62 98 166
61 97 168
62 99 172
62 99 168
62 98 167
62 98 172
62 98 170
63 100 176
61 98 165
62 98 171
62 99 173
62 99 177
62 99 175
62 98 174
62 99 175
62 98 172
63 99 172
62 99 174
62 99 175
62 99 173
61 98 167
63 99 172
62 99 174
62 99 176
62 98 174
61 98 171
61 97 171
62 99 177
63 100 179
62 99 175
62 99 178
62 99 173
62 98 174
62 99 172
63 99 176
62 99 174
62 99 177
62 99 173
62 99 174
61 98 175
63 99 177
63 99 175
62 99 174
62 99 172
62 99 175
62 99 176
61 98 170
62 99 174
63 99 178
62 98 173
62 99 173
62 99 176
61 98 171
62 99 175
62 99 175
62 99 175
62 99 175
62 98 174
62 99 174
62 99 177
62 99 173
63 99 171
61 98 169
61 98 173
62 98 172
62 99 173
62 98 174
62 98 176
63 100 175
62 98 171
61 98 174
61 98 175
62 99 177
62 99 175
62 99 172
62 99 176
62 99 176
62 99 173
62 99 175
62 98 170
61 98 172
62 99 174
62 99 174
61 98 170
62 99 173
62 99 177
62 99 172
62 99 167
61 98 169
61 98 171
62 98 169
62 99 172
63 99 173
63 99 175
62 98 167
62 99 176
62 99 176
63 99 176
62 98 168
62 99 170
63 99 172
62 99 177
63 99 175
62 99 171
62 98 166
62 99 172
62 99 176
62 99 175
63 100 177
63 99 172
62 98 171
63 99 168
63 99 172
63 99 170
63 99 170
61 98 170
61 98 165
61 98 166
62 98 169
62 98 168
62 98 167
62 98 165
63 99 166
61 97 167
62 98 163
62 99 170
62 99 171
62 98 165
62 99 168
62 98 167
62 98 162
62 98 165
61 97 157
61 97 165
62 98 167
61 97 158
61 97 165
62 98 162
61 96 160
62 98 164
61 96 160
61 96 161
62 98 165
61 96 159
61 97 159
61 96 157
61 96 158
61 96 159
62 97 154
61 95 153
60 93 146
59 92 146
60 94 153
61 95 157
56 87 132
55 75 107
49 58 50
58 60 25
37 42 24
53 57 27
54 59 29
50 54 22
70 73 38
45 52 31
68 72 38
69 74 39
78 82 35
77 80 42
90 92 49
88 91 48
84 86 49
89 89 43
85 89 50
99 100 53
97 98 53
102 103 52
109 109 54
113 112 57
119 119 64
111 110 57
114 113 53
113 114 62
120 119 61
115 116 58
128 126 65
118 117 68
120 119 59
127 125 54
123 123 66
136 134 74
135 133 67
143 139 71
134 132 71
130 127 67
145 142 72
139 136 72
144 140 65
152 147 78
143 139 72
146 142 72
144 141 73
154 149 81
147 143 71
140 137 62
145 142 72
152 148 78
155 150 76
152 147 77
153 148 67
149 144 72
156 151 75
165 159 88
153 148 74
153 148 71
162 156 85
156 151 75
162 157 83
156 150 75
162 156 76
162 157 76
168 160 81
169 162 80
161 155 78
157 152 73
166 159 74
160 154 79
164 158 75
166 159 80
161 154 72
164 158 74
163 157 78
164 157 82
160 154 75
165 159 75
165 159 77
162 156 70
162 156 77
157 151 72
163 156 76
159 154 74
171 164 84
162 155 79
165 158 80
163 157 80
158 153 67
153 148 61
155 148 72
157 151 72
157 151 69
163 156 78
159 152 73
160 153 72
160 154 70
161 154 73
151 145 62
156 149 69
149 144 64
152 145 69
150 145 64
151 145 61
159 152 73
149 144 61
151 145 64
140 135 53
140 136 51
150 143 62
138 132 54
145 138 68
149 142 64
147 142 53
151 145 66
146 141 56
142 137 45
141 135 53
133 128 48
146 140 59
135 130 51
119 114 52
134 130 44
123 117 48
123 121 45
134 138 41
145 156 22
154 164 32
159 174 22
159 175 22
165 183 19
171 190 11
169 188 0
168 187 0
169 192 0
166 186 0
166 187 0
172 195 0
172 195 0
174 197 0
172 196 0
173 197 0
173 197 0
171 194 0
172 194 0
172 195 0
171 195 0
172 194 0
170 194 0
170 193 0
170 194 0
172 196 0
174 197 0
172 194 0
174 196 0
171 194 0
169 192 0
172 196 0
173 196 0
173 196 0
170 194 0
172 197 0
171 194 0
171 194 0
170 193 0
172 194 0
170 194 0
170 193 0
170 193 0
172 195 0
168 192 0
169 193 0
170 193 0
169 192 0
168 191 0
168 190 0
172 195 0
169 193 0
174 197 0
172 196 0
171 194 0
169 192 0
172 195 0
172 195 0
170 194 0
169 193 0
171 194 0
171 194 0
170 194 0
168 192 0
173 196 0
168 191 0
172 196 0
171 195 0
169 193 0
171 194 0
167 190 0
173 196 0
171 194 0
171 194 0
170 194 0
171 194 0
171 194 0
170 194 0
169 193 0
168 192 0
166 190 0
167 191 0
168 191 0
171 195 0
167 190 0
170 192 0
175 197 0
170 194 0
170 194 0
167 191 0
170 193 0
169 191 0
166 190 0
168 191 0
165 189 0
170 193 0
172 196 0
156 180 51
101 129 128
61 97 157
61 97 158
62 98 159
62 98 160
62 98 164
63 99 165
62 99 171
62 98 160
62 98 162
62 98 160
63 99 172
62 98 166
61 97 164
63 99 173
62 98 167
62 99 170
62 99 169
62 99 169
62 98 167
62 98 169
62 99 173
62 98 169
62 99 172
61 98 169
63 99 172
63 99 175
62 99 171
62 99 170
62 98 169
62 98 168
63 99 174
62 98 171
62 99 175
62 98 174
62 99 172
62 98 171
62 98 171
62 99 175
63 99 173
62 98 173
62 99 176
62 99 173
61 98 173
62 99 175
62 99 173
62 99 176
62 98 174
64 100 177
62 99 173
63 99 175
62 98 176
62 98 172
62 99 179
61 98 174
62 99 175
62 99 175
62 99 178
62 99 173
63 99 175
63 99 175
62 99 172
62 99 177
62 99 177
62 99 175
61 98 164
63 99 174
63 100 180
63 100 176
62 99 173
62 99 177
63 99 174
63 99 177
63 99 175
62 98 173
62 99 173
62 99 175
62 99 174
63 99 178
61 98 169
61 98 171
62 98 173
62 99 174
62 98 171
62 99 175
63 99 175
63 99 174
62 99 176
62 99 172
62 99 172
62 99 177
62 99 175
61 98 171
62 99 172
62 99 176
61 98 171
62 98 170
62 99 177
62 98 169
62 99 173
62 99 173
62 99 171
63 99 170
62 99 174
62 98 169
62 98 172
62 99 174
62 99 178
61 98 171
63 99 172
62 98 166
62 98 169
62 98 167
62 98 170
62 98 166
62 98 173
62 99 172
62 99 175
63 100 173
62 99 171
62 99 171
62 99 171
63 99 174
63 99 171
61 98 165
62 98 169
62 99 170
63 99 172
63 100 172
63 99 172
62 99 167
62 98 168
62 99 178
62 98 167
62 98 169
62 99 174
62 98 167
61 98 162
62 98 165
62 99 167
61 97 165
62 99 173
62 98 165
61 98 168
63 100 175
62 98 169
63 99 170
62 98 165
62 99 173
61 97 166
62 98 165
63 99 168
62 99 167
61 97 167
61 97 158
61 97 162
62 98 163
62 97 164
62 98 161
62 97 160
61 98 163
62 97 161
62 98 162
62 98 167
62 98 163
60 96 154
62 97 162
61 96 160
61 96 159
60 94 150
60 94 150
61 96 155
59 94 150
59 93 144
57 89 138
58 83 121
59 70 67
51 56 25
55 60 29
57 60 23
63 68 35
76 78 35
58 61 25
58 64 34
70 75 45
75 79 41
73 76 41
83 85 31
74 79 43
76 82 45
79 83 47
95 95 46
95 96 48
100 99 52
106 106 55
101 102 50
104 105 51
99 101 51
98 99 49
100 101 52
115 116 56
112 113 58
124 123 58
112 112 57
113 112 62
126 124 68
123 121 55
130 127 61
130 128 67
130 127 60
141 136 73
138 135 69
130 128 68
142 139 68
133 131 65
138 137 65
145 141 69
137 134 54
152 147 76
139 136 69
145 142 68
145 141 67
148 145 70
154 149 72
160 154 84
158 152 77
159 153 79
149 144 69
152 148 63
149 145 71
157 152 72
154 149 76
160 154 79
163 157 78
161 156 74
164 158 78
165 158 84
163 156 80
158 152 72
158 153 79
159 154 70
159 153 74
162 156 79
163 156 71
164 158 78
160 155 69
164 157 83
163 155 74
154 149 69
165 158 79
160 153 70
162 155 75
157 152 69
159 153 77
164 158 80
156 151 68
163 157 74
165 159 80
163 155 73
163 158 77
153 148 63
160 154 73
167 160 75
160 153 72
150 144 65
158 151 64
160 153 75
155 150 65
159 152 75
160 154 70
154 149 61
154 147 66
150 144 62
159 152 75
151 145 59
156 149 67
155 149 72
152 146 63
154 148 64
156 150 73
152 147 61
151 145 68
152 146 66
145 140 63
144 139 65
148 142 63
152 146 65
142 137 64
142 137 51
148 142 59
140 135 56
143 137 57
142 137 56
141 137 51
131 126 53
145 139 58
139 133 52
132 127 48
122 117 44
137 136 42
137 141 37
141 146 30
147 158 32
151 164 28
153 169 16
165 183 25
164 182 0
167 188 0
165 185 0
169 190 0
169 188 0
169 190 0
171 190 0
167 192 0
173 197 0
174 197 0
170 193 0
168 191 0
169 192 0
171 194 0
173 197 0
173 196 0
168 192 0
170 193 0
173 196 0
171 195 0
172 195 0
173 196 0
172 195 0
169 193 0
170 193 0
172 195 0
169 192 0
171 195 0
172 196 0
171 195 0
173 196 0
168 192 0
172 195 0
173 196 0
167 190 0
169 192 0
167 190 0
172 196 0
171 195 0
172 194 0
171 194 0
171 194 0
168 192 0
170 193 0
173 195 0
171 194 0
169 193 0
169 193 0
171 195 0
170 193 0
169 193 0
170 192 0
166 190 0
170 192 0
169 193 0
173 196 0
169 193 0
171 195 0
167 191 0
169 193 0
166 189 0
172 194 0
167 191 0
170 194 0
170 194 0
162 185 0
171 194 0
170 194 0
169 191 0
170 192 0
170 193 0
171 195 0
168 192 0
168 192 0
169 192 0
168 191 0
169 192 0
170 193 0
172 195 0
168 191 0
173 195 0
167 190 0
169 192 0
168 192 0
169 192 0
168 192 0
168 191 0
166 190 0
169 193 0
168 192 0
167 190 0
170 192 0
165 187 0
155 178 74
91 121 137
62 98 161
62 98 163
61 98 161
61 97 159
61 97 157
61 98 162
61 98 159
61 98 162
62 99 171
61 97 157
61 97 164
62 98 163
62 98 170
62 98 165
62 98 167
62 99 167
62 99 171
62 99 173
62 98 171
62 98 166
62 99 169
62 99 169
63 99 166
61 98 170
62 98 167
62 99 175
62 99 172
62 98 169
62 98 173
62 99 173
63 99 175
62 99 176
62 99 175
62 99 177
62 98 172
62 98 171
62 98 171
62 99 175
63 99 170
62 99 174
62 98 169
62 99 173
62 99 171
61 97 168
61 98 174
63 99 173
62 99 169
63 99 176
62 99 172
62 99 175
62 99 169
62 99 172
63 99 171
62 98 171
63 99 179
62 99 174
62 99 178
63 99 177
62 99 174
62 99 171
63 99 177
63 99 173
62 98 172
61 98 172
62 98 172
63 99 175
61 98 174
62 99 174
62 98 171
62 99 178
63 99 177
62 98 171
62 98 174
62 99 175
62 98 171
62 99 175
62 99 177
62 99 173
62 99 176
61 98 170
62 98 173
62 99 171
62 99 172
62 99 176
62 99 173
62 99 174
62 98 173
63 99 172
62 99 170
63 100 179
63 99 175
62 99 172
62 99 174
62 99 174
62 99 174
62 99 170
61 98 170
62 99 178
62 99 170
63 99 176
62 98 165
62 99 174
61 98 166
62 99 171
62 99 174
62 99 175
62 99 173
62 98 174
63 99 173
62 98 167
63 99 168
63 99 172
62 98 170
63 99 176
63 99 173
63 99 175
62 98 170
62 99 172
62 98 171
62 98 170
62 99 169
62 98 167
61 98 166
62 99 173
62 99 172
62 98 168
62 98 165
62 99 170
62 98 167
61 98 168
62 98 166
62 98 166
63 99 168
63 99 171
62 99 171
62 99 173
62 98 171
63 99 172
62 98 170
62 98 165
62 98 165
62 98 168
62 98 163
63 99 169
63 99 170
63 99 170
61 97 156
62 99 167
62 98 167
62 99 171
61 98 164
62 98 168
62 98 160
62 98 170
61 97 166
61 97 161
61 97 160
61 97 167
62 98 164
62 97 156
61 97 159
61 97 164
61 96 158
60 95 157
61 97 161
61 96 156
60 95 155
61 97 163
61 95 156
60 95 153
60 95 153
60 95 154
60 93 147
58 91 142
54 82 120
54 66 69
50 56 28
58 63 29
56 60 27
50 55 29
51 57 31
58 62 29
62 67 29
65 71 40
68 71 34
68 72 34
86 88 40
87 89 49
88 89 42
93 94 49
87 89 48
94 96 48
89 92 46
87 91 47
98 99 54
111 112 52
101 101 54
113 114 56
108 109 65
114 114 57
111 111 57
120 119 59
113 113 58
129 126 60
126 124 68
133 130 68
124 123 60
127 125 68
132 129 64
134 132 64
133 131 69
125 125 62
130 128 60
133 130 66
149 145 72
138 135 73
142 138 64
146 142 71
146 141 77
150 146 70
150 145 74
141 137 62
143 140 67
151 147 68
155 149 71
153 148 75
149 144 67
147 143 61
153 148 77
152 147 69
159 154 75
161 155 74
159 152 81
156 150 72
159 152 79
161 155 77
162 154 78
157 151 69
163 156 82
159 153 77
164 157 72
160 154 77
162 156 78
159 152 76
158 152 71
159 152 73
163 156 78
161 154 73
161 155 72
163 157 73
159 153 66
161 154 74
161 155 78
163 157 71
160 155 72
159 153 76
165 159 76
158 152 67
166 160 78
163 156 76
163 156 76
156 150 71
165 158 79
157 151 65
155 149 62
161 155 75
160 154 73
161 153 75
159 152 69
154 148 68
156 150 73
158 151 76
160 153 73
146 141 59
149 142 62
147 141 64
145 140 63
140 136 60
145 140 62
154 147 68
150 144 60
142 137 61
158 151 68
150 145 54
139 133 59
143 138 53
148 141 61
146 140 60
133 127 51
136 130 54
138 132 58
136 130 45
145 139 61
143 138 59
135 130 54
139 133 53
132 129 34
134 133 34
130 130 41
134 138 41
142 148 34
152 162 28
155 171 19
154 172 0
168 186 16
164 184 16
165 183 0
170 190 0
168 190 0
170 191 0
169 189 0
168 188 0
171 194 0
170 194 0
169 192 0
173 196 0
172 196 0
167 191 0
170 194 0
170 193 0
173 197 0
171 195 0
171 195 0
171 195 0
171 195 0
170 193 0
172 195 0
173 196 0
171 194 0
171 194 0
173 196 0
171 195 0
173 196 0
172 195 0
170 194 0
172 195 0
173 196 0
171 194 0
169 192 0
169 193 0
170 194 0
171 194 0
172 194 0
169 193 0
169 193 0
171 195 0
172 195 0
171 195 0
171 194 0
170 194 0
170 194 0
169 192 0
171 194 0
169 193 0
168 191 0
172 195 0
172 195 0
171 195 0
168 192 0
169 192 0
173 196 0
170 194 0
171 195 0
173 195 0
174 197 0
168 191 0
170 193 0
169 191 0
169 193 0
166 189 0
168 191 0
168 192 0
169 193 0
172 195 0
168 192 0
170 193 0
169 192 0
173 195 0
169 193 0
167 190 0
172 196 0
171 194 0
171 195 0
171 195 0
169 192 0
170 193 0
170 193 0
170 193 0
166 189 0
173 197 0
168 192 0
168 191 0
171 194 0
168 192 0
171 194 0
169 193 0
167 189 0
171 194 0
140 165 102
71 104 150
61 97 159
61 96 151
61 97 154
63 99 164
62 99 167
62 98 158
62 98 164
61 97 162
62 98 166
61 97 167
62 98 165
62 98 164
61 98 168
62 99 166
62 98 167
61 98 171
62 98 166
63 100 176
62 98 168
63 99 172
61 98 164
63 99 172
62 99 170
62 98 172
62 99 167
62 99 171
61 98 170
62 99 173
61 98 168
62 98 170
62 98 170
62 99 173
62 99 173
62 99 172
62 99 170
62 99 168
62 99 175
63 100 176
63 99 173
62 99 175
61 98 172
62 99 173
62 99 172
63 99 175
62 99 170
62 99 175
62 99 172
62 98 169
62 99 174
62 99 177
62 99 177
62 98 171
63 99 175
62 98 175
62 99 175
61 97 168
62 99 173
62 99 174
62 98 173
63 100 178
62 98 174
62 99 178
62 99 175
62 99 171
62 99 177
62 98 174
63 99 176
62 99 175
62 99 178
63 99 172
62 99 172
62 99 175
62 99 175
63 100 175
62 99 174
62 98 170
62 99 176
62 99 174
62 98 170
62 99 169
62 99 172
61 98 169
62 99 173
62 99 170
62 99 175
62 99 175
62 99 176
62 99 169
62 99 173
62 99 176
63 99 173
63 99 174
62 99 178
62 98 171
62 98 174
62 99 170
61 98 169
62 99 172
63 99 173
62 99 174
63 99 174
62 99 172
61 98 169
62 99 173
63 99 175
62 99 167
62 99 171
62 99 170
62 98 170
62 98 171
62 98 172
62 98 172
62 98 171
62 99 175
62 99 170
63 99 173
63 99 174
62 99 172
62 99 170
62 99 168
63 99 170
62 99 172
62 99 173
63 99 171
62 99 171
63 99 171
62 99 174
62 99 174
62 98 170
62 98 164
61 98 161
62 98 167
63 99 172
62 98 161
62 99 173
62 98 170
62 98 165
62 99 170
62 98 169
62 98 173
62 98 166
63 99 174
62 98 169
61 98 166
62 98 165
62 99 169
63 99 169
62 99 167
62 98 165
62 98 166
62 98 167
63 99 165
62 98 169
61 97 160
62 98 170
63 99 164
62 97 160
63 99 170
61 96 160
62 97 164
62 98 164
62 98 163
61 96 163
61 97 163
61 95 149
61 97 162
60 95 156
62 97 162
60 94 155
60 94 151
60 94 151
60 93 145
61 95 151
58 91 142
55 85 133
60 75 82
57 62 41
54 60 31
62 66 23
63 67 27
67 71 21
58 63 29
63 67 31
64 68 35
83 86 35
81 82 38
73 77 41
78 82 39
88 89 37
86 89 42
86 89 45
100 101 47
99 101 51
103 102 58
107 107 51
109 108 53
103 103 50
107 108 49
95 96 43
104 104 52
114 114 55
125 123 62
110 110 56
129 126 63
115 116 53
133 129 64
125 123 61
140 137 73
135 133 68
136 132 68
142 138 74
134 131 65
142 139 72
141 138 66
133 131 58
142 139 66
142 138 63
148 144 71
140 136 68
140 136 74
149 145 69
152 147 77
145 141 61
150 145 73
150 146 71
152 148 68
151 147 71
159 153 77
149 145 70
152 148 62
147 143 69
152 147 69
150 146 65
153 149 76
151 146 67
152 147 62
154 148 71
159 153 72
162 157 71
158 151 72
157 151 75
155 150 70
164 157 76
168 161 80
158 152 68
156 149 71
161 155 75
161 155 71
162 157 75
161 155 72
154 148 66
158 151 70
162 155 75
162 156 77
159 152 75
157 151 67
153 149 60
153 148 69
153 147 65
161 156 73
158 152 75
156 150 62
159 152 71
156 150 71
156 149 68
152 145 68
156 151 66
155 149 66
162 155 73
156 148 69
159 153 71
162 156 72
152 146 66
157 151 66
157 151 63
153 147 62
151 146 62
152 145 62
156 149 67
150 144 63
154 148 64
154 147 64
146 140 64
147 141 56
143 136 56
148 143 56
147 141 57
142 136 58
142 137 56
138 132 58
146 140 54
136 131 48
144 138 57
124 121 42
127 123 45
138 133 48
130 126 42
130 128 37
146 145 52
134 139 34
153 164 36
148 161 16
154 168 25
167 183 25
169 190 11
168 185 11
168 188 0
168 187 0
167 188 0
171 190 0
168 188 0
169 190 0
172 195 0
169 193 0
172 194 0
171 194 0
173 196 0
172 195 0
171 195 0
174 197 0
174 197 0
171 194 0
169 193 0
172 196 0
169 193 0
172 194 0
172 195 0
171 195 0
172 195 0
169 192 0
173 196 0
171 194 0
171 194 0
170 193 0
169 193 0
172 196 0
170 193 0
172 195 0
171 194 0
171 195 0
167 191 0
169 193 0
169 192 0
168 191 0
168 191 0
172 195 0
171 194 0
171 195 0
168 191 0
169 193 0
172 195 0
172 195 0
172 195 0
171 194 0
172 195 0
173 197 0
173 196 0
168 191 0
171 194 0
171 194 0
171 194 0
171 194 0
168 190 0
168 192 0
169 192 0
170 193 0
171 194 0
171 193 0
168 192 0
166 189 0
171 195 0
170 193 0
170 194 0
168 190 0
168 192 0
169 192 0
169 191 0
171 194 0
165 189 0
168 192 0
171 194 0
169 192 0
169 193 0
167 191 0
167 190 0
167 190 0
170 193 0
170 193 0
166 189 0
164 187 0
172 196 0
165 189 0
168 192 0
167 189 0
169 192 0
170 193 0
171 195 0
163 187 0
118 145 120
65 100 148
61 97 159
61 97 152
61 97 155
62 98 162
61 97 156
62 98 163
62 99 172
62 98 163
61 97 163
60 96 159
61 97 160
62 98 169
62 98 162
61 98 164
62 98 171
62 98 169
62 98 168
62 99 170
62 99 169
62 99 169
62 98 167
62 99 169
62 99 171
62 98 171
62 98 166
62 99 172
62 99 169
62 99 172
62 99 173
62 98 162
61 98 169
62 98 170
63 99 177
62 98 173
62 99 175
61 98 167
62 99 175
62 98 171
62 99 176
62 98 169
62 99 174
62 99 171
62 98 173
62 99 171
63 99 174
62 98 173
62 99 173
62 99 173
62 98 172
62 99 174
62 99 173
62 98 166
62 98 171
62 99 173
62 99 172
61 98 173
62 99 173
62 99 174
63 99 176
62 99 172
62 99 173
62 99 173
63 99 176
62 99 173
62 98 171
62 99 170
62 99 175
62 98 171
62 99 177
62 99 177
63 99 175
62 98 172
62 99 174
62 99 176
62 99 174
63 99 176
62 99 170
62 99 174
62 99 174
62 99 174
61 98 171
62 99 169
63 100 178
62 99 170
62 98 172
62 98 169
62 99 168
63 99 171
62 99 175
62 99 172
61 98 166
62 99 174
62 98 170
62 98 171
62 99 170
62 99 172
62 99 175
63 99 175
62 99 172
62 99 173
62 99 169
62 99 176
63 99 177
62 99 172
61 98 167
62 98 171
62 99 172
62 98 167
62 99 167
62 99 172
62 98 173
62 99 172
62 99 174
61 98 171
62 98 170
62 98 166
62 99 170
62 99 171
62 98 170
62 99 168
62 99 168
63 99 174
63 99 170
63 99 169
61 98 171
63 99 172
61 98 168
63 99 170
62 98 168
61 98 167
63 99 170
62 98 165
62 99 170
62 99 169
62 98 169
61 98 164
62 98 167
62 98 166
62 98 168
62 98 163
62 98 167
62 98 161
62 98 166
63 99 169
63 100 174
63 99 170
62 98 165
62 98 164
62 98 165
62 98 165
62 99 170
61 97 162
62 98 166
62 98 166
62 98 163
61 97 160
62 97 161
62 97 161
63 99 169
63 99 168
61 96 155
62 98 168
61 97 164
61 96 159
61 96 161
62 98 158
61 95 156
60 95 151
61 96 154
61 95 149
60 95 149
60 94 147
60 95 159
60 94 151
57 89 138
55 74 98
60 67 50
58 63 24
57 60 21
58 60 19
62 66 27
58 61 27
65 67 29
61 65 27
64 68 34
69 74 36
86 88 38
81 84 39
79 82 42
90 92 41
94 95 45
85 88 40
103 102 52
92 95 48
108 109 55
107 107 57
107 107 49
114 112 47
115 112 56
110 110 52
113 112 60
109 110 57
129 127 59
125 123 61
127 126 64
133 129 66
128 126 59
115 114 58
133 131 67
121 119 60
144 140 64
119 119 54
135 132 65
130 128 60
143 140 67
147 143 69
138 136 64
138 135 70
140 136 63
149 145 67
143 138 67
148 144 72
149 145 76
149 144 71
151 146 73
151 146 71
156 150 75
155 150 73
158 152 71
153 149 71
157 151 65
151 147 63
161 155 74
156 151 71
153 147 62
158 152 68
162 155 75
157 151 69
160 154 73
156 151 71
162 155 78
154 148 70
164 157 76
154 149 69
156 151 72
154 149 67
162 156 76
154 150 62
163 157 73
161 154 74
160 154 69
163 157 84
160 154 69
155 149 65
158 152 70
160 153 72
160 155 69
157 151 69
156 151 63
160 154 70
156 151 69
151 144 70
163 157 77
156 151 73
163 156 71
159 153 71
157 151 63
153 147 66
149 142 67
154 149 57
155 149 66
153 147 67
152 147 58
153 146 63
156 150 65
158 150 67
148 143 62
142 136 60
150 143 61
150 144 65
152 145 71
145 140 59
152 146 64
153 147 65
146 140 63
147 141 60
141 134 51
146 141 56
148 143 57
142 137 54
131 127 42
133 128 44
138 133 57
136 129 57
136 130 51
126 119 45
138 136 53
136 136 45
140 143 42
142 150 28
153 162 28
158 175 19
156 172 0
167 186 19
167 186 0
170 189 0
169 189 0
172 192 0
166 184 0
165 185 0
168 188 0
170 191 0
172 195 0
173 197 0
173 196 0
172 196 0
170 194 0
172 195 0
172 195 0
170 194 0
170 193 0
169 193 0
172 196 0
169 192 0
171 193 0
170 194 0
173 196 0
169 192 0
171 193 0
172 195 0
174 197 0
173 196 0
169 193 0
170 194 0
172 195 0
169 192 0
174 197 0
174 198 0
170 194 0
169 192 0
171 195 0
171 194 0
170 193 0
170 194 0
172 196 0
169 192 0
170 194 0
168 191 0
171 194 0
168 192 0
172 195 0
170 193 0
174 197 0
169 193 0
170 193 0
171 195 0
165 189 0
171 194 0
170 193 0
172 196 0
163 188 0
169 192 0
167 190 0
165 188 0
165 188 0
167 191 0
170 192 0
171 193 0
172 194 0
171 194 0
168 193 0
169 193 0
170 194 0
170 194 0
168 191 0
163 187 0
171 194 0
171 194 0
171 194 0
169 192 0
167 191 0
170 192 0
169 192 0
167 190 0
168 191 0
168 192 0
172 195 0
170 192 0
169 193 0
166 190 0
168 192 0
167 190 0
170 193 0
168 190 0
170 193 0
167 190 0
169 193 0
163 187 44
99 127 136
62 98 163
62 97 155
62 98 160
61 97 157
61 97 161
62 99 166
62 98 162
62 98 158
62 98 164
62 98 163
62 98 164
62 98 164
62 98 165
62 99 168
63 99 172
61 98 168
62 98 168
62 98 167
62 98 169
62 98 170
61 98 168
62 99 173
62 99 169
62 99 171
62 99 172
63 99 171
61 98 169
62 99 172
62 99 175
61 98 168
61 98 170
62 99 175
62 99 174
63 99 176
62 98 175
62 99 170
61 98 172
62 99 174
63 99 173
62 98 171
61 98 171
62 99 172
63 99 172
62 98 170
62 98 170
63 99 177
62 98 172
62 99 173
62 98 172
62 99 179
63 100 179
62 98 169
62 99 175
62 99 172
62 99 177
63 100 176
62 99 174
62 99 175
61 98 174
63 99 171
61 98 174
62 99 178
62 99 173
62 98 168
62 99 172
62 98 175
62 99 177
63 100 177
61 98 169
62 99 174
62 99 173
61 98 170
63 99 174
62 99 170
62 99 176
63 100 177
63 99 172
62 98 173
62 99 170
62 99 175
62 99 170
62 99 174
62 98 174
62 99 176
62 99 174
62 99 173
62 98 168
62 99 174
61 98 169
63 99 175
62 98 169
62 98 168
62 99 173
62 99 174
62 99 175
62 99 172
62 99 176
63 99 169
62 99 171
62 99 176
62 99 171
61 98 173
62 99 176
62 99 175
63 100 176
62 98 169
62 98 170
62 99 173
62 99 174
62 99 173
63 99 170
62 99 169
62 99 172
62 99 171
63 100 175
61 98 170
62 98 165
62 99 169
62 99 171
61 98 166
62 98 166
63 99 172
62 98 169
62 98 170
61 98 167
61 98 166
62 99 178
62 99 176
62 99 170
62 99 168
63 99 175
63 99 173
62 99 169
62 99 169
62 98 164
63 99 168
62 98 166
61 98 162
63 99 169
62 99 167
62 98 169
61 98 165
62 98 165
62 98 166
62 98 163
62 98 166
62 99 170
63 99 169
62 98 165
61 97 156
62 98 169
62 99 168
62 98 169
62 98 165
61 97 164
62 98 162
61 97 158
62 98 164
61 97 157
63 99 169
61 97 165
61 97 163
62 98 163
62 97 165
61 97 159
62 98 167
60 94 152
61 96 163
61 97 160
62 97 159
61 95 156
60 94 149
61 95 155
58 92 150
59 92 148
57 90 132
66 86 112
52 59 40
56 60 28
60 61 21
74 75 29
67 70 31
65 68 28
70 74 30
78 79 31
75 78 31
70 75 31
70 74 39
70 73 39
88 90 37
89 90 44
74 77 35
96 96 46
85 89 40
104 103 46
95 96 49
98 100 50
108 108 52
105 106 53
107 108 51
111 112 53
114 114 55
110 111 47
110 109 52
127 125 57
121 121 62
122 121 59
129 127 64
121 119 56
128 126 67
136 133 65
128 125 63
142 139 66
136 133 68
132 129 59
135 133 60
136 133 67
140 137 64
135 132 60
134 131 60
143 139 62
149 144 65
147 143 72
152 147 69
149 144 60
150 146 70
152 147 75
156 151 65
147 143 69
152 147 67
147 142 63
150 146 63
152 146 67
157 152 77
153 148 66
152 147 65
147 143 63
161 155 77
155 150 72
161 155 75
156 151 69
158 153 74
162 156 75
154 149 72
160 153 71
161 155 72
162 156 78
160 154 72
161 156 69
159 152 70
158 153 67
157 151 67
151 146 65
158 152 61
160 154 66
160 154 70
155 150 75
156 150 66
160 154 75
152 145 68
158 152 69
162 155 76
158 151 73
155 149 61
159 152 68
158 152 63
161 154 70
156 150 62
156 151 63
154 148 65
157 151 70
149 143 60
155 148 72
155 148 62
151 145 61
150 145 63
151 145 65
150 145 58
146 141 58
143 138 54
144 138 63
146 140 58
152 145 57
147 141 60
139 134 56
150 144 58
138 133 44
142 137 57
147 142 49
149 144 57
130 126 41
142 135 48
134 128 54
144 138 48
128 124 49
141 138 42
137 133 47
139 139 42
148 151 48
137 143 25
154 162 42
149 160 25
158 171 28
163 180 16
165 184 0
167 187 0
167 187 0
174 194 0
170 191 0
166 187 0
170 189 0
169 189 0
169 189 0
169 193 0
172 195 0
170 193 0
170 194 0
169 192 0
174 196 0
174 197 0
171 194 0
171 195 0
171 195 0
169 193 0
171 195 0
170 194 0
171 195 0
171 194 0
168 192 0
173 197 0
169 193 0
170 194 0
172 196 0
168 191 0
166 190 0
170 193 0
172 195 0
172 196 0
172 195 0
172 195 0
172 195 0
171 194 0
172 195 0
172 195 0
169 193 0
168 192 0
171 195 0
168 192 0
170 194 0
168 192 0
169 192 0
171 194 0
169 193 0
170 193 0
170 194 0
169 192 0
167 190 0
168 191 0
168 192 0
170 194 0
167 190 0
168 192 0
166 189 0
170 192 0
168 191 0
170 193 0
169 191 0
171 194 0
170 192 0
168 192 0
167 190 0
166 189 0
171 194 0
170 194 0
171 194 0
170 194 0
171 194 0
173 197 0
167 191 0
170 193 0
166 188 0
168 192 0
168 191 0
166 191 0
169 193 0
169 192 0
168 190 0
164 187 0
167 191 0
170 193 0
171 194 0
172 195 0
167 190 0
169 192 0
166 190 0
168 192 0
166 189 0
167 191 0
157 181 47
96 124 133
60 95 145
62 98 165
62 98 159
62 98 162
63 99 169
61 97 156
63 99 166
61 97 160
61 97 155
62 98 166
62 99 170
62 98 164
62 98 169
62 98 164
63 99 167
62 99 168
62 98 166
62 99 169
61 97 162
62 99 172
61 98 171
62 99 166
61 98 166
62 98 170
62 99 169
62 98 169
61 98 171
62 99 169
62 99 172
62 98 172
62 98 175
62 99 177
62 99 173
62 99 172
62 99 168
62 99 172
61 98 171
62 98 165
61 98 165
62 98 173
62 98 171
62 99 176
62 98 168
62 99 169
62 99 171
62 99 170
61 98 168
62 99 172
62 98 172
62 99 176
62 99 173
62 99 172
62 98 170
62 99 177
62 98 172
62 99 176
63 99 173
62 99 176
62 99 173
62 99 176
62 98 173
61 98 169
62 98 172
62 99 172
63 99 169
62 99 170
62 99 171
62 99 176
62 98 173
62 98 170
62 99 171
62 99 174
61 98 171
62 98 171
62 99 174
62 99 174
62 98 171
62 99 173
61 98 170
62 99 170
62 99 179
62 98 169
63 99 172
62 99 167
61 98 173
62 99 173
62 98 173
62 99 174
63 100 177
62 99 174
62 99 180
62 99 175
62 99 172
62 99 171
62 99 169
62 98 168
61 98 168
62 99 173
62 99 173
62 98 168
62 98 169
62 98 168
61 98 168
62 99 175
63 100 178
62 99 173
62 98 166
61 98 170
62 99 170
63 99 173
62 99 171
63 99 173
62 99 172
63 99 169
62 99 174
62 99 171
62 99 173
62 99 172
63 100 176
62 98 169
62 99 170
62 99 173
62 99 170
63 99 173
62 98 171
63 99 169
62 99 169
62 99 169
62 99 173
61 98 165
63 100 175
62 98 162
63 99 173
62 99 169
63 99 169
63 99 169
62 98 166
61 97 163
62 98 168
62 98 167
62 98 164
62 98 166
63 99 176
63 99 170
61 97 163
62 98 161
62 98 159
62 98 167
62 98 158
61 97 161
62 98 166
62 98 166
62 98 162
62 98 159
61 97 153
61 98 163
62 98 162
63 99 173
62 97 161
61 97 165
61 97 156
63 99 164
61 97 155
61 97 164
61 96 159
62 98 160
62 98 159
60 95 155
61 95 157
60 95 151
61 97 158
60 95 153
60 95 154
59 92 138
59 93 145
59 93 154
58 81 118
63 75 81
69 70 20
62 64 25
57 61 25
67 72 26
56 61 28
68 71 33
72 74 35
73 76 38
75 79 27
72 74 38
71 75 31
88 89 43
84 85 37
90 90 29
90 93 48
93 96 41
104 104 44
96 98 53
94 96 47
108 109 52
103 103 47
109 109 52
107 106 47
112 112 50
111 110 53
100 101 57
120 118 60
104 105 50
118 117 58
123 121 53
123 122 59
135 133 65
131 128 57
134 131 63
132 129 63
125 124 56
126 124 53
137 134 68
139 134 60
140 137 67
136 132 65
137 134 69
145 142 67
143 139 67
137 133 56
143 139 63
148 144 69
148 144 62
148 143 67
153 148 71
152 147 73
157 151 70
147 144 58
146 142 59
150 145 65
154 149 61
145 141 68
156 150 71
155 149 69
150 146 54
157 149 70
158 153 68
159 153 69
156 149 73
158 152 78
165 158 74
152 147 69
162 156 68
158 152 69
163 158 72
158 152 69
156 150 67
154 148 68
154 148 70
159 153 67
167 159 77
160 153 69
156 151 62
160 154 64
155 149 73
160 153 67
157 151 67
157 150 67
160 153 66
152 146 66
156 149 70
156 151 63
152 146 70
155 148 67
155 150 52
150 144 65
157 151 65
152 145 63
153 147 60
153 147 63
155 147 64
149 144 56
149 144 53
148 141 62
149 142 59
142 137 51
153 147 60
148 143 58
157 151 65
148 143 61
142 137 54
157 150 66
148 142 59
145 139 65
131 126 39
143 137 56
130 125 49
141 136 51
133 127 51
132 127 44
127 123 44
124 119 47
125 119 41
145 142 47
129 130 39
139 143 34
146 154 30
148 159 34
159 172 25
162 177 11
166 185 11
171 189 16
166 185 11
169 189 0
167 188 0
169 189 0
166 185 0
166 186 0
170 190 0
168 186 0
171 195 0
171 195 0
171 195 0
171 195 0
170 193 0
169 192 0
170 194 0
174 197 0
173 197 0
169 194 0
173 196 0
171 194 0
171 195 0
173 196 0
171 195 0
173 196 0
171 194 0
173 196 0
171 195 0
172 196 0
171 195 0
169 193 0
167 189 0
170 193 0
172 195 0
172 195 0
167 191 0
165 189 0
174 196 0
173 196 0
172 196 0
168 191 0
171 194 0
170 193 0
173 196 0
169 193 0
169 193 0
171 194 0
170 193 0
174 197 0
169 192 0
169 193 0
169 193 0
172 196 0
170 194 0
169 192 0
168 192 0
167 191 0
170 192 0
171 194 0
169 192 0
171 195 0
168 191 0
171 194 0
170 193 0
168 191 0
171 194 0
168 191 0
168 192 0
169 192 0
172 195 0
171 193 0
171 194 0
170 193 0
167 190 0
168 191 0
167 190 0
168 191 0
171 194 0
166 189 0
170 193 0
169 193 0
165 189 0
170 194 0
167 191 0
171 194 0
167 191 0
168 192 0
167 191 0
167 190 0
170 193 0
164 188 0
170 194 0
162 185 0
168 191 0
152 175 70
81 113 152
61 97 155
62 98 162
62 98 160
62 98 157
62 98 162
62 98 163
61 97 157
60 96 156
62 98 163
62 98 165
61 97 160
62 97 160
62 99 166
63 99 169
62 98 167
63 99 172
62 99 171
63 99 171
62 98 170
62 98 169
62 98 167
61 97 163
62 98 169
63 99 170
62 99 174
61 98 165
62 98 168
63 99 174
62 99 171
62 99 169
62 98 172
62 98 167
63 99 171
61 97 169
62 98 171
62 99 170
62 98 173
62 98 172
61 97 165
62 98 170
62 98 173
63 99 174
62 99 173
62 98 174
61 98 171
62 99 176
62 99 178
62 99 175
62 99 173
61 98 169
63 99 175
61 98 166
63 99 177
62 99 173
62 99 170
62 99 172
62 98 171
63 99 172
62 99 174
61 98 169
62 99 173
62 99 173
62 99 176
62 99 175
62 99 168
62 99 171
61 98 171
62 99 177
63 100 177
61 98 171
61 98 166
61 98 175
62 99 172
61 98 166
62 99 176
63 99 170
62 99 171
62 98 170
62 99 172
62 99 172
62 99 175
62 99 174
62 99 168
63 99 174
63 99 172
62 98 172
62 98 171
62 99 174
61 98 172
62 98 170
62 99 173
62 98 168
62 99 172
63 99 173
62 99 173
62 99 174
62 99 171
61 98 168
62 99 172
62 98 169
62 99 176
62 99 171
63 99 168
63 99 173
62 98 169
62 98 169
62 99 171
62 99 172
62 99 169
62 99 177
61 97 167
62 99 172
63 99 171
62 98 164
62 99 172
63 99 172
63 100 174
62 99 170
62 98 169
63 99 171
62 98 170
61 97 160
62 99 172
62 98 165
62 99 170
63 99 166
62 99 176
62 99 168
62 98 166
62 98 169
61 97 160
62 99 168
62 98 163
62 99 175
62 98 166
61 97 162
62 99 169
62 99 169
62 98 165
62 98 162
62 98 167
62 98 166
62 99 170
61 97 160
62 97 164
61 97 158
63 99 169
62 99 166
62 98 165
63 99 171
62 98 164
61 97 160
62 98 164
63 99 168
61 97 161
62 98 161
62 97 166
62 98 162
60 96 156
61 98 162
62 98 167
62 98 162
61 97 160
61 97 156
62 98 161
62 97 157
61 96 157
60 96 152
61 95 156
60 95 159
60 96 154
59 93 145
60 94 152
60 93 146
60 94 153
59 92 141
56 86 133
63 76 78
61 65 27
56 59 22
56 60 27
57 61 26
62 64 22
73 75 33
75 76 26
75 77 24
68 72 33
85 85 38
74 77 31
77 79 36
75 78 34
92 93 44
88 89 36
96 97 47
98 99 44
101 103 40
90 93 47
102 103 50
100 102 43
98 98 47
104 104 43
109 108 39
123 122 59
113 113 59
124 122 52
110 110 57
116 114 47
118 116 57
130 128 52
125 123 53
132 129 60
130 128 65
134 130 62
131 129 61
141 137 71
132 130 63
136 132 61
138 135 60
142 138 66
137 133 57
138 134 63
141 137 65
145 140 65
158 152 68
148 143 67
148 143 66
143 139 61
144 139 61
150 145 69
146 143 62
153 148 63
148 144 60
155 149 76
155 149 66
153 147 64
148 144 58
160 154 75
146 142 60
164 156 77
158 152 70
155 150 67
155 149 70
160 154 67
165 158 75
156 151 67
151 146 64
161 154 70
162 156 74
158 153 71
154 148 63
158 152 68
160 153 69
156 151 68
154 148 61
155 149 63
150 144 64
159 152 66
152 146 58
155 149 61
160 153 72
154 148 66
151 145 63
145 139 52
160 153 64
156 150 65
153 146 63
149 143 61
150 144 64
157 150 68
158 151 67
158 151 72
157 150 73
155 149 61
148 142 63
137 132 45
141 135 54
155 148 70
145 139 59
152 145 63
141 136 54
144 139 54
143 137 53
139 134 51
146 140 57
149 143 60
151 145 64
137 133 52
142 136 57
144 138 53
143 138 54
141 136 49
128 123 49
144 138 52
137 132 51
127 123 42
139 138 39
133 133 39
141 142 42
140 149 32
141 149 28
151 162 30
157 172 22
160 176 0
161 179 16
165 183 0
165 184 0
166 185 0
171 191 0
166 185 0
170 191 0
170 189 0
172 190 0
171 192 0
172 196 0
175 198 0
171 194 0
173 196 0
170 194 0
173 197 0
172 195 0
171 194 0
174 197 0
172 196 0
171 194 0
175 198 0
174 197 0
169 193 0
171 195 0
171 195 0
168 192 0
173 196 0
171 195 0
170 194 0
172 195 0
170 194 0
175 197 0
168 191 0
171 194 0
170 194 0
173 195 0
169 192 0
170 193 0
172 195 0
171 194 0
170 192 0
170 194 0
170 192 0
172 195 0
172 195 0
166 190 0
170 193 0
168 191 0
168 192 0
171 194 0
171 195 0
169 193 0
170 192 0
170 193 0
169 193 0
173 197 0
170 193 0
172 194 0
170 194 0
168 192 0
169 193 0
169 192 0
169 192 0
170 194 0
164 187 0
168 192 0
171 195 0
167 191 0
167 190 0
166 189 0
170 193 0
167 191 0
166 189 0
173 197 0
168 191 0
164 188 0
169 192 0
168 191 0
168 192 0
169 193 0
164 187 0
168 192 0
164 188 0
171 194 0
170 193 0
168 191 0
169 192 0
167 190 0
171 194 0
162 185 0
169 193 0
165 188 0
170 194 0
165 189 0
140 165 84
67 102 155
61 96 151
61 96 149
61 98 163
62 98 166
62 98 166
61 97 155
61 97 159
61 97 155
62 98 164
61 97 161
61 98 161
62 98 166
62 98 161
62 98 166
62 98 167
61 98 164
61 97 163
63 99 165
62 99 171
62 98 168
62 98 165
61 97 167
61 97 164
61 98 169
61 98 170
62 99 174
63 99 173
63 99 168
62 99 171
61 98 170
62 99 169
62 99 172
62 99 175
62 99 171
62 99 172
63 99 176
62 98 165
62 99 173
62 99 175
62 99 171
62 99 173
63 100 177
62 98 167
62 98 171
61 98 174
62 98 169
62 99 173
62 99 174
63 100 171
61 98 169
62 99 173
62 99 172
62 98 173
62 98 165
62 99 169
62 99 170
62 99 173
63 99 172
62 99 173
62 99 175
63 99 174
61 98 171
62 98 171
62 98 169
62 99 175
62 99 172
62 99 171
63 99 169
61 98 175
63 99 171
63 100 178
62 99 174
63 100 172
62 99 176
62 99 176
63 99 176
62 98 170
62 99 174
61 98 171
61 98 170
62 98 174
62 98 169
61 98 172
62 99 177
62 98 173
62 98 170
62 98 169
62 99 174
62 99 173
62 98 171
63 99 174
62 99 175
63 100 176
62 99 172
62 99 171
63 99 178
62 98 172
62 99 172
62 99 173
62 99 175
62 99 174
62 99 173
62 99 173
63 99 173
63 99 174
62 99 172
63 99 177
62 99 174
62 98 166
62 98 169
62 99 171
62 99 172
63 99 174
63 99 169
62 98 169
61 98 168
61 98 169
63 99 173
62 98 172
62 99 170
62 99 171
62 98 164
62 99 169
62 98 165
62 98 164
62 98 166
62 98 168
63 99 171
62 98 167
62 99 174
62 98 164
62 98 163
62 98 163
61 97 159
62 99 174
62 98 165
62 98 167
62 99 170
63 99 170
63 99 173
61 97 160
62 98 163
62 98 167
61 97 158
62 98 167
62 98 166
63 99 170
63 99 164
61 97 161
62 98 164
62 99 168
61 98 161
62 98 162
63 99 171
63 99 167
62 98 166
62 98 163
62 98 158
62 98 166
62 98 161
61 97 160
61 97 164
62 98 165
62 98 163
61 97 159
61 97 160
60 95 151
61 96 153
62 98 162
61 95 155
60 94 147
60 94 146
60 94 147
60 93 149
60 93 138
58 90 135
67 92 131
65 79 83
53 55 28
67 67 14
52 56 20
57 61 22
67 69 18
71 73 26
83 83 29
67 70 31
70 73 24
87 89 38
88 89 28
72 75 27
82 84 38
90 90 38
88 89 36
91 92 36
92 93 38
96 96 42
107 107 47
101 101 40
110 108 49
100 101 47
103 104 49
104 104 49
120 119 55
111 110 40
118 117 43
124 121 48
123 122 50
131 127 64
119 118 52
116 115 50
132 129 62
132 128 58
123 122 63
138 134 61
134 130 64
130 128 61
135 132 62
145 141 61
140 136 59
144 139 67
140 136 62
144 139 64
139 136 60
139 136 64
141 137 63
147 143 63
149 144 71
146 142 65
152 147 69
155 150 71
147 142 65
159 154 68
152 147 62
147 143 61
152 147 66
148 143 65
156 149 75
154 148 70
158 152 73
155 150 64
159 151 75
151 147 61
161 154 78
158 152 69
146 141 56
158 152 65
163 156 73
152 147 64
155 150 69
163 157 78
155 150 65
157 152 64
147 142 62
154 148 62
152 147 62
157 152 65
162 155 68
155 149 64
157 151 60
157 151 61
158 152 59
152 146 60
154 148 63
155 148 69
157 151 64
154 148 63
150 144 59
156 150 60
147 142 61
149 142 62
157 149 66
152 146 59
148 142 56
150 145 60
139 134 56
151 144 64
142 135 52
149 143 58
138 133 54
151 145 53
146 140 49
152 145 60
135 129 48
146 139 56
128 124 42
135 130 49
137 133 48
136 130 52
140 135 42
140 135 44
131 127 48
135 129 53
141 135 49
139 133 51
134 131 52
123 123 34
136 137 37
151 156 36
139 145 30
153 164 30
157 171 22
159 173 16
167 184 16
168 185 0
167 185 0
169 188 0
165 186 0
167 184 0
165 185 0
166 186 0
172 192 0
165 186 0
171 191 0
169 193 0
172 196 0
166 190 0
172 195 0
168 192 0
171 195 0
169 191 0
173 196 0
173 196 0
170 194 0
169 193 0
174 198 0
171 195 0
171 194 0
171 194 0
173 196 0
171 194 0
172 195 0
171 194 0
170 193 0
171 195 0
171 195 0
170 193 0
174 198 0
169 192 0
167 190 0
165 189 0
171 195 0
171 195 0
169 193 0
171 194 0
169 193 0
169 193 0
169 194 0
166 189 0
170 194 0
169 193 0
171 194 0
171 194 0
168 192 0
170 193 0
171 194 0
171 194 0
168 192 0
169 193 0
168 191 0
167 191 0
167 192 0
171 194 0
170 193 0
168 190 0
170 192 0
165 190 0
166 190 0
169 192 0
165 190 0
171 195 0
169 192 0
169 192 0
170 193 0
169 193 0
168 192 0
168 191 0
170 194 0
170 194 0
167 190 0
166 189 0
169 193 0
168 191 0
168 190 0
170 194 0
166 189 0
170 193 0
164 187 0
168 192 0
170 194 0
165 189 0
166 190 0
170 194 0
167 191 0
167 192 0
168 191 0
164 186 0
168 190 0
164 186 0
134 159 102
72 105 150
62 98 157
62 97 151
61 97 152
61 97 158
62 98 163
63 99 164
62 98 160
61 98 162
62 99 170
62 98 165
61 97 165
61 98 168
62 99 167
62 99 174
61 98 164
62 98 169
61 97 163
62 98 166
62 98 164
62 98 165
62 99 171
61 98 161
62 98 168
61 97 164
61 98 167
62 99 171
61 98 170
62 99 173
62 99 170
63 99 170
61 97 164
62 99 170
63 99 170
61 97 170
62 99 171
62 99 171
62 98 170
62 98 170
62 98 168
62 98 170
62 99 173
62 99 171
62 98 169
62 98 172
62 98 175
62 98 169
62 98 172
62 98 175
62 98 172
62 99 173
62 99 174
62 99 175
62 99 175
62 98 170
62 99 175
62 99 171
62 98 173
62 99 174
62 99 175
63 99 176
62 99 172
63 99 175
62 99 173
62 99 175
62 99 174
62 98 168
62 98 170
62 99 173
62 98 170
62 99 170
63 99 175
61 98 169
62 99 170
63 99 171
62 99 172
62 98 166
62 99 171
62 98 173
62 99 176
62 99 176
62 99 172
63 100 175
62 98 168
62 99 174
62 99 172
62 98 171
62 98 173
62 99 170
62 98 167
62 99 172
62 99 174
61 98 163
62 99 170
62 99 173
63 100 175
62 99 170
61 98 166
63 99 173
62 99 174
61 98 174
62 99 171
63 99 175
62 99 169
63 99 171
62 99 171
62 99 170
62 99 173
61 98 168
62 99 171
63 100 173
62 99 166
62 99 172
62 98 166
62 99 169
63 99 171
62 98 167
62 99 168
62 98 168
62 99 171
62 98 167
62 99 169
62 99 169
62 98 164
62 98 168
63 99 172
63 99 172
62 99 169
63 99 171
61 98 165
63 99 171
63 99 166
62 99 170
61 98 164
63 99 172
62 98 163
62 98 168
63 99 172
61 98 167
62 98 169
62 99 173
61 97 162
62 99 168
62 98 166
62 98 167
62 98 161
62 98 163
61 97 165
61 97 156
61 98 163
61 97 165
62 98 160
61 98 164
63 99 171
62 98 163
61 97 163
62 97 157
62 97 160
62 98 162
61 97 160
62 98 166
62 98 166
62 98 166
62 98 159
61 97 160
62 97 159
61 96 153
60 95 156
61 96 160
62 97 158
60 95 152
60 94 149
60 95 153
60 94 155
60 93 143
59 92 145
59 92 145
57 89 132
64 80 90
69 73 46
68 69 21
75 76 21
76 75 15
72 74 23
74 77 32
62 65 27
75 78 34
69 74 32
74 76 22
89 90 36
75 78 31
81 82 27
80 82 33
100 99 42
89 90 42
96 96 32
94 94 35
93 94 44
97 95 39
113 112 48
102 102 52
116 114 53
116 114 52
111 110 52
115 113 49
116 114 55
113 112 50
111 110 50
122 120 53
131 128 62
123 120 51
130 129 61
127 125 58
124 123 57
117 116 55
137 133 54
140 136 61
135 133 61
144 139 67
139 135 57
141 137 64
146 142 62
143 138 59
143 140 65
150 145 69
143 140 51
149 144 63
139 135 59
156 150 72
151 146 70
145 142 61
152 147 62
150 143 67
156 151 63
151 146 65
150 145 61
155 149 69
157 151 66
152 147 60
160 154 68
157 151 69
158 151 74
148 144 56
155 148 60
159 153 71
156 150 68
153 148 62
158 152 67
154 147 67
160 153 71
154 148 64
158 152 68
153 147 59
158 151 67
161 155 63
154 148 60
157 151 69
156 150 62
161 154 74
152 147 69
157 150 68
153 149 54
154 148 61
144 138 53
151 145 60
152 147 53
143 138 59
157 150 61
152 146 63
161 154 70
153 147 61
151 145 58
159 152 63
147 142 54
145 140 57
143 138 52
144 139 57
149 142 63
142 136 60
144 138 54
139 133 52
145 139 51
143 139 47
140 135 54
143 139 52
146 140 54
142 137 47
139 133 47
133 128 41
136 130 49
133 127 48
132 127 44
126 123 34
126 120 39
132 126 45
131 129 41
134 131 45
134 137 37
143 148 25
147 159 11
153 166 16
162 175 25
156 169 19
167 185 16
166 185 0
167 184 0
168 186 0
169 188 0
166 183 0
169 189 0
170 189 0
169 188 0
168 189 0
173 191 0
171 195 0
170 194 0
169 192 0
174 197 0
169 193 0
173 196 0
173 196 0
166 189 0
170 193 0
168 191 0
171 194 0
172 195 0
172 195 0
172 196 0
172 194 0
173 196 0
174 197 0
171 196 0
172 196 0
174 197 0
172 196 0
171 194 0
171 193 0
173 196 0
176 198 0
170 194 0
168 192 0
171 195 0
174 197 0
168 191 0
171 195 0
170 193 0
169 192 0
173 196 0
169 192 0
170 193 0
171 194 0
172 195 0
171 194 0
171 194 0
167 191 0
171 194 0
169 192 0
172 195 0
169 192 0
168 192 0
170 193 0
171 193 0
169 193 0
168 192 0
173 197 0
170 194 0
165 189 0
168 192 0
169 193 0
172 195 0
169 192 0
169 192 0
172 196 0
169 193 0
167 190 0
170 193 0
170 193 0
170 194 0
164 187 0
169 192 0
171 194 0
167 190 0
167 190 0
168 191 0
166 190 0
165 187 0
169 192 0
164 188 0
171 194 0
166 189 0
168 191 0
164 188 0
168 190 0
163 185 0
161 183 0
172 193 0
169 192 0
161 185 0
171 193 0
119 145 111
60 96 143
62 97 157
61 97 151
62 98 162
62 97 154
62 98 160
61 97 153
61 97 155
62 98 161
61 98 163
61 97 162
61 97 161
61 97 157
61 97 159
62 99 166
62 98 159
61 97 162
62 98 165
62 98 162
62 99 172
60 96 161
62 98 164
63 99 171
61 97 157
61 98 169
62 99 174
61 97 167
62 98 168
62 98 170
62 99 172
62 99 171
62 99 167
62 99 174
62 98 170
61 98 166
61 97 167
62 98 165
63 99 171
62 99 171
62 98 166
61 97 161
62 99 172
62 99 173
62 99 174
64 100 175
63 99 175
62 99 172
62 99 173
61 98 172
63 99 176
62 99 172
62 99 170
62 99 168
62 98 172
62 99 176
62 99 177
62 99 168
63 99 173
62 99 174
62 99 176
62 98 170
62 99 174
62 98 169
62 98 171
62 99 174
62 99 173
62 99 173
62 99 176
62 98 170
62 98 169
62 99 169
62 98 169
62 99 172
62 99 172
62 99 173
62 99 171
62 99 168
62 99 172
61 98 170
61 98 169
62 98 169
62 98 167
62 98 170
62 99 174
63 99 175
63 99 170
62 99 171
62 99 171
62 99 168
61 98 168
62 98 171
62 99 174
62 98 163
62 99 173
62 99 170
62 98 168
62 99 173
63 99 171
62 99 171
62 99 171
62 98 169
62 99 175
62 98 167
62 99 172
62 98 170
62 99 168
62 99 171
62 98 168
61 97 162
63 99 170
62 99 172
63 99 173
61 97 164
63 99 176
62 99 171
62 99 174
62 98 168
61 98 163
62 98 167
62 99 169
62 98 167
61 97 167
62 98 170
62 99 172
62 99 170
63 99 170
61 98 164
62 99 166
61 98 165
62 98 168
62 99 171
62 98 168
62 98 168
63 99 167
61 98 167
62 98 166
62 98 169
62 98 167
62 98 163
62 98 164
62 98 164
62 98 163
62 98 167
62 98 167
61 97 163
63 99 171
62 98 165
62 98 160
61 97 159
62 98 165
62 98 160
62 99 169
62 98 165
62 98 161
62 98 159
62 99 166
62 98 162
62 97 163
63 99 172
63 99 167
61 96 156
61 97 159
62 97 158
63 98 161
62 98 162
60 94 147
61 96 154
61 96 155
61 96 151
62 98 158
60 95 146
61 96 158
60 95 147
59 93 139
61 95 148
60 94 144
59 93 140
58 89 134
59 78 101
71 75 50
59 63 21
75 77 8
76 77 28
63 67 11
68 70 20
84 87 27
78 79 28
84 84 32
66 68 25
77 80 25
84 86 38
84 86 31
81 82 30
88 90 36
93 93 42
89 90 43
100 101 39
97 98 38
95 97 33
96 96 48
109 108 51
101 100 45
108 109 47
102 104 44
111 112 53
114 111 47
121 119 47
122 119 50
120 118 46
125 122 52
120 119 54
124 122 53
124 122 53
130 128 59
135 131 58
137 133 62
136 134 58
147 142 67
130 127 53
135 132 61
136 132 65
138 134 57
141 137 54
143 139 60
136 133 60
147 143 63
148 144 63
148 143 62
139 135 60
136 133 57
145 140 62
154 149 62
150 146 65
144 140 59
146 142 60
156 150 71
149 144 63
152 147 64
152 146 61
149 143 65
152 147 59
155 149 69
152 147 61
153 148 64
155 150 62
156 151 63
157 151 67
149 144 57
150 144 68
150 144 65
154 148 63
152 146 63
157 152 57
155 149 67
155 149 61
155 149 61
159 153 65
159 153 69
153 148 57
152 146 54
157 150 62
149 144 62
156 149 67
150 144 62
153 147 61
150 145 60
153 147 62
152 146 61
151 145 62
149 143 56
149 143 61
152 145 58
151 146 58
146 140 57
149 143 54
151 145 54
139 133 49
147 141 59
144 139 51
140 135 48
146 141 54
141 135 52
142 136 53
131 126 48
135 130 51
134 129 49
138 133 49
131 127 41
140 133 51
139 133 52
132 126 48
129 124 42
130 125 37
124 120 42
132 129 42
129 125 37
130 131 41
132 138 30
139 147 25
145 156 25
146 161 11
162 175 19
161 176 19
159 177 0
170 189 0
167 187 0
164 185 0
164 183 0
172 193 0
167 185 0
162 181 0
168 186 0
166 185 0
170 189 0
170 194 0
173 197 0
169 193 0
168 192 0
172 195 0
171 195 0
172 195 0
168 192 0
171 194 0
170 193 0
169 194 0
167 191 0
172 195 0
171 194 0
172 194 0
170 192 0
172 195 0
174 198 0
170 194 0
170 193 0
173 196 0
172 196 0
174 197 0
170 193 0
169 193 0
169 192 0
173 196 0
170 193 0
170 193 0
171 194 0
170 194 0
167 191 0
172 195 0
171 194 0
170 192 0
172 196 0
171 194 0
169 193 0
172 195 0
171 194 0
172 195 0
172 195 0
170 194 0
167 190 0
168 192 0
172 195 0
168 192 0
171 195 0
173 195 0
169 193 0
168 191 0
168 192 0
165 188 0
168 192 0
167 190 0
168 192 0
168 191 0
172 195 0
168 191 0
170 193 0
169 191 0
171 194 0
169 192 0
165 189 0
169 192 0
169 192 0
167 191 0
165 188 0
172 196 0
169 193 0
166 189 0
171 194 0
168 191 0
165 190 0
170 194 0
166 189 0
165 189 0
170 193 0
165 188 0
167 190 0
166 189 0
169 192 0
165 188 0
166 188 0
163 186 31
110 137 126
61 97 157
60 96 152
62 98 159
61 97 154
62 98 167
61 97 158
62 98 163
61 97 153
61 98 164
62 98 166
62 98 162
62 98 168
61 97 163
62 98 165
62 98 164
62 98 168
62 98 164
62 98 168
62 98 164
62 98 166
62 98 164
61 98 168
62 99 171
61 97 158
62 99 172
61 97 163
62 98 165
62 98 165
62 98 169
62 99 173
62 98 170
62 98 170
61 98 171
61 98 168
62 99 169
62 99 171
61 98 166
63 99 174
62 99 173
62 99 173
62 98 164
62 99 173
62 98 169
63 99 175
62 99 169
62 98 170
62 99 171
62 98 167
62 99 173
61 98 173
62 99 175
62 99 170
62 99 171
62 98 169
62 98 169
62 98 167
62 99 167
62 99 173
62 99 173
62 99 174
63 99 173
63 99 172
62 99 176
61 98 165
62 99 173
62 99 172
62 99 174
62 98 172
62 99 172
62 98 170
62 99 173
63 99 170
63 100 177
62 99 174
61 98 173
62 98 170
62 98 173
62 98 172
62 99 176
62 98 171
62 99 175
61 98 170
62 98 167
62 99 170
62 99 172
62 98 166
62 98 170
63 99 175
62 98 169
62 99 173
62 99 171
62 98 165
63 100 176
62 99 171
62 99 175
62 98 173
62 98 168
62 98 168
62 98 161
62 99 168
61 98 167
62 99 171
62 99 173
62 99 171
62 98 164
61 98 163
62 99 170
62 99 166
62 99 169
62 99 172
62 99 168
62 98 165
61 97 166
62 99 170
62 99 169
62 98 172
62 98 165
62 98 162
61 98 165
62 98 170
62 98 169
62 98 169
62 99 168
62 98 169
62 98 166
63 99 171
63 99 172
62 98 161
62 98 171
62 98 164
62 99 164
61 98 163
62 99 167
61 98 160
62 99 167
63 99 170
61 97 164
62 98 170
62 98 160
63 99 168
62 98 161
62 98 164
62 98 163
63 99 166
61 97 158
62 98 166
62 98 164
61 98 162
62 98 165
62 98 164
61 97 159
62 98 166
62 98 163
62 97 160
62 99 165
62 98 158
62 98 169
61 97 155
62 97 156
62 97 167
61 97 158
61 96 156
61 97 166
62 97 159
60 96 155
61 96 156
61 96 162
62 98 161
61 96 153
61 95 155
60 95 155
61 95 157
59 95 155
58 92 142
60 94 148
61 95 149
58 90 135
57 89 126
58 77 99
49 57 48
70 70 9
65 67 20
75 76 22
68 70 19
71 73 22
80 81 17
80 80 26
82 82 31
72 73 27
82 83 27
74 78 37
68 72 29
87 88 35
85 86 35
86 88 41
86 87 34
94 94 41
107 107 43
108 107 51
101 101 40
101 101 41
98 98 46
111 109 47
116 114 55
120 118 48
117 115 49
119 118 43
120 119 40
123 120 59
117 116 41
120 119 52
123 120 50
138 134 57
134 131 50
122 121 49
126 124 53
133 130 51
144 140 64
125 123 47
138 135 56
142 138 57
140 137 57
135 132 48
147 142 62
146 143 58
143 138 60
147 143 58
141 137 60
139 135 61
150 145 66
147 143 62
151 145 65
143 139 59
146 141 60
149 144 59
151 145 63
156 150 62
152 146 67
155 150 66
154 148 61
157 151 62
153 146 66
158 152 67
151 145 68
153 147 66
147 142 66
158 151 65
154 148 62
159 154 61
158 152 66
160 154 67
155 149 63
152 146 64
156 150 67
153 147 66
160 154 68
154 147 63
157 150 73
149 143 59
152 146 69
153 147 51
148 144 53
152 145 60
156 150 62
150 145 62
150 144 59
149 143 62
146 141 58
154 148 61
151 146 54
151 144 64
149 143 57
152 146 66
146 140 54
151 145 60
157 151 62
153 147 61
136 132 48
144 139 52
149 143 53
137 132 45
140 134 56
141 136 57
141 137 47
139 135 52
141 136 51
137 132 45
137 131 49
136 131 44
131 126 39
132 126 44
134 128 49
124 121 32
136 131 48
125 123 42
123 126 28
139 142 44
150 157 30
141 151 19
151 162 19
155 167 22
162 177 11
156 172 0
163 181 0
167 184 0
166 184 0
167 186 0
164 184 0
166 187 0
170 189 0
167 186 0
166 182 0
169 188 0
169 187 0
169 192 0
170 193 0
173 197 0
172 195 0
167 190 0
172 195 0
173 196 0
171 194 0
170 193 0
171 195 0
172 195 0
172 195 0
170 193 0
173 196 0
174 197 0
171 194 0
168 192 0
172 195 0
173 197 0
172 195 0
168 192 0
169 192 0
171 194 0
167 190 0
170 193 0
172 196 0
171 195 0
168 190 0
169 193 0
174 196 0
171 194 0
169 193 0
171 194 0
174 197 0
170 193 0
170 193 0
170 193 0
169 193 0
170 193 0
169 193 0
169 192 0
169 192 0
169 193 0
170 194 0
169 193 0
168 191 0
170 193 0
167 190 0
166 189 0
170 194 0
169 192 0
169 192 0
169 193 0
165 190 0
170 193 0
170 193 0
170 193 0
168 191 0
173 196 0
170 193 0
167 191 0
166 190 0
168 192 0
166 190 0
169 192 0
169 193 0
170 193 0
166 191 0
165 189 0
171 193 0
169 193 0
169 193 0
166 190 0
167 190 0
168 191 0
166 190 0
164 187 0
168 191 0
169 192 0
161 184 0
165 189 0
167 190 0
168 190 0
164 188 0
168 192 25
110 136 115
61 97 149
62 98 163
61 97 155
61 97 160
62 98 161
62 97 154
62 98 163
61 97 156
61 97 159
62 99 167
62 99 167
63 99 168
62 98 165
62 98 167
62 98 159
61 98 171
62 98 167
62 98 162
62 99 168
62 98 170
62 98 167
62 98 167
62 99 169
62 99 173
62 99 169
62 98 167
61 98 160
62 98 167
62 98 174
63 99 174
61 97 163
63 99 175
63 99 176
62 99 174
61 97 171
62 99 170
61 98 171
62 99 176
62 99 175
62 99 174
62 99 167
62 99 171
63 99 174
62 99 171
63 99 174
62 99 170
62 99 171
62 98 172
61 97 166
62 99 172
61 98 168
62 99 174
62 99 174
61 98 168
62 99 168
62 99 172
61 98 168
62 99 174
63 99 171
62 99 171
61 98 169
62 99 172
62 99 171
63 99 172
62 99 172
62 98 171
62 99 172
62 98 171
62 99 174
62 98 163
61 98 173
63 99 173
62 98 169
62 99 175
62 98 170
62 98 173
63 99 174
62 98 168
61 98 171
63 99 168
62 98 170
62 98 167
62 98 168
62 99 173
62 99 169
63 99 176
62 98 168
62 99 167
61 98 167
63 99 173
62 98 173
62 99 172
62 99 168
62 99 172
62 99 171
62 98 166
62 99 171
63 100 175
62 99 172
63 99 169
62 99 174
62 99 171
62 99 174
62 98 175
62 98 170
62 98 168
63 99 168
62 98 175
62 98 168
62 99 165
62 98 167
62 98 164
62 99 171
62 98 167
63 99 169
63 99 170
63 99 168
62 99 172
62 99 169
62 98 171
63 99 166
61 98 168
61 98 168
62 98 166
63 99 170
62 98 166
62 98 162
62 99 174
62 98 165
62 98 166
62 98 166
62 98 166
62 98 160
62 99 168
61 98 168
62 99 165
63 99 170
62 99 174
62 99 171
62 99 167
62 98 168
62 98 163
62 99 165
63 99 164
62 98 165
63 99 171
61 96 161
62 98 166
62 99 170
62 98 167
62 98 162
61 97 156
62 98 164
62 99 167
62 98 166
61 97 161
62 98 160
62 97 160
62 97 155
61 97 158
61 97 161
63 99 164
61 97 152
62 98 158
62 98 163
62 97 161
61 97 157
61 96 156
62 96 156
61 96 154
60 95 153
60 94 139
60 95 152
61 95 154
60 94 146
60 94 153
59 93 144
57 89 138
65 85 106
68 75 51
76 78 15
70 71 19
74 75 23
67 68 16
77 78 19
69 69 26
78 80 27
77 78 25
82 82 30
90 90 27
78 80 32
90 91 33
89 91 46
87 88 33
90 91 28
87 87 30
91 92 36
92 91 37
101 100 46
101 101 46
104 104 37
100 100 41
106 106 40
111 111 43
115 114 51
123 121 45
112 111 37
115 114 42
124 122 56
124 122 56
123 121 53
128 126 53
119 118 52
131 127 53
126 125 52
140 135 61
135 130 52
127 124 50
117 116 55
126 124 44
142 139 59
140 136 54
137 134 48
131 128 51
136 132 58
144 139 62
144 139 58
140 136 56
147 143 62
143 139 53
150 144 60
148 144 53
152 148 62
138 134 60
137 134 49
145 141 54
150 144 62
152 147 61
144 139 62
150 146 58
154 147 60
164 157 70
154 149 62
150 144 54
151 146 56
156 149 67
153 147 62
156 149 58
151 145 60
154 148 64
153 148 62
157 149 75
155 150 62
154 148 63
153 148 62
162 156 63
148 142 54
152 146 57
153 147 61
156 149 61
148 143 54
148 142 56
152 147 59
154 148 59
161 154 69
151 145 61
146 140 58
145 139 52
143 138 51
156 151 59
151 145 56
138 133 48
151 144 62
144 139 56
145 140 58
143 138 53
143 138 45
149 143 58
144 139 48
150 144 47
140 135 47
145 138 51
143 138 53
145 138 53
134 128 45
124 120 44
141 135 53
142 135 51
135 130 48
123 120 28
127 123 34
136 132 44
135 130 49
129 126 37
132 131 44
142 145 36
134 141 28
150 158 36
143 153 28
160 175 16
161 176 16
166 185 0
164 180 0
166 184 0
167 186 0
165 184 0
170 190 0
166 184 0
170 189 0
168 188 0
165 184 0
169 190 0
165 184 0
171 191 0
173 196 0
173 196 0
169 192 0
172 195 0
173 197 0
171 194 0
173 197 0
172 196 0
171 194 0
173 196 0
166 189 0
171 195 0
172 195 0
171 195 0
172 195 0
170 194 0
172 195 0
172 196 0
175 198 0
171 195 0
168 192 0
173 196 0
172 195 0
170 193 0
170 193 0
170 193 0
170 194 0
171 194 0
171 194 0
172 195 0
172 196 0
165 188 0
171 195 0
168 190 0
170 193 0
169 193 0
170 193 0
167 190 0
169 192 0
172 195 0
171 195 0
166 189 0
167 190 0
172 195 0
169 193 0
171 194 0
171 193 0
171 194 0
171 194 0
168 192 0
169 194 0
172 194 0
168 191 0
168 191 0
166 190 0
168 192 0
172 194 0
167 190 0
169 193 0
171 194 0
170 194 0
169 192 0
168 191 0
168 190 0
170 194 0
170 193 0
166 189 0
171 194 0
173 195 0
166 190 0
163 186 0
167 190 0
164 187 0
168 191 0
169 192 0
166 190 0
168 193 0
169 191 0
163 186 0
165 189 0
166 189 0
167 190 0
170 193 0
165 189 0
157 179 47
96 124 134
62 98 155
62 98 164
61 97 153
61 97 153
61 97 161
62 98 161
62 98 165
61 97 156
61 97 161
62 98 161
62 98 166
62 98 164
61 97 158
62 98 164
61 97 160
62 98 163
62 98 172
61 97 159
61 98 165
61 98 164
62 98 167
62 98 164
63 99 166
63 99 169
62 98 171
62 98 166
60 97 162
62 98 168
61 98 168
62 98 166
61 97 169
62 98 166
61 98 170
62 99 172
62 99 175
62 98 165
62 98 173
62 98 166
61 98 162
62 99 172
61 97 163
62 99 170
62 98 172
62 99 174
63 99 174
62 99 171
61 98 168
62 99 173
63 99 175
62 98 165
62 98 168
62 99 173
62 99 174
61 97 161
62 98 173
61 98 172
63 99 175
62 98 170
61 98 167
62 99 171
62 99 173
62 98 168
62 99 174
61 97 166
62 99 174
62 98 166
62 99 173
62 98 168
62 99 169
62 99 173
62 99 174
62 99 179
62 98 167
61 98 171
62 99 174
62 99 172
61 98 173
61 98 166
62 99 172
62 98 171
62 98 169
62 98 171
62 99 171
62 99 171
62 98 167
62 99 173
62 98 173
62 98 170
61 98 170
62 99 172
63 99 172
61 98 172
62 98 170
62 98 167
62 98 164
62 98 167
62 99 172
62 99 167
63 99 171
62 99 171
62 99 172
61 98 168
62 99 169
62 98 166
62 98 166
62 98 168
62 99 168
62 98 167
63 99 173
61 98 172
61 98 165
62 99 172
62 98 167
62 99 172
62 99 173
63 99 168
63 99 165
62 99 172
62 99 172
62 99 171
62 98 166
62 99 170
61 98 169
63 99 173
62 98 168
62 99 170
62 98 166
62 98 164
63 99 172
62 98 169
62 99 163
62 99 166
62 98 163
63 99 164
62 98 164
62 98 168
63 99 168
62 98 166
62 98 166
62 99 168
62 98 161
62 99 168
62 98 168
62 98 164
62 97 160
63 99 169
61 97 159
62 98 164
61 97 157
62 98 161
62 98 167
62 98 166
61 96 155
63 99 168
62 98 163
63 99 167
62 98 164
61 97 159
61 97 159
62 98 163
60 96 143
61 97 153
62 98 163
61 97 162
62 98 162
62 97 162
61 96 159
62 97 157
61 96 156
60 95 152
59 94 143
59 93 139
62 97 161
59 93 138
60 94 146
60 94 149
58 91 130
58 91 136
63 87 122
68 75 62
81 81 18
61 63 22
72 72 18
74 76 23
80 81 26
85 84 27
67 69 21
89 87 17
76 77 22
75 77 30
86 88 31
84 85 22
86 87 29
92 94 27
104 104 41
85 86 32
83 85 34
99 99 38
95 96 42
109 108 46
107 107 42
103 104 45
101 100 44
108 106 44
108 109 39
120 116 50
116 115 52
119 117 54
116 114 48
122 120 53
117 116 48
123 120 55
126 124 51
128 126 52
135 132 59
122 120 46
130 125 47
133 130 54
128 124 55
135 131 53
143 138 58
139 136 55
135 132 55
138 134 56
143 139 53
145 140 61
146 142 66
146 142 58
131 127 56
139 136 58
148 143 58
148 142 60
143 139 53
142 137 59
146 141 63
147 142 64
152 148 54
152 145 58
144 138 58
146 140 61
150 146 61
157 151 64
146 140 57
156 149 63
146 141 56
154 148 62
148 143 57
151 147 56
159 152 68
145 141 48
157 152 60
141 136 57
153 146 59
151 145 61
153 146 58
151 145 61
153 148 56
152 147 53
146 142 47
150 144 53
148 142 57
153 147 61
157 151 66
144 139 47
149 144 57
142 136 52
146 140 57
149 143 57
149 145 49
153 146 61
148 142 59
141 137 44
147 140 60
139 134 49
142 136 51
136 129 51
150 144 57
141 134 51
135 128 48
146 140 53
136 131 41
136 131 41
145 139 54
138 133 42
144 138 49
146 140 59
131 126 44
139 135 39
130 126 44
135 129 45
129 123 39
137 133 41
129 125 39
133 131 44
141 143 34
140 145 37
141 149 25
154 163 25
150 163 19
155 170 0
162 176 16
163 179 11
160 179 0
169 188 0
167 185 0
166 185 0
165 184 0
167 185 0
165 184 0
169 187 0
168 187 0
167 187 0
169 188 0
168 188 0
171 195 0
173 196 0
170 194 0
172 195 0
170 194 0
173 197 0
172 195 0
172 195 0
172 196 0
167 191 0
170 193 0
171 195 0
169 193 0
171 194 0
170 193 0
169 192 0
171 193 0
170 194 0
170 193 0
168 191 0
170 193 0
171 194 0
167 191 0
169 193 0
171 194 0
172 195 0
170 193 0
168 192 0
167 191 0
173 196 0
169 193 0
170 193 0
171 194 0
167 190 0
168 192 0
170 193 0
169 192 0
168 191 0
172 195 0
168 192 0
167 191 0
166 189 0
169 192 0
170 193 0
171 194 0
168 191 0
172 195 0
171 194 0
170 194 0
168 192 0
166 189 0
166 189 0
172 196 0
171 195 0
173 196 0
168 192 0
166 190 0
168 191 0
168 191 0
168 191 0
168 191 0
173 195 0
166 189 0
169 192 0
166 189 0
168 192 0
167 189 0
165 189 0
167 190 0
172 194 0
165 189 0
172 195 0
162 186 0
167 191 0
169 193 0
169 192 0
170 194 0
168 190 0
168 190 0
166 189 0
165 188 0
168 191 0
162 185 0
168 191 0
153 177 67
82 112 136
61 96 155
61 97 156
61 96 156
62 98 161
61 97 149
61 96 158
61 97 152
62 98 163
61 97 160
62 98 167
61 97 163
61 97 157
61 97 158
62 98 163
62 98 160
63 99 167
61 97 162
62 98 166
61 98 163
61 98 167
62 98 165
61 98 165
61 98 166
62 98 168
62 99 166
62 99 169
62 99 173
62 98 168
62 99 170
62 99 172
62 98 162
62 98 164
62 99 172
61 98 169
62 98 169
61 98 164
62 98 173
62 98 169
62 98 169
63 99 174
61 98 172
62 99 175
62 99 171
62 98 169
62 99 172
61 98 169
62 98 165
62 98 168
62 99 172
62 98 170
62 98 171
62 98 167
63 99 171
62 99 172
62 99 173
61 98 168
62 98 169
62 98 171
63 99 174
61 98 176
62 98 169
62 99 173
62 98 169
62 98 171
61 98 170
63 99 172
62 98 168
62 99 171
62 99 172
62 98 166
63 99 171
62 99 172
62 98 170
62 98 173
62 99 169
62 98 165
62 99 171
62 99 170
62 99 174
62 98 165
62 99 172
62 99 170
62 99 172
62 99 172
62 98 170
62 99 173
62 98 169
62 99 174
62 99 169
62 98 173
62 98 167
62 98 165
62 98 170
62 99 167
62 98 168
62 99 168
61 98 168
62 98 169
62 99 167
62 98 170
61 98 162
61 98 170
62 99 165
62 98 168
62 99 172
62 98 168
61 98 164
62 98 169
63 99 170
62 98 172
62 98 165
62 98 166
62 98 165
62 99 168
62 98 165
62 98 167
62 98 169
62 99 167
62 98 169
62 98 167
62 99 169
62 98 164
62 99 170
61 98 165
62 99 170
62 98 164
62 99 172
62 98 167
62 98 164
63 99 172
62 99 168
62 98 163
62 98 163
62 98 164
62 98 158
61 97 157
61 97 158
62 98 163
62 98 170
62 99 171
61 97 164
62 98 161
62 98 167
62 98 166
62 99 170
63 99 167
62 98 162
62 98 160
63 99 163
62 98 164
61 96 152
62 98 162
61 97 159
63 98 162
61 97 162
62 98 167
62 98 164
61 97 161
62 97 157
61 97 158
61 97 154
60 96 151
61 96 159
62 97 161
61 96 158
61 97 155
61 96 156
61 95 154
62 97 157
60 95 148
61 96 155
59 93 144
60 94 145
60 94 149
60 95 154
61 95 152
60 93 145
58 91 134
61 86 121
69 77 61
73 75 17
82 82 19
83 83 9
76 76 16
73 73 18
89 89 16
78 78 27
80 81 23
74 76 20
71 72 25
82 84 31
78 80 31
77 80 26
88 90 37
95 96 26
89 90 24
100 99 31
100 100 37
100 99 41
97 96 36
108 108 46
102 103 35
111 110 43
114 112 44
118 117 43
120 119 37
108 107 42
107 108 44
122 119 42
132 130 51
118 116 44
118 116 41
128 126 50
134 131 47
133 129 51
122 119 49
122 121 46
142 138 52
147 141 62
133 130 54
135 131 50
138 134 55
134 131 52
138 135 53
142 138 58
143 138 51
143 140 59
148 142 65
138 133 50
146 142 57
138 133 52
142 139 54
145 139 60
144 140 49
149 143 56
153 148 57
149 144 58
156 149 71
141 138 49
144 140 56
151 145 57
151 146 69
149 144 54
153 147 57
154 149 64
157 150 69
159 152 72
149 144 54
145 140 51
146 140 59
146 140 54
150 144 63
145 140 54
154 148 60
143 138 53
151 146 58
149 144 49
156 150 61
147 141 57
154 148 53
144 139 52
150 145 56
153 147 57
149 143 60
141 136 47
140 135 47
143 138 54
150 145 59
153 146 66
148 142 60
146 140 54
139 134 48
142 137 47
139 134 48
134 130 41
147 141 53
141 137 49
134 129 41
145 140 48
149 141 58
138 132 57
134 129 42
143 137 47
144 139 49
137 131 48
121 117 36
133 129 34
139 133 53
136 130 49
138 133 42
125 119 34
134 130 45
132 130 36
134 136 36
139 143 30
139 147 22
151 162 16
148 162 11
158 172 19
159 177 11
162 178 11
165 183 0
164 183 0
166 185 0
167 187 0
167 187 0
167 186 0
167 185 0
161 179 0
166 185 0
167 186 0
170 191 0
171 188 0
170 188 0
173 196 0
172 195 0
168 191 0
171 195 0
170 194 0
171 194 0
172 195 0
171 195 0
171 195 0
173 196 0
173 196 0
170 194 0
174 195 0
170 193 0
172 195 0
169 192 0
170 193 0
170 194 0
171 194 0
172 195 0
168 192 0
168 192 0
169 192 0
171 194 0
170 192 0
168 192 0
171 195 0
170 193 0
170 194 0
172 195 0
170 194 0
169 193 0
169 193 0
170 193 0
168 192 0
170 194 0
167 190 0
166 190 0
171 195 0
172 195 0
169 193 0
169 192 0
168 192 0
173 195 0
172 196 0
166 189 0
167 192 0
163 186 0
167 190 0
165 188 0
170 194 0
171 194 0
166 190 0
168 192 0
168 191 0
168 191 0
169 192 0
167 190 0
170 192 0
169 192 0
172 195 0
163 186 0
169 193 0
172 194 0
169 192 0
169 192 0
168 192 0
170 192 0
161 184 0
168 191 0
164 188 0
167 190 0
168 192 0
166 188 0
172 194 0
166 189 0
166 189 0
166 189 0
164 187 0
162 185 0
163 187 0
158 181 0
169 193 0
163 186 0
151 174 51
83 114 143
61 97 152
62 98 159
61 96 156
60 96 150
61 97 156
62 98 160
61 97 157
60 96 158
62 98 160
62 97 162
63 98 160
61 97 162
62 98 164
61 98 161
62 99 170
61 97 157
62 98 165
62 98 166
61 97 162
62 98 171
61 97 159
62 98 168
62 99 172
61 97 161
62 98 163
61 98 162
61 98 169
62 99 169
62 98 172
62 98 171
61 97 166
63 99 166
61 98 169
61 97 166
63 99 175
61 98 173
62 98 168
63 99 172
62 98 172
62 98 163
62 99 173
62 98 171
62 98 171
62 98 169
62 98 169
63 99 172
62 99 173
61 98 169
61 98 166
62 98 170
62 98 174
62 98 172
62 99 170
63 99 170
61 98 170
62 98 175
61 98 170
62 98 170
62 99 171
62 98 165
62 99 174
62 99 171
62 98 169
62 98 168
62 98 167
61 98 168
62 99 173
62 99 175
63 99 171
62 99 172
62 98 170
62 99 175
62 99 169
62 98 165
63 99 172
63 100 178
62 99 171
62 98 168
63 99 171
62 99 170
62 98 166
62 98 167
63 100 176
62 98 170
61 97 159
62 98 169
62 99 171
63 99 172
62 98 163
62 98 169
62 99 169
62 99 171
63 99 173
62 99 171
63 99 171
62 99 171
63 99 176
62 98 170
61 97 164
62 98 167
62 98 169
61 98 166
62 98 165
62 98 167
62 99 170
62 99 166
62 98 168
62 98 168
62 99 171
62 98 168
63 99 169
62 99 167
62 98 166
63 99 169
61 98 166
63 99 172
62 98 171
63 100 174
62 98 167
62 98 159
61 98 169
62 98 166
62 98 168
62 98 163
62 98 165
62 98 164
63 99 174
63 99 174
62 98 163
62 98 167
63 99 167
62 99 171
62 98 165
61 98 166
61 98 168
62 98 164
61 98 160
63 99 164
61 98 167
62 99 165
62 98 164
63 99 167
62 98 166
62 98 163
63 99 170
61 97 161
62 98 161
62 98 163
61 97 158
61 97 159
62 98 157
62 98 163
62 98 165
62 98 160
61 97 158
61 97 156
61 96 154
62 99 170
61 96 156
61 97 155
61 96 160
62 98 162
60 95 151
62 97 154
61 97 156
62 97 157
62 97 163
62 97 154
61 97 151
61 96 154
61 96 154
61 96 151
58 92 141
59 93 136
60 95 149
59 93 137
58 91 138
59 92 141
56 82 114
65 75 77
73 74 13
64 63 16
73 73 14
83 84 17
69 70 20
71 72 14
82 82 19
80 80 22
72 72 18
85 85 27
73 76 33
85 85 23
91 90 27
83 84 34
93 94 35
88 89 29
95 95 36
97 97 36
105 104 35
103 102 37
104 104 36
106 106 33
105 104 40
112 111 41
94 94 37
111 112 43
112 111 44
112 110 50
116 114 49
124 121 46
118 116 46
122 120 54
119 117 42
120 119 45
129 127 40
127 124 51
125 123 48
131 128 46
137 133 49
128 125 43
130 127 52
137 134 45
136 132 54
141 136 64
138 133 56
146 142 62
141 137 53
141 137 50
142 138 51
142 138 57
145 140 55
144 139 56
139 136 45
149 143 60
141 137 50
152 147 58
141 137 50
148 142 57
156 149 65
141 136 47
139 135 54
144 140 51
154 147 65
149 144 56
151 145 61
154 148 63
150 143 61
150 144 60
145 141 56
146 141 56
151 147 57
152 146 61
150 145 51
147 143 53
157 150 61
156 150 63
149 145 52
151 145 56
145 140 52
146 141 57
150 144 53
135 130 45
150 145 53
144 139 54
152 146 53
148 142 56
143 138 57
145 141 52
144 138 53
144 139 49
143 139 48
145 140 53
146 140 53
147 142 56
141 137 36
146 141 47
143 138 49
134 129 49
141 136 45
139 134 49
136 132 42
138 133 44
135 130 47
143 137 54
131 126 42
135 129 45
136 132 44
143 138 52
122 117 42
132 127 36
126 122 34
118 113 37
136 134 41
136 138 37
134 140 22
147 157 22
149 158 25
159 171 19
162 174 16
162 180 0
158 173 11
167 184 0
164 179 0
164 181 0
168 187 0
167 187 0
169 187 0
165 183 0
170 188 0
168 187 0
166 185 0
170 191 0
165 185 0
167 186 0
170 194 0
171 195 0
172 195 0
169 194 0
169 193 0
174 197 0
170 194 0
169 193 0
171 195 0
170 194 0
168 192 0
170 193 0
172 195 0
168 191 0
172 195 0
166 191 0
172 195 0
171 194 0
170 194 0
170 193 0
172 195 0
167 191 0
171 195 0
174 197 0
173 196 0
170 194 0
171 194 0
171 195 0
173 196 0
169 193 0
171 195 0
170 194 0
171 195 0
169 193 0
170 194 0
169 193 0
170 193 0
165 188 0
170 193 0
170 193 0
170 194 0
167 190 0
172 195 0
170 194 0
169 191 0
170 194 0
167 189 0
173 196 0
170 193 0
167 190 0
166 189 0
166 189 0
171 195 0
164 186 0
170 193 0
167 191 0
165 188 0
166 188 0
171 194 0
169 192 0
168 191 0
165 189 0
164 187 0
166 190 0
168 191 0
168 191 0
169 191 0
167 191 0
165 188 0
169 192 0
166 189 0
168 191 0
165 188 0
165 189 0
168 191 0
166 189 0
164 187 0
168 191 0
164 187 0
169 192 0
166 190 0
166 189 0
167 190 0
170 193 0
152 176 60
79 111 142
62 98 155
61 97 157
62 98 160
61 97 154
60 96 153
62 98 160
62 98 160
62 97 161
62 98 160
61 97 156
62 98 163
62 98 165
61 97 166
62 99 172
61 97 163
62 98 162
61 97 163
62 98 169
62 97 158
61 97 160
62 98 161
61 97 166
62 98 165
62 98 166
61 97 166
62 98 163
61 98 167
61 97 162
62 98 169
62 98 164
62 98 166
61 98 169
61 97 167
63 99 171
62 98 164
62 98 164
62 98 164
63 100 176
62 99 172
62 98 167
62 98 169
61 98 163
62 99 166
62 99 171
62 98 170
61 97 163
62 98 170
61 98 166
62 99 170
62 99 170
61 98 164
62 98 170
63 99 175
61 98 172
61 98 169
62 98 171
62 99 171
61 98 168
62 99 172
63 99 173
61 98 170
62 99 172
63 99 170
61 97 166
61 98 168
61 97 168
61 98 167
63 99 174
62 98 164
63 99 172
62 99 170
62 98 164
62 99 174
62 99 173
62 98 171
62 99 173
62 98 167
61 98 172
63 99 174
62 99 172
62 99 172
63 99 170
62 98 167
62 99 173
63 99 172
62 99 169
61 98 168
62 99 170
62 98 168
61 98 170
62 99 168
61 97 162
62 98 167
62 99 170
62 99 173
61 98 163
62 99 168
62 99 172
62 98 169
63 99 169
61 98 164
62 99 168
62 98 161
62 98 159
62 99 167
63 99 170
62 99 165
62 99 168
62 98 166
61 97 164
63 99 169
62 98 168
61 98 172
62 98 164
62 98 161
62 98 170
62 99 172
62 98 170
61 98 161
62 98 165
61 98 165
63 100 171
62 98 164
61 98 170
61 98 167
62 98 166
62 99 171
63 99 169
62 98 163
63 99 170
63 99 168
61 97 158
61 98 164
63 99 167
62 99 168
61 97 160
62 99 172
63 99 169
62 98 168
63 99 171
61 97 163
62 98 164
62 98 165
62 98 159
61 98 161
62 99 169
62 98 166
61 97 158
61 97 158
61 97 154
61 97 161
62 98 160
62 97 160
62 98 160
61 97 155
61 96 156
62 98 161
62 97 164
61 97 157
61 97 161
62 98 155
61 97 160
61 96 150
62 98 164
61 96 155
62 98 161
61 97 162
61 96 153
61 96 148
60 95 148
61 97 156
61 95 149
59 93 143
60 94 140
60 94 147
59 92 141
60 93 141
59 92 142
64 90 127
64 74 69
72 74 28
75 74 17
68 71 19
73 76 23
74 76 16
84 84 17
81 80 23
75 77 22
77 78 25
81 82 27
90 91 25
86 88 23
80 81 28
77 78 26
86 87 22
91 93 27
96 95 31
93 93 29
94 94 33
106 104 45
95 96 33
119 115 30
106 105 39
116 115 41
108 106 39
107 107 38
112 111 48
112 109 42
113 111 50
117 115 38
123 120 50
119 116 48
116 114 44
120 117 47
122 120 46
129 125 42
129 127 55
118 116 50
128 126 54
140 136 51
124 121 48
132 129 53
135 131 46
135 132 49
141 137 55
139 134 57
141 137 51
146 140 68
150 144 56
142 138 50
139 135 42
138 134 57
143 139 59
147 141 62
150 145 60
145 141 50
147 142 51
140 135 53
148 143 66
158 151 66
149 144 57
146 141 51
142 137 53
146 140 57
154 148 67
150 144 54
146 141 54
147 141 55
141 136 56
146 140 52
155 150 58
155 148 59
147 143 51
150 145 56
155 148 63
152 147 57
155 149 62
149 144 52
145 140 42
152 145 58
149 143 57
155 149 58
139 133 48
155 148 66
153 147 58
143 137 49
149 143 57
143 137 53
152 145 58
130 125 41
139 132 49
139 134 49
148 141 52
151 144 57
136 130 44
144 140 47
135 130 51
128 123 41
132 126 42
136 132 42
130 126 37
141 135 48
129 124 44
142 138 44
134 129 44
129 124 41
138 131 47
125 121 41
125 119 39
131 126 30
129 128 37
135 136 22
137 140 39
135 140 19
142 148 25
147 159 11
159 171 16
156 170 11
165 180 11
166 184 0
162 178 11
161 182 0
168 186 0
168 185 0
165 183 0
165 184 0
166 183 0
168 187 0
166 187 0
167 186 0
170 190 0
165 184 0
167 186 0
167 185 0
171 194 0
171 194 0
172 195 0
168 191 0
167 190 0
171 194 0
171 194 0
174 197 0
172 196 0
174 196 0
171 195 0
174 197 0
171 195 0
170 194 0
171 194 0
169 191 0
168 191 0
172 195 0
171 194 0
171 194 0
174 197 0
172 195 0
172 195 0
171 194 0
168 191 0
170 193 0
172 196 0
173 196 0
170 193 0
168 192 0
172 195 0
173 196 0
168 192 0
167 191 0
167 190 0
171 194 0
173 196 0
169 193 0
171 194 0
170 193 0
170 193 0
169 194 0
167 190 0
172 195 0
168 191 0
166 190 0
170 193 0
167 190 0
169 193 0
169 191 0
167 190 0
169 192 0
167 190 0
167 191 0
171 194 0
170 194 0
166 189 0
167 190 0
171 194 0
165 188 0
166 190 0
167 190 0
169 192 0
170 193 0
169 191 0
171 193 0
169 192 0
165 189 0
165 189 0
167 190 0
165 187 0
167 190 0
167 190 0
169 192 0
170 193 0
166 190 0
164 187 0
168 191 0
161 183 0
167 190 0
169 192 0
161 185 0
168 192 0
165 188 0
155 178 60
76 107 142
61 97 155
61 96 154
63 99 166
62 97 160
61 97 157
61 97 157
62 98 156
61 97 159
61 97 160
61 97 157
62 98 163
62 98 161
61 97 161
62 98 158
61 97 162
62 98 166
61 97 164
61 97 163
61 97 167
61 98 163
62 98 162
62 99 171
62 98 170
61 98 164
62 99 167
62 98 166
62 98 170
62 99 169
62 98 164
62 98 169
62 99 169
62 98 163
62 98 167
62 98 166
62 99 169
62 98 168
61 98 166
61 97 161
62 98 170
61 97 167
62 99 171
63 99 172
62 98 166
62 98 167
62 98 165
62 98 166
62 99 172
61 97 162
61 98 168
62 99 168
62 98 168
63 99 176
62 98 165
62 99 170
63 99 172
62 98 167
62 99 174
62 99 172
62 98 168
62 99 171
62 99 173
62 98 169
62 98 172
61 98 168
62 99 170
63 100 175
63 99 171
62 99 177
61 97 165
63 99 177
62 98 169
63 100 177
60 97 166
63 99 172
63 99 171
62 98 168
61 98 168
62 98 166
62 98 167
62 98 168
63 99 173
62 98 168
62 98 169
62 99 172
62 98 167
62 98 165
62 99 167
62 97 159
62 99 174
62 99 168
62 98 169
62 98 169
62 99 167
63 99 172
61 98 166
63 99 172
61 97 163
62 98 167
62 99 167
62 98 166
62 99 172
63 100 171
61 97 164
62 99 170
62 99 170
62 99 170
62 98 169
62 98 165
62 98 167
62 99 174
62 98 168
62 98 164
62 98 168
62 98 165
62 98 166
61 97 160
63 100 173
61 97 165
62 98 167
62 99 164
62 98 162
62 98 165
62 99 169
62 98 159
62 98 164
62 98 169
61 97 160
62 98 165
62 98 161
62 98 166
62 98 169
62 98 170
64 100 170
62 98 159
62 98 166
62 98 163
63 99 170
61 97 157
61 98 160
62 99 164
62 98 163
62 98 164
62 98 161
62 98 159
62 98 160
62 98 161
63 99 166
62 98 161
61 97 154
62 98 162
63 99 166
63 99 169
62 97 163
62 98 161
61 96 151
62 98 161
62 98 160
61 97 159
61 97 157
62 98 160
63 99 166
61 97 158
62 98 159
62 98 159
62 97 160
62 97 160
59 94 141
60 95 158
60 95 150
61 96 151
61 96 153
60 95 151
61 96 157
60 94 143
60 95 145
60 94 141
60 93 142
57 88 125
59 89 134
71 80 80
76 77 27
79 79 14
81 79 14
77 79 17
82 82 18
76 75 22
75 76 14
81 81 17
80 80 23
86 85 19
83 84 16
89 88 26
80 81 22
90 90 22
104 103 34
94 92 32
84 85 26
99 99 28
99 98 27
96 95 38
113 111 37
97 96 28
101 101 32
100 99 38
110 109 38
107 106 35
120 117 45
126 123 40
112 110 40
111 110 37
126 123 37
130 126 42
119 117 46
125 121 42
126 122 50
119 117 39
128 125 49
124 122 37
136 132 47
136 131 60
128 125 50
143 140 51
139 135 58
129 126 45
136 131 53
137 134 51
142 138 60
137 134 51
137 132 51
145 140 56
133 129 46
142 137 49
139 135 53
151 146 58
147 142 58
141 137 58
144 138 49
151 145 57
146 141 50
148 142 54
145 140 50
144 139 47
152 146 57
143 138 54
149 143 59
151 145 58
143 139 50
142 138 45
148 143 56
149 144 53
148 142 50
143 138 47
147 141 52
145 140 56
148 143 52
157 150 56
136 131 42
151 145 48
142 137 52
144 139 56
149 142 57
141 137 48
147 140 52
147 141 53
141 136 51
149 142 61
141 133 59
138 133 52
141 135 53
153 147 59
145 139 52
143 137 45
142 136 51
142 136 39
139 134 49
140 135 47
147 141 52
141 136 48
133 129 36
137 132 45
138 133 56
132 126 49
135 130 39
136 131 45
137 131 45
125 119 42
135 129 44
125 120 44
118 115 30
138 135 39
122 121 30
139 141 34
140 141 32
138 143 22
148 158 25
155 166 16
159 173 16
159 175 0
165 180 0
158 173 0
172 191 0
158 175 0
162 181 0
161 178 0
162 178 0
168 188 0
168 187 0
165 183 0
165 182 0
170 188 0
169 188 0
169 188 0
167 185 0
169 189 0
168 191 0
173 196 0
170 194 0
173 196 0
169 191 0
172 195 0
168 192 0
169 192 0
172 195 0
172 196 0
172 195 0
172 195 0
167 191 0
171 194 0
170 194 0
170 193 0
169 192 0
172 195 0
171 194 0
166 190 0
166 189 0
168 191 0
171 194 0
171 195 0
170 193 0
173 195 0
168 192 0
170 194 0
166 188 0
169 192 0
174 197 0
167 191 0
167 189 0
169 192 0
169 192 0
170 194 0
164 189 0
171 194 0
169 193 0
171 195 0
163 188 0
170 194 0
170 193 0
169 193 0
164 187 0
165 188 0
170 192 0
167 191 0
169 193 0
168 191 0
170 192 0
164 188 0
172 195 0
166 189 0
167 190 0
171 194 0
165 189 0
167 191 0
170 192 0
169 192 0
168 192 0
170 194 0
168 192 0
163 186 0
168 191 0
167 190 0
171 194 0
166 189 0
169 192 0
162 186 0
164 187 0
169 193 0
165 188 0
170 193 0
166 190 0
167 191 0
166 189 0
167 191 0
168 192 0
162 185 0
163 187 0
166 189 0
164 189 0
162 185 0
144 168 78
77 108 134
61 97 149
61 97 153
61 97 160
61 96 152
62 98 160
61 97 158
61 97 159
61 97 157
62 99 167
62 98 161
61 97 154
61 96 157
61 97 156
62 99 165
61 97 161
62 98 158
62 98 166
61 97 165
62 98 166
60 96 160
62 98 168
62 98 167
61 98 166
62 99 169
62 98 163
62 98 165
61 98 163
62 99 173
62 99 168
61 97 161
62 99 169
62 98 166
63 99 171
62 99 172
62 98 169
62 98 163
61 98 170
61 98 168
62 99 174
61 97 164
61 98 164
61 97 168
63 99 168
62 98 169
61 98 168
62 98 172
61 98 167
61 97 165
62 99 173
62 98 166
62 98 165
62 99 171
62 98 162
62 99 168
63 99 174
62 99 173
62 98 167
62 99 173
62 98 168
63 99 174
61 97 164
61 98 170
62 99 173
62 98 163
62 99 175
62 98 170
62 98 169
62 99 170
62 98 168
62 98 165
62 98 163
62 99 173
62 98 169
61 98 164
62 98 169
61 98 170
61 98 170
62 99 170
62 98 162
62 99 172
62 98 172
62 98 166
62 98 167
61 97 168
62 98 168
62 98 167
62 99 173
62 98 170
62 99 175
62 98 167
62 98 169
62 98 166
62 99 170
61 98 173
62 98 165
62 98 169
62 99 170
62 99 173
62 99 169
61 98 167
62 99 171
62 98 169
62 99 174
62 98 164
62 98 167
62 99 165
62 98 169
62 98 167
62 98 167
62 99 171
61 98 164
63 99 170
62 98 167
63 99 169
62 98 167
62 99 173
61 98 167
62 98 164
62 98 169
63 99 168
62 98 169
62 99 169
62 99 167
62 98 161
62 98 165
62 99 165
62 99 171
62 98 161
61 98 164
62 99 165
62 98 160
63 99 173
62 98 163
62 98 162
62 98 160
62 98 165
63 99 167
62 98 161
62 98 167
62 98 161
61 97 159
61 97 162
62 99 167
63 99 167
61 97 160
62 98 164
62 98 162
62 98 162
62 98 164
63 99 162
62 98 164
61 97 159
62 97 157
63 98 164
62 98 162
60 95 149
63 99 166
61 97 158
62 98 161
62 98 163
62 98 162
61 97 158
61 96 150
60 96 147
61 97 158
60 96 148
62 97 157
61 96 155
61 96 149
61 96 144
62 96 151
60 93 149
61 95 152
60 95 149
61 95 151
60 94 148
59 93 143
58 91 130
60 86 114
65 76 75
82 83 41
72 71 8
70 69 19
85 85 18
77 76 19
72 73 21
81 81 19
63 65 17
81 81 25
69 71 16
82 82 20
81 81 27
92 92 29
96 95 33
86 86 23
86 86 29
100 99 31
97 95 33
97 97 33
92 92 25
96 96 32
100 101 29
109 108 35
111 109 33
111 110 31
105 104 39
108 107 46
116 115 42
114 110 43
110 109 40
125 122 48
121 118 41
117 114 42
122 119 35
131 127 42
119 117 38
124 122 47
129 126 48
131 127 45
129 126 38
125 124 42
134 131 50
129 125 45
133 129 37
133 128 49
135 131 46
141 136 56
140 136 51
142 137 53
134 130 47
142 137 59
132 128 45
136 132 56
144 140 53
141 137 45
142 136 60
143 139 48
144 138 54
142 137 52
143 138 51
144 140 54
147 141 53
142 137 45
143 138 55
149 144 52
145 140 46
146 141 51
152 145 60
152 146 57
156 149 60
142 137 49
148 143 56
150 145 42
155 149 57
154 148 57
151 144 54
145 139 52
143 137 51
141 136 44
141 136 49
138 134 45
146 140 48
132 128 37
144 139 54
152 145 59
143 138 41
145 139 59
142 136 49
141 136 51
143 137 52
136 132 41
143 138 42
143 137 45
147 141 44
143 136 52
139 133 42
133 128 39
139 134 45
142 137 44
134 130 30
135 130 34
139 134 45
139 132 45
132 128 45
135 128 49
133 128 34
134 127 39
134 129 42
132 128 42
134 132 39
134 134 30
132 136 11
133 138 19
153 162 28
150 162 0
145 156 11
156 169 11
163 179 0
162 176 16
163 180 0
164 181 0
160 176 0
161 177 0
169 189 0
166 184 0
166 186 0
167 187 0
165 186 0
165 185 0
165 184 0
165 183 0
165 183 0
164 182 0
164 182 0
171 194 0
171 195 0
168 192 0
171 194 0
173 196 0
171 194 0
171 194 0
170 193 0
169 192 0
172 196 0
168 191 0
166 190 0
171 194 0
171 194 0
172 195 0
172 195 0
170 194 0
171 194 0
169 193 0
172 195 0
168 193 0
168 192 0
165 188 0
169 192 0
171 195 0
175 198 0
171 195 0
170 193 0
171 194 0
169 192 0
172 195 0
169 193 0
168 191 0
169 192 25
168 191 0
169 192 0
168 191 25
170 193 0
170 194 0
169 192 0
166 189 0
168 191 0
168 191 0
165 190 0
167 190 0
173 196 0
170 194 0
170 194 0
172 195 0
171 194 0
170 194 0
164 187 0
168 191 0
171 194 0
164 187 0
163 186 0
168 192 0
168 192 0
168 192 0
172 195 0
168 190 0
166 189 0
167 190 0
165 188 0
168 191 0
164 188 0
169 193 0
166 189 0
167 190 0
169 191 0
170 193 0
170 194 0
159 183 0
168 192 0
171 195 0
165 188 0
166 189 0
171 195 0
163 186 0
167 190 0
165 188 0
172 194 0
165 189 0
167 190 0
147 171 78
64 98 142
61 97 159
61 97 156
61 97 153
61 97 158
61 97 156
61 97 156
61 97 156
62 98 157
61 97 162
61 97 161
62 98 165
62 98 164
61 98 158
61 97 160
61 97 163
61 97 156
61 97 163
61 98 162
62 98 167
61 97 160
62 98 163
62 98 171
62 98 161
62 98 165
62 98 163
62 98 161
62 98 173
62 98 170
61 97 162
62 99 173
62 98 162
62 98 166
61 97 168
62 99 171
62 99 167
61 97 166
62 98 167
62 98 169
61 97 169
63 99 175
63 99 168
62 98 172
62 98 168
61 98 163
62 98 167
62 98 168
62 98 170
62 98 167
62 99 169
61 98 166
61 98 166
62 98 167
62 99 171
62 98 170
62 99 176
62 98 168
62 99 169
62 98 171
62 98 169
62 99 168
62 98 168
62 99 170
62 99 175
61 97 161
63 99 172
63 100 177
63 99 171
61 97 162
62 98 166
62 98 167
61 98 168
62 99 171
61 98 167
62 98 167
62 99 171
62 99 166
63 99 168
62 99 169
61 98 171
62 99 167
62 98 168
62 98 168
62 98 171
61 98 168
62 99 174
62 99 173
61 97 162
62 98 167
62 99 168
62 99 171
63 99 166
62 98 166
60 97 157
62 98 166
62 98 170
63 99 173
62 99 166
62 98 165
62 98 168
62 98 159
62 98 165
62 99 174
62 99 167
62 99 169
62 98 168
63 99 167
62 99 170
62 98 161
62 99 169
63 99 169
63 99 171
61 98 166
62 99 170
61 98 166
62 99 170
62 98 166
62 98 163
62 99 168
63 99 168
62 98 166
62 98 164
62 98 160
61 98 165
62 98 168
62 99 172
63 99 164
61 98 162
63 99 160
62 98 163
61 98 161
61 97 160
63 99 169
62 98 163
63 99 163
62 98 162
62 98 166
62 98 161
62 99 170
62 99 166
62 98 165
63 99 165
61 97 156
62 98 162
61 97 158
62 98 159
61 97 161
62 98 163
61 97 158
61 97 155
62 98 164
62 99 169
62 98 161
63 99 164
62 98 164
61 96 153
61 97 157
62 98 162
62 97 160
60 96 153
62 98 159
62 97 155
61 96 150
61 96 158
62 98 161
62 97 158
62 98 158
61 96 160
61 96 148
62 96 155
62 97 159
60 95 144
62 98 160
61 95 151
60 94 154
59 94 143
60 94 151
59 92 143
59 92 139
59 87 117
71 82 73
66 69 34
67 69 5
71 71 13
89 87 8
79 77 11
69 70 17
74 75 15
87 88 22
90 90 18
87 87 21
76 79 21
80 80 18
85 85 23
94 93 25
78 79 29
89 89 18
97 96 32
100 99 23
107 107 32
97 97 27
102 103 33
104 105 33
101 101 31
108 106 31
99 98 35
106 106 26
106 104 36
113 111 39
113 111 38
112 110 44
123 119 45
120 117 34
126 121 50
123 121 34
133 128 48
128 124 41
128 125 43
132 129 44
132 129 51
136 132 50
125 123 42
126 124 37
138 134 44
139 134 53
133 129 44
134 131 39
146 140 49
136 132 44
140 135 51
143 139 48
140 135 54
145 139 57
145 141 49
143 139 54
148 143 53
143 139 49
141 136 45
147 142 56
142 138 56
152 146 54
137 133 42
145 141 52
141 136 56
147 141 54
155 148 58
138 134 43
144 140 45
143 138 49
150 144 57
138 132 56
151 144 56
146 141 56
150 145 49
145 140 44
151 146 51
141 136 48
146 141 54
147 141 59
148 142 57
135 130 34
138 134 44
138 133 32
140 135 44
141 136 44
148 143 51
145 139 51
138 134 45
149 142 54
144 139 47
144 139 51
140 133 53
136 130 42
130 125 32
142 138 45
136 130 41
132 127 41
141 136 44
136 130 41
140 134 45
133 127 42
132 127 42
129 125 37
134 129 39
125 120 28
128 122 41
129 124 39
132 129 25
134 132 34
139 136 39
138 138 39
136 138 25
148 157 19
143 152 32
151 160 25
152 164 19
155 170 11
162 179 22
159 176 0
164 180 0
168 185 0
164 181 0
165 182 0
163 181 0
165 182 0
168 186 0
166 183 0
165 183 0
169 185 0
170 190 0
165 181 0
165 184 0
167 188 0
166 185 0
165 184 0
171 195 0
173 196 0
171 195 0
169 193 0
168 190 0
171 195 0
173 197 0
168 191 0
173 197 0
170 192 0
170 194 0
169 193 0
173 196 0
169 193 0
165 190 0
171 194 0
171 194 0
169 192 0
172 195 0
172 196 0
170 193 0
168 191 0
170 193 25
172 195 0
173 197 0
171 193 36
171 194 25
171 193 25
171 195 44
169 192 0
172 195 51
167 191 0
171 194 44
169 193 0
170 194 44
171 193 25
169 192 36
169 192 36
169 192 36
171 195 51
167 190 36
168 191 36
172 194 51
169 192 25
171 194 0
167 190 0
168 191 25
168 191 25
166 190 0
170 194 25
170 193 0
159 183 0
172 195 0
168 191 0
171 195 0
170 194 0
166 189 0
170 192 0
166 190 0
169 193 0
169 192 0
168 191 0
166 189 0
171 195 0
169 192 0
166 189 0
167 190 0
166 189 0
168 192 0
167 190 0
168 191 0
164 188 0
166 189 0
163 187 0
161 185 0
169 191 0
170 193 0
169 192 0
165 189 0
168 191 0
156 179 0
172 195 0
166 190 0
168 191 0
148 171 62
72 105 144
61 97 149
62 98 156
61 97 148
61 96 144
61 97 152
61 97 158
62 97 153
59 95 153
60 96 153
62 98 162
62 98 166
60 96 149
61 98 166
62 98 163
61 97 163
62 98 166
62 98 166
62 98 166
62 98 163
62 98 163
61 97 164
61 97 163
62 98 165
61 98 164
62 99 169
62 98 161
62 98 167
62 99 170
62 99 171
63 99 172
62 99 169
61 98 168
61 97 160
61 97 164
61 97 162
63 98 169
63 99 168
61 97 163
61 97 170
61 98 165
60 97 162
61 97 164
63 99 171
62 98 172
63 99 169
62 98 167
62 98 169
61 98 166
62 98 174
62 99 171
62 98 164
62 99 175
61 98 165
62 99 168
61 97 163
62 98 167
61 97 160
62 98 167
62 98 169
62 99 172
62 99 171
62 98 169
62 98 167
61 97 163
61 97 164
62 98 170
62 98 163
62 99 169
62 98 166
62 98 168
63 99 169
62 99 172
62 98 167
62 99 169
62 98 163
62 99 169
62 99 168
62 98 169
61 98 170
61 97 160
62 99 174
62 98 166
62 98 168
61 97 162
62 99 168
62 98 165
62 98 165
62 99 174
61 97 159
62 99 170
62 98 170
63 99 169
62 99 169
61 98 167
62 99 171
61 98 164
62 99 172
61 97 156
62 99 169
62 98 164
61 97 165
63 99 169
62 98 168
63 99 173
62 98 166
63 99 170
61 97 159
62 98 166
62 98 161
63 99 170
63 99 167
62 98 165
62 98 166
63 99 167
61 98 164
62 99 168
62 98 167
62 98 166
61 97 160
63 100 174
62 99 166
62 98 166
62 98 168
62 98 164
62 98 165
62 98 164
62 98 165
62 98 165
61 98 165
61 97 163
61 98 164
61 98 163
62 99 164
62 98 162
62 98 166
62 98 165
62 98 162
62 98 161
62 98 166
62 98 161
62 98 165
62 98 165
62 98 167
62 99 167
61 97 154
62 98 162
61 97 160
62 99 163
62 98 162
62 98 163
62 98 160
61 97 159
63 99 165
62 98 157
62 98 160
61 96 149
61 96 155
62 98 162
61 96 155
61 97 162
62 98 165
62 97 152
61 96 142
60 95 150
61 96 158
62 98 157
60 95 147
61 96 153
61 95 150
62 96 152
61 95 151
60 95 146
62 97 153
59 93 140
62 97 162
60 94 138
59 93 137
59 92 138
57 87 121
77 85 65
81 81 48
90 89 9
63 64 14
79 78 9
73 73 11
76 77 12
80 80 12
84 85 25
79 80 14
76 77 16
89 89 20
91 89 13
87 86 19
101 100 20
92 92 19
98 97 24
85 86 29
89 90 34
95 93 22
104 104 30
90 90 27
98 97 25
107 107 33
110 108 37
111 109 41
117 115 41
109 107 35
105 104 34
113 111 31
109 106 36
116 115 47
125 121 45
108 107 28
109 106 42
133 129 49
114 112 42
123 122 34
134 129 48
128 125 37
138 133 48
134 129 50
133 129 45
124 121 46
131 127 41
131 126 51
134 131 50
130 126 47
131 127 47
137 132 46
138 134 50
145 140 58
139 135 46
133 128 47
139 135 44
132 129 47
142 137 48
140 135 50
141 137 54
137 133 51
147 141 57
144 140 49
135 131 47
140 135 44
144 140 48
140 135 47
145 140 51
137 132 45
140 135 45
144 137 52
143 138 52
144 138 49
146 140 45
155 148 60
146 141 51
139 135 45
141 136 51
148 143 42
141 136 49
140 134 45
144 138 45
152 145 58
144 139 48
150 144 48
139 134 32
140 136 47
143 137 56
144 139 47
150 144 56
139 133 48
135 129 45
134 129 39
139 133 45
139 134 42
138 132 45
132 127 42
143 138 44
128 123 36
137 132 37
131 126 44
130 125 37
140 135 42
136 130 49
127 122 41
130 125 45
122 117 36
133 129 44
128 125 36
132 133 30
129 127 39
142 143 32
144 148 28
143 150 22
148 157 25
153 165 16
160 175 16
158 171 16
161 175 11
164 179 0
166 184 0
164 182 0
165 183 0
167 185 0
164 181 0
162 180 0
167 184 0
168 189 0
166 183 0
169 188 0
167 185 0
162 179 0
163 180 0
169 188 0
170 190 0
168 188 0
170 193 0
171 194 0
171 195 0
168 191 0
169 192 0
170 193 0
172 195 0
165 189 0
170 194 0
168 191 0
167 190 0
171 194 0
168 192 0
172 195 25
171 195 0
170 193 25
166 189 0
169 192 36
168 191 0
172 195 44
171 194 25
173 196 51
170 193 0
174 197 44
174 197 67
176 199 67
169 192 0
175 198 44
173 195 62
171 194 44
171 194 44
172 194 76
171 194 44
171 193 67
172 194 51
171 193 57
175 197 67
176 199 62
171 194 51
172 194 51
169 192 51
167 190 44
172 195 57
176 198 57
171 194 57
176 198 80
173 196 51
170 193 57
169 192 44
170 194 44
173 196 57
169 192 44
166 188 25
169 191 25
168 191 44
168 192 25
167 191 25
169 193 25
174 196 0
173 196 0
166 191 0
170 193 0
162 186 0
167 191 0
165 188 0
166 188 0
168 191 0
169 193 0
166 189 0
165 188 0
169 191 0
169 194 0
167 191 0
168 192 0
172 195 0
164 187 0
167 189 0
165 189 0
170 192 0
165 189 0
165 189 0
171 195 0
166 189 0
168 191 0
147 171 74
73 106 150
61 97 150
62 98 159
60 95 143
61 97 153
62 98 157
62 97 155
61 97 149
61 97 157
62 98 160
60 96 153
61 96 156
61 97 159
61 97 161
61 97 159
60 96 151
60 96 156
62 98 164
61 97 158
61 97 156
61 97 161
61 96 151
61 97 162
62 98 165
60 96 159
62 98 172
61 97 164
62 99 170
61 98 167
62 98 169
61 97 160
61 97 158
61 97 163
61 97 157
61 98 169
62 98 168
62 99 170
61 98 164
61 98 167
62 98 164
62 98 165
62 98 167
62 99 169
62 98 172
63 99 171
62 99 172
62 98 163
62 99 171
61 98 165
62 98 171
62 98 170
63 99 169
62 98 167
62 99 173
62 99 171
61 98 168
61 97 162
62 98 166
62 99 168
62 98 163
62 98 170
62 99 168
62 98 172
62 98 165
62 99 172
62 98 168
62 98 170
63 99 168
63 99 171
62 98 170
62 99 172
62 99 171
62 98 163
62 98 168
62 99 168
62 99 172
62 99 168
62 99 171
63 99 170
61 98 164
62 98 165
62 99 171
62 98 165
62 98 168
63 99 170
63 99 170
62 98 160
61 98 169
62 99 169
63 99 174
62 99 170
62 98 168
62 98 165
62 98 166
62 98 167
61 98 163
62 99 171
62 98 165
62 99 168
62 98 167
62 98 167
62 98 165
62 99 170
62 99 170
62 98 162
62 98 161
62 98 164
62 98 165
62 98 168
62 98 161
63 99 167
62 99 163
62 99 166
62 98 163
62 98 167
64 100 175
61 98 161
63 99 167
62 98 171
62 98 165
62 98 165
62 99 167
62 98 163
63 99 166
61 97 160
63 99 165
61 97 159
62 98 162
62 98 161
62 99 167
62 98 166
62 98 165
62 98 160
63 99 167
63 99 167
62 98 161
61 97 152
62 99 166
62 98 155
62 98 162
63 99 163
63 99 166
62 98 166
62 97 157
62 98 162
62 98 164
62 99 167
61 98 160
62 98 163
63 99 171
62 98 156
62 98 156
62 97 157
61 97 157
61 97 151
61 97 153
61 97 161
62 98 165
62 98 157
62 98 159
61 96 150
62 97 161
61 96 151
62 97 163
61 97 152
60 95 146
62 98 162
61 97 155
61 96 154
60 95 147
60 94 145
60 94 147
61 96 149
59 93 138
61 96 150
61 95 147
60 95 148
58 91 135
57 90 137
61 89 125
81 88 64
76 77 28
80 79 12
76 75 10
85 84 9
83 83 14
75 76 16
85 85 12
82 82 4
84 83 12
92 91 12
89 89 5
94 94 20
91 92 17
87 87 14
83 82 22
93 92 29
96 96 28
100 99 24
88 89 25
108 107 23
97 97 20
112 110 31
100 101 33
103 102 33
102 101 27
106 105 29
108 106 26
105 106 31
115 113 33
112 111 32
104 103 28
116 114 37
111 108 37
130 127 45
121 118 39
117 116 41
132 127 48
126 123 41
113 111 34
129 124 41
134 130 43
128 125 35
128 124 40
127 123 42
140 135 48
140 136 48
129 125 40
130 126 48
137 133 48
135 131 46
133 128 37
143 138 45
138 134 46
138 133 44
138 133 46
139 134 51
138 133 47
133 128 45
145 139 49
146 141 45
144 139 54
142 136 45
147 142 47
148 142 52
143 138 48
138 133 49
147 142 49
146 140 45
141 136 48
139 135 37
144 138 48
145 140 45
144 138 47
142 137 47
142 137 52
144 140 45
148 142 51
142 137 41
142 137 52
143 136 49
148 143 54
141 137 41
136 131 42
143 138 47
144 138 45
136 131 39
137 132 34
146 141 44
135 131 39
131 127 32
137 131 49
141 136 47
132 128 45
130 125 39
135 128 42
135 129 41
140 133 41
131 125 39
135 129 37
129 124 30
124 119 28
128 123 30
129 124 39
129 124 36
133 128 37
123 120 39
132 130 25
133 132 34
141 144 28
129 132 28
146 152 19
142 149 22
146 157 19
153 165 16
161 175 16
166 182 16
162 178 0
162 178 0
165 182 0
164 179 0
160 178 0
165 182 0
163 179 0
166 184 0
166 183 0
166 183 0
166 184 0
168 187 0
168 187 0
165 183 0
163 182 0
169 188 0
168 187 0
170 188 0
170 194 0
170 194 0
170 193 0
172 195 0
172 195 0
172 195 0
173 196 0
172 195 0
169 193 0
174 198 25
174 198 0
171 194 36
171 195 0
173 195 44
169 193 0
176 198 36
171 194 36
171 194 25
174 197 67
173 195 57
174 197 36
176 198 72
170 194 25
175 198 67
176 198 67
175 198 62
173 195 57
176 198 84
173 196 57
176 196 80
173 196 67
168 191 62
172 194 62
173 195 72
178 200 84
173 196 72
179 200 88
170 193 72
173 196 67
169 192 57
174 197 57
176 198 57
173 196 57
168 192 36
176 198 62
173 196 62
173 196 44
173 196 57
175 197 72
170 193 36
173 195 62
174 197 57
168 191 36
168 191 36
169 193 36
169 191 25
165 188 25
171 194 36
171 194 44
166 189 0
168 191 0
167 191 0
166 190 25
166 189 0
166 188 0
167 190 0
166 190 0
165 189 0
164 186 0
166 190 0
169 192 0
168 192 0
169 191 0
165 189 0
166 191 0
170 193 0
170 194 0
169 193 0
165 188 0
163 186 0
162 186 0
165 188 0
164 187 0
167 190 0
137 161 86
71 103 135
61 96 151
60 95 144
61 96 156
61 97 158
62 98 162
61 96 148
60 96 159
61 97 156
61 97 159
62 99 167
61 97 157
61 97 153
62 98 165
61 97 159
61 97 161
61 97 159
60 96 164
61 97 160
61 97 160
62 98 163
62 98 164
61 97 165
61 97 162
61 98 167
62 98 165
62 98 169
61 96 154
62 98 165
61 97 162
61 97 161
61 96 157
61 97 167
62 98 169
61 98 167
62 99 171
62 99 163
61 98 165
61 97 162
61 97 165
62 98 168
61 97 161
61 97 164
62 98 169
61 97 168
61 98 168
62 98 163
61 97 165
61 98 169
62 99 171
62 98 167
61 98 167
62 98 170
61 98 167
63 99 168
62 99 174
61 98 169
62 98 167
62 99 170
62 98 167
62 99 170
61 98 173
62 98 168
60 97 165
62 99 171
62 98 168
61 97 166
62 98 163
61 98 166
62 98 168
62 98 169
61 98 166
62 99 172
62 98 170
62 98 166
62 99 174
62 98 171
62 99 170
62 98 168
63 99 168
61 98 163
61 98 166
62 98 159
62 98 168
62 98 166
61 97 160
63 99 169
62 98 169
62 98 161
63 99 171
62 98 163
63 99 166
62 99 172
61 98 168
62 99 170
62 99 168
62 98 170
62 99 167
61 97 158
62 98 163
62 98 163
62 98 164
62 98 172
62 99 173
62 98 167
63 99 166
62 99 170
63 99 169
61 97 168
62 98 168
62 98 166
62 98 162
62 98 163
62 98 167
62 98 166
62 98 166
62 98 165
62 98 166
62 98 160
62 98 163
62 98 162
61 98 164
62 98 163
62 98 162
62 99 169
61 97 161
62 98 166
61 97 161
62 98 160
62 98 162
62 98 166
61 97 159
62 99 168
62 99 166
62 98 159
62 98 163
62 98 157
62 97 154
63 99 164
61 97 157
60 96 151
62 98 164
61 97 154
62 97 155
62 98 162
63 99 168
62 98 160
61 96 154
62 98 157
62 98 163
62 98 161
61 97 163
61 97 154
61 97 154
61 97 154
62 98 164
62 98 154
62 98 159
61 96 154
62 97 159
62 97 158
62 97 160
61 96 152
62 97 159
61 97 152
62 97 155
60 96 154
62 97 157
60 96 150
60 95 154
60 95 158
61 95 147
62 97 149
60 94 143
60 95 147
60 95 148
60 94 139
58 92 142
59 92 137
63 91 125
64 78 87
78 78 39
85 85 8
90 87 8
80 78 16
82 80 16
77 78 20
78 78 16
82 83 18
86 85 9
78 78 13
89 87 14
84 83 21
77 78 18
85 85 13
107 104 24
90 92 25
93 91 20
99 97 26
104 102 29
97 96 33
106 103 27
103 102 26
101 100 24
111 109 36
107 106 30
110 108 31
108 106 26
109 108 35
120 117 29
116 114 34
112 109 32
124 121 36
125 121 41
132 128 41
121 119 34
112 110 30
122 119 29
125 123 44
124 121 45
126 122 42
134 130 46
126 123 42
130 126 37
133 130 42
137 132 48
131 127 47
125 121 40
140 136 53
128 124 40
138 134 44
128 125 40
130 126 42
138 133 45
141 137 45
135 130 37
138 134 47
138 134 41
133 129 49
141 136 41
141 137 43
134 130 45
136 131 47
142 136 47
145 140 42
142 137 45
142 136 49
135 130 47
134 130 39
150 144 51
146 141 45
140 135 42
148 142 47
143 138 49
143 138 44
145 140 47
144 138 45
140 135 47
142 137 53
136 131 39
144 140 48
141 136 42
132 128 37
144 139 47
142 137 42
140 134 41
144 138 53
136 130 44
136 132 42
138 134 30
140 136 36
137 132 44
131 127 42
137 132 44
131 128 30
133 128 41
131 126 37
135 130 41
129 125 36
135 129 42
128 122 34
132 127 34
133 128 37
128 122 44
125 121 28
134 131 30
125 124 22
132 133 30
143 143 34
141 146 28
142 150 19
150 158 0
146 155 11
156 167 11
159 171 11
161 175 11
164 182 0
161 176 0
164 179 0
168 186 0
165 180 0
165 182 0
162 178 0
165 180 0
165 182 0
168 184 0
163 181 0
166 185 0
163 179 0
168 185 0
165 183 0
163 182 0
168 187 0
169 186 0
169 187 0
172 195 0
171 195 0
171 194 0
171 195 25
169 192 0
173 196 36
174 197 0
173 195 36
169 192 0
170 194 57
176 199 51
173 195 51
170 193 25
175 198 57
173 195 67
172 195 44
175 198 57
175 197 67
173 196 62
174 196 67
174 196 51
175 197 72
177 199 76
176 198 76
175 198 72
175 197 84
171 193 67
175 198 76
169 192 57
175 197 62
174 196 72
172 195 51
176 198 76
177 200 72
180 202 95
174 197 62
178 200 84
176 198 76
173 196 72
174 197 51
175 198 80
175 197 84
175 197 72
175 198 76
173 196 67
177 198 62
173 195 57
180 202 99
175 197 84
176 198 76
171 194 57
174 197 62
174 198 67
176 198 84
174 196 51
170 193 57
174 196 67
175 197 76
171 194 51
166 190 57
171 194 25
168 191 44
175 197 44
169 192 25
167 191 0
169 193 25
166 189 0
168 192 0
166 189 0
170 193 0
166 189 0
160 183 0
165 188 0
164 187 0
165 189 0
165 188 0
161 185 0
168 191 0
165 189 0
165 188 0
166 189 0
166 189 0
165 189 0
163 186 0
147 170 74
66 100 151
61 96 144
60 95 150
61 96 151
62 97 156
61 97 155
62 98 161
61 97 157
61 97 155
61 96 158
61 98 168
61 97 158
60 96 157
62 98 158
62 98 163
61 96 158
62 98 161
61 97 166
62 97 159
62 98 163
62 98 167
61 98 162
61 98 168
62 98 161
62 98 164
62 98 169
61 97 164
62 98 164
61 97 163
62 98 162
62 98 166
61 97 165
62 99 170
61 98 166
62 98 171
62 98 165
61 97 165
62 99 167
63 99 170
62 98 160
61 98 165
61 98 169
62 98 169
61 98 170
62 98 167
61 97 167
62 99 168
61 97 163
62 98 172
62 99 167
62 98 166
62 98 162
62 98 172
62 98 173
61 98 171
62 98 166
62 98 169
62 98 165
61 98 170
61 98 169
62 98 170
62 98 166
62 99 171
63 99 172
61 98 168
61 97 162
62 98 164
62 98 169
63 99 171
62 99 168
62 99 167
62 98 167
62 98 172
62 99 170
61 98 168
61 98 168
62 98 170
61 98 167
62 99 171
62 99 170
62 99 168
62 99 173
62 99 165
61 98 168
62 99 168
61 97 164
63 99 168
61 97 164
62 98 167
62 98 169
62 98 164
63 99 172
62 98 158
62 98 168
61 98 165
62 98 167
62 99 165
61 97 161
62 99 170
61 98 168
62 98 168
62 98 167
61 98 165
62 98 162
62 98 161
61 97 160
62 98 163
62 98 164
62 98 166
62 98 164
62 98 167
62 98 165
62 98 163
62 98 163
61 97 159
62 98 163
63 99 167
62 98 163
62 98 160
62 98 167
63 99 169
62 98 158
61 97 162
62 98 167
61 97 161
62 98 163
62 98 158
62 98 165
62 98 164
62 98 168
62 98 159
62 98 162
62 98 164
62 99 164
62 98 157
61 97 157
62 98 161
61 97 156
62 98 160
62 99 169
63 99 164
62 98 162
61 97 158
63 99 167
62 98 162
63 99 168
62 98 159
62 97 156
62 98 159
61 97 154
62 98 159
62 98 159
62 97 151
62 98 159
62 98 163
62 98 161
61 97 155
61 97 156
61 96 150
63 99 169
62 97 161
61 97 157
62 98 153
61 97 161
61 96 156
61 96 149
61 95 146
61 97 156
61 96 150
61 95 146
61 97 151
62 97 159
61 96 148
60 95 147
60 94 153
61 95 148
59 93 138
60 93 140
60 93 137
62 85 108
74 80 62
72 72 0
92 89 14
83 82 14
81 78 2
77 77 11
88 85 16
82 81 9
85 83 17
79 78 12
83 83 12
89 87 16
94 92 22
95 94 22
93 92 20
84 83 17
82 83 19
93 92 24
102 100 30
86 85 16
95 95 25
91 92 23
96 97 21
108 106 29
104 102 28
105 104 19
111 109 27
106 105 24
114 111 30
103 102 34
111 109 33
131 127 41
119 116 23
121 118 43
112 111 37
122 119 45
118 116 22
117 115 38
120 118 35
123 119 37
127 122 42
134 129 45
131 128 38
127 124 37
129 125 41
123 123 42
131 128 29
127 122 42
128 125 38
136 131 51
148 143 49
134 131 40
136 131 37
140 135 42
140 135 48
134 130 35
138 133 46
132 128 41
144 139 47
140 134 48
133 128 43
133 130 42
138 134 47
143 137 39
142 136 52
135 130 47
149 142 52
146 141 50
136 131 47
139 134 41
140 135 44
142 136 47
145 140 39
147 142 49
141 133 47
138 132 42
140 135 36
139 133 51
139 135 36
136 132 47
142 137 48
130 126 39
137 133 37
130 124 32
136 130 44
139 133 41
142 136 39
135 130 30
145 139 42
134 129 39
136 131 42
135 129 41
130 124 41
135 130 41
129 125 28
135 130 39
128 122 34
137 132 41
133 126 42
134 127 44
126 121 32
128 121 39
126 122 36
121 117 28
135 131 37
131 129 32
130 128 34
130 132 19
136 139 32
135 140 16
140 146 19
155 166 16
154 169 11
160 174 0
155 167 11
161 178 0
162 177 0
161 176 0
164 182 0
167 183 0
159 176 0
164 183 0
162 178 0
166 183 0
165 183 0
160 178 0
166 183 0
166 185 0
167 186 0
166 185 0
165 185 0
166 184 0
164 181 0
169 187 0
168 185 0
172 195 0
171 194 25
172 196 51
172 194 25
172 195 0
175 197 36
166 189 25
177 199 76
174 197 51
173 196 51
174 197 67
175 198 51
178 201 67
175 198 76
172 195 67
179 200 84
172 195 72
177 199 84
177 200 80
172 195 72
175 198 76
174 196 67
178 199 88
176 198 76
175 197 72
175 197 72
172 195 51
175 198 80
174 196 76
174 197 76
176 198 92
178 200 84
177 198 57
177 198 76
174 195 84
178 200 92
176 199 88
177 199 92
171 194 67
176 198 80
179 201 84
173 195 76
175 196 92
172 195 51
178 200 95
174 196 62
176 198 72
172 194 72
178 200 67
176 199 84
179 201 95
174 196 57
173 195 84
171 192 76
177 198 67
168 190 76
172 194 76
171 193 62
170 193 80
166 189 51
171 193 62
175 198 72
169 191 57
169 193 36
172 195 25
172 195 0
162 186 0
169 193 25
165 187 25
163 187 0
168 192 0
167 190 0
169 193 0
169 192 0
168 191 0
171 194 0
159 182 0
168 192 0
165 187 18
159 183 0
165 188 0
163 187 18
167 189 0
161 183 0
146 171 74
61 96 142
61 96 147
61 97 145
61 97 148
60 96 140
61 97 154
61 97 158
61 97 158
62 98 163
61 96 154
62 98 166
62 98 161
61 97 160
61 97 156
60 96 147
60 97 162
62 98 164
61 97 158
62 99 164
61 97 161
61 97 161
62 98 163
62 98 162
61 98 165
62 98 163
61 97 166
61 97 161
61 97 169
61 97 167
62 98 164
62 98 166
61 98 170
61 97 159
61 97 162
61 97 164
61 97 164
61 98 167
62 98 167
63 99 167
60 96 162
61 97 162
63 99 164
62 98 166
62 98 169
62 98 160
62 98 170
63 99 170
62 99 169
62 98 169
62 99 169
62 98 170
62 98 165
62 98 169
61 98 166
62 98 171
62 98 164
62 98 164
61 98 169
62 98 162
62 98 169
62 98 171
61 97 158
63 99 168
62 98 169
62 98 170
62 99 167
62 98 167
62 99 170
62 98 170
61 98 166
63 99 169
62 98 167
62 99 171
62 98 165
61 98 163
62 98 166
61 98 166
62 99 167
62 98 169
62 99 169
62 99 173
62 98 170
61 98 166
63 99 173
62 99 170
61 98 167
63 99 173
61 97 162
62 98 166
62 98 165
62 99 171
62 98 168
62 98 164
62 98 165
62 98 168
62 98 162
62 98 160
62 98 163
62 98 166
62 98 164
63 99 166
62 98 166
62 99 169
61 98 166
62 99 167
62 98 167
62 98 165
61 98 162
61 97 154
62 98 164
62 99 174
62 98 165
62 98 167
61 97 160
62 98 166
62 97 162
63 99 164
62 99 170
62 98 168
63 99 167
62 98 166
63 99 165
62 98 168
63 99 167
60 96 155
61 98 167
62 98 161
61 97 160
62 97 159
61 98 166
61 98 163
62 98 160
61 98 166
62 98 164
62 98 162
62 98 162
62 98 162
62 98 156
62 98 169
61 97 157
62 98 159
62 97 156
62 99 162
61 97 160
63 99 161
60 96 149
61 96 158
61 97 160
62 98 162
61 97 158
62 98 161
63 99 165
63 98 161
61 97 161
63 99 162
61 96 151
61 96 152
61 97 154
61 97 158
62 98 155
62 97 153
62 98 159
60 95 145
60 94 143
60 95 152
61 96 149
61 96 150
61 96 154
61 96 151
61 96 145
61 96 149
60 95 145
60 94 137
60 95 145
61 95 145
59 92 140
60 94 142
59 92 139
59 92 133
63 92 131
76 85 82
56 57 12
87 85 14
89 87 8
75 72 14
75 74 9
82 79 10
77 76 12
79 79 8
92 90 14
84 83 18
88 87 20
92 90 18
97 96 8
90 91 12
88 88 12
93 92 23
94 93 21
87 88 24
91 91 28
96 94 29
104 102 28
111 108 18
102 101 25
110 108 25
113 111 20
110 108 29
102 101 18
106 105 30
112 110 35
107 104 30
107 106 25
115 112 37
119 116 41
122 118 36
119 116 46
120 117 31
118 117 30
105 105 34
124 121 30
122 119 37
119 117 33
135 133 35
111 110 26
121 119 29
124 121 35
128 124 47
126 123 42
139 134 39
140 135 44
140 135 51
132 128 36
136 131 45
137 133 42
141 137 41
143 138 47
133 128 38
139 134 41
144 138 48
149 143 55
138 133 45
136 131 37
138 133 49
136 131 45
137 132 41
144 138 51
142 137 47
128 123 37
134 129 42
136 130 41
133 128 34
139 135 37
141 135 42
141 135 54
137 133 30
138 132 44
143 137 51
141 136 51
142 137 49
132 128 37
133 129 37
141 136 44
136 131 44
138 133 34
142 136 49
133 128 32
127 122 48
140 134 44
139 133 48
138 132 36
137 131 37
137 133 41
135 129 36
131 126 42
135 130 41
128 123 32
130 125 36
131 127 34
135 130 34
125 120 32
122 118 30
128 122 32
116 113 25
124 120 30
133 130 30
144 146 32
131 130 30
135 141 16
146 153 28
149 159 16
148 159 16
153 167 11
154 167 0
160 175 16
160 175 0
163 178 0
166 183 0
160 175 0
163 176 0
164 179 0
160 176 0
163 180 0
167 184 0
159 176 0
165 183 0
167 182 0
166 182 0
160 176 0
163 182 0
164 180 0
168 186 0
169 188 0
166 184 0
163 180 0
168 188 0
172 196 36
177 199 51
173 195 44
172 195 36
172 195 67
168 191 25
172 195 36
174 196 44
176 198 62
176 198 80
176 198 76
175 197 72
172 195 44
178 200 67
172 196 62
173 195 72
170 193 62
173 197 72
180 202 88
177 199 76
179 202 88
177 200 76
174 197 67
175 197 84
178 199 84
176 198 76
174 197 84
178 199 84
177 199 102
173 194 88
180 202 84
178 200 80
175 197 76
175 196 95
175 198 67
173 196 84
180 202 99
177 200 67
177 200 80
178 200 80
178 199 92
174 197 72
174 196 80
175 196 84
180 201 88
175 197 84
179 201 99
177 199 76
180 201 92
180 202 99
176 198 95
170 193 51
179 200 92
174 196 80
174 196 80
172 195 44
175 198 72
176 198 84
179 200 92
173 196 62
174 196 72
173 194 62
169 192 67
170 193 25
174 196 72
172 194 67
171 194 44
164 188 51
170 193 57
165 187 36
167 190 44
164 187 0
162 186 0
167 190 0
164 187 0
162 186 0
169 192 0
166 190 18
161 184 25
166 189 25
161 184 36
163 185 0
156 179 25
163 185 18
149 173 54
65 99 146
61 97 154
60 96 144
61 97 153
60 96 153
61 97 156
61 97 160
61 96 150
62 99 166
62 98 154
61 97 156
61 97 155
61 97 159
61 97 151
61 97 156
62 98 161
61 97 157
61 97 160
61 97 157
60 96 156
61 98 161
62 98 163
62 98 168
62 98 168
61 97 160
61 97 163
62 98 158
61 97 163
61 98 163
61 96 160
61 97 163
62 98 162
61 97 161
61 97 164
62 98 166
62 98 166
62 98 168
62 98 163
60 96 162
62 98 168
62 98 171
62 98 169
61 98 166
62 98 168
61 97 166
61 97 170
62 98 167
61 98 160
62 98 166
61 98 166
61 97 165
62 98 164
62 98 166
61 97 163
62 98 167
62 98 168
61 97 163
62 98 167
62 98 166
62 98 162
61 97 164
62 98 166
62 98 167
62 99 169
61 98 162
62 98 169
62 98 166
62 99 167
62 98 171
61 98 170
61 97 164
61 98 166
62 99 169
61 98 164
62 98 164
63 99 169
63 99 165
62 98 165
62 99 169
62 98 162
62 98 168
62 99 171
62 99 169
62 98 164
62 98 169
62 98 161
62 98 167
62 99 169
63 99 170
62 99 169
63 99 168
62 98 167
62 98 163
62 98 162
62 99 166
61 97 160
62 98 166
62 98 165
62 98 164
61 98 165
62 98 166
63 99 164
62 98 165
62 98 161
62 98 165
61 98 168
62 98 163
62 98 165
61 97 168
62 98 165
62 98 166
61 98 164
61 97 161
62 98 165
63 99 170
62 98 169
63 99 167
62 98 165
62 98 164
62 98 158
63 99 169
61 97 157
61 97 163
61 98 162
62 98 160
63 99 162
63 99 168
63 99 170
62 99 164
62 99 166
62 98 164
62 97 156
61 98 165
63 99 165
62 98 160
62 98 162
62 98 162
62 98 166
61 97 153
62 98 157
61 97 157
62 98 168
62 98 167
61 97 156
61 96 154
62 98 155
62 98 163
61 97 154
62 99 167
61 97 156
62 98 162
61 97 154
61 97 158
62 98 162
61 97 152
61 97 155
62 97 159
61 97 156
62 98 155
62 98 159
61 97 153
62 98 159
62 98 160
61 96 150
60 95 150
60 95 148
62 96 153
61 96 153
61 97 158
61 96 158
60 95 147
61 96 142
61 95 148
61 96 152
60 94 140
60 94 143
60 94 144
58 91 137
58 91 136
60 89 116
73 83 75
84 81 33
86 83 16
78 77 11
97 94 12
85 84 8
79 78 8
80 80 11
99 98 20
98 95 2
87 86 9
93 92 20
84 83 18
85 86 15
93 92 21
89 88 8
88 88 12
83 83 14
88 87 16
91 90 9
83 83 22
106 104 21
103 101 28
101 100 21
101 100 22
104 102 28
111 108 24
111 108 34
102 101 24
112 110 30
117 114 32
100 98 29
117 114 42
123 120 35
102 100 23
112 111 33
123 120 35
115 111 37
122 119 28
116 112 34
126 122 44
115 112 35
122 120 26
121 117 29
134 129 45
128 126 41
142 136 39
125 121 29
134 129 35
124 120 28
142 136 43
128 125 36
135 131 42
136 131 42
135 130 25
135 131 41
137 132 44
132 129 33
142 137 45
147 141 54
134 131 41
136 132 39
136 131 44
138 133 42
142 137 45
137 132 44
135 131 42
140 134 48
139 134 47
143 136 48
140 136 44
141 136 42
143 139 48
142 137 41
142 135 45
133 129 37
132 127 36
142 136 41
133 129 42
138 132 41
142 136 44
143 137 42
137 132 42
143 137 48
135 131 37
135 130 25
142 136 41
133 128 36
136 132 41
128 124 32
132 128 28
133 128 42
136 130 44
125 121 34
132 126 37
127 121 37
133 128 36
132 127 37
121 115 34
130 126 32
121 115 32
128 123 39
118 116 30
121 122 16
134 133 19
135 136 22
136 139 25
150 158 22
149 159 16
154 164 22
154 163 0
156 167 11
156 171 11
161 173 0
157 172 0
165 179 0
159 170 0
165 182 0
170 187 0
167 182 0
159 174 0
164 181 0
165 184 0
167 184 0
164 181 0
162 179 0
166 182 0
163 180 0
165 182 0
163 178 0
168 186 0
171 190 0
166 184 0
164 180 0
168 187 0
172 195 25
170 193 44
174 197 51
174 197 57
174 196 51
174 196 57
174 197 51
172 195 62
177 199 88
170 194 44
173 197 44
174 197 80
174 196 88
175 197 80
174 197 72
178 200 95
175 198 67
175 198 67
177 200 92
177 199 80
175 198 80
183 204 111
177 199 72
178 200 80
172 195 80
180 202 99
178 200 88
175 198 76
175 198 72
177 200 84
176 199 80
174 197 76
181 203 99
178 201 95
177 199 95
180 202 95
175 198 88
176 198 72
174 196 84
178 200 88
179 201 95
178 201 88
178 200 102
178 200 80
179 201 105
175 197 80
176 199 80
173 196 88
180 202 95
171 194 51
177 200 88
178 200 72
175 197 80
185 206 120
178 199 88
176 198 84
175 198 76
178 200 92
178 199 111
170 193 67
171 194 76
170 193 67
173 196 76
175 197 72
173 196 72
165 188 51
173 194 76
164 186 44
171 193 62
174 194 57
169 191 44
167 189 36
168 191 0
171 194 44
166 189 36
168 191 25
166 190 0
162 186 25
159 182 44
158 183 40
156 179 44
168 190 0
155 179 25
162 185 36
147 172 70
74 106 139
62 97 148
61 96 156
60 96 145
62 97 159
61 96 153
61 97 153
61 97 151
61 96 150
61 97 158
61 97 158
62 98 161
62 98 164
62 99 167
62 98 158
61 98 162
63 99 164
61 97 158
62 98 164
61 97 163
61 97 157
61 98 166
61 97 162
62 98 157
61 98 164
62 98 163
62 98 164
60 96 159
61 97 159
61 97 162
61 98 169
62 98 163
61 97 166
61 97 164
61 98 162
61 96 158
61 97 164
61 98 165
62 98 168
62 98 168
61 97 169
62 99 173
61 97 161
61 98 167
62 98 164
62 98 171
62 98 165
62 98 167
60 96 159
62 99 169
61 97 157
62 98 165
62 99 169
62 98 166
62 99 171
62 98 164
62 98 170
62 98 162
62 98 166
63 99 167
63 99 170
61 97 166
62 99 171
62 98 168
61 98 166
61 97 163
63 99 169
62 98 166
61 97 160
62 98 170
62 99 164
62 98 165
61 98 167
61 98 164
61 98 165
61 98 169
62 98 167
62 98 170
62 98 163
62 98 167
63 99 164
62 98 168
63 99 174
61 98 164
62 99 169
62 98 170
62 99 169
62 98 167
63 99 169
62 98 166
62 98 168
62 98 164
62 99 170
62 99 169
61 97 156
62 98 164
62 98 167
62 99 168
61 97 158
62 98 162
61 98 165
62 98 165
61 98 167
62 98 166
62 98 164
62 98 164
63 99 171
62 98 162
62 98 165
62 98 166
61 98 160
63 99 169
62 98 163
62 98 161
63 99 171
62 98 162
62 99 169
62 98 168
62 98 161
63 99 167
63 99 161
63 99 165
61 98 162
62 99 169
62 98 163
62 98 162
62 98 165
62 98 157
62 98 159
62 98 163
63 99 166
62 99 168
62 98 166
62 98 155
62 98 159
62 98 165
62 98 160
62 99 168
63 99 164
62 98 161
62 98 163
62 98 161
62 98 159
62 98 163
61 97 156
62 97 159
62 98 158
62 98 161
62 98 163
62 98 159
62 97 155
61 97 162
62 97 154
62 98 163
62 98 162
62 98 159
61 97 154
62 98 156
62 97 159
62 97 150
61 97 156
61 97 156
62 98 163
61 96 158
61 96 149
61 96 147
61 95 146
61 96 155
60 95 140
62 97 159
59 94 138
61 96 150
60 95 144
61 96 150
60 94 143
59 92 134
58 91 132
59 91 138
60 94 145
60 83 106
91 96 78
89 87 28
65 64 2
83 81 15
83 80 3
79 79 8
83 82 0
90 87 14
78 78 12
85 84 9
85 84 14
89 86 8
87 87 14
88 87 14
93 90 14
97 94 14
79 81 11
94 94 12
99 98 14
94 92 14
90 90 10
101 99 27
106 104 22
107 106 21
99 97 21
105 102 18
99 97 27
106 103 29
109 106 32
113 110 14
111 109 24
117 114 38
115 112 25
112 109 28
112 109 35
100 99 16
123 120 29
114 111 31
114 112 23
120 117 38
116 114 31
113 111 28
127 122 38
125 122 31
121 118 30
132 127 39
125 120 38
129 125 37
127 124 37
126 123 30
133 129 42
130 127 37
123 121 29
128 124 42
133 129 47
134 130 39
139 135 45
136 131 40
134 131 37
136 132 30
130 126 22
129 124 39
139 134 34
143 137 42
127 123 32
135 130 36
137 133 34
136 130 34
127 124 25
140 135 45
134 128 36
136 130 39
134 128 42
136 130 42
141 135 41
137 131 39
143 136 48
133 129 34
140 136 47
135 129 41
129 124 36
131 126 42
144 138 53
137 132 41
128 123 41
136 131 41
127 123 32
132 129 32
135 131 41
134 129 37
136 131 32
143 137 49
130 123 34
129 123 30
132 128 34
129 125 34
127 124 25
119 113 28
125 120 28
123 118 36
129 126 30
122 117 25
126 123 25
130 130 30
129 132 16
137 142 30
141 149 19
144 150 19
151 158 22
148 161 0
150 162 16
157 171 0
163 179 0
158 171 0
161 175 0
163 179 0
163 177 0
165 180 0
162 179 0
167 182 0
162 180 0
165 182 0
162 177 0
164 180 0
165 180 0
163 180 0
163 179 0
165 182 0
163 181 0
162 179 0
165 181 0
164 183 0
164 182 0
166 184 0
164 181 0
176 198 72
173 196 51
174 197 51
168 192 25
171 193 67
175 197 72
174 196 80
172 195 62
177 200 80
175 197 76
175 197 80
174 196 84
178 201 80
175 198 67
177 199 95
177 200 88
177 199 84
178 200 67
177 200 80
177 199 80
184 205 111
174 198 76
175 197 67
179 201 92
176 198 92
178 201 95
179 201 99
181 203 99
179 200 92
178 200 105
178 200 95
181 202 108
182 203 105
183 204 117
181 203 102
180 201 95
178 200 80
183 204 102
178 200 84
179 200 105
182 203 114
180 202 99
185 206 133
179 201 92
177 199 84
179 200 80
180 202 102
182 204 105
173 196 80
178 201 88
182 203 111
183 204 105
176 199 99
175 198 80
176 198 88
177 199 88
174 197 84
176 198 84
173 195 76
172 194 72
181 202 105
175 197 88
181 202 108
171 194 76
174 197 76
169 191 72
176 198 80
172 194 62
170 194 57
170 192 67
166 188 67
172 194 51
171 193 51
168 191 44
167 190 44
166 189 36
161 184 40
157 180 60
150 173 72
158 181 65
148 171 65
155 178 67
154 178 51
161 185 36
145 168 76
87 116 130
62 97 148
66 100 148
61 96 145
61 96 154
61 96 147
62 98 155
61 97 156
61 97 155
62 97 152
61 97 156
61 96 146
61 97 159
60 95 148
62 98 158
61 97 156
60 96 151
61 96 155
61 96 158
61 97 163
61 97 154
61 97 161
61 97 161
61 98 163
61 98 163
63 99 170
62 98 162
61 98 164
62 98 163
61 97 161
61 97 158
61 96 156
60 96 159
62 98 163
62 98 169
61 97 163
61 97 156
62 98 168
61 97 165
62 98 171
62 98 164
63 99 170
61 98 169
61 98 163
61 97 158
61 97 159
61 98 168
62 98 165
61 98 166
62 99 171
62 98 172
61 97 162
61 97 156
62 98 169
61 98 163
61 98 166
62 98 167
63 99 172
63 99 170
62 98 165
62 99 172
62 98 164
62 98 161
62 99 172
62 98 167
62 99 168
62 98 163
62 98 164
62 98 163
63 99 170
62 98 168
62 98 164
63 99 169
63 99 172
62 98 167
61 97 158
62 98 161
62 99 167
63 99 168
62 98 167
62 98 168
62 98 166
62 98 169
62 98 168
62 98 167
62 98 168
62 98 162
62 99 168
62 98 157
63 99 167
62 98 165
62 98 166
62 98 167
62 99 170
62 98 164
62 98 165
62 99 168
62 98 167
62 99 164
61 97 162
62 99 172
61 97 162
61 97 159
61 97 162
63 99 166
61 97 156
63 99 172
61 97 163
62 98 160
63 99 166
63 99 167
62 98 167
62 98 161
62 98 160
62 99 165
62 98 165
61 97 155
62 99 165
61 97 161
62 98 160
62 99 166
62 98 165
63 99 170
63 99 164
62 98 159
61 97 159
61 97 163
63 99 162
62 98 166
62 98 162
63 99 166
63 99 166
63 99 169
62 98 161
62 98 163
62 98 162
62 97 161
62 98 161
62 98 162
62 98 164
62 98 161
62 98 162
62 98 164
61 97 160
62 98 159
62 98 157
62 98 162
62 97 156
61 97 160
62 97 160
62 98 156
62 98 157
60 96 158
60 95 150
60 95 152
62 98 164
62 97 158
62 97 161
61 96 149
62 97 150
62 98 157
61 96 149
61 97 151
60 95 147
61 95 140
61 96 154
60 94 139
61 96 149
62 97 149
61 96 152
60 95 141
60 94 144
60 95 144
59 93 134
59 93 137
59 94 141
58 90 135
57 89 130
58 91 136
61 87 113
85 92 65
84 82 25
86 83 16
91 88 16
88 83 8
81 79 14
71 69 0
78 76 16
75 75 8
95 93 16
84 83 9
93 90 13
87 84 11
90 89 9
85 84 13
83 82 5
80 79 8
92 91 18
102 98 20
97 95 14
83 84 14
92 90 22
103 100 12
107 106 24
94 95 14
104 101 25
101 100 31
107 104 26
109 106 30
115 113 24
121 119 28
102 100 22
114 112 29
110 106 29
119 116 32
118 115 31
121 119 31
131 125 35
115 112 28
128 125 32
115 112 30
118 115 26
121 118 32
121 117 22
126 121 31
125 121 42
124 121 35
130 127 37
123 120 27
133 130 33
128 123 42
123 122 26
128 124 41
137 133 35
137 133 46
128 124 37
129 125 42
136 133 41
134 131 33
136 130 44
130 127 37
135 131 39
133 128 37
132 128 44
140 135 42
139 134 37
133 128 30
132 127 34
137 133 30
146 140 42
136 130 39
142 136 42
133 130 28
132 128 37
140 134 42
132 128 41
147 140 45
131 126 37
135 130 39
135 129 44
131 126 34
137 133 42
141 136 34
117 114 32
128 123 32
129 123 37
135 131 32
135 130 30
136 130 41
131 126 39
131 127 32
124 120 34
140 134 41
122 118 41
125 120 39
123 119 30
129 122 22
125 120 30
119 114 28
122 120 22
128 125 30
123 122 19
127 126 22
138 139 28
132 136 19
140 148 19
151 157 25
143 148 16
153 163 16
154 164 11
159 170 16
161 174 0
165 179 0
159 173 0
162 175 0
160 176 0
160 177 0
161 176 0
162 177 0
164 182 0
163 178 0
159 172 0
163 179 0
166 182 0
159 174 0
164 180 0
166 183 0
168 185 0
161 180 0
163 180 0
166 184 0
167 185 0
161 177 0
167 183 0
166 182 0
175 198 51
177 199 92
176 197 80
174 198 57
178 200 88
174 197 76
179 201 84
173 196 67
177 199 67
181 202 95
180 201 88
174 196 80
180 202 99
180 202 105
176 198 80
180 202 99
179 200 88
180 202 95
179 202 88
182 204 114
179 201 92
178 199 92
182 204 111
180 201 108
184 205 117
179 201 92
183 205 108
180 202 105
186 206 130
185 206 122
186 207 130
180 201 102
183 205 117
186 207 125
184 205 122
187 207 128
184 204 125
184 205 130
180 202 108
186 206 128
186 207 133
183 204 120
183 203 120
185 206 120
181 203 105
187 208 125
186 207 130
182 203 114
176 198 92
181 203 102
178 201 84
177 199 95
179 201 99
183 204 108
185 206 120
179 201 84
179 201 95
180 202 108
176 198 80
182 202 108
175 197 67
175 197 88
176 199 80
171 193 76
177 199 67
177 199 99
175 196 88
171 194 67
176 198 88
177 199 80
168 191 51
172 195 51
172 195 57
170 192 72
167 189 62
170 192 44
165 188 54
162 185 65
159 183 70
154 178 70
143 168 80
148 173 80
159 182 36
150 173 54
140 164 84
84 114 141
77 108 143
70 104 147
63 97 144
63 98 150
59 94 145
61 97 152
61 97 158
61 97 152
61 96 153
61 96 155
61 97 158
62 97 158
61 97 158
62 98 163
61 97 156
61 97 157
61 96 154
60 96 154
61 97 157
60 96 154
61 97 161
62 97 162
62 98 171
60 96 162
61 97 164
60 97 164
60 96 160
61 97 164
62 98 168
60 96 158
61 97 158
60 97 168
63 99 174
61 97 156
62 97 159
61 97 163
62 98 163
60 96 163
62 98 168
61 97 161
61 97 160
62 98 168
61 97 171
62 98 163
61 97 160
61 97 164
62 98 158
62 98 162
61 98 161
61 97 160
62 98 169
62 99 168
63 99 167
61 97 164
61 98 165
61 97 166
61 97 167
62 98 162
61 97 165
61 97 161
63 99 170
61 97 163
62 98 163
61 97 168
61 98 167
63 99 170
62 99 166
61 97 162
61 97 161
62 98 167
62 98 168
61 98 164
62 98 166
61 97 160
62 98 164
62 98 164
62 99 168
61 98 168
63 99 171
61 98 165
62 98 172
62 98 166
62 99 174
62 99 170
63 99 167
61 98 168
63 99 168
62 99 167
63 99 168
61 97 161
62 98 162
63 99 167
62 98 163
61 97 159
61 98 165
63 99 172
62 98 160
62 99 168
61 98 162
62 98 161
62 98 167
61 98 165
63 99 164
62 99 170
63 99 171
62 99 168
62 98 164
62 98 166
61 97 154
62 98 160
62 98 157
61 97 160
61 97 160
61 97 161
61 97 157
62 98 162
62 98 162
61 97 156
62 98 161
62 98 164
61 97 156
61 97 159
62 98 163
61 98 160
62 98 160
62 98 160
62 98 161
62 98 162
62 98 166
63 98 160
62 98 166
63 99 167
62 98 160
62 98 157
62 99 166
62 98 164
62 98 157
62 99 164
61 97 151
62 98 162
62 98 159
62 98 161
62 98 162
63 98 158
61 96 153
62 98 162
62 98 158
61 97 153
62 98 158
61 97 152
61 97 155
62 98 161
61 97 157
62 98 162
61 96 153
60 96 153
61 97 158
61 96 155
61 97 152
60 95 144
61 97 152
61 96 155
61 95 149
60 95 147
60 94 143
61 96 147
61 96 150
60 94 147
61 96 153
61 97 155
59 94 146
59 93 134
59 93 138
60 94 140
61 95 144
60 95 139
59 93 131
59 93 138
77 94 108
82 85 56
88 87 28
99 97 11
79 78 16
87 83 11
74 72 14
86 84 0
81 77 11
83 82 11
94 92 8
84 83 6
87 85 3
86 85 8
96 94 11
90 90 0
97 94 8
95 93 14
90 88 11
87 86 11
98 96 22
93 92 12
105 101 24
105 102 14
108 107 16
99 97 15
103 102 21
100 98 29
111 109 21
110 108 25
110 107 27
105 101 24
108 106 27
104 103 19
113 110 22
118 116 24
113 110 28
113 110 32
121 117 33
123 119 32
125 121 33
117 114 36
115 111 22
123 120 34
120 116 25
115 113 31
127 124 26
125 120 34
127 123 31
129 125 37
127 124 35
136 131 36
130 127 30
135 130 39
121 118 35
129 126 32
136 131 37
136 132 28
130 126 25
127 123 36
125 121 36
134 129 39
140 135 37
131 126 22
130 125 30
138 131 42
132 128 33
137 133 39
127 124 25
127 123 34
140 136 48
139 133 37
138 133 30
137 131 37
137 132 36
127 123 30
130 125 37
139 134 36
130 125 32
134 129 34
126 122 25
127 122 28
134 128 42
127 124 32
140 134 41
131 125 34
135 129 44
128 122 36
131 125 34
124 119 22
127 122 34
125 120 34
125 120 28
123 118 32
117 113 22
119 116 22
127 121 30
115 111 28
117 112 19
133 129 30
130 125 34
133 131 25
135 134 32
137 140 30
144 148 28
136 140 11
156 163 19
138 147 11
153 163 11
153 166 0
159 170 0
158 171 0
164 178 0
157 169 0
157 168 0
156 170 0
160 176 0
162 178 0
162 180 0
165 182 0
157 174 0
167 181 0
162 175 0
168 182 0
163 181 0
167 186 0
164 178 0
167 184 0
168 185 0
163 177 0
166 182 0
164 181 0
163 181 0
163 182 0
166 184 0
167 185 0
174 197 51
175 198 67
171 194 62
176 198 72
178 199 84
180 202 92
177 199 80
179 201 95
177 200 84
178 201 92
172 194 57
178 201 72
179 201 102
178 201 84
178 200 84
184 205 122
182 203 114
186 207 122
183 203 117
180 201 95
182 203 117
182 203 128
185 205 128
183 204 122
185 205 133
190 210 151
184 205 122
185 206 120
188 208 135
188 208 135
188 207 144
190 209 147
188 208 142
190 210 149
193 212 161
188 209 135
190 210 147
188 208 133
187 207 130
189 209 147
189 209 151
192 212 151
192 211 159
183 204 120
184 204 130
187 207 130
187 208 142
186 207 135
189 209 130
185 205 133
186 207 128
186 207 133
183 204 105
182 204 108
181 203 102
182 204 114
178 200 92
180 201 95
179 200 111
177 199 95
179 201 102
174 196 67
174 196 72
175 198 76
178 201 84
175 197 92
177 198 84
176 198 92
173 196 67
176 196 105
175 197 92
177 199 67
172 194 84
167 190 57
176 197 95
169 192 67
170 192 80
162 185 80
151 175 90
157 180 72
138 161 94
144 168 92
153 177 65
140 164 86
147 171 73
95 123 121
83 113 134
75 106 136
65 100 155
75 107 148
66 100 155
61 96 150
62 97 145
61 96 144
60 96 155
60 95 148
61 97 155
61 96 150
61 96 154
61 97 156
61 97 157
61 97 157
62 98 164
60 96 152
61 98 165
61 97 158
61 96 160
61 97 160
62 98 166
62 98 162
61 98 162
61 97 162
60 96 154
62 99 173
61 98 163
61 97 158
61 97 161
62 98 167
62 98 165
61 97 163
62 98 166
63 99 164
62 98 163
61 96 162
62 98 166
62 98 167
61 98 167
61 97 159
63 99 171
61 97 163
62 98 164
62 98 167
61 97 167
61 98 166
61 98 164
62 98 162
62 98 165
62 98 169
61 97 161
62 98 165
61 97 162
63 99 168
63 99 170
62 99 169
61 98 170
62 98 166
62 98 165
61 98 164
62 99 172
62 98 165
62 98 165
61 97 163
62 98 164
63 99 166
61 97 161
62 99 169
62 98 167
63 100 173
61 97 163
61 97 152
62 98 168
62 98 166
62 98 165
63 99 165
62 98 165
62 98 166
63 99 168
62 98 164
62 98 163
60 96 160
62 99 166
61 98 169
62 98 165
61 98 164
61 98 164
61 98 166
62 98 168
62 98 161
61 97 162
62 98 166
62 99 168
62 99 166
61 97 157
61 98 163
62 98 163
62 98 164
62 98 163
62 98 163
62 98 164
62 98 162
63 99 163
62 98 164
62 98 164
62 98 164
62 98 162
63 99 164
62 98 167
62 98 162
62 98 162
62 98 161
62 98 164
63 99 168
62 98 164
63 99 169
62 98 167
62 99 164
62 98 159
62 98 159
62 98 165
61 97 162
62 98 164
61 97 150
62 98 169
62 98 161
61 97 156
62 98 155
62 98 160
62 98 163
62 98 164
62 98 163
61 98 164
62 97 157
61 97 157
61 97 159
61 97 156
61 97 158
63 98 161
62 98 159
61 97 152
61 97 160
62 97 158
62 98 159
63 99 165
62 98 158
62 97 154
63 99 168
62 98 161
60 96 146
63 99 162
62 98 155
62 97 152
60 96 153
62 98 159
62 98 152
62 98 153
60 95 148
61 96 154
62 97 155
62 98 162
61 97 151
62 97 154
60 95 148
61 95 150
60 94 143
60 94 140
60 95 143
59 94 148
60 95 143
61 96 148
61 95 141
59 93 137
58 92 134
59 92 137
59 91 134
66 88 110
87 95 66
95 98 28
91 87 19
83 80 14
81 80 14
83 82 17
81 79 14
99 95 8
93 89 0
71 68 0
84 81 16
85 84 8
85 83 14
78 78 8
82 82 8
106 103 11
95 90 14
83 82 11
93 90 14
103 101 15
95 93 8
102 100 14
112 108 27
93 91 14
100 99 16
100 98 18
97 96 16
88 86 18
113 110 16
106 104 14
105 103 29
116 113 29
107 104 29
107 106 16
111 108 25
114 111 24
116 112 32
121 118 29
124 120 24
117 115 29
126 121 32
113 109 34
123 119 30
119 117 24
121 116 31
122 119 31
127 122 35
117 114 29
122 119 29
117 113 32
126 123 31
119 116 35
129 126 34
125 121 29
131 128 28
129 125 30
133 128 44
132 126 39
127 123 19
134 130 33
128 124 22
129 126 22
129 124 41
123 119 29
131 125 25
138 134 37
130 125 34
137 133 37
136 131 37
134 128 39
121 116 25
130 125 36
133 129 36
127 124 32
133 129 30
133 130 30
127 123 30
130 125 37
124 120 25
136 129 45
135 129 39
129 125 36
130 126 34
132 129 30
129 122 30
132 126 39
119 115 28
127 122 36
133 127 32
132 127 32
127 122 42
128 124 30
127 123 30
123 118 30
120 116 11
124 119 25
127 124 25
132 128 41
124 123 19
127 126 22
139 140 34
135 138 28
137 141 19
140 148 25
143 149 16
148 155 11
154 162 19
151 161 0
157 168 0
159 172 0
161 173 0
159 172 0
157 169 0
165 179 0
163 180 0
160 173 0
164 179 0
165 180 0
158 170 0
159 175 0
162 176 0
162 175 0
164 181 0
165 180 0
164 181 0
165 181 0
164 182 0
167 185 0
166 184 0
163 182 0
167 184 0
168 186 0
166 184 0
167 184 0
165 184 0
179 201 92
178 201 72
178 200 92
176 198 57
176 198 72
180 203 95
180 201 92
178 200 88
178 199 84
180 201 88
185 205 120
179 200 108
181 202 102
185 206 117
182 203 117
182 205 111
186 207 130
192 211 151
185 206 125
185 206 125
185 205 125
195 213 165
189 209 140
193 212 153
192 212 155
188 209 137
191 211 153
193 213 155
196 215 165
188 208 142
194 213 161
192 212 155
195 214 167
189 209 144
194 214 165
193 213 163
197 215 173
193 212 165
199 217 186
194 213 163
191 211 157
197 215 169
192 210 153
193 212 161
195 214 161
195 214 167
193 212 159
188 208 142
191 211 149
188 208 135
188 208 133
188 208 130
186 207 130
188 208 122
184 205 125
184 205 120
184 205 128
181 202 108
185 206 120
179 200 111
177 199 99
182 203 99
175 197 92
178 201 95
175 197 80
178 200 99
178 200 84
178 200 92
178 200 102
175 196 99
176 199 67
174 195 72
171 194 76
171 194 67
174 197 57
169 191 67
160 182 80
158 182 103
139 162 78
137 161 108
138 162 99
125 150 113
140 164 95
143 168 76
138 161 92
108 135 125
92 121 134
70 102 129
74 106 148
79 110 142
68 102 150
67 101 149
66 100 151
66 100 137
61 97 149
64 99 150
61 96 151
61 97 156
61 97 158
61 97 162
60 95 146
60 95 149
61 97 163
61 98 163
61 97 162
60 96 156
61 97 162
61 96 157
61 97 163
61 97 160
60 96 162
61 97 161
61 97 157
62 98 160
61 97 165
60 96 156
61 97 161
62 98 164
61 98 165
61 97 163
60 96 160
61 98 164
60 96 155
60 96 162
62 98 166
61 97 164
61 97 158
61 97 156
62 98 164
61 97 162
61 98 172
62 99 170
61 97 157
61 97 156
62 98 167
62 98 167
62 98 165
62 98 168
62 98 161
61 98 164
62 98 164
62 98 166
61 98 168
61 97 162
62 98 167
61 97 162
62 98 165
61 97 163
61 98 165
62 98 164
61 97 164
62 98 164
61 98 163
62 98 164
62 98 166
61 97 167
61 97 161
62 98 169
62 98 164
62 98 163
63 99 173
61 98 164
62 98 161
61 97 163
61 98 164
62 98 166
61 98 164
62 99 170
62 98 161
61 98 165
62 98 160
61 98 162
62 98 167
61 97 158
63 99 169
61 97 162
62 98 162
62 99 173
61 97 159
62 98 168
62 99 170
62 98 164
63 100 173
62 98 159
62 98 161
62 98 162
62 98 164
61 97 159
62 98 163
62 98 157
62 98 168
62 98 162
62 99 164
62 98 163
62 98 157
62 98 164
62 98 164
62 99 170
61 97 157
62 98 162
62 98 159
62 98 164
63 99 165
62 97 158
61 98 161
61 97 160
62 98 160
62 98 165
62 98 165
61 97 154
63 99 167
62 98 161
61 97 154
62 98 162
62 98 157
62 98 164
62 98 157
61 97 160
61 97 154
62 98 163
61 97 156
61 96 149
62 98 162
61 97 154
62 98 162
62 98 157
61 97 151
61 97 154
61 97 157
62 98 159
62 97 162
62 98 162
62 97 158
61 97 159
62 98 160
61 97 156
61 97 153
62 97 153
62 97 152
60 95 153
62 97 152
62 97 153
61 97 160
62 98 155
61 97 150
61 97 155
61 96 143
61 95 149
61 97 153
60 96 149
62 98 155
62 98 157
60 95 144
60 95 145
61 96 148
59 94 140
59 92 137
61 96 150
61 96 150
60 94 145
60 94 139
59 93 136
60 94 147
62 93 127
73 92 110
95 101 75
111 108 11
104 103 8
104 100 21
89 86 16
86 84 11
81 78 21
82 79 14
91 89 11
77 74 14
67 65 0
89 85 8
84 82 11
87 85 12
81 79 11
85 85 8
90 87 8
98 96 5
86 84 8
92 91 0
95 91 16
96 92 19
86 85 14
99 96 14
100 99 12
101 99 23
108 106 24
102 98 18
109 106 21
100 98 18
108 104 21
108 104 16
109 106 26
115 111 19
106 102 27
117 113 31
116 113 28
107 105 24
112 108 25
117 113 30
122 119 28
123 120 24
130 126 19
125 120 25
130 126 35
125 121 28
122 119 32
121 116 35
129 123 42
130 126 36
128 124 30
121 117 21
129 124 38
127 123 35
125 123 26
126 122 33
133 128 45
128 125 28
139 134 30
134 129 38
132 129 24
135 129 42
126 121 30
132 127 34
135 130 33
144 138 45
133 126 39
126 122 22
136 131 30
120 118 19
134 129 34
133 128 39
129 124 30
133 127 37
130 123 30
140 135 28
130 126 34
133 129 32
132 126 39
128 123 32
130 125 28
129 124 32
123 119 28
136 131 39
128 122 37
126 121 36
118 114 22
133 129 25
125 121 25
127 121 30
121 117 25
126 120 32
129 125 30
125 120 34
118 115 30
120 116 25
131 124 28
115 114 25
125 126 22
136 137 28
137 135 36
128 132 22
147 155 16
154 163 11
154 162 11
146 155 0
156 167 0
157 166 16
153 164 0
158 173 0
160 175 0
162 177 0
159 171 0
160 176 0
155 169 0
162 176 0
164 179 0
166 181 0
159 175 0
158 173 0
162 178 0
161 177 0
157 175 0
159 175 0
163 180 0
164 181 0
162 177 0
163 179 0
166 182 0
164 183 0
166 184 0
162 179 0
168 186 0
162 180 0
166 182 0
180 201 108
181 202 111
170 194 51
182 204 102
177 199 92
180 202 105
178 200 99
184 205 117
182 204 114
181 202 102
183 204 114
185 205 125
186 207 130
188 208 140
186 207 125
189 208 153
189 209 144
190 210 149
193 211 163
188 208 140
192 211 157
197 216 167
193 212 159
196 215 173
197 216 175
192 212 167
192 212 157
197 216 175
198 216 175
194 213 165
196 215 171
198 216 175
196 214 179
195 214 171
198 216 173
200 218 184
200 218 188
196 214 171
199 217 184
195 214 177
194 213 163
193 213 161
195 214 173
197 216 184
197 215 181
202 220 191
189 210 144
194 214 161
200 218 186
197 215 173
198 216 179
196 214 173
197 216 173
188 209 137
197 215 171
186 206 133
194 213 155
187 207 137
186 206 130
189 209 135
183 205 122
182 203 108
181 202 102
181 202 114
183 204 114
178 199 92
181 202 105
177 199 88
181 203 92
177 199 76
177 200 88
176 198 80
175 197 76
178 199 84
174 197 76
175 196 86
150 173 108
145 169 103
144 167 105
139 162 100
133 156 122
133 158 108
128 152 100
128 153 110
133 157 99
110 137 122
85 114 139
88 117 130
86 116 139
75 107 140
74 107 147
72 105 145
76 108 136
61 97 152
68 102 156
69 102 150
63 99 153
62 97 160
61 96 156
61 97 159
62 98 166
61 97 158
62 98 157
61 97 156
61 97 160
60 96 153
60 96 158
60 96 155
61 97 157
62 98 164
59 95 151
61 97 163
61 97 158
62 98 156
61 97 164
61 97 158
61 98 166
61 97 159
61 97 157
62 98 165
61 98 169
61 98 167
60 96 157
62 98 168
61 98 166
61 98 168
62 98 160
62 98 165
62 98 169
61 97 165
62 98 167
62 98 167
62 98 162
61 97 161
61 98 162
61 97 163
61 98 164
61 98 173
61 98 165
61 97 156
62 98 163
62 99 171
62 98 169
62 99 168
62 98 164
62 98 163
63 99 166
61 98 163
62 98 164
62 98 167
62 98 170
61 98 164
62 98 169
61 97 159
63 99 167
63 99 171
62 98 164
62 98 167
62 99 166
62 98 162
61 98 167
62 98 163
62 98 166
62 98 164
62 98 162
62 99 167
62 98 164
62 97 160
61 97 162
62 98 163
62 98 163
62 98 164
63 99 168
62 98 164
61 98 165
62 98 161
62 99 170
62 98 165
62 98 163
62 99 166
62 98 163
62 99 168
61 98 163
62 98 160
62 98 165
62 98 159
63 99 169
62 99 165
62 98 159
62 98 161
63 99 167
63 99 170
62 98 163
63 99 167
62 98 164
61 98 162
61 98 161
62 98 162
63 99 162
62 98 163
62 98 164
61 97 166
61 97 159
61 97 160
62 98 162
62 98 159
61 97 155
62 98 169
61 97 155
63 99 162
61 97 157
63 99 163
61 97 155
62 98 164
62 98 161
62 98 156
63 99 163
62 98 161
63 99 163
62 98 161
62 98 159
62 98 162
61 97 153
61 96 152
62 98 155
63 99 160
61 97 162
62 98 158
62 98 165
62 98 159
61 97 156
62 97 158
62 98 160
61 97 153
61 97 152
62 97 157
61 97 156
61 96 153
61 96 150
62 98 154
61 96 149
62 98 160
61 96 143
62 98 158
61 96 148
60 95 147
62 97 152
60 94 146
59 94 138
62 97 152
61 97 152
62 97 152
61 96 152
62 97 155
60 95 145
61 95 146
60 94 145
58 91 130
61 95 144
60 95 143
59 93 136
58 91 132
60 93 134
60 92 128
76 94 84
101 106 42
111 113 16
85 86 0
106 104 16
99 99 8
95 95 14
87 85 11
76 74 0
90 86 0
92 88 0
89 86 8
93 90 3
79 77 11
92 89 0
91 90 8
86 82 14
100 97 8
95 94 8
85 82 11
77 75 8
102 100 11
103 100 14
95 93 8
98 96 18
91 90 18
105 103 20
103 101 14
91 90 14
108 105 22
111 106 18
102 100 22
118 115 14
118 115 26
112 109 26
115 111 25
103 101 18
104 101 18
121 117 25
121 117 21
111 109 22
111 108 25
117 115 14
112 110 16
114 111 22
121 117 28
119 116 24
128 125 28
122 117 28
122 117 21
122 117 29
130 125 32
126 121 30
114 112 25
125 121 25
133 128 32
128 124 30
126 121 30
128 124 33
123 119 26
124 119 30
129 124 39
130 127 30
129 126 30
129 124 28
126 121 32
132 126 28
122 117 28
128 123 25
139 134 30
129 124 39
136 130 32
129 125 19
120 115 19
121 116 11
128 123 32
128 123 30
131 126 32
130 125 25
117 114 19
129 124 25
122 118 16
126 120 28
131 125 28
123 118 19
125 119 30
124 120 22
129 124 37
126 121 16
122 117 16
119 116 19
118 113 22
126 120 28
126 122 30
126 120 34
121 121 19
130 126 25
123 120 28
124 126 19
136 135 19
139 143 0
139 142 16
152 161 0
152 160 11
149 158 0
145 156 11
153 163 16
153 165 0
162 173 0
154 164 0
160 172 0
159 173 0
161 177 0
160 175 0
161 174 0
157 169 0
159 173 0
159 174 0
162 177 0
160 174 0
163 178 0
159 174 0
165 180 0
165 181 0
165 183 0
165 181 0
157 173 0
166 182 0
166 183 0
165 183 0
165 179 0
162 178 0
166 185 0
161 176 0
165 185 0
163 183 0
179 201 88
178 201 88
178 200 99
179 200 95
182 204 114
186 207 125
180 202 117
188 208 135
179 201 108
182 202 105
182 203 108
186 206 125
188 208 137
191 211 147
193 212 159
194 213 171
195 214 163
194 212 153
195 213 171
196 215 179
199 217 181
199 217 181
196 215 171
195 215 167
201 219 189
199 217 182
195 214 165
198 217 184
200 218 189
200 218 193
203 221 204
202 220 193
197 216 181
201 219 191
202 220 194
201 218 193
204 221 199
198 217 177
201 219 191
202 219 191
199 218 191
203 221 198
205 222 203
200 218 182
196 215 171
199 217 182
200 218 189
200 218 184
202 220 189
198 217 186
197 215 175
197 216 179
198 216 177
198 217 179
198 216 175
194 213 159
190 210 142
195 214 161
189 209 142
191 210 147
194 213 159
191 210 149
187 207 130
182 203 95
187 208 125
184 205 120
186 206 125
179 201 99
180 202 92
180 202 105
181 202 105
179 201 99
178 199 95
174 197 92
172 193 99
163 186 88
151 174 121
139 162 124
131 155 124
119 145 115
112 138 133
124 149 121
115 141 129
127 152 111
109 134 128
112 139 121
89 118 134
92 122 139
95 123 129
86 116 136
88 118 137
81 112 152
75 107 147
67 101 152
66 100 148
67 101 148
65 99 156
63 99 159
60 96 149
62 98 165
61 98 164
60 96 160
60 96 149
61 97 150
62 97 159
61 97 162
60 96 161
61 97 162
60 96 160
62 98 159
61 97 161
60 96 161
61 97 161
60 96 156
61 97 159
61 97 163
61 96 154
60 96 163
61 97 163
61 97 161
61 97 164
61 97 164
62 98 164
61 97 166
62 98 158
61 98 163
62 98 165
61 97 159
62 98 163
62 97 162
61 97 165
63 99 172
61 97 163
61 98 164
61 97 162
61 97 160
61 97 160
61 97 157
61 98 163
62 98 160
62 98 165
62 99 170
62 98 166
61 97 161
62 98 166
61 97 162
62 98 163
62 99 167
62 98 170
62 98 163
61 98 166
62 98 166
62 98 167
62 98 164
61 97 165
62 98 163
61 97 156
63 99 168
62 98 164
62 98 159
61 97 162
61 98 163
62 98 165
61 98 162
61 97 163
62 98 162
62 98 163
62 98 161
61 98 166
62 98 160
61 97 165
62 98 163
61 98 165
62 98 163
60 96 157
63 99 169
61 97 162
61 98 161
61 98 170
62 98 164
61 97 161
61 97 156
62 98 162
62 99 165
62 99 166
62 98 169
63 99 165
62 98 159
62 98 164
62 99 166
61 97 155
62 98 162
62 98 162
62 98 165
62 98 167
61 96 154
62 98 160
63 99 166
62 98 155
62 98 153
61 97 157
62 98 164
63 99 162
62 98 164
63 99 171
62 98 163
61 97 157
62 97 161
62 98 169
62 98 160
62 98 162
61 97 158
63 98 162
63 99 164
61 97 157
61 97 153
62 98 158
62 98 162
61 97 161
62 97 155
62 98 160
62 98 161
61 97 156
61 97 155
61 98 159
61 97 155
61 97 157
62 98 157
62 97 151
61 97 157
61 97 153
61 96 153
61 97 155
61 97 154
62 98 159
62 97 157
60 96 145
61 97 149
62 98 153
61 97 156
62 98 160
61 97 153
62 97 158
61 96 151
62 98 153
60 95 148
61 96 149
61 96 148
61 97 154
61 95 147
59 93 135
61 96 152
60 95 142
60 95 143
61 96 148
60 94 142
60 94 140
60 94 148
60 93 138
59 93 137
61 96 142
58 92 139
59 91 134
62 93 126
92 106 102
109 113 46
104 107 0
105 108 11
94 97 8
96 96 0
97 96 11
86 85 11
90 89 18
90 90 11
86 82 0
82 79 11
86 82 8
92 89 11
85 84 8
83 79 8
87 84 0
86 84 5
80 79 11
90 87 12
99 97 11
101 98 0
97 94 11
93 91 8
102 100 14
101 98 20
99 95 8
109 106 16
106 103 24
109 104 11
110 106 20
102 99 14
102 100 14
108 107 25
99 98 12
113 110 11
106 104 27
110 107 20
116 111 36
118 116 29
114 110 16
110 109 19
115 111 19
121 116 22
117 113 29
118 115 30
118 116 24
127 122 29
115 110 22
116 113 16
123 119 30
116 113 22
131 126 32
127 123 24
121 117 25
128 123 35
118 115 16
128 124 22
121 116 29
122 119 21
131 126 25
124 120 28
126 123 19
125 120 22
127 123 30
134 130 28
128 124 30
134 129 34
136 129 28
134 128 34
127 122 25
131 127 11
122 118 25
131 127 28
135 129 30
130 126 30
127 121 25
129 124 28
125 121 11
120 116 19
130 125 28
126 121 28
117 114 28
126 121 36
125 121 25
126 122 19
127 123 32
118 113 28
125 119 28
128 121 25
126 122 30
117 111 30
127 124 16
121 117 28
121 118 22
122 120 22
126 124 19
127 126 16
133 135 11
140 144 22
140 144 11
141 146 0
138 145 0
147 157 0
147 156 0
155 168 11
157 171 0
162 174 0
154 168 0
161 175 0
163 175 0
159 172 0
162 176 0
163 177 0
159 171 0
162 177 0
161 176 0
158 172 0
167 183 0
161 177 0
162 179 0
165 181 0
166 182 0
166 184 0
162 179 0
165 182 0
165 183 0
165 181 0
162 180 0
160 177 0
164 182 0
160 175 0
165 184 0
164 180 0
165 180 0
165 183 0
183 205 111
177 199 92
186 206 120
186 206 125
186 207 133
184 206 120
190 209 142
186 207 122
188 208 144
194 213 161
192 211 159
191 211 149
195 214 167
189 210 142
194 213 171
195 214 171
196 215 181
200 218 186
197 216 173
198 217 179
201 219 189
200 219 188
201 219 191
199 218 186
202 220 196
207 224 212
202 220 196
203 221 201
206 223 215
202 220 194
201 219 196
203 221 199
205 222 204
203 221 199
206 223 212
202 219 196
206 223 209
208 225 214
206 224 212
200 218 191
204 222 204
202 221 199
205 222 203
209 226 223
205 222 206
203 220 203
205 223 209
204 222 203
204 222 203
200 219 189
205 222 206
202 220 194
200 218 184
197 216 175
202 219 193
200 219 189
200 218 188
201 218 186
198 217 177
192 212 161
197 216 173
196 214 161
196 215 169
190 209 149
192 212 151
185 205 128
186 207 122
178 200 105
180 202 95
181 203 88
181 203 111
182 203 105
181 203 95
177 200 67
173 194 105
158 179 121
140 163 136
134 158 135
130 154 141
118 143 143
112 137 142
123 148 133
115 140 133
106 133 137
124 149 118
109 136 133
91 120 134
89 118 145
92 121 133
86 117 145
88 118 143
86 116 147
70 104 152
83 113 149
73 105 141
71 103 146
73 105 155
62 98 154
64 98 149
61 97 158
63 97 150
62 98 159
62 98 161
62 98 165
61 97 157
61 97 160
62 98 164
60 96 158
61 96 163
62 98 158
61 96 160
61 97 158
60 96 155
62 98 167
61 96 153
61 97 160
61 97 156
61 97 162
61 97 163
62 98 166
60 97 165
62 98 168
62 99 170
61 97 161
62 98 165
61 97 163
62 98 162
62 98 163
61 97 164
61 97 163
62 98 170
62 98 164
61 96 158
61 97 165
61 97 164
62 98 165
61 98 160
61 97 161
61 97 166
61 98 165
61 97 162
61 98 166
61 97 165
61 97 163
62 98 169
62 98 165
62 99 168
61 98 164
61 97 162
62 98 166
61 98 166
62 98 166
62 98 162
62 98 165
61 97 160
62 98 168
61 97 164
61 97 164
61 97 163
62 98 169
62 98 167
62 98 160
63 99 164
62 99 167
61 98 160
62 98 165
63 99 170
62 98 159
62 98 162
62 98 161
62 98 162
62 98 166
61 98 162
62 98 165
61 97 157
62 98 165
62 98 164
62 98 164
61 98 162
61 96 155
62 98 162
63 99 164
61 97 150
63 99 168
62 99 167
62 98 158
62 98 162
62 98 161
62 98 163
63 99 166
62 97 157
63 99 164
62 98 165
62 98 160
62 98 166
61 98 165
63 99 167
62 98 163
62 98 164
62 98 170
62 98 164
62 98 157
62 98 166
62 98 161
61 97 156
62 98 157
62 98 161
61 97 151
62 98 157
62 98 164
61 97 155
62 98 164
62 98 157
61 97 160
62 98 160
61 96 154
62 98 164
61 97 155
61 97 158
62 97 158
61 97 155
61 97 150
62 98 158
61 97 154
61 97 152
62 97 157
62 98 157
62 98 158
61 97 151
61 97 158
61 96 145
61 96 150
62 98 163
61 97 148
61 97 152
62 98 159
62 97 155
62 97 151
61 96 151
62 98 159
62 97 156
61 97 152
61 97 152
61 97 156
62 98 158
61 96 146
60 95 140
60 96 147
61 96 153
61 97 147
61 96 147
60 94 145
60 94 147
60 95 141
60 94 141
60 95 147
60 95 137
58 92 133
59 93 137
60 93 140
60 94 138
61 96 147
58 91 134
62 92 118
92 104 79
108 114 41
117 120 0
110 113 0
104 105 16
102 105 0
93 93 16
100 98 11
89 88 16
94 93 8
87 86 11
94 91 11
80 77 0
93 89 16
84 81 16
93 88 3
85 81 0
75 74 3
88 86 0
86 85 8
90 85 14
98 95 8
94 91 0
92 90 0
94 92 0
103 101 0
99 95 11
102 100 0
101 99 16
98 95 0
98 94 8
108 104 16
108 105 16
117 114 21
109 107 11
101 99 0
109 105 14
104 101 8
103 101 8
107 104 22
106 104 21
112 108 16
117 113 11
124 120 11
110 106 23
120 118 19
118 115 16
116 113 14
128 124 25
115 112 18
121 117 29
125 122 16
123 118 16
122 118 19
129 124 36
116 113 19
122 119 18
122 118 19
121 117 0
120 115 16
128 125 22
126 123 22
126 120 32
122 118 30
129 124 34
139 131 32
127 124 28
133 128 28
131 126 32
126 122 28
114 110 22
127 122 32
126 121 30
122 118 22
119 115 16
129 124 30
130 125 22
129 125 16
126 121 0
132 125 22
120 114 30
129 124 25
126 120 22
126 122 32
121 115 22
126 121 19
123 117 32
126 121 25
119 115 25
125 120 28
122 116 16
120 115 22
127 123 22
130 127 25
117 115 16
129 129 19
125 127 11
129 130 22
126 132 11
142 148 19
143 152 11
152 161 16
142 150 0
157 166 11
155 166 11
159 172 0
157 169 11
157 168 0
156 167 0
157 167 0
161 176 0
155 171 0
157 170 0
156 167 0
160 175 0
161 176 0
161 175 0
166 181 0
159 175 0
160 176 0
160 175 0
162 179 0
162 178 0
161 177 0
166 183 0
161 175 0
164 180 0
168 186 0
161 176 0
164 180 0
165 184 0
164 182 0
165 180 0
165 182 0
165 183 0
166 183 0
181 203 99
184 204 128
183 205 122
189 209 135
186 206 128
191 211 153
192 211 147
199 218 184
193 213 163
193 212 163
199 217 182
195 214 171
192 212 153
196 215 175
195 215 169
201 218 191
202 220 194
201 219 193
202 220 193
197 215 182
205 222 209
204 222 203
204 222 204
204 222 206
204 222 207
204 222 209
206 224 211
207 224 215
206 223 209
204 222 209
210 226 223
202 220 201
208 225 221
207 224 212
206 223 214
209 226 221
208 225 218
209 226 221
206 224 215
208 225 220
207 224 217
206 224 212
208 225 220
206 224 214
204 221 198
205 223 207
208 225 220
206 224 214
206 223 212
207 224 212
207 224 217
203 221 199
203 221 204
203 220 196
202 220 198
200 218 182
204 221 201
200 218 191
198 216 181
202 219 193
198 217 182
198 217 179
194 213 155
196 215 169
189 209 144
195 214 163
190 210 142
191 210 144
186 207 133
191 210 147
184 204 117
177 200 88
178 200 97
175 197 110
170 191 131
150 172 141
133 155 156
133 156 150
116 141 150
119 144 154
120 145 155
118 143 133
108 134 151
102 129 124
99 126 140
99 126 143
95 123 141
98 125 125
98 126 131
95 122 125
89 118 134
84 114 137
79 109 140
74 105 140
74 107 148
73 104 141
71 104 143
68 102 143
66 100 149
69 102 151
60 96 154
63 98 160
61 97 163
61 96 155
61 96 154
61 96 152
62 98 163
61 96 158
61 97 161
61 97 161
62 98 162
62 98 165
61 97 162
61 97 161
60 95 153
61 97 160
62 98 168
61 97 158
60 96 156
60 96 156
61 97 165
60 96 155
61 97 161
61 98 160
62 98 167
61 97 158
62 98 168
62 98 160
61 97 165
62 98 166
62 98 160
61 97 165
61 97 161
62 98 169
61 97 163
61 97 164
62 98 165
62 98 168
62 98 168
62 98 166
61 97 165
61 97 165
61 97 159
61 97 164
61 97 165
62 98 167
61 97 154
61 97 163
62 98 163
62 98 163
62 99 167
61 98 165
61 97 160
62 98 165
62 98 163
62 98 168
62 98 165
62 98 161
61 97 161
63 99 167
63 99 169
61 98 165
62 99 167
60 96 157
62 98 164
62 98 161
61 97 160
62 98 165
62 98 165
62 98 161
62 98 163
62 98 160
63 99 165
63 99 165
62 98 166
62 98 158
62 98 165
61 97 161
62 98 166
62 98 163
62 98 165
62 98 160
63 99 174
61 97 158
63 99 163
61 97 158
62 99 167
63 99 168
62 98 162
62 98 158
62 98 164
63 98 158
62 98 157
62 99 167
61 97 157
61 97 160
62 98 162
61 97 160
62 98 160
61 97 164
63 99 171
63 99 166
61 97 154
61 97 157
61 97 152
62 99 163
62 98 162
62 98 163
62 98 158
62 98 167
62 98 163
61 97 156
62 98 162
62 97 157
61 97 157
62 98 159
62 98 160
61 96 160
61 97 156
62 98 161
62 98 162
62 98 155
61 97 158
61 96 150
62 98 160
62 98 160
62 98 156
62 97 151
61 97 152
62 97 152
61 97 153
62 98 156
61 97 156
61 97 154
61 97 154
61 96 149
61 96 147
62 97 151
60 95 140
60 95 150
62 97 158
63 98 156
61 97 154
62 98 154
61 97 151
61 96 156
62 97 158
62 97 157
62 97 156
60 95 143
62 98 154
62 96 151
60 95 149
60 95 147
60 95 142
61 96 144
59 93 140
60 94 136
60 94 139
60 94 143
60 94 132
59 94 132
59 92 135
74 99 103
96 109 84
106 111 38
121 128 0
113 117 0
108 112 0
108 110 14
102 107 0
103 104 11
91 91 16
90 88 8
83 79 0
92 91 0
87 84 11
92 89 16
84 80 0
84 81 2
88 85 11
98 94 0
88 84 0
92 90 0
91 90 21
81 79 0
90 86 8
88 87 9
104 100 11
95 93 2
90 87 0
106 104 18
98 94 8
90 87 0
103 100 14
101 96 8
107 103 8
108 103 14
115 112 11
101 99 12
108 104 16
99 96 23
98 95 12
112 110 14
110 107 0
104 101 8
113 110 18
119 114 19
119 115 16
119 115 36
120 117 22
112 109 8
110 106 14
117 115 25
121 118 16
116 112 24
119 115 30
123 119 22
123 118 22
118 115 22
127 123 19
117 114 18
129 124 25
120 115 19
125 121 22
121 118 11
123 118 25
123 119 28
127 122 28
131 125 25
127 124 19
131 125 32
121 117 19
126 120 22
123 119 19
127 123 19
128 123 30
119 114 11
125 121 32
119 116 22
128 120 30
124 119 25
121 116 22
122 118 22
134 130 30
133 129 19
124 120 30
123 118 25
116 112 11
127 123 22
119 115 16
113 109 22
109 104 19
123 120 22
126 121 19
112 109 0
122 117 22
119 116 16
134 132 19
120 121 16
125 122 11
139 140 0
144 148 16
147 153 11
150 159 0
132 140 0
148 160 0
157 167 0
153 163 0
155 166 0
158 172 0
165 181 0
159 171 0
156 169 0
152 163 0
159 170 0
162 176 0
163 176 0
163 175 0
159 175 0
162 177 0
161 177 0
164 180 0
162 176 0
164 179 0
163 181 0
162 178 0
159 175 0
168 184 0
164 182 0
164 181 0
164 181 0
167 185 0
165 183 0
166 184 0
159 175 0
160 176 0
158 175 0
167 186 0
164 182 0
186 206 135
186 207 130
189 209 137
189 210 140
188 208 149
195 213 167
198 217 179
193 212 157
195 214 167
201 219 193
198 216 182
202 220 198
199 217 188
200 218 186
201 220 193
203 221 201
202 220 201
205 223 212
205 223 206
201 220 201
204 221 207
206 223 212
205 223 214
207 224 214
204 222 206
205 223 209
211 227 227
210 227 228
209 225 221
207 224 217
203 221 203
210 227 227
209 226 227
210 227 226
209 226 220
207 224 221
207 224 220
211 228 236
211 228 233
208 226 223
209 226 226
206 224 224
211 227 228
210 227 227
209 226 226
206 224 211
212 228 234
207 224 212
207 224 212
211 227 227
209 225 221
212 228 231
208 225 220
209 226 218
208 225 217
205 222 207
206 223 209
201 219 191
200 218 193
203 221 201
200 218 189
200 218 189
198 216 179
204 221 196
195 214 167
199 217 184
197 216 169
196 215 165
187 208 125
194 213 157
192 211 147
187 208 130
190 210 151
174 195 120
165 186 141
140 163 156
126 150 157
122 145 168
116 140 159
122 146 159
107 133 158
106 132 157
100 127 147
103 130 141
97 125 134
88 118 144
99 126 140
98 126 136
92 121 134
82 113 136
94 122 137
77 109 145
85 114 134
85 115 139
75 107 145
79 110 135
72 105 151
71 103 149
65 100 153
59 95 155
66 100 151
63 98 156
60 96 152
61 97 161
60 96 159
61 97 154
61 97 161
60 95 155
60 95 160
59 94 145
61 97 162
60 96 159
61 97 163
61 96 160
60 96 159
61 97 161
61 96 158
62 97 155
61 98 165
62 98 162
60 96 158
60 95 156
60 96 160
62 98 162
61 98 166
62 98 159
61 97 162
60 96 156
60 96 163
61 98 163
62 98 166
61 96 161
61 98 164
60 97 162
61 97 167
62 98 167
60 97 160
61 97 166
62 98 161
61 98 166
62 98 166
62 98 165
62 98 168
62 98 168
62 97 159
62 98 164
61 98 166
63 99 168
62 98 164
62 98 165
61 97 156
62 98 168
62 99 164
62 99 167
61 98 162
61 97 159
61 97 158
62 98 167
61 97 160
61 97 158
62 98 160
61 97 154
62 98 157
62 98 160
61 97 160
62 98 167
61 97 161
62 98 165
62 98 163
61 97 161
61 97 161
62 98 157
62 98 165
61 97 159
62 98 163
62 99 167
62 98 163
62 99 164
61 97 159
62 97 154
62 98 164
61 98 163
62 97 159
62 98 162
61 97 159
62 98 160
61 97 163
62 98 163
61 98 161
62 98 162
62 98 163
61 97 151
61 97 162
62 98 163
62 98 160
61 97 161
63 99 166
61 97 160
61 97 154
61 97 157
60 96 150
61 97 157
62 98 161
62 98 165
62 97 157
63 99 161
62 99 164
61 96 151
62 98 168
61 97 151
62 98 159
62 98 162
63 98 165
61 97 152
62 98 155
61 97 159
62 98 159
61 97 152
61 97 160
62 98 161
62 98 158
62 98 159
63 98 159
61 97 156
62 97 158
60 96 145
63 99 166
62 98 159
61 96 147
60 96 148
62 98 162
61 96 149
62 97 155
61 96 145
61 97 152
61 96 150
60 96 149
60 96 149
61 96 153
62 97 153
62 98 155
62 98 158
62 97 152
62 97 156
61 97 150
61 96 154
60 95 145
61 97 151
61 97 153
60 94 137
60 94 139
60 95 145
59 95 147
60 95 142
60 95 135
61 96 148
59 94 135
60 94 143
59 93 131
59 94 139
61 95 132
59 92 139
58 91 134
72 99 116
99 110 78
114 119 21
118 122 0
127 131 11
116 118 11
115 117 0
111 115 0
98 100 0
106 108 0
84 85 16
98 96 0
101 97 11
86 84 11
78 78 11
97 92 16
83 80 11
90 87 11
83 80 1
96 91 16
96 92 0
89 86 0
87 83 14
97 92 0
84 80 8
93 89 8
86 84 8
99 97 11
103 99 0
108 106 0
104 101 14
88 85 8
96 93 18
105 102 8
101 97 0
98 94 14
108 103 0
101 100 11
108 103 11
94 91 11
117 114 11
120 117 18
114 110 16
105 103 11
110 108 3
103 101 11
105 102 11
109 105 12
119 115 18
110 107 16
114 111 24
119 115 22
118 115 24
119 116 19
122 118 19
126 123 22
115 112 25
109 105 0
125 120 19
116 112 16
127 122 19
115 111 11
118 114 22
129 124 19
126 121 28
112 107 16
121 117 11
117 112 22
118 114 22
139 133 32
117 113 0
112 106 25
135 130 28
121 117 16
123 118 19
115 110 16
137 131 25
118 116 0
107 105 0
124 120 16
118 114 25
131 125 30
119 116 25
123 118 22
113 107 19
112 108 16
116 113 19
117 111 22
115 109 28
124 122 25
110 107 11
117 114 19
130 128 19
120 119 28
134 135 28
126 127 16
128 127 22
129 132 16
134 137 16
140 144 16
146 156 0
145 149 0
152 160 0
161 171 16
154 165 0
154 165 0
151 162 0
160 170 0
161 173 0
158 171 0
159 172 0
153 166 0
164 179 0
157 170 0
158 170 0
152 164 0
164 179 0
162 175 0
161 175 0
159 173 0
157 171 0
159 173 0
165 183 0
159 173 0
162 177 0
160 175 0
159 173 0
163 179 0
162 176 0
166 181 0
162 177 0
161 175 0
167 183 0
169 188 0
160 176 0
165 182 0
163 180 0
190 210 151
193 213 157
190 210 147
191 211 159
199 217 177
198 216 181
197 215 177
199 218 182
202 219 191
201 220 194
200 218 186
203 221 201
203 221 201
206 223 211
207 224 218
204 222 204
208 226 224
206 223 212
204 222 211
207 224 217
207 224 220
203 221 203
209 226 228
211 228 236
210 227 228
209 226 224
211 228 234
208 225 221
212 229 237
211 228 231
211 228 237
211 227 234
211 228 234
212 228 234
209 226 227
211 228 237
212 229 240
212 229 242
212 229 240
211 228 236
214 230 242
211 228 234
209 226 228
212 229 238
210 227 233
212 229 236
212 229 234
210 227 231
210 227 230
215 231 244
215 231 244
212 228 233
212 229 234
209 226 223
213 229 233
208 225 221
209 226 223
208 225 218
205 222 206
206 223 211
205 222 207
205 222 206
204 222 203
204 221 198
207 224 211
200 218 188
197 216 175
195 214 175
194 213 159
194 213 163
189 209 142
196 214 173
189 209 150
186 205 149
151 172 160
145 166 170
127 150 180
107 133 163
96 124 158
97 124 169
90 119 156
97 124 162
99 126 161
85 115 145
90 119 162
88 117 158
88 117 143
85 115 154
89 118 137
81 111 134
91 119 140
83 113 142
87 117 143
78 110 153
89 118 141
91 120 140
82 113 148
76 108 151
75 106 132
66 99 144
63 98 150
62 97 149
62 97 148
61 96 150
59 94 145
61 96 158
61 96 152
60 96 158
60 96 163
61 97 158
59 95 148
61 97 156
60 96 159
61 98 167
60 96 158
60 96 152
60 95 156
61 97 161
61 96 156
61 96 153
60 96 157
61 97 160
61 97 154
61 96 153
61 97 159
61 97 165
61 98 166
62 98 161
62 98 163
61 98 159
61 97 164
62 98 166
62 98 162
61 97 165
62 98 167
61 98 162
61 97 163
61 98 164
62 98 164
61 98 167
62 99 172
62 98 166
62 98 165
62 98 166
61 97 158
62 98 167
62 99 168
61 97 160
62 98 166
60 96 157
61 97 157
63 99 167
61 97 166
61 98 164
60 97 158
62 99 168
61 97 158
63 99 172
61 98 160
62 98 165
62 98 164
61 98 164
61 97 161
61 98 161
63 99 166
62 98 167
61 98 159
62 98 163
61 96 157
62 99 168
61 97 153
62 98 163
62 98 161
61 98 163
62 97 159
62 98 162
62 98 154
62 98 160
61 97 162
62 98 162
61 98 160
62 98 163
63 99 165
62 98 162
61 97 151
62 98 163
61 97 159
62 97 160
62 98 163
62 98 163
61 97 157
62 98 162
61 97 152
62 98 164
61 97 157
61 98 162
62 98 163
61 97 155
62 98 162
61 97 154
62 98 160
62 99 165
62 98 161
61 97 155
61 97 155
63 99 160
62 98 165
63 99 168
62 98 163
62 97 160
62 98 161
61 97 154
62 99 165
62 98 163
62 97 155
62 97 157
62 97 155
61 97 161
61 97 153
61 97 152
62 98 160
62 98 167
62 98 156
61 97 151
61 97 151
61 97 155
62 98 158
61 97 150
61 97 156
62 98 160
63 99 163
61 97 155
61 97 153
61 97 150
61 97 155
62 98 159
62 97 154
62 98 154
62 97 156
61 96 147
61 97 153
60 95 143
60 96 143
61 96 149
60 95 135
59 94 138
60 96 145
62 97 148
61 97 157
62 97 152
61 96 150
61 96 150
61 95 147
58 92 128
61 96 148
60 94 137
60 94 138
61 95 140
61 95 139
60 95 147
60 93 136
59 93 134
58 90 125
79 103 107
105 114 68
112 117 31
124 131 0
111 118 0
113 118 0
113 116 0
102 105 0
108 111 16
105 108 0
101 100 11
103 100 11
102 103 16
82 80 0
87 85 12
82 77 0
86 82 16
84 80 0
88 84 0
101 96 8
106 100 11
100 95 0
80 78 8
94 89 0
91 84 0
100 96 8
91 89 0
88 86 0
87 85 8
106 102 0
99 96 0
94 91 8
99 97 8
110 106 8
101 99 11
102 100 11
113 110 11
107 104 19
113 108 0
108 105 11
109 104 14
105 102 0
104 99 0
115 110 8
102 98 0
113 110 11
112 110 18
115 112 19
108 107 11
115 112 19
114 109 22
117 113 21
110 105 16
116 112 16
122 118 11
124 119 16
128 122 19
118 115 16
127 122 28
108 105 11
116 112 22
119 115 11
123 119 19
121 117 18
124 119 16
121 116 22
127 123 28
124 119 30
120 116 19
124 119 19
121 117 11
118 114 11
124 119 22
122 116 22
121 116 22
116 112 16
123 117 22
125 121 25
123 116 22
122 117 16
111 107 16
114 109 19
115 108 11
125 119 25
118 115 19
109 105 0
109 106 11
124 119 22
125 120 16
121 116 16
123 121 11
127 125 16
131 130 16
131 131 25
128 126 0
134 136 11
128 131 11
140 146 11
140 146 16
141 146 0
144 153 11
151 160 0
157 169 0
147 157 0
155 167 0
158 169 0
150 162 0
152 164 0
160 173 0
154 164 0
164 178 0
158 168 0
160 170 0
157 171 0
160 172 0
159 172 0
161 174 0
153 166 0
156 170 0
161 174 0
161 177 0
166 183 0
160 175 0
159 173 0
162 177 0
159 175 0
163 180 0
162 179 0
162 180 0
166 184 0
164 180 0
165 181 0
164 181 0
166 185 0
160 178 0
163 180 0
167 186 0
197 216 173
194 213 159
196 215 175
199 218 181
205 223 206
203 221 198
196 215 177
199 218 184
206 224 217
209 225 220
202 220 201
202 220 203
204 222 204
209 226 226
207 224 217
209 226 224
209 226 227
208 225 218
207 224 220
209 227 230
206 225 223
209 226 226
213 229 238
211 228 233
210 227 237
208 226 224
213 230 242
210 228 236
212 229 238
211 228 237
213 230 241
213 230 242
214 231 246
212 229 242
214 230 245
212 229 241
214 231 248
212 229 244
214 231 245
213 230 244
213 230 245
214 231 246
214 231 245
211 228 231
215 232 249
215 231 248
213 230 240
211 229 241
214 230 242
214 230 241
216 232 246
212 228 236
211 228 234
213 229 238
210 227 231
212 229 234
210 227 227
208 225 224
210 227 226
209 226 223
211 227 224
206 223 211
206 224 212
209 226 221
206 223 211
206 223 206
206 223 206
200 218 188
199 218 188
196 215 173
196 215 169
199 217 179
192 211 170
169 189 169
150 170 185
120 144 183
119 142 184
104 130 177
107 132 174
101 128 174
96 123 167
98 125 174
74 106 161
78 108 154
77 108 153
76 108 156
74 107 148
85 115 147
86 116 147
91 120 145
82 113 145
86 116 139
88 117 137
88 118 135
83 114 148
81 112 151
74 106 145
76 108 151
68 102 156
72 104 150
66 99 145
69 102 148
72 104 149
63 98 154
61 96 157
60 95 147
62 97 163
61 97 160
61 97 162
60 96 161
60 95 148
61 97 163
61 97 156
61 97 160
61 97 162
60 96 162
60 96 158
61 96 153
61 97 158
60 96 158
62 98 160
61 98 164
62 98 162
62 97 162
60 96 154
61 96 157
61 98 164
62 99 171
61 96 157
61 97 161
62 98 163
62 98 167
61 98 164
61 98 166
61 97 161
61 97 162
61 98 163
61 97 160
62 98 165
62 98 164
62 98 166
62 98 158
61 97 161
61 97 160
62 98 166
62 98 162
61 97 158
62 98 166
63 99 170
62 98 162
61 97 153
61 97 159
62 98 166
62 98 164
61 98 166
61 97 156
61 98 163
62 98 170
62 98 160
60 96 156
61 98 159
62 98 163
62 98 159
62 98 168
62 98 166
62 98 164
62 98 164
61 97 163
61 98 159
62 98 164
63 99 167
62 98 161
61 97 161
62 98 163
62 98 164
61 97 160
62 99 164
62 98 161
62 97 161
62 99 166
62 98 163
61 97 158
61 97 156
63 99 165
62 98 161
62 98 160
63 99 162
63 99 163
62 98 167
61 97 154
62 98 155
63 99 170
62 98 166
61 97 160
63 99 163
62 98 158
61 97 159
61 97 158
62 98 162
62 99 166
61 97 158
62 98 162
61 97 159
62 98 158
62 98 161
62 98 162
61 97 158
62 99 164
61 97 151
62 98 159
61 97 154
62 98 164
62 97 156
62 98 158
61 97 155
62 98 157
61 97 158
62 98 155
62 98 157
62 98 161
60 96 156
62 98 157
61 97 154
62 98 153
62 97 156
61 97 152
62 98 152
61 96 150
61 96 152
61 96 145
61 96 143
61 97 147
62 97 153
61 96 150
61 97 153
62 98 157
61 97 154
63 98 158
62 98 157
61 96 150
61 96 148
61 96 143
62 97 148
61 97 147
60 95 144
60 95 141
62 97 154
62 97 153
60 95 149
60 95 145
61 96 151
61 96 144
62 97 147
61 96 149
61 96 147
61 95 147
60 94 137
61 95 146
59 93 131
59 92 132
60 94 142
59 92 123
58 92 132
81 102 98
95 106 61
112 117 0
120 126 0
114 119 0
105 110 0
108 113 0
107 112 3
125 129 0
114 116 16
112 114 11
101 101 0
107 106 11
100 98 0
89 84 11
101 99 0
93 89 0
83 80 0
91 87 0
94 90 0
83 80 14
89 84 8
96 91 0
85 80 12
97 91 8
96 92 8
88 85 0
108 104 0
93 90 0
99 96 0
89 87 0
104 98 11
97 93 8
106 101 8
89 86 11
106 102 14
100 96 8
109 106 8
91 86 11
94 89 8
111 108 14
109 107 0
110 106 14
104 103 0
105 102 8
115 112 16
111 108 16
113 108 14
120 117 21
117 114 19
105 104 0
112 107 11
107 104 0
112 106 18
111 108 16
118 115 19
126 123 11
107 105 11
125 121 16
120 115 11
113 108 11
122 116 19
130 124 19
121 115 22
119 114 0
115 111 16
117 112 11
125 120 19
119 115 19
118 114 22
124 117 19
122 119 22
125 120 22
114 109 11
118 114 22
120 113 22
133 125 28
118 113 22
112 108 22
121 116 16
112 109 16
119 114 28
120 115 22
116 112 11
114 111 16
115 111 16
121 118 11
110 108 22
127 125 16
128 125 16
118 117 22
123 121 11
123 121 0
133 135 11
120 125 0
136 138 16
142 147 11
135 141 0
150 159 0
139 145 11
156 163 11
153 162 0
158 166 0
158 171 0
155 165 0
158 170 0
160 172 0
155 168 0
159 170 0
153 165 0
158 171 0
157 171 0
164 178 0
157 170 0
152 164 0
164 178 0
157 171 0
157 170 0
164 181 0
154 167 0
165 178 0
158 173 0
165 183 0
160 177 0
164 178 0
163 178 0
167 183 0
164 180 0
157 172 0
163 180 0
166 184 0
169 187 0
166 181 0
159 176 0
161 178 0
168 186 0
165 183 0
196 214 173
200 218 189
197 216 177
202 220 194
205 222 203
200 218 196
200 218 189
201 219 196
206 223 214
206 223 214
206 223 212
208 225 220
213 229 234
210 227 230
209 226 226
210 227 230
211 228 234
205 223 215
211 228 233
209 226 227
211 228 237
210 227 237
211 228 236
212 229 242
213 230 244
213 230 244
214 230 241
213 230 245
214 231 248
213 230 246
214 231 249
213 230 242
212 229 244
214 231 248
215 232 253
215 232 249
214 231 250
213 231 248
213 230 249
215 232 253
213 231 250
215 231 252
215 232 252
214 231 248
214 231 252
213 230 248
215 231 252
214 231 248
214 231 248
214 230 246
213 230 245
216 232 252
214 231 249
215 232 249
215 231 246
216 232 246
214 230 242
213 229 237
213 229 240
213 229 236
211 228 231
214 230 236
213 229 236
210 227 226
213 229 230
206 224 212
206 223 211
207 224 211
207 224 211
204 221 198
203 221 196
197 216 169
187 206 168
187 204 195
161 181 195
146 166 203
122 145 186
91 119 173
105 131 185
85 114 161
108 133 173
99 126 179
95 123 171
96 123 167
85 114 156
78 110 164
79 109 162
74 106 159
74 107 154
73 106 157
82 113 148
82 113 153
81 111 140
80 112 150
68 102 150
73 105 143
71 104 154
78 109 134
82 113 152
69 102 148
73 105 141
69 102 145
66 100 139
61 96 155
59 95 155
63 98 156
61 96 153
60 96 157
61 97 159
60 95 159
61 97 155
60 95 154
62 98 163
61 97 163
62 98 164
60 96 158
61 97 163
60 96 151
61 96 155
60 95 156
61 97 153
60 96 156
61 97 164
60 96 157
60 96 157
60 96 157
61 97 161
61 97 158
62 98 163
61 96 160
61 96 158
60 96 157
61 97 162
61 97 160
61 97 161
60 97 162
61 97 159
61 97 163
61 97 165
61 96 157
61 98 164
61 97 165
61 97 159
61 98 168
61 97 159
61 98 163
61 97 165
61 97 160
62 98 167
61 97 164
61 97 159
61 97 159
62 98 163
62 98 165
62 98 163
62 98 164
61 97 159
61 97 159
62 98 167
62 98 164
62 98 160
62 98 164
62 98 156
62 98 161
61 98 163
61 97 160
62 98 165
61 98 165
62 98 161
63 99 164
61 97 158
62 98 161
61 97 162
62 99 166
62 98 160
61 97 153
62 98 164
62 98 158
62 98 161
61 97 162
63 99 172
62 97 158
62 98 159
62 98 156
62 97 159
62 99 164
62 98 159
62 98 166
62 98 165
61 97 158
61 97 159
61 97 160
61 97 159
61 98 165
62 98 160
63 98 159
63 98 159
61 97 156
60 96 150
62 98 165
63 99 166
62 98 157
61 97 157
62 98 156
62 98 163
62 97 159
61 96 147
62 98 161
62 98 161
62 98 155
61 97 158
62 98 160
61 96 152
62 98 157
61 97 158
62 97 158
62 98 161
63 99 164
61 96 155
61 97 153
61 97 154
63 99 161
62 98 159
62 98 158
63 98 160
62 97 150
61 97 156
62 98 154
62 97 153
63 98 156
62 98 160
61 96 152
61 96 153
61 97 151
61 96 149
61 97 150
61 96 147
60 95 149
62 98 162
61 96 143
61 96 148
62 97 150
61 96 150
61 96 151
62 97 149
60 95 136
61 96 147
62 97 149
62 97 145
60 95 145
60 94 137
60 94 136
60 94 141
60 94 139
61 97 154
60 94 140
60 95 148
60 94 140
60 94 134
60 94 135
59 93 131
58 92 133
59 91 133
81 97 84
103 111 45
122 129 0
121 127 0
118 122 0
109 112 0
123 131 0
116 120 0
106 106 0
105 109 0
110 110 11
106 106 11
102 104 0
88 88 0
78 77 0
94 96 0
90 89 8
86 81 0
95 89 16
87 82 11
86 82 8
100 96 0
91 86 0
94 91 14
85 82 0
98 92 0
95 91 8
96 92 0
109 104 8
97 92 0
100 96 0
94 90 8
98 95 0
100 93 8
96 92 0
101 97 16
98 94 3
109 106 11
109 104 0
115 112 11
116 108 0
100 96 8
104 100 0
105 100 16
96 94 0
104 98 14
110 106 18
113 109 11
110 105 11
108 105 11
117 112 11
105 102 16
117 112 0
119 115 16
117 112 22
103 99 16
121 116 19
117 112 22
133 127 19
117 114 0
117 114 0
126 121 19
108 104 0
114 111 11
121 118 0
115 111 0
121 117 16
119 114 19
116 111 11
111 107 0
123 118 11
112 109 11
117 113 22
115 111 11
113 109 16
124 117 22
113 106 19
114 110 25
113 107 16
128 123 19
123 118 11
110 105 19
115 112 19
121 117 28
116 112 19
115 113 11
117 114 19
122 121 16
119 116 0
120 119 0
132 132 0
131 130 16
124 128 16
137 143 11
143 148 11
140 145 0
142 151 11
151 160 0
144 153 0
146 155 0
154 163 0
159 169 11
159 172 0
163 175 0
154 164 0
154 167 0
159 171 0
159 172 0
154 166 0
159 171 0
158 172 0
161 174 0
159 173 0
163 176 0
153 168 0
156 171 0
160 175 0
158 170 0
163 177 0
161 176 0
161 175 0
162 177 0
160 176 0
159 173 0
163 177 0
161 175 0
164 177 0
166 184 0
167 183 0
164 181 0
167 183 0
163 179 0
164 184 0
168 186 0
167 184 0
165 184 0
164 183 0
201 219 189
205 222 206
204 221 206
206 224 212
205 222 209
202 220 201
206 224 215
207 224 215
207 224 214
209 226 226
206 224 217
211 228 234
210 227 233
210 228 233
210 227 230
212 229 238
208 225 227
211 228 237
213 230 244
214 230 245
211 229 242
215 231 246
212 229 242
212 229 245
213 231 249
213 230 246
214 231 250
214 231 252
213 231 253
213 230 250
212 229 245
213 231 250
214 231 252
214 231 252
214 231 249
214 231 249
213 231 250
214 232 254
214 231 252
213 231 253
215 232 253
213 231 249
214 231 253
214 231 252
212 230 250
215 232 253
214 231 252
215 231 252
214 231 252
215 232 254
214 231 250
215 232 253
216 232 253
216 232 250
216 232 253
215 231 250
214 231 248
215 232 248
213 230 242
214 230 242
215 231 245
215 231 241
212 228 236
212 228 231
214 230 238
212 229 233
211 228 228
208 225 217
208 225 215
206 223 207
205 222 206
203 220 199
197 215 183
187 204 216
161 180 202
134 155 191
118 142 186
114 138 181
102 128 181
90 119 171
100 127 175
88 117 179
88 117 165
87 117 169
79 110 170
78 109 159
78 109 171
80 111 166
73 106 169
79 110 169
72 105 159
74 105 151
67 102 161
72 105 157
78 110 157
75 107 144
78 110 147
75 106 144
76 107 143
81 111 140
72 105 144
81 112 149
65 99 153
69 102 153
62 97 149
67 100 151
63 98 161
62 97 144
63 98 157
62 96 149
61 97 164
59 95 151
60 96 151
61 97 161
60 96 156
61 97 160
62 98 159
60 96 150
60 96 158
60 95 153
60 96 154
61 96 162
60 96 155
60 96 156
61 97 159
61 97 161
61 97 162
61 97 161
59 95 158
60 96 160
61 97 160
60 95 155
62 98 168
61 97 153
61 97 163
60 96 158
61 97 163
61 97 160
62 98 167
60 96 158
61 97 159
61 96 160
61 97 161
61 98 161
61 97 161
62 98 160
61 97 157
61 97 162
62 98 167
61 98 163
62 98 162
61 97 156
62 98 157
61 98 161
61 97 157
62 98 166
60 96 152
62 98 161
61 97 160
62 98 157
62 98 157
62 98 164
60 96 156
62 98 165
62 98 169
61 97 159
61 97 158
62 98 157
61 97 158
61 97 157
62 98 162
62 98 165
62 98 161
60 96 152
63 99 163
62 98 167
61 97 155
63 99 167
61 97 154
61 97 160
62 98 164
62 98 161
61 97 157
62 98 163
62 98 163
61 98 162
62 98 165
62 98 158
61 96 155
61 98 161
62 98 157
62 98 158
61 97 158
61 97 157
61 98 162
63 99 164
62 98 160
61 97 155
62 98 160
62 98 160
62 98 161
61 97 154
61 97 161
61 97 160
61 97 156
62 98 162
61 97 158
61 97 152
60 96 151
61 97 151
62 98 156
62 97 154
61 97 158
62 98 166
62 97 156
61 97 155
61 97 159
62 98 160
62 98 159
61 97 156
62 98 157
61 97 151
62 98 158
61 96 147
61 96 152
62 98 159
60 95 142
62 97 155
62 97 151
62 98 158
61 97 152
62 97 155
61 97 150
61 96 147
61 97 152
62 97 148
62 97 156
61 97 159
61 95 142
62 98 153
61 96 142
61 96 148
60 95 145
60 95 136
62 97 153
60 95 143
62 97 151
60 95 143
59 93 128
61 95 144
60 95 138
60 94 138
61 96 147
61 95 149
58 92 133
60 94 135
60 94 149
61 95 144
61 95 138
59 93 133
58 91 134
57 90 118
60 91 129
101 117 72
110 119 32
115 122 0
121 128 0
115 120 0
113 121 0
118 123 0
111 115 0
119 123 0
115 121 0
112 116 0
112 115 11
110 111 0
111 114 0
105 105 11
101 102 11
108 108 11
90 87 0
90 87 8
82 79 3
97 96 0
84 79 0
79 74 0
90 86 0
86 83 0
95 91 11
92 88 3
90 86 0
94 90 8
90 85 11
100 95 11
94 87 8
106 103 8
92 88 8
98 94 0
99 96 11
107 103 0
105 102 0
109 105 0
105 100 8
95 90 0
91 87 0
105 100 0
98 94 8
97 92 11
104 100 11
108 104 11
116 110 11
106 100 0
107 104 8
104 101 11
97 92 11
116 112 0
101 99 11
112 109 8
119 114 11
120 116 11
113 109 16
119 113 11
111 106 0
111 107 19
110 106 0
107 102 16
120 116 11
124 119 16
113 108 11
112 108 0
119 114 19
121 115 11
114 109 19
121 115 25
111 104 0
108 103 19
117 113 19
114 110 16
122 117 16
119 115 16
119 114 22
103 97 16
110 104 11
123 120 16
114 110 11
109 105 19
117 113 16
117 115 19
119 115 22
118 116 0
137 135 11
131 131 22
131 131 11
129 129 16
137 139 16
127 129 0
147 151 16
149 156 11
146 154 0
138 143 0
144 152 0
150 159 0
151 157 0
153 162 0
161 172 0
150 160 0
151 161 0
158 167 0
153 162 0
157 167 0
160 173 0
150 162 0
162 175 0
161 176 0
151 162 0
157 169 0
162 176 0
154 164 0
154 167 0
162 177 0
162 174 0
162 174 0
163 179 0
157 173 0
159 173 0
167 183 0
163 178 0
158 172 0
161 177 0
163 180 0
160 175 0
165 180 0
164 179 0
161 177 0
164 180 0
164 182 0
163 181 0
160 175 0
163 181 0
164 182 0
205 222 206
204 222 207
210 227 224
210 226 226
206 224 218
206 224 215
206 224 215
209 226 226
209 226 228
208 225 223
210 227 227
210 227 233
209 227 230
210 228 234
212 229 242
212 230 244
213 230 246
212 230 249
215 231 250
214 231 250
213 231 249
211 229 246
213 230 248
213 231 249
212 229 246
212 230 249
214 231 252
214 231 252
212 229 245
213 230 250
211 229 245
212 229 248
211 228 246
210 228 244
213 230 249
212 229 245
213 231 253
210 228 242
211 229 245
214 231 253
209 227 240
210 228 245
212 230 246
209 227 244
212 230 248
208 226 233
211 229 245
213 230 249
213 230 249
214 231 252
214 231 252
213 230 249
214 231 252
213 230 250
213 230 250
214 231 249
214 231 250
216 232 254
215 232 252
216 232 252
216 232 252
215 231 244
214 231 246
214 231 245
215 231 244
214 230 240
214 230 240
213 229 234
210 226 224
210 226 218
209 225 219
208 225 215
201 218 210
188 205 215
177 194 220
146 166 205
129 151 192
124 147 188
119 143 184
101 128 182
86 116 173
103 129 182
98 125 179
95 123 169
85 115 173
76 108 167
84 114 174
73 106 158
76 108 167
76 108 162
71 103 150
75 107 163
63 99 156
70 104 154
75 107 147
72 104 151
70 103 152
82 113 153
72 104 142
76 108 145
72 104 153
86 115 136
72 104 150
62 98 152
65 100 157
64 99 147
63 98 155
64 98 146
64 99 152
61 96 159
60 96 153
63 98 151
61 97 162
60 96 148
60 95 154
59 95 151
62 98 163
61 97 161
61 97 163
60 95 153
60 96 156
61 97 160
61 97 151
60 96 154
60 96 159
60 96 159
61 97 157
60 96 155
61 97 156
61 97 159
61 97 161
61 97 160
60 96 155
61 97 155
62 98 165
61 97 159
62 98 160
61 97 158
61 97 162
61 97 158
61 98 161
61 97 163
61 97 159
62 98 166
61 97 161
61 97 155
60 96 153
61 97 161
61 97 162
61 97 161
61 97 157
60 96 151
62 98 166
61 97 163
61 97 163
62 98 163
60 96 161
61 97 160
62 98 158
61 97 160
61 97 161
61 97 155
61 97 158
61 96 157
62 98 160
63 99 164
61 97 157
62 98 165
62 98 159
61 97 162
61 96 157
62 98 159
61 97 158
63 99 166
61 97 165
61 97 160
61 97 160
63 98 162
61 97 158
62 98 161
62 98 162
62 98 161
62 98 166
62 98 158
61 97 159
61 97 157
61 97 156
62 99 165
62 99 163
63 99 165
62 98 159
61 97 162
61 96 153
63 99 163
61 96 151
62 97 160
62 99 165
62 98 161
62 98 160
63 99 161
61 97 155
62 97 153
62 98 161
62 98 165
62 98 158
61 98 158
62 98 166
62 98 163
62 98 157
61 96 152
61 97 155
61 97 151
62 98 161
61 97 156
62 97 158
61 97 155
61 97 153
63 98 157
62 97 156
62 98 157
62 98 162
63 98 158
61 97 154
62 98 158
60 96 155
61 96 143
61 96 150
61 97 157
62 97 155
61 96 149
60 95 143
61 97 156
62 97 148
63 98 158
61 97 152
60 96 143
61 97 156
61 96 148
61 96 142
61 96 149
60 95 145
62 97 150
61 97 155
61 96 146
61 96 142
60 95 140
61 96 147
61 95 148
60 95 140
61 96 148
61 96 150
60 94 141
59 94 144
61 97 147
59 94 131
61 96 145
60 94 145
60 94 141
59 92 136
59 93 131
59 93 138
60 94 137
70 96 114
91 106 83
102 110 40
112 116 0
120 125 0
108 114 0
119 128 0
109 112 0
111 117 0
114 120 0
112 114 0
103 105 0
104 110 0
86 88 0
96 99 0
106 109 0
95 97 0
93 92 0
98 98 11
95 93 0
97 93 0
85 83 0
88 84 11
88 85 0
91 85 0
89 86 0
91 87 8
94 90 0
90 86 8
89 85 8
88 85 16
83 80 0
86 81 0
102 99 0
93 88 0
94 89 8
96 91 0
96 92 0
105 101 0
98 95 11
101 97 0
91 86 0
110 104 0
90 86 0
102 97 0
107 102 0
112 107 0
107 103 0
108 106 11
106 102 3
96 91 0
110 103 0
114 109 11
106 104 0
112 108 0
111 107 16
113 108 16
112 108 0
114 109 16
113 108 16
120 115 16
109 105 0
118 112 0
105 100 11
107 101 16
107 101 0
109 106 0
109 105 0
110 105 16
110 106 0
112 107 11
112 107 16
110 105 11
119 112 19
109 104 16
113 107 19
111 106 16
119 114 25
111 108 16
110 104 16
119 116 11
125 122 25
110 106 19
113 110 19
114 111 0
123 122 16
122 119 16
128 124 25
117 113 0
129 130 0
140 141 16
131 136 16
140 146 0
137 140 11
148 154 0
142 148 11
152 164 0
154 159 0
153 163 0
150 159 0
153 161 0
154 161 0
160 171 0
156 168 0
157 166 0
155 167 0
154 166 0
157 170 0
150 160 0
154 163 0
161 175 0
158 173 0
165 179 0
160 173 0
161 173 0
157 170 0
155 168 0
158 170 0
162 178 0
158 172 0
161 172 0
160 175 0
158 170 0
155 168 0
159 173 0
164 179 0
162 176 0
167 184 0
159 174 0
159 176 0
160 174 0
164 182 0
163 179 0
164 182 0
162 179 0
169 186 0
168 187 0
159 175 0
207 225 217
205 223 206
207 224 217
206 224 220
209 226 228
211 228 233
209 227 231
210 227 234
212 229 240
210 227 234
213 230 246
212 229 236
212 229 242
212 229 244
213 230 246
210 228 240
214 231 249
214 231 250
213 230 249
213 230 250
214 231 250
211 229 246
214 231 252
212 229 249
212 229 245
213 230 249
210 228 241
211 229 242
210 228 246
207 226 234
209 227 234
209 227 241
208 226 241
210 228 241
211 228 244
211 228 241
209 227 237
212 229 246
208 226 236
210 228 242
209 227 237
206 224 236
208 226 234
211 228 244
213 230 248
209 227 242
212 229 238
208 226 238
211 228 242
213 230 246
208 226 237
211 229 245
211 228 244
212 229 246
214 231 250
212 230 245
212 230 245
213 230 249
213 230 248
214 231 248
214 230 249
216 232 253
216 232 253
218 234 254
216 232 252
216 232 248
215 231 245
216 232 248
214 230 241
213 230 238
210 226 224
210 226 223
207 224 227
194 211 222
180 197 223
158 177 212
132 154 201
118 142 189
117 140 186
83 113 168
81 112 173
91 119 181
92 120 176
104 130 187
84 114 173
82 112 164
88 117 171
78 110 164
73 105 164
74 107 166
73 105 158
75 107 162
72 104 160
66 99 151
68 102 157
65 99 155
63 98 150
79 111 160
75 107 154
79 111 153
74 106 153
75 106 147
80 112 159
74 106 139
62 97 155
67 101 141
64 99 153
59 94 148
62 98 157
61 96 142
61 97 159
61 97 152
62 98 164
60 96 157
60 96 154
61 97 159
61 97 157
60 95 150
60 96 155
60 96 159
60 95 155
62 98 164
61 97 160
61 96 160
61 98 166
61 97 157
61 97 158
60 96 150
60 95 151
61 97 163
60 96 151
62 98 164
62 98 162
61 97 157
61 97 160
61 97 155
61 97 158
60 97 158
61 97 160
62 98 167
61 97 157
61 97 160
60 96 160
61 97 156
62 98 163
62 98 164
62 98 166
62 98 164
61 97 160
62 98 161
62 98 165
61 97 159
61 97 154
61 98 166
61 97 160
60 95 147
60 96 154
61 98 162
60 96 156
62 98 162
61 97 156
61 97 163
63 98 159
61 97 154
61 97 151
62 98 166
61 97 159
62 98 163
62 99 163
62 98 165
62 99 167
61 97 159
62 98 164
61 97 159
61 97 156
61 97 154
62 98 157
62 99 164
61 97 153
62 98 160
63 99 165
62 98 162
61 97 153
62 98 162
62 98 160
61 97 156
62 98 160
62 98 162
61 97 154
61 97 163
62 97 158
62 98 161
62 98 160
61 97 152
61 97 156
62 98 163
61 97 156
61 97 156
62 98 165
61 96 151
62 98 153
61 97 152
61 97 155
61 97 155
61 97 154
61 96 148
62 98 153
61 97 155
61 97 156
62 98 158
61 97 154
63 99 162
62 97 152
61 97 155
61 96 153
63 99 161
62 99 163
62 98 157
61 97 152
62 97 154
61 97 152
61 97 155
61 97 153
61 97 154
61 97 153
61 96 150
61 97 155
61 97 149
62 97 151
61 96 155
62 98 156
61 96 143
61 97 150
61 97 156
62 98 153
61 97 149
62 97 154
60 95 145
61 96 149
60 96 149
60 95 143
61 96 140
60 95 145
62 97 152
62 97 145
60 95 142
62 97 151
59 94 135
60 95 144
61 96 143
59 93 135
60 95 134
60 95 144
61 96 148
59 93 135
57 91 125
58 92 130
60 94 131
60 95 139
60 94 135
60 93 138
59 92 134
73 94 100
96 107 65
122 130 31
118 124 0
109 113 0
111 116 0
116 123 0
117 119 0
116 121 0
104 108 0
122 126 0
117 124 0
108 112 0
101 103 0
111 113 0
101 102 0
93 96 0
102 105 0
86 84 0
94 94 0
94 94 0
93 92 0
93 88 0
95 92 0
92 92 8
87 81 0
93 90 3
98 94 8
92 86 0
86 82 0
102 98 0
85 83 0
105 100 8
104 98 0
100 97 0
93 89 0
96 92 0
84 80 0
86 83 0
100 95 0
99 97 0
95 90 0
98 94 8
101 97 0
100 96 8
103 99 0
100 96 0
108 104 0
106 99 11
106 102 0
106 102 0
115 111 0
112 108 8
117 113 0
108 103 0
102 98 0
106 102 0
106 101 0
117 111 0
110 105 0
113 106 16
103 97 11
106 101 0
111 105 11
113 107 0
115 110 0
105 99 0
108 104 11
112 108 0
116 109 11
104 100 0
117 111 16
112 105 16
113 108 11
116 109 11
114 108 0
119 113 19
116 114 16
125 122 19
112 107 11
111 108 0
118 116 22
117 114 0
114 112 0
126 122 16
120 121 11
124 125 16
123 124 11
124 125 11
132 136 0
141 144 16
134 137 0
131 132 0
142 147 11
147 154 0
150 157 16
149 156 0
150 158 0
153 161 0
154 164 0
150 160 0
156 167 0
156 167 0
152 158 0
151 162 0
157 168 0
157 170 0
160 172 0
154 165 0
160 170 0
158 169 0
158 169 0
160 173 0
161 174 0
164 177 0
161 176 0
156 170 0
158 171 0
157 169 0
161 176 0
162 175 0
167 185 0
160 174 0
166 182 0
158 172 0
158 173 0
163 181 0
164 181 0
162 178 0
166 181 0
162 179 0
163 179 0
163 179 0
160 177 0
163 179 0
166 182 0
165 183 0
168 183 0
207 224 215
204 223 212
208 225 218
209 227 231
208 226 227
212 229 236
213 230 241
212 229 238
212 229 242
214 230 248
213 230 248
213 230 248
213 231 249
212 230 245
212 229 245
213 230 250
214 231 252
212 230 249
211 229 245
210 228 241
211 229 249
209 227 242
208 226 240
209 227 241
211 229 242
211 229 244
209 227 238
213 230 246
206 224 226
209 227 236
211 229 241
209 227 236
209 227 233
209 227 238
210 228 241
211 228 241
207 225 236
210 228 240
211 228 245
208 227 240
207 225 233
208 226 234
209 226 237
209 227 237
208 226 234
208 226 233
207 225 234
208 226 234
209 227 234
208 226 234
210 227 236
209 227 238
212 229 244
209 226 240
210 227 240
207 225 234
210 228 237
213 230 248
214 231 249
214 231 253
214 231 248
214 230 249
214 231 246
214 231 249
215 231 249
216 232 252
216 232 252
216 232 250
214 231 244
216 232 245
216 231 245
215 231 240
209 226 233
198 214 233
176 194 225
153 173 209
141 162 203
148 168 207
119 143 194
101 128 185
91 121 183
89 118 181
96 124 181
76 108 170
82 113 172
89 118 176
78 109 174
83 113 170
77 109 162
79 110 174
69 103 166
70 104 165
67 102 162
70 104 167
66 101 154
61 98 163
69 103 151
70 103 150
68 102 149
67 100 139
69 103 152
73 105 150
76 108 156
69 102 154
76 107 148
65 99 150
62 96 153
60 96 159
65 99 156
66 100 149
61 97 157
61 97 159
61 97 155
60 96 151
59 94 154
61 96 157
60 96 151
61 97 154
59 94 149
60 96 165
61 97 156
60 96 157
60 96 163
60 96 157
61 96 160
61 96 156
60 96 153
61 97 158
61 97 161
60 96 159
61 97 160
61 97 163
60 96 162
62 98 163
61 98 161
61 98 160
60 96 154
61 97 160
60 96 156
60 96 156
61 96 152
61 97 157
61 97 162
61 97 158
62 98 162
61 97 162
62 98 164
62 98 164
62 98 160
61 97 160
61 97 155
61 98 160
61 97 157
62 98 162
61 97 156
62 98 157
61 97 165
61 97 160
62 98 161
62 97 154
62 98 168
61 97 157
62 98 158
61 97 157
62 98 160
62 98 159
60 96 158
61 97 160
61 97 161
63 99 171
62 98 161
62 98 162
62 98 163
62 98 158
61 97 156
61 97 157
62 97 155
61 98 163
61 97 153
62 98 157
61 97 161
62 98 163
61 97 157
62 97 162
62 98 159
61 96 150
62 98 166
62 98 169
62 97 162
62 98 156
61 97 154
62 98 162
63 99 168
61 97 160
62 98 159
62 98 161
62 98 162
63 99 165
61 97 158
61 97 155
62 98 157
62 98 160
62 97 154
61 97 153
62 98 158
62 98 158
61 97 153
61 97 153
61 97 157
62 98 158
62 98 163
62 98 159
61 97 155
61 97 150
62 98 159
61 97 156
62 98 158
62 97 157
61 97 156
62 97 154
62 97 153
63 99 165
62 98 153
61 97 152
62 98 158
60 95 149
61 96 149
62 98 157
62 97 156
61 96 151
61 96 144
61 97 154
60 96 147
61 97 153
62 97 156
59 94 143
62 98 158
60 96 149
62 97 149
61 96 152
61 96 141
61 96 144
61 97 151
61 96 147
61 97 153
60 95 145
61 96 149
61 96 145
61 96 146
60 95 140
60 95 142
61 96 142
62 97 148
62 97 153
61 96 140
61 96 152
59 94 131
59 93 128
60 94 140
58 92 135
58 92 126
59 91 115
79 99 107
104 112 70
120 128 31
118 125 0
115 120 0
125 132 0
111 116 0
112 116 0
113 117 0
110 116 0
110 113 0
107 109 0
102 107 0
129 134 0
107 109 0
109 109 0
107 109 0
94 92 0
108 109 0
100 99 0
106 107 0
89 88 0
91 89 0
78 75 0
101 100 0
91 89 0
89 87 0
101 96 11
101 97 8
76 72 0
88 86 0
96 93 0
93 88 0
101 95 0
91 88 0
88 83 0
90 87 0
90 87 0
103 100 0
95 90 0
100 96 0
90 87 0
97 93 0
101 96 0
100 96 0
102 97 0
106 101 0
112 108 0
97 95 0
108 105 0
100 95 0
104 99 0
106 102 8
105 99 0
104 100 0
107 102 0
116 110 14
113 108 0
107 102 0
105 100 0
105 100 0
112 106 0
113 109 0
113 109 0
106 101 0
115 110 11
102 97 0
103 98 0
118 113 0
112 107 19
110 107 0
122 116 16
115 110 11
112 106 11
117 111 19
117 112 16
115 110 19
117 112 19
105 101 0
121 118 11
117 114 16
118 116 16
121 120 16
128 127 11
111 110 0
125 125 0
129 132 11
139 141 0
134 137 16
140 142 0
140 145 0
140 147 0
146 152 0
143 149 0
132 139 0
141 146 0
153 160 0
147 156 0
147 153 0
149 158 0
155 164 0
153 165 0
157 168 0
159 168 0
155 168 0
159 172 0
153 163 0
156 165 0
157 168 0
152 163 0
158 170 0
156 167 0
161 176 0
153 165 0
157 169 0
165 178 0
161 174 0
163 179 0
159 174 0
165 179 0
162 175 0
165 183 0
161 176 0
159 175 0
163 180 0
165 181 0
163 178 0
165 179 0
163 180 0
166 181 0
164 180 0
162 181 0
162 179 0
161 178 0
165 184 0
166 180 0
163 178 0
167 182 0
210 227 227
208 225 224
211 228 234
213 230 241
214 231 245
210 227 234
213 230 246
214 230 246
212 230 246
212 229 244
211 229 245
212 230 245
211 229 241
212 229 245
212 229 248
210 228 241
213 230 246
209 227 241
209 227 238
211 228 246
210 228 242
209 227 237
208 226 234
208 225 237
208 226 236
209 227 238
210 228 240
210 227 236
207 225 227
209 226 234
206 224 224
207 224 231
209 227 237
210 227 244
208 226 233
210 227 238
209 226 231
204 222 221
208 226 233
210 228 236
207 225 231
206 223 234
205 223 221
205 223 227
205 223 226
206 224 227
208 226 231
209 227 237
206 223 230
208 225 228
205 223 224
210 228 238
209 227 237
208 226 234
206 224 233
209 227 236
212 229 241
210 227 234
210 227 246
206 223 233
212 229 245
213 230 244
213 230 246
215 232 252
213 229 244
214 231 249
215 232 253
215 231 250
216 232 250
217 233 252
217 233 253
217 233 250
213 229 248
202 218 236
185 202 233
179 197 230
157 176 214
132 154 204
128 150 201
117 141 195
93 121 175
92 120 176
89 118 179
73 106 168
77 109 174
86 116 169
91 119 173
72 105 168
76 108 170
74 107 174
70 104 169
74 107 171
67 102 169
67 102 171
70 104 157
61 97 164
67 101 153
67 102 160
68 102 159
66 101 159
73 106 157
74 106 142
70 103 150
80 110 141
65 100 155
78 109 151
70 103 156
72 105 155
65 99 141
67 101 150
67 101 154
63 98 159
62 96 157
62 97 151
62 97 153
61 97 163
60 96 156
59 95 148
60 96 155
61 97 164
61 97 160
61 97 163
61 97 160
61 96 160
61 97 166
61 97 158
60 95 154
60 96 158
61 97 161
61 96 153
60 95 151
60 96 158
59 95 156
61 97 153
61 98 164
62 98 162
60 96 153
60 96 154
60 96 156
62 98 165
61 98 162
62 98 162
60 96 158
62 97 158
61 97 163
60 96 152
61 97 153
61 97 161
60 96 152
61 97 158
61 97 158
61 97 163
61 97 157
61 97 163
62 98 161
62 98 162
62 97 155
60 96 155
62 98 164
62 97 155
62 98 156
61 97 156
62 98 164
61 97 156
61 97 158
62 98 160
61 97 154
62 98 167
61 97 154
61 97 154
61 97 157
62 98 165
61 97 159
61 97 159
61 97 155
61 98 160
61 97 155
62 98 158
62 98 162
62 98 164
62 98 163
62 98 162
61 97 153
62 98 158
62 98 163
60 96 148
62 97 156
63 99 160
61 97 155
62 98 158
60 95 152
62 98 163
61 97 156
62 97 153
62 97 157
62 98 160
61 97 154
62 98 160
61 98 162
61 97 159
61 96 149
61 96 151
61 97 155
63 99 163
62 98 159
61 97 153
62 98 159
61 97 156
62 98 154
61 97 153
62 98 161
61 97 157
61 97 151
62 98 158
61 97 149
61 96 151
62 98 158
61 97 153
61 96 151
61 97 159
61 96 149
62 98 157
62 98 157
61 97 149
61 97 151
62 97 155
62 98 156
62 97 153
61 97 150
61 96 152
62 98 156
61 96 153
62 97 155
62 97 152
62 97 154
62 97 153
61 97 159
59 94 125
61 96 145
61 96 150
62 98 156
61 96 145
61 96 148
61 97 154
61 96 147
61 96 147
60 96 148
61 96 147
61 97 153
59 93 131
59 93 132
59 93 130
60 95 133
61 95 144
61 95 140
60 94 139
61 95 129
60 94 132
57 89 120
59 92 132
58 91 131
61 91 118
87 106 106
103 113 54
111 117 0
109 116 0
110 117 0
108 113 0
111 119 0
119 127 0
117 123 0
126 133 0
104 108 0
117 123 0
99 105 0
112 113 0
100 102 0
109 113 0
100 104 0
93 96 0
114 115 0
98 96 0
87 88 0
98 99 0
95 94 0
105 102 11
92 91 0
93 89 0
90 86 0
95 93 0
85 83 8
92 89 0
98 95 0
84 82 0
90 85 0
89 84 0
97 96 0
95 90 0
98 93 0
87 85 0
84 81 0
90 85 0
101 98 0
102 96 0
89 86 0
104 98 0
99 92 0
95 91 0
98 93 0
104 97 0
107 101 0
97 92 0
98 91 0
101 97 0
110 103 11
93 88 8
111 105 0
108 103 0
103 98 0
100 95 0
105 100 0
109 104 0
98 94 0
98 92 0
109 102 0
103 96 0
110 107 11
106 102 11
111 107 11
116 109 0
100 98 16
108 105 0
117 110 11
118 113 22
119 115 11
112 106 11
106 102 0
108 105 16
124 123 19
109 104 11
116 115 19
117 115 0
123 121 11
132 131 11
128 128 11
126 126 0
133 136 11
134 135 11
127 129 0
143 145 0
135 138 0
136 139 0
139 145 0
140 146 0
147 156 11
142 149 0
156 163 0
151 158 0
157 168 0
156 166 0
155 164 0
149 159 0
152 161 0
148 157 0
152 162 0
153 165 0
156 166 0
150 159 0
155 167 0
157 168 0
161 171 0
156 166 0
159 171 0
153 166 0
155 167 0
161 174 0
160 174 0
159 173 0
162 175 0
155 166 0
160 176 0
160 176 0
163 176 0
165 179 0
164 180 0
161 174 0
163 178 0
161 178 0
158 171 0
160 175 0
163 180 0
166 182 0
161 177 0
167 186 0
161 178 0
168 184 0
166 181 0
167 185 0
164 182 0
168 185 0
208 226 224
212 229 241
212 229 241
211 228 241
212 230 245
209 227 236
214 231 249
214 231 249
209 226 240
212 229 246
215 232 253
211 228 242
212 230 252
208 227 240
209 227 245
210 228 238
208 226 236
211 228 244
208 225 237
205 223 227
208 225 231
208 226 231
208 226 236
209 227 234
205 223 226
208 226 231
205 223 221
205 223 221
210 227 234
205 222 223
206 224 224
207 225 230
204 222 215
204 222 223
205 223 226
203 221 214
205 223 218
205 223 218
201 220 206
207 225 224
205 223 214
204 223 214
202 221 215
199 218 196
201 220 206
204 223 217
201 219 209
201 219 215
200 218 206
203 221 218
207 225 223
203 221 212
209 227 233
204 222 220
206 223 226
205 223 230
204 222 217
209 226 234
208 226 230
211 228 236
208 225 230
209 227 238
211 228 241
212 229 241
213 229 246
211 227 245
212 229 242
212 229 244
213 229 248
216 232 250
212 229 242
214 230 248
213 229 252
214 230 251
191 208 236
186 203 234
167 186 223
149 170 211
133 156 204
117 141 195
104 131 191
94 122 182
89 118 179
88 117 181
87 116 180
88 117 179
84 114 179
93 121 185
81 111 172
75 107 174
78 109 170
66 99 158
76 108 167
71 104 163
66 101 153
60 96 158
63 98 155
69 103 166
65 99 157
65 100 162
60 95 152
62 97 154
68 102 151
76 108 150
73 106 156
67 101 150
62 97 157
70 102 151
69 103 160
67 100 149
60 96 156
63 98 150
62 97 155
60 96 153
63 98 154
60 96 162
60 96 153
59 94 144
62 98 163
59 95 157
61 97 160
60 95 151
60 95 151
61 97 161
60 96 160
61 96 158
60 96 158
62 98 160
60 96 161
62 98 158
60 95 151
60 96 160
60 96 154
61 97 163
61 97 161
61 97 165
61 96 154
61 97 157
60 96 149
61 97 157
60 96 153
61 97 163
61 97 158
61 97 155
61 97 163
61 96 158
62 98 162
61 97 160
62 97 156
61 97 157
62 98 164
62 98 162
62 98 161
61 97 162
60 96 152
62 98 163
61 97 161
62 98 164
62 98 165
61 97 155
60 96 157
61 97 161
61 97 159
61 97 152
62 99 162
62 98 160
61 96 148
61 97 161
63 99 163
62 98 162
61 97 163
62 98 160
61 96 153
62 98 159
60 96 151
62 98 161
61 97 159
62 98 154
62 98 163
62 98 159
61 97 157
61 97 159
62 99 162
63 99 161
62 98 157
62 99 163
62 98 160
61 97 154
62 97 155
62 98 160
62 98 159
61 97 154
62 98 159
61 97 152
62 98 157
62 98 165
61 97 150
61 96 149
61 96 158
62 98 159
61 97 159
61 97 153
62 98 156
62 97 153
61 97 149
62 98 161
61 97 149
62 98 158
62 98 163
62 98 159
61 96 144
62 98 158
61 97 154
62 98 157
62 98 159
62 98 160
63 99 162
61 97 159
63 98 159
62 97 156
62 97 156
61 97 152
62 98 157
61 96 154
60 95 141
62 98 155
61 96 149
62 97 154
62 97 160
62 98 155
60 95 140
61 96 152
62 97 157
62 98 156
61 97 145
59 94 137
60 95 148
62 98 152
61 96 150
60 95 140
62 97 152
62 97 149
60 95 140
61 96 150
61 96 143
61 96 147
60 95 142
62 97 150
61 96 145
60 95 142
61 96 141
60 95 143
57 91 139
61 96 147
61 95 146
58 93 133
60 95 146
59 92 129
58 93 131
59 92 131
59 93 137
75 103 131
103 118 84
100 106 25
106 114 0
113 117 0
122 128 0
114 120 0
113 118 0
114 114 0
114 119 0
115 121 0
106 107 0
111 115 0
108 113 0
113 116 0
120 127 0
123 128 0
103 102 0
101 104 0
103 104 0
102 104 0
100 101 0
104 105 0
106 110 0
98 101 0
95 93 0
93 93 0
82 82 11
98 96 0
97 96 0
98 96 11
90 85 0
95 93 0
105 103 0
73 72 0
92 86 0
89 87 0
88 83 0
107 102 0
105 101 0
99 97 0
92 90 0
81 75 0
87 84 0
108 103 0
103 97 0
95 90 0
98 92 0
104 98 0
95 91 0
96 92 0
103 98 0
113 107 0
95 90 0
105 99 0
89 83 0
106 102 11
107 101 0
108 102 0
108 105 11
98 93 0
101 96 0
114 107 0
105 100 0
103 98 11
113 109 11
113 108 16
115 110 11
115 110 0
102 96 11
119 112 0
118 114 0
110 107 11
112 110 0
117 111 0
119 116 0
117 112 16
121 116 16
125 124 11
127 126 11
116 115 0
125 124 11
130 130 11
127 128 11
136 136 11
140 142 11
139 141 0
136 137 0
138 143 0
141 146 0
151 159 0
144 151 0
151 158 0
143 153 0
148 154 0
147 155 0
149 157 0
150 159 0
151 157 0
144 151 0
155 166 0
151 162 0
154 165 0
156 167 0
155 166 0
148 155 0
153 165 0
155 166 0
158 170 0
162 175 0
156 169 0
150 164 0
160 174 0
159 173 0
150 162 0
162 173 0
158 171 0
159 171 0
160 173 0
160 174 0
159 172 0
158 172 0
163 179 0
159 174 0
164 181 0
159 174 0
163 177 0
166 182 0
165 182 0
160 174 0
163 178 0
168 184 0
163 177 0
168 184 0
165 183 0
166 184 0
164 182 0
167 185 0
164 182 0
211 228 236
208 226 230
212 229 244
213 230 248
212 229 244
212 230 246
213 230 248
211 228 248
212 229 246
204 222 228
212 229 245
211 228 242
211 228 238
210 228 241
210 228 240
211 228 242
203 221 224
211 228 238
211 228 241
211 228 241
205 223 230
202 220 211
207 225 231
208 226 231
205 223 215
203 222 220
206 224 224
204 223 214
207 225 226
203 222 209
202 221 214
200 219 199
196 215 188
198 216 193
197 216 184
198 217 189
196 215 191
196 215 181
197 216 193
202 221 206
198 216 194
198 217 193
195 214 182
199 217 201
197 216 186
198 217 203
201 219 194
198 217 196
197 216 188
201 220 204
201 220 207
197 216 188
204 222 223
201 219 201
198 217 196
201 219 211
200 219 206
205 222 218
206 224 230
200 218 212
206 224 223
206 223 223
208 225 223
209 226 234
212 229 238
210 228 237
210 227 238
211 228 241
211 228 240
212 229 246
215 231 253
213 230 249
210 227 248
215 230 252
204 220 246
193 210 239
178 196 226
155 175 215
156 176 215
118 142 196
120 144 197
103 129 187
93 121 186
82 113 180
82 112 172
80 111 174
82 113 180
75 107 172
85 115 177
70 104 173
74 107 173
85 114 169
71 105 174
81 112 169
66 101 158
65 100 167
62 99 169
62 98 158
67 101 157
74 106 154
62 97 158
67 102 157
61 96 161
66 101 153
77 108 148
71 104 156
69 103 153
65 99 155
69 101 141
68 102 153
63 98 153
66 100 163
63 98 162
64 98 149
68 102 151
63 99 157
60 96 160
60 96 157
61 97 154
60 96 155
60 96 160
61 97 161
60 95 153
61 96 158
61 97 163
61 97 161
61 96 154
61 96 158
60 96 157
60 97 157
60 96 153
61 96 158
60 95 158
60 95 148
62 98 159
61 97 158
61 97 159
61 97 156
62 97 153
60 96 162
61 97 157
60 96 156
61 97 163
62 99 169
61 97 152
62 98 161
61 96 155
61 97 159
61 97 154
61 97 159
60 96 161
62 98 167
60 95 151
61 97 158
61 97 158
61 97 159
61 97 156
61 97 158
62 98 164
62 98 153
61 98 161
60 96 155
62 99 167
60 96 152
61 98 162
62 98 163
62 98 163
61 97 159
61 97 161
62 98 161
61 96 153
62 98 160
61 97 151
61 98 160
62 98 160
63 99 160
61 97 160
61 97 153
61 97 158
61 97 154
62 98 161
62 97 151
62 98 163
61 97 151
60 96 148
61 97 159
62 97 152
61 97 156
62 98 160
61 97 158
61 97 159
62 98 156
63 99 165
62 98 159
63 99 158
62 98 153
61 96 152
62 98 156
61 97 151
62 98 155
61 97 149
61 96 151
61 97 155
62 98 158
63 99 162
61 97 151
61 96 144
61 97 157
60 95 144
61 96 152
61 97 157
61 97 151
61 96 150
62 98 157
62 98 154
61 97 153
61 96 154
61 96 153
61 97 147
61 97 150
59 94 140
62 98 163
62 97 152
62 98 157
62 97 156
61 97 151
60 95 141
61 97 154
61 97 152
60 96 152
61 96 148
61 96 149
61 96 143
60 95 141
62 97 156
61 97 153
61 96 145
61 96 144
62 97 149
62 97 154
61 96 145
59 94 133
61 96 143
60 95 149
61 96 142
61 95 141
62 97 140
60 96 140
60 95 139
60 95 143
60 95 135
61 96 144
60 94 145
60 94 139
60 94 134
58 92 137
59 93 129
60 93 130
58 92 132
59 93 135
57 90 119
66 92 118
102 117 73
104 113 25
115 121 0
118 124 0
107 115 0
112 118 0
114 121 0
117 121 0
109 114 0
113 120 0
119 124 0
118 122 0
117 121 0
111 117 0
110 114 0
106 110 0
108 113 0
104 104 0
107 108 0
102 101 0
98 100 0
108 109 0
100 99 0
92 91 0
95 92 0
94 92 0
110 110 0
95 95 0
110 109 0
95 96 0
90 92 0
98 92 0
86 83 0
87 84 0
89 88 0
101 97 0
96 91 0
94 88 0
91 86 0
94 86 0
93 89 0
100 94 0
101 95 0
109 104 0
95 86 0
84 80 0
94 89 0
92 87 0
91 87 0
99 94 0
99 93 11
114 107 0
98 92 0
92 87 0
105 102 0
95 90 0
101 96 0
110 103 0
102 98 0
113 111 11
110 104 0
100 92 0
105 99 0
109 104 0
106 101 11
109 107 16
105 99 0
104 99 11
121 117 11
120 119 0
105 103 11
111 107 19
109 105 11
116 114 0
118 115 0
121 117 11
128 126 16
115 114 0
131 131 0
133 134 11
123 123 11
137 141 0
139 145 0
129 130 0
145 148 0
142 146 0
138 141 0
140 143 0
145 146 0
142 149 0
148 156 0
147 155 0
148 154 0
150 159 0
147 154 0
143 150 0
152 163 0
144 150 0
155 165 0
152 162 0
155 166 0
152 159 0
151 161 0
155 163 0
152 162 0
155 165 0
153 165 0
156 169 0
154 167 0
158 167 0
156 168 0
161 173 0
157 168 0
157 171 0
160 171 0
162 177 0
160 176 0
160 174 0
160 173 0
160 176 0
163 178 0
163 178 0
163 179 0
162 179 0
164 177 0
164 179 0
166 185 0
162 175 0
164 179 0
163 177 0
162 180 0
162 178 0
164 180 0
164 180 0
161 176 0
163 182 0
162 178 0
166 186 0
213 230 246
212 229 241
214 230 246
210 227 242
211 228 244
212 229 249
212 229 244
208 226 234
210 228 242
208 225 238
207 225 227
210 228 242
210 227 238
210 228 238
206 224 224
205 222 223
207 226 233
204 222 228
208 225 226
207 225 227
201 219 211
201 219 217
202 221 207
201 220 204
200 219 207
200 219 207
199 218 198
196 216 188
196 215 188
196 215 186
195 214 179
198 216 194
195 214 182
192 212 169
192 212 175
193 212 167
192 213 175
193 213 165
194 214 177
193 213 175
191 211 169
191 211 169
193 213 175
195 215 179
190 211 165
189 210 163
186 206 149
189 209 161
193 213 177
192 211 175
193 212 167
191 211 165
193 213 173
192 212 169
194 213 175
201 219 199
199 217 201
199 218 188
201 220 206
198 217 193
200 218 198
205 223 220
204 222 212
203 221 221
204 222 223
209 226 236
209 226 228
210 227 233
210 227 239
211 228 240
210 227 244
208 226 241
200 217 238
208 225 246
208 225 247
201 218 244
189 206 236
153 173 215
157 176 214
129 151 200
111 137 191
118 142 196
94 123 185
94 122 186
87 117 180
77 109 175
84 115 183
87 117 181
77 109 176
86 116 178
72 106 175
76 108 169
71 104 169
65 100 165
72 105 166
61 97 159
70 103 164
65 100 162
65 100 156
61 97 161
69 103 160
62 98 157
62 98 161
65 100 151
65 100 158
73 104 149
73 105 142
72 104 145
74 105 149
65 99 147
67 100 148
67 101 153
63 97 141
62 97 159
61 96 151
62 97 156
60 96 156
60 96 154
59 94 152
61 96 156
60 95 153
60 95 156
60 97 164
60 95 152
60 96 154
61 97 162
59 95 153
61 97 155
60 96 157
60 96 154
60 96 159
60 95 155
60 96 157
60 95 149
61 97 163
61 97 158
62 98 165
61 97 160
61 97 154
62 98 166
60 95 152
61 96 154
60 96 156
62 98 162
62 97 160
60 96 149
61 97 155
62 97 162
61 97 159
61 97 156
61 97 160
62 98 163
62 98 158
61 97 158
62 98 155
62 98 162
61 97 153
61 97 158
61 97 157
61 97 159
61 97 155
62 98 164
61 98 162
62 98 162
61 97 156
62 98 163
62 98 159
61 97 161
62 98 163
62 97 160
62 98 155
62 98 157
62 98 160
62 97 156
61 97 156
61 96 153
61 97 156
61 97 157
63 98 159
62 98 161
60 96 161
62 98 160
60 95 149
61 97 157
61 97 155
62 98 157
61 97 156
62 98 156
61 97 158
61 97 152
60 96 143
63 98 158
61 96 155
61 96 151
62 98 159
63 98 160
61 97 157
62 97 154
61 97 157
61 97 154
61 97 155
61 97 155
62 98 153
62 98 163
61 96 151
60 96 149
62 98 155
62 97 152
62 97 156
62 97 158
60 96 150
61 96 150
62 98 153
62 98 158
60 95 148
62 97 159
61 96 158
62 98 158
62 98 155
61 97 150
61 96 155
62 97 153
61 96 148
61 96 156
61 97 152
61 97 150
62 98 154
62 97 151
61 97 154
61 97 152
61 96 145
62 98 154
61 97 147
61 97 147
61 96 147
60 96 143
61 97 147
62 98 155
60 95 137
61 96 147
61 96 147
60 95 141
61 97 153
61 96 150
61 96 150
61 96 149
61 96 145
61 96 150
62 97 145
61 96 142
59 94 133
60 95 133
59 94 133
61 95 139
59 93 141
60 94 142
59 93 126
58 92 130
60 93 128
59 92 124
62 94 120
85 104 98
117 131 57
113 121 25
116 122 0
120 128 0
108 115 0
108 111 0
105 115 0
109 112 0
109 116 0
102 105 0
117 122 0
110 115 0
110 113 0
110 113 0
118 124 0
116 120 0
104 106 0
108 110 0
110 113 0
105 108 0
111 113 0
113 114 0
98 101 0
105 104 0
84 84 0
97 97 0
105 105 0
96 93 11
103 102 0
99 99 0
86 83 0
91 90 0
105 103 0
99 99 0
94 94 0
92 87 0
96 94 0
85 83 0
94 90 0
91 87 0
93 89 0
106 102 0
102 100 0
109 105 0
93 89 0
100 96 0
101 97 0
110 105 0
112 110 0
99 94 0
95 93 0
105 102 0
108 104 0
103 101 0
105 99 0
102 97 0
103 101 0
102 102 0
107 101 0
111 107 11
102 97 0
111 107 0
104 97 0
109 105 0
113 109 11
104 98 0
109 104 0
117 113 0
117 112 11
110 104 11
121 119 11
111 110 0
124 123 0
112 113 0
122 121 0
131 132 0
119 120 0
125 126 0
127 126 0
135 135 0
138 142 0
129 132 0
136 138 0
132 132 0
137 138 0
130 130 0
149 156 0
133 138 0
140 144 0
137 140 0
153 158 0
142 150 0
150 156 0
152 161 0
148 157 0
152 160 0
149 158 0
148 154 0
150 159 0
152 162 0
155 164 0
154 167 0
155 166 0
147 157 0
159 171 0
152 161 0
154 164 0
158 169 0
158 169 0
152 165 0
150 162 0
160 171 0
159 172 0
154 165 0
159 171 0
159 171 0
160 173 0
159 173 0
159 173 0
165 179 0
163 178 0
159 173 0
163 178 0
157 170 0
165 179 0
159 173 0
162 177 0
166 182 0
162 178 0
162 177 0
162 178 0
162 179 0
165 182 0
167 183 0
161 179 0
167 185 0
168 185 0
162 180 0
212 229 244
213 230 249
213 230 248
212 229 244
212 230 246
208 226 240
211 228 237
210 227 234
210 227 237
208 226 233
210 228 237
206 224 226
208 226 231
206 224 226
205 224 228
206 223 223
202 221 209
203 221 214
200 219 201
201 219 199
200 219 198
196 215 193
198 217 189
198 217 196
196 215 177
191 212 165
194 214 184
196 215 188
195 215 182
193 213 169
192 212 167
192 212 167
192 212 159
192 211 167
193 212 171
190 211 161
188 209 149
190 210 159
185 206 140
187 208 147
186 207 142
186 207 135
185 207 151
185 207 133
190 210 149
187 207 140
182 204 125
187 208 147
188 209 155
180 201 122
189 210 161
184 206 137
183 205 130
187 207 144
189 210 153
188 209 149
193 212 171
192 212 161
192 213 179
194 214 189
190 210 167
192 212 179
199 218 196
197 217 191
199 218 198
199 218 188
203 221 206
205 222 222
203 221 218
199 218 214
195 212 230
198 215 229
201 218 239
205 222 245
200 217 238
202 218 244
185 203 233
173 192 226
157 177 217
155 175 214
138 160 206
114 139 190
99 126 186
99 126 183
84 114 179
89 118 181
74 107 173
79 110 174
71 104 170
68 102 171
79 110 175
79 110 177
74 107 166
65 100 168
73 106 173
65 101 169
68 102 164
69 102 165
67 102 166
63 98 162
60 96 164
61 96 159
63 97 149
61 97 163
60 94 150
61 96 152
67 101 159
75 108 154
65 99 151
69 103 158
67 100 149
65 99 149
68 102 150
64 98 150
65 99 148
64 99 160
62 97 147
60 95 148
63 98 150
59 94 151
60 96 149
59 94 145
60 95 156
61 97 157
60 96 159
61 97 163
59 95 149
60 95 153
61 97 155
61 97 155
60 96 154
60 96 154
60 96 155
62 98 157
62 97 155
61 97 157
61 97 157
61 97 160
61 97 155
61 96 152
62 97 156
62 97 152
60 96 157
61 98 165
61 97 159
61 98 162
61 96 151
61 97 156
62 97 160
61 97 156
61 97 157
62 99 165
63 99 163
62 98 160
60 96 151
61 97 159
60 96 154
62 98 159
61 97 156
61 97 158
61 97 154
60 96 153
61 97 156
62 98 158
61 97 157
62 98 162
62 98 159
62 98 158
61 98 162
62 97 159
60 95 153
62 98 159
62 98 164
61 97 158
62 98 161
61 97 162
62 98 164
62 98 163
62 98 165
61 96 143
61 97 157
61 97 149
62 98 160
61 97 155
61 96 152
61 97 152
63 98 157
61 97 158
61 97 157
62 98 158
60 96 148
62 98 160
62 98 162
61 97 153
62 98 163
62 97 157
62 98 156
62 97 153
62 97 155
61 96 143
60 96 150
61 97 159
62 97 157
61 97 154
61 97 152
61 97 154
62 97 153
61 97 145
60 96 147
61 97 150
62 98 156
62 98 152
61 97 156
62 98 157
61 96 152
62 97 154
62 97 153
62 98 155
61 97 157
61 97 149
62 98 152
61 96 143
62 98 158
61 97 149
61 97 153
61 96 150
62 97 152
60 95 143
63 98 156
61 97 151
61 96 149
61 97 154
60 95 141
62 97 150
61 97 143
62 98 153
62 97 153
60 95 145
61 96 147
61 96 149
61 96 151
61 96 142
58 93 129
61 96 151
61 95 136
62 97 147
61 96 150
60 95 140
61 96 144
61 96 148
60 94 140
60 94 135
59 94 132
58 92 129
59 93 135
60 94 138
60 94 126
59 93 133
60 93 139
60 93 136
64 95 126
82 96 73
115 124 36
130 140 0
124 134 0
121 128 0
112 120 0
109 115 0
106 114 0
118 125 0
110 115 0
123 128 0
118 126 0
111 116 0
116 121 0
103 108 0
114 120 0
123 127 0
115 118 0
111 116 0
111 112 0
117 121 0
120 123 0
110 112 0
99 103 0
109 112 0
96 95 0
103 107 0
89 89 0
104 104 0
106 106 0
104 103 0
96 98 0
112 110 0
105 103 0
96 94 0
93 90 0
96 93 0
88 87 0
94 93 0
90 89 0
96 95 0
91 89 0
86 82 0
96 93 0
117 114 0
104 99 0
103 102 0
96 94 0
99 94 0
100 95 0
115 107 0
101 97 0
97 93 0
104 100 0
98 95 0
109 108 0
101 97 0
106 103 0
105 98 0
111 109 0
102 98 0
109 104 0
117 111 0
116 110 11
117 116 0
110 104 0
101 97 0
110 108 0
120 118 0
114 114 0
121 119 0
125 123 0
115 115 0
113 112 0
120 121 0
120 121 0
128 128 0
126 129 0
137 138 0
128 130 0
135 136 0
130 131 0
138 145 0
137 140 0
143 150 0
147 154 0
150 156 0
142 147 0
146 150 0
145 151 0
143 152 0
149 155 0
145 151 0
148 157 0
144 150 0
155 166 0
143 150 0
152 158 0
147 155 0
156 165 0
147 155 0
150 158 0
152 164 0
151 161 0
153 165 0
158 168 0
152 161 0
154 165 0
157 169 0
154 165 0
161 175 0
156 168 0
154 167 0
156 173 0
149 161 0
160 174 0
160 173 0
161 176 0
160 175 0
161 175 0
160 173 0
163 179 0
156 171 0
158 170 0
158 172 0
160 174 0
166 181 0
160 177 0
162 178 0
162 177 0
165 182 0
158 173 0
160 175 0
160 176 0
162 177 0
164 180 0
162 177 0
166 184 0
162 177 0
213 230 253
208 227 236
212 229 244
208 225 234
207 225 227
208 226 230
209 226 236
208 226 233
207 224 228
207 226 233
207 225 227
205 223 218
206 224 224
204 223 218
202 221 207
202 221 209
200 219 204
201 220 206
199 218 201
191 211 171
195 215 186
194 214 175
197 216 191
189 209 159
187 207 149
188 209 151
191 211 153
190 210 151
184 205 142
191 211 153
185 206 140
183 205 140
185 207 153
182 204 130
186 207 142
179 201 105
182 204 120
183 205 125
182 204 133
180 202 117
182 204 128
181 203 122
181 203 108
184 205 122
182 203 128
180 202 111
179 202 102
183 205 128
181 203 105
181 203 117
182 203 125
183 204 125
182 202 120
188 209 144
185 206 140
182 204 128
184 206 125
185 207 149
183 205 125
187 208 144
188 208 149
186 207 142
189 209 155
191 210 173
195 214 175
200 219 203
196 215 188
198 217 203
195 213 203
197 215 217
185 203 209
180 199 214
180 199 222
181 200 217
187 206 228
191 209 236
169 188 220
180 198 228
161 181 218
140 162 207
154 175 213
128 151 199
123 147 200
106 132 190
95 123 181
105 132 191
79 111 178
87 117 181
84 114 179
80 111 178
85 115 179
74 107 173
77 109 169
76 108 168
71 105 168
77 109 175
69 103 173
76 108 168
68 102 164
69 103 166
61 97 163
66 100 159
63 98 154
70 104 151
63 98 158
67 100 151
61 97 158
67 101 161
63 98 159
73 105 156
71 104 140
71 104 151
74 106 153
68 101 147
65 99 154
65 98 153
60 96 149
60 95 155
60 96 153
61 97 162
60 95 148
60 96 159
60 96 152
62 97 163
60 95 153
60 95 147
60 96 155
60 95 143
60 95 154
61 97 158
61 98 164
60 95 148
61 97 157
61 97 154
60 95 151
60 96 154
60 96 160
61 96 155
61 97 153
61 97 153
61 97 155
60 95 150
62 98 161
60 96 150
61 97 160
61 97 155
62 98 160
62 98 161
60 96 155
62 98 162
61 97 163
61 97 155
61 97 160
61 97 158
61 96 155
62 98 164
61 97 157
61 97 156
61 97 154
61 96 151
61 97 156
62 97 158
61 96 152
60 97 156
62 99 165
61 97 155
61 97 152
62 98 159
62 98 162
61 97 153
62 97 155
62 97 157
61 97 156
61 96 148
61 97 154
62 98 157
61 96 152
62 98 161
63 99 159
61 96 157
62 98 159
61 97 162
61 97 158
62 98 161
62 97 157
62 98 163
62 98 158
61 97 159
61 96 144
62 97 155
61 97 155
62 98 156
62 97 153
61 97 153
62 97 155
62 97 158
61 97 152
61 97 159
61 97 155
62 98 159
62 97 157
61 97 152
61 96 151
61 96 141
62 97 157
61 97 154
62 98 154
62 97 154
62 97 154
62 98 159
61 97 149
61 97 148
61 97 156
61 97 157
61 97 153
61 96 148
61 97 153
62 97 154
61 96 148
62 98 153
61 97 154
62 97 152
62 98 155
62 98 155
61 96 148
61 97 149
61 96 147
61 96 150
61 97 144
61 97 150
61 96 147
62 97 154
60 95 139
60 95 141
61 97 145
61 97 151
61 96 150
59 94 129
61 96 140
60 95 145
59 94 131
62 97 151
61 96 145
61 96 148
60 95 137
61 97 150
60 95 137
60 95 141
60 95 141
60 94 132
62 97 151
61 96 145
59 92 132
59 93 137
60 95 141
58 92 133
60 93 131
59 93 132
58 92 126
58 91 128
80 102 108
95 108 51
107 116 36
118 126 0
115 125 0
105 115 0
122 127 0
121 129 0
112 120 0
115 123 0
118 126 0
116 122 0
111 118 0
107 113 0
116 118 0
109 116 0
120 127 0
112 116 0
101 102 0
111 116 0
114 118 0
118 123 0
101 103 0
120 124 0
106 108 0
101 103 0
108 113 0
102 103 0
113 114 0
105 109 0
108 107 0
106 107 0
112 114 0
91 92 0
106 105 0
99 99 0
110 109 0
106 103 0
98 96 0
101 99 0
100 95 0
113 112 0
103 101 0
105 103 0
106 103 0
100 95 0
101 101 0
95 92 0
111 108 0
103 103 0
109 107 0
108 106 0
103 98 0
111 108 0
102 97 0
112 108 0
108 104 0
111 109 0
108 106 0
108 107 0
118 117 11
113 113 0
111 110 0
114 112 0
118 117 0
106 105 0
117 118 0
121 123 0
112 114 0
120 118 0
123 121 0
113 112 0
124 126 0
128 127 0
126 129 0
132 136 11
136 136 0
131 135 0
129 131 0
135 140 0
137 140 0
130 136 0
135 137 0
143 148 0
141 147 0
143 148 0
140 146 0
143 150 0
145 151 0
144 148 0
139 144 0
157 164 0
142 149 0
141 145 0
152 160 0
146 151 0
148 155 0
150 159 0
153 162 0
155 166 0
150 158 0
154 164 0
152 162 0
153 163 0
149 158 0
148 157 0
155 163 0
152 165 0
160 173 0
148 158 0
154 165 0
153 167 0
158 172 0
150 160 0
152 163 0
158 171 0
163 178 0
155 167 0
159 173 0
161 175 0
158 171 0
163 178 0
164 180 0
166 182 0
154 170 0
157 172 0
159 175 0
165 181 0
155 169 0
165 183 0
158 174 0
166 185 0
167 184 0
163 181 0
162 180 0
163 182 0
161 178 0
164 179 0
163 179 0
165 182 0
211 228 242
208 227 234
210 228 242
210 227 234
207 225 230
204 223 218
210 227 234
206 224 230
207 224 223
203 221 217
202 220 207
202 220 207
200 219 204
198 216 194
197 216 186
190 210 163
191 211 165
193 213 177
188 209 155
187 207 159
185 207 142
190 211 165
186 207 157
184 206 140
183 204 140
184 205 135
187 209 153
182 204 122
179 202 133
179 200 120
184 205 120
177 199 108
179 201 108
183 205 122
175 198 102
177 200 88
175 198 92
177 200 92
179 201 125
179 201 99
177 199 84
176 199 92
176 198 84
178 201 102
175 198 95
176 199 84
176 199 108
175 198 67
179 201 102
175 197 76
179 202 108
175 198 84
175 198 92
180 203 125
177 200 102
178 200 105
181 203 105
179 201 117
182 204 111
177 200 105
182 204 130
185 206 128
186 207 142
184 205 140
185 206 142
189 210 153
188 209 147
191 210 186
181 201 180
179 199 191
166 186 201
161 181 194
160 181 198
172 191 213
186 204 220
186 204 226
174 193 219
176 195 221
170 189 224
149 170 210
143 164 205
133 156 200
120 144 199
108 133 188
110 136 193
88 117 183
87 116 183
85 116 181
75 108 178
82 113 179
77 109 172
92 120 181
85 115 178
71 105 168
68 102 170
76 108 171
71 104 170
65 100 164
65 100 167
62 98 165
63 98 160
66 100 151
62 98 164
63 98 155
62 97 155
61 96 166
61 97 161
64 99 156
62 97 150
62 96 150
65 99 153
65 98 145
61 95 150
63 98 156
64 99 162
64 99 148
66 100 162
61 97 154
63 99 161
59 95 154
60 96 156
60 95 151
60 96 155
60 95 155
61 97 159
60 96 157
59 95 149
59 94 153
60 96 151
60 96 156
60 96 157
59 95 149
62 98 159
61 97 156
60 95 151
61 98 161
59 94 151
61 97 156
60 96 157
61 96 153
61 96 157
60 96 151
61 97 157
62 98 164
62 98 162
61 97 154
61 97 158
61 96 154
62 98 160
61 97 152
61 97 158
61 97 160
61 97 161
61 97 157
62 98 159
60 96 156
61 97 152
61 97 157
62 98 162
62 98 165
61 97 162
61 96 158
62 98 156
62 98 158
61 97 158
61 97 155
61 97 155
61 97 158
62 98 164
62 97 156
61 97 156
62 98 164
61 97 155
63 98 162
61 96 154
61 97 154
62 97 157
61 97 157
62 97 155
61 97 155
60 96 153
62 97 153
61 97 153
62 98 158
62 97 155
60 95 137
62 98 160
62 98 156
62 98 159
61 97 157
61 97 152
62 98 159
61 97 148
61 97 154
61 97 154
62 98 158
62 98 157
62 98 159
61 96 151
61 96 145
61 96 150
62 98 158
61 97 156
62 98 155
61 97 152
62 98 158
62 98 157
61 97 155
62 98 154
63 99 164
62 97 149
62 97 153
62 97 150
62 98 157
62 98 158
61 97 155
62 97 159
62 97 151
61 96 142
62 98 159
60 96 148
60 96 145
62 98 155
61 97 152
61 97 155
62 98 156
62 97 149
61 96 151
62 97 143
62 97 152
60 96 142
60 95 134
60 94 140
61 97 148
61 96 142
61 97 149
60 96 144
60 96 143
59 94 136
60 95 143
60 95 145
59 94 134
62 97 147
61 96 143
61 96 141
61 96 142
61 96 143
61 96 149
61 96 141
60 95 143
59 94 134
59 93 135
60 94 143
60 95 140
60 94 135
59 92 130
58 92 118
57 91 116
60 94 140
57 90 126
85 106 96
98 112 60
112 119 18
111 121 0
117 125 0
111 120 0
103 110 0
117 122 0
119 127 0
117 122 0
117 122 0
114 118 0
115 124 0
118 124 0
113 120 0
112 117 0
115 121 0
116 121 0
115 119 0
111 118 0
104 106 0
104 108 0
114 119 0
105 107 0
99 102 0
108 108 0
112 114 0
111 115 0
105 108 0
118 117 0
104 107 0
112 112 0
101 103 0
99 101 0
113 114 0
108 109 0
98 99 0
107 108 0
101 100 0
118 118 0
114 114 0
101 98 0
107 106 0
110 109 0
113 111 0
112 109 0
100 98 0
93 89 0
106 103 0
106 104 0
108 108 0
102 102 0
106 101 0
114 114 0
112 112 0
107 102 0
113 113 0
106 105 0
126 125 0
104 102 0
119 121 11
116 116 0
117 115 11
116 116 0
111 109 0
112 112 0
118 115 0
129 131 0
113 110 0
126 127 0
122 122 11
127 128 0
125 127 0
124 125 0
129 130 0
130 134 0
131 132 0
139 144 0
138 142 0
134 137 0
136 137 0
139 144 0
138 144 0
137 140 0
140 144 0
131 135 0
149 156 0
134 136 0
144 151 0
154 162 0
144 150 0
149 157 0
150 157 0
149 158 0
140 144 0
148 155 0
147 156 0
146 153 0
155 165 0
145 152 0
156 165 0
156 166 0
153 162 0
160 171 0
150 159 0
156 164 0
157 167 0
153 168 0
155 166 0
161 176 0
159 172 0
156 167 0
155 165 0
154 165 0
153 164 0
152 166 0
154 166 0
158 170 0
162 176 0
157 171 0
158 174 0
160 177 0
162 177 0
165 180 0
155 172 0
164 180 0
159 175 0
163 179 0
164 179 0
161 176 0
160 178 0
164 180 0
163 182 0
163 179 0
163 181 0
163 180 0
166 184 0
162 178 0
166 184 0
164 179 0
208 226 237
209 227 234
212 229 241
208 225 228
208 226 231
205 222 227
204 222 212
202 221 214
201 220 207
204 222 209
201 220 207
194 214 179
197 216 189
190 210 175
192 212 177
189 210 149
187 208 153
185 207 144
190 210 161
191 211 151
185 206 128
182 203 125
188 208 137
174 196 88
181 202 114
181 203 111
179 201 95
178 201 111
182 203 122
179 201 105
182 204 114
176 199 72
176 200 92
179 201 92
179 202 102
173 196 76
176 198 57
173 197 62
174 197 76
178 201 88
175 198 88
176 199 80
174 198 88
174 197 88
175 199 84
175 198 67
175 198 76
176 199 102
174 197 92
174 197 72
176 199 84
171 195 62
180 202 105
175 198 84
178 200 84
175 199 88
173 196 72
177 201 88
178 201 88
174 198 88
178 200 80
182 203 120
181 202 105
180 202 102
183 205 122
184 205 122
187 207 144
181 202 156
167 188 154
158 179 177
151 172 183
158 178 186
161 181 195
155 176 199
163 183 206
156 176 196
169 189 211
167 188 207
158 179 204
153 174 204
141 163 205
132 155 197
133 156 201
107 133 191
109 135 193
91 120 183
100 128 191
87 117 183
80 111 178
85 115 179
82 113 181
78 110 177
85 115 181
71 105 173
74 107 172
74 106 173
65 101 170
73 105 165
68 102 165
71 104 172
71 104 163
61 97 157
61 97 157
60 96 154
64 99 164
63 98 158
63 98 157
65 99 157
62 97 148
66 100 154
64 99 156
63 98 163
59 95 155
67 100 146
68 101 151
59 95 155
64 98 145
64 98 143
62 97 149
60 95 149
61 96 154
60 95 143
60 95 147
60 95 154
60 96 151
60 95 151
61 96 153
61 97 159
60 95 151
60 96 155
60 97 161
61 97 158
60 95 145
60 96 159
60 96 160
59 95 156
61 96 148
61 97 160
61 96 150
61 96 153
62 97 155
60 96 152
61 97 160
61 97 152
61 96 153
61 96 153
61 96 159
61 97 151
61 97 156
61 97 159
61 97 161
60 95 145
61 97 150
61 97 155
60 96 161
62 98 159
61 97 158
61 96 147
61 96 148
62 98 157
61 97 150
61 97 161
61 97 157
61 97 159
61 97 155
61 96 157
62 98 162
62 98 153
61 97 154
62 98 160
61 96 151
61 97 158
62 97 156
61 96 151
60 96 153
61 97 155
61 97 151
61 97 151
60 95 149
62 98 160
62 98 161
63 99 164
61 96 154
62 98 157
62 98 160
60 96 150
61 96 148
62 98 159
61 97 157
62 97 153
62 98 156
62 98 162
60 96 152
61 97 157
62 98 154
61 97 154
62 98 157
62 98 160
61 96 154
62 97 155
61 96 153
63 98 157
61 97 158
61 96 153
62 98 150
62 97 154
61 97 151
61 96 155
62 97 153
61 97 157
63 99 161
61 96 154
62 97 153
61 97 151
60 96 142
61 97 152
61 96 142
61 96 148
62 98 154
62 98 155
62 97 151
61 96 144
61 97 149
60 96 148
61 97 148
61 97 152
61 97 152
61 96 145
61 96 145
60 95 141
62 98 156
62 97 152
60 95 143
60 96 144
61 96 149
60 94 135
60 96 147
62 97 151
60 95 142
61 96 149
61 96 145
61 95 149
60 95 139
62 97 148
60 95 141
61 96 143
61 96 144
60 95 144
61 96 141
60 94 140
60 95 140
59 93 132
61 96 141
59 94 139
60 95 133
59 92 135
59 92 128
59 93 131
60 93 135
66 95 120
93 111 80
118 133 58
101 109 18
118 126 0
110 117 0
120 126 0
113 120 0
113 119 0
114 124 0
122 128 0
107 113 0
114 120 0
99 101 0
103 109 0
119 124 0
114 120 0
123 130 0
110 112 0
116 122 0
117 123 0
97 102 0
118 122 0
108 111 0
113 120 0
107 110 0
105 108 0
111 117 0
112 115 0
105 107 0
112 114 0
102 105 0
110 111 0
120 125 0
117 117 0
114 113 0
101 99 0
117 121 0
103 107 0
106 108 0
97 100 0
102 99 0
111 111 0
107 103 0
106 104 0
103 102 0
101 100 0
108 109 0
108 111 0
111 111 0
97 96 0
107 103 0
108 106 0
110 107 11
115 113 0
113 110 0
105 99 0
122 120 0
118 116 0
114 112 11
107 106 0
122 121 0
117 118 0
134 136 0
120 119 0
125 123 0
114 115 0
134 138 0
126 128 0
116 115 0
130 131 0
124 126 0
125 127 0
126 126 0
130 131 0
124 127 0
139 142 0
136 137 0
129 132 0
139 146 0
128 131 0
144 148 0
143 145 0
142 142 0
141 148 0
141 147 0
148 155 0
147 152 0
144 149 0
146 155 0
144 147 0
141 148 0
154 162 0
146 150 0
141 148 0
147 155 0
150 157 0
152 160 0
150 161 0
153 161 0
153 162 0
155 164 0
154 161 0
150 161 0
150 160 0
161 176 0
156 168 0
152 163 0
153 165 0
158 170 0
160 171 0
155 168 0
156 166 0
152 165 0
161 174 0
159 171 0
154 164 0
164 177 0
156 170 0
164 178 0
162 176 0
161 175 0
162 176 0
157 173 0
157 170 0
159 172 0
164 180 0
156 171 0
163 179 0
161 176 0
163 180 0
160 177 0
159 175 0
163 179 0
163 181 0
160 175 0
162 179 0
164 180 0
164 180 0
160 176 0
161 179 0
207 225 231
206 224 224
204 222 218
205 223 224
205 223 215
201 220 206
203 221 203
196 216 182
195 215 181
195 214 181
192 213 169
185 206 153
187 208 147
190 210 173
189 209 169
186 207 135
188 209 149
188 209 149
180 201 111
178 201 117
185 207 137
178 200 80
179 201 108
179 201 99
181 204 120
179 202 99
176 199 84
171 194 72
174 198 80
174 198 80
179 202 99
172 196 76
175 198 102
175 199 76
176 200 92
173 196 72
173 196 84
174 197 88
175 198 62
174 197 76
172 196 72
176 199 88
171 195 84
173 196 67
175 198 76
174 198 80
173 197 84
174 197 62
173 197 72
176 199 62
174 197 67
175 199 80
175 198 51
171 194 57
177 200 72
173 196 44
172 195 72
174 197 72
177 200 84
175 198 95
175 199 72
177 200 76
177 200 99
177 199 111
174 197 84
180 202 108
176 199 88
179 200 137
171 192 150
143 166 141
138 161 157
135 158 166
133 155 171
140 163 179
146 167 184
166 186 195
159 180 192
167 187 210
164 184 201
144 166 203
139 161 200
122 147 200
126 150 195
120 144 193
115 140 194
103 130 191
97 125 188
94 122 186
76 109 180
79 111 178
90 119 186
82 113 180
76 109 175
87 116 178
76 108 169
77 108 173
68 102 173
74 107 172
71 104 171
61 97 163
72 105 174
61 97 158
68 102 171
66 100 165
63 98 164
65 99 156
61 97 163
65 99 153
63 98 159
60 95 152
67 101 152
70 104 153
73 105 147
70 103 153
68 101 147
62 97 146
61 96 154
65 98 138
61 96 150
60 95 154
59 93 141
58 93 151
61 96 153
61 96 158
61 97 163
59 95 147
60 96 154
60 95 151
60 96 150
59 94 145
61 96 156
60 95 154
61 96 155
60 96 155
60 95 150
60 95 153
61 97 154
60 95 145
60 96 153
62 98 163
60 96 150
61 97 159
61 96 146
61 97 162
61 97 157
62 98 160
60 96 156
61 97 156
61 97 151
60 96 153
60 96 151
61 97 160
62 97 154
62 97 157
61 97 156
62 98 161
61 97 155
60 95 152
61 97 153
61 97 153
62 98 155
60 95 143
62 97 152
62 98 163
61 97 155
61 97 150
61 96 156
61 97 158
62 98 158
60 96 144
61 96 150
61 97 154
61 97 150
61 97 162
60 96 150
62 98 156
61 97 157
61 97 153
61 97 152
61 96 150
62 98 161
61 97 157
61 96 151
61 96 149
61 96 152
62 97 155
62 97 156
60 95 147
61 97 148
61 96 143
61 97 155
60 96 155
61 97 145
61 96 155
61 96 149
61 97 157
61 96 149
61 97 150
61 97 150
61 97 151
62 98 156
63 98 155
62 97 157
63 99 163
62 98 154
62 97 150
63 98 160
61 96 144
61 97 149
61 97 157
60 95 141
60 96 147
61 96 147
61 96 149
61 96 143
62 97 154
60 96 142
62 97 148
61 96 153
62 97 150
62 97 154
62 97 157
61 96 147
60 96 145
61 97 154
62 98 155
61 97 148
62 98 157
60 95 148
62 97 156
60 95 140
62 97 140
61 95 136
62 97 148
60 95 134
61 96 143
61 97 148
61 96 145
59 94 134
60 95 142
60 95 143
60 96 147
61 96 148
60 95 144
60 95 135
59 93 137
61 95 140
60 95 126
59 94 136
60 94 128
59 93 132
61 95 141
60 94 140
59 93 132
60 94 134
58 91 124
59 93 135
59 92 130
58 92 128
63 90 99
95 110 83
120 131 18
111 120 0
118 126 0
111 120 0
112 119 0
122 131 0
122 131 0
102 110 0
126 133 0
114 121 0
115 122 0
111 118 0
105 109 0
117 125 0
112 118 0
119 127 0
110 114 0
109 115 0
114 121 0
110 116 0
113 115 0
109 115 0
113 118 0
100 100 0
110 116 0
113 117 0
120 123 0
104 107 0
116 121 0
101 102 0
103 103 0
119 122 0
104 105 0
97 95 0
118 121 0
112 115 0
108 109 0
115 118 0
99 96 0
105 110 0
108 110 0
119 118 0
112 111 0
110 113 0
110 112 0
114 116 0
112 112 0
112 115 0
112 111 0
106 105 0
106 108 0
122 121 0
118 118 0
123 124 0
111 114 0
116 117 0
120 120 0
112 111 0
121 122 0
116 117 0
113 112 0
121 119 0
125 126 0
118 116 0
125 125 0
135 138 0
119 118 0
121 122 0
133 137 0
124 122 0
126 129 0
126 126 0
136 140 0
133 133 0
135 137 0
145 149 0
139 140 0
137 142 0
143 148 0
128 131 0
144 149 0
133 137 0
143 151 0
140 143 0
133 135 0
140 144 0
148 155 0
141 148 0
153 160 0
149 156 0
142 150 0
157 166 0
151 161 0
142 149 0
154 163 0
157 167 0
149 156 0
152 163 0
138 146 0
152 162 0
152 162 0
158 171 0
156 164 0
157 169 0
152 162 0
145 154 0
159 170 0
156 167 0
157 167 0
160 172 0
158 171 0
154 165 0
161 175 0
159 172 0
161 177 0
159 174 0
161 175 0
154 164 0
158 173 0
156 169 0
158 174 0
157 171 0
162 178 0
161 176 0
161 175 0
154 166 0
162 178 0
165 183 0
162 179 0
164 182 0
165 183 0
163 179 0
162 180 0
162 179 0
164 179 0
164 181 0
164 182 0
164 181 0
165 183 0
208 225 226
207 224 220
203 222 212
200 219 201
197 217 203
199 218 194
200 219 199
188 209 159
194 213 175
188 209 155
187 208 153
187 208 153
183 204 140
187 208 142
180 203 111
184 206 125
181 203 111
176 199 102
179 201 105
182 204 111
179 201 95
179 201 108
176 199 72
177 200 92
174 197 67
173 197 57
175 199 99
177 199 72
173 198 72
174 197 62
175 199 95
175 198 76
171 195 80
176 199 67
174 198 72
173 197 57
175 197 72
172 196 51
172 195 67
174 197 62
174 197 72
174 198 95
174 198 62
172 196 51
177 200 72
169 192 44
174 198 76
173 198 76
172 196 62
176 199 62
174 197 80
176 199 95
173 196 80
174 197 67
175 199 76
175 198 72
175 198 76
173 196 67
174 197 72
174 197 88
173 196 62
172 195 72
176 199 72
174 197 72
176 199 76
173 197 80
175 197 62
167 190 94
151 173 121
125 149 142
103 130 150
107 132 157
116 141 173
125 150 162
132 156 177
142 165 176
148 169 189
149 170 200
158 179 194
143 164 190
131 154 189
130 153 185
116 141 188
123 147 188
124 148 194
108 134 191
81 112 181
99 127 186
88 118 184
76 109 176
89 118 183
77 109 177
74 107 175
74 107 174
71 105 173
80 111 176
68 103 173
79 110 171
85 115 177
68 102 162
65 100 167
65 100 165
62 98 169
65 100 160
61 97 156
61 97 162
62 97 161
61 96 159
62 98 160
62 97 157
63 98 154
60 95 141
66 100 152
66 100 151
68 101 159
64 99 155
63 98 157
65 99 144
59 94 143
60 95 154
61 97 154
62 97 156
61 96 155
60 95 153
59 95 150
60 95 147
60 95 153
60 95 148
60 95 151
59 95 150
60 95 141
60 95 151
60 96 156
60 95 152
60 95 150
61 97 158
61 96 156
61 97 160
60 95 153
61 97 160
61 96 152
61 96 153
60 95 148
60 96 149
60 96 150
61 97 160
60 95 149
61 97 154
61 97 157
61 97 158
62 98 161
61 97 151
62 97 159
62 98 162
60 95 147
61 97 154
61 97 154
61 97 156
61 97 156
61 97 153
63 99 165
62 98 160
62 98 161
60 95 154
61 96 149
60 95 142
62 97 158
60 96 148
60 96 150
62 97 153
62 98 159
62 98 158
61 96 155
61 97 152
61 97 154
62 98 162
61 97 149
61 97 156
61 97 147
60 95 150
61 97 153
61 96 155
61 97 155
61 97 157
61 96 155
61 97 150
61 97 153
62 98 162
62 98 157
61 97 155
62 98 161
61 97 155
62 98 158
61 96 155
61 97 152
61 97 157
61 97 150
62 97 151
61 96 148
60 96 151
61 97 153
60 96 143
61 97 152
62 98 161
61 96 145
62 97 152
62 97 152
61 97 151
61 96 143
61 96 152
62 97 158
61 96 150
61 96 149
60 95 142
62 98 155
62 97 153
61 96 144
60 95 141
60 96 150
61 97 144
61 96 148
61 96 145
61 96 144
60 95 147
60 96 143
61 96 144
62 97 150
61 96 145
60 95 144
61 96 149
60 95 142
61 96 147
61 96 147
61 96 143
62 97 151
61 95 137
62 97 152
62 97 150
61 96 148
60 95 142
61 97 152
60 95 141
60 95 140
59 94 135
59 94 131
60 95 139
59 93 134
61 96 139
61 95 140
59 94 134
59 94 134
57 91 134
59 94 135
59 93 140
58 92 120
58 91 132
58 91 127
58 91 125
57 89 120
88 108 94
113 126 65
112 119 0
107 116 0
111 117 0
107 117 0
126 136 0
105 112 0
132 140 0
109 115 0
120 126 0
114 122 0
116 124 0
106 111 0
112 121 0
120 127 0
105 107 0
104 108 0
107 114 0
99 102 0
101 106 0
118 123 0
100 105 0
108 110 0
113 118 0
116 120 0
116 120 0
109 111 0
107 112 0
109 109 0
100 101 0
114 117 0
107 108 0
109 111 0
109 111 0
112 116 0
109 113 0
113 115 0
105 104 0
107 107 0
119 121 0
120 125 0
108 111 0
102 103 0
106 108 0
119 121 0
118 121 0
113 116 0
113 115 0
117 118 0
112 113 0
112 112 0
116 119 0
124 126 0
116 118 0
112 115 0
111 110 0
118 118 0
117 117 0
118 118 0
117 116 0
123 121 0
127 127 0
126 125 0
129 128 0
130 132 0
122 124 0
126 126 0
122 124 0
128 131 0
131 132 0
139 139 0
127 127 0
132 135 0
135 138 0
137 140 0
138 141 0
129 135 0
140 144 0
143 149 0
141 147 0
134 138 0
139 144 0
140 143 0
147 152 0
143 150 0
137 141 0
149 157 0
142 146 0
151 158 0
145 154 0
139 145 0
145 153 0
144 149 0
148 155 0
150 159 0
150 160 0
151 159 0
154 165 0
151 160 0
150 158 0
154 163 0
149 161 0
152 162 0
150 160 0
155 167 0
153 166 0
147 156 0
155 168 0
161 175 0
160 176 0
163 178 0
156 172 0
155 169 0
159 173 0
152 163 0
159 174 0
155 169 0
161 173 0
158 170 0
161 173 0
154 166 0
157 173 0
156 172 0
159 175 0
158 173 0
159 174 0
160 176 0
160 175 0
160 176 0
160 174 0
159 174 0
166 182 0
165 183 0
167 186 0
161 178 0
164 179 0
165 179 0
162 179 0
161 177 0
166 181 0
203 222 209
204 222 209
196 216 186
196 215 191
194 214 181
188 209 153
187 208 155
185 206 151
188 209 153
184 206 135
183 204 144
184 206 133
182 204 117
183 205 125
181 203 102
180 202 114
182 204 120
177 199 102
175 198 88
177 200 72
177 200 95
176 199 67
174 198 72
176 200 92
175 199 72
172 196 57
173 197 76
175 198 67
172 197 62
174 198 67
174 197 67
176 199 84
175 199 72
174 197 62
174 197 84
173 196 67
174 198 99
174 198 84
174 198 105
170 194 57
178 201 92
174 197 72
173 197 44
175 198 62
171 194 36
172 195 51
172 195 72
173 196 67
172 196 99
174 199 76
174 197 72
174 197 84
178 201 84
173 197 84
173 197 80
175 198 76
173 197 57
175 198 67
172 196 57
172 195 76
171 194 51
172 195 80
173 196 88
174 197 72
173 196 51
175 197 67
175 197 57
165 189 78
153 177 129
121 147 145
113 139 149
123 148 143
109 136 154
106 132 149
111 136 155
126 151 169
122 147 152
120 143 167
132 156 186
137 160 195
141 163 187
127 151 180
120 144 183
112 137 174
102 129 176
94 123 185
98 126 188
89 118 179
97 125 184
70 104 174
86 116 179
79 111 181
93 122 185
71 105 175
77 109 176
75 107 174
68 103 170
69 103 169
62 98 170
61 98 171
65 100 167
60 96 156
65 100 168
65 100 165
66 101 164
61 97 160
72 105 163
61 96 157
60 95 153
60 96 156
63 98 162
59 95 147
64 98 148
61 97 154
70 103 156
66 99 149
66 99 144
69 102 149
62 97 156
61 95 144
62 96 147
62 97 148
60 95 155
62 96 150
61 96 155
61 96 148
60 95 157
60 96 155
60 96 151
61 96 153
60 96 151
61 96 153
61 96 151
59 94 151
60 96 150
61 96 154
61 96 156
60 96 155
60 95 145
60 96 151
60 96 151
61 97 156
60 96 156
61 97 153
61 97 159
61 97 158
61 97 163
61 97 161
61 97 153
61 97 158
61 97 153
61 97 158
61 97 153
61 96 150
61 97 159
61 97 154
60 96 151
62 97 150
61 97 152
61 97 151
61 96 152
61 97 152
61 97 144
62 98 161
61 97 152
61 97 150
60 96 151
62 98 158
61 97 157
60 96 156
61 97 158
61 97 152
61 97 157
61 97 150
61 97 157
61 97 151
61 96 151
61 97 154
62 97 153
61 97 153
61 96 154
62 98 162
60 96 142
61 97 155
61 96 153
61 97 158
61 97 157
61 96 149
61 97 154
62 97 149
61 97 153
62 97 154
61 97 149
62 97 155
60 96 142
62 98 156
61 96 148
62 97 155
61 97 154
60 96 147
62 97 156
61 96 149
62 97 151
62 98 158
60 96 152
61 96 145
61 96 149
61 97 154
61 96 148
62 98 152
62 98 157
61 97 150
61 96 145
60 95 147
61 97 158
61 97 150
62 97 151
61 96 148
61 97 150
61 97 152
60 95 144
60 96 143
61 95 137
62 97 155
61 96 145
61 96 145
60 94 141
61 97 151
61 97 154
61 96 148
61 96 151
61 96 147
60 95 141
61 96 141
61 95 143
61 96 147
59 94 135
61 96 144
61 96 147
60 95 142
59 94 128
61 97 145
60 94 140
59 93 142
60 95 135
60 95 142
60 95 139
61 95 133
60 94 132
60 95 143
58 92 123
59 93 130
60 94 150
59 94 133
60 94 129
58 92 126
58 92 121
56 89 116
67 97 125
89 109 94
117 129 42
110 122 18
119 125 0
115 122 0
119 128 0
123 135 0
119 128 0
109 118 0
108 117 0
121 132 0
111 118 0
113 123 0
123 133 0
116 121 0
108 117 0
119 126 0
121 127 0
113 117 0
115 121 0
108 114 0
117 124 0
111 118 0
112 118 0
125 134 0
109 114 0
112 118 0
122 126 0
104 110 0
118 124 0
118 121 0
105 108 0
107 110 0
113 119 0
114 117 0
111 114 0
109 111 0
115 119 0
116 120 0
113 116 0
117 117 0
110 112 0
107 107 0
117 119 0
109 108 0
120 123 0
113 116 0
120 123 0
119 122 0
117 120 0
111 111 0
120 123 0
123 126 0
128 128 0
124 126 0
121 121 0
119 120 0
121 121 0
107 107 0
127 128 0
114 114 0
125 128 0
130 130 0
124 129 0
124 124 0
122 124 0
133 138 0
126 127 0
127 128 0
128 129 0
136 139 0
133 135 0
125 126 0
135 141 0
125 126 0
134 137 0
142 148 0
134 138 0
141 146 0
145 152 0
138 141 0
143 147 0
145 151 0
144 151 0
143 149 0
145 150 0
137 145 0
147 151 0
145 151 0
143 148 0
146 155 0
151 159 0
149 158 0
144 149 0
146 154 0
152 163 0
151 161 0
148 158 0
150 159 0
151 158 0
152 159 0
154 165 0
156 166 0
142 150 0
155 166 0
158 171 0
160 173 0
158 170 0
156 170 0
155 168 0
150 164 0
158 173 0
163 176 0
155 168 0
160 174 0
160 175 0
161 178 0
154 165 0
160 173 0
162 178 0
163 179 0
162 179 0
160 173 0
162 176 0
157 172 0
161 177 0
159 176 0
163 180 0
163 179 0
164 181 0
159 176 0
160 175 0
164 182 0
162 176 0
162 179 0
161 176 0
160 177 0
166 184 0
167 183 0
167 186 0
162 178 0
199 218 198
199 218 191
193 212 173
189 209 161
191 211 165
190 210 157
183 205 140
185 206 137
180 202 120
183 204 125
182 204 120
181 203 111
179 202 114
179 202 95
176 200 99
177 200 92
177 200 84
178 200 80
172 195 62
173 196 51
173 196 67
179 202 111
172 195 51
172 196 72
176 199 84
174 198 84
174 198 62
171 195 72
171 194 80
170 193 62
172 196 80
171 195 51
173 197 80
176 199 84
170 195 72
169 193 76
174 197 88
172 196 72
174 198 80
174 198 92
172 196 92
175 197 80
173 197 57
169 193 62
174 199 80
174 198 92
174 198 88
175 197 80
171 195 67
172 196 36
174 198 72
175 199 84
169 194 62
171 194 67
173 197 62
174 197 80
176 199 76
171 194 57
177 199 99
173 196 76
173 196 67
175 198 88
173 197 67
173 197 72
173 195 67
169 192 80
175 198 88
168 191 95
146 171 102
122 146 133
100 127 143
105 131 148
111 138 163
115 140 134
110 136 145
108 136 150
117 142 157
117 143 160
108 134 169
118 143 171
124 148 168
127 151 178
122 146 174
112 137 184
101 128 180
82 113 168
83 113 168
82 112 172
84 115 182
89 119 183
82 113 175
85 116 182
77 109 173
79 111 181
79 111 179
75 107 170
84 114 180
68 103 173
71 104 173
73 106 174
68 102 168
68 102 164
65 100 165
61 97 165
66 101 168
65 99 163
60 97 158
61 97 160
62 97 156
69 103 161
64 98 154
65 99 145
61 96 155
62 97 155
61 96 151
64 98 151
63 99 161
69 102 148
61 96 144
68 101 147
65 98 145
62 97 155
59 94 145
63 97 149
63 98 156
59 95 149
59 95 151
59 95 148
62 97 161
60 95 157
62 97 160
61 97 158
59 93 147
60 95 142
61 97 156
59 95 151
61 97 154
61 96 145
61 97 153
60 96 155
61 96 148
60 95 152
61 97 154
61 96 157
61 97 156
60 96 151
59 94 146
61 97 148
59 95 144
61 96 153
61 97 159
62 97 157
60 95 157
61 96 148
60 95 147
60 96 153
61 96 156
63 99 161
61 97 151
60 96 152
60 95 154
61 96 150
61 97 161
61 97 145
61 96 151
62 97 151
60 95 143
61 97 151
61 96 141
61 97 152
62 97 156
61 97 152
61 97 152
61 96 149
61 97 155
62 97 157
63 99 161
61 97 157
61 96 148
61 97 150
61 96 154
61 97 150
61 96 148
61 97 144
62 98 157
61 97 151
61 96 151
61 97 156
60 96 149
60 96 150
59 94 140
62 98 155
61 97 153
62 98 158
61 97 155
61 96 147
62 97 152
62 98 153
61 96 153
61 97 153
60 95 144
61 96 150
61 96 144
62 97 156
61 96 145
60 95 140
61 96 147
62 97 152
61 97 151
61 96 145
61 97 151
60 96 141
61 96 152
62 97 153
60 95 135
62 98 157
61 97 150
61 96 148
61 96 144
60 95 139
61 97 150
61 97 148
61 97 151
61 96 143
60 95 149
60 94 143
62 98 159
62 97 148
61 96 148
62 97 152
61 96 143
62 97 154
61 97 151
59 94 140
61 97 148
61 96 147
61 96 143
61 97 145
61 95 143
61 95 136
59 93 131
61 96 143
61 96 145
60 94 136
60 94 140
60 94 132
59 93 132
60 95 145
60 94 139
60 95 148
61 96 141
58 91 119
59 92 133
60 94 138
59 92 132
59 93 134
58 91 124
59 91 120
68 95 116
102 116 68
121 132 36
116 125 0
111 119 0
100 107 0
116 122 0
127 137 0
115 122 0
126 137 0
111 120 0
109 116 0
124 132 0
120 129 0
108 114 0
105 111 0
110 117 0
125 133 0
120 129 0
117 122 0
112 116 0
110 116 0
125 130 0
111 121 0
117 126 0
112 119 0
113 120 0
113 118 0
102 105 0
119 125 0
123 128 0
119 125 0
111 115 0
116 120 0
104 109 0
129 135 0
129 134 0
106 110 0
119 122 0
112 114 0
111 114 0
116 119 0
110 112 0
116 118 0
114 116 0
117 118 0
123 128 0
119 123 0
115 118 0
114 113 0
115 118 0
114 114 0
117 116 0
115 115 0
125 130 0
131 133 0
119 123 0
115 118 0
119 120 0
132 133 0
127 129 0
128 134 0
123 123 0
140 141 0
125 126 0
136 141 0
129 131 0
124 129 0
130 132 0
132 135 0
130 131 0
133 137 0
133 136 0
125 128 0
136 142 0
138 142 0
129 132 0
141 146 0
125 126 0
145 152 0
139 145 0
144 151 0
143 148 0
141 146 0
139 145 0
140 144 0
138 144 0
143 151 0
148 154 0
137 143 0
142 148 0
151 161 0
144 149 0
149 158 0
141 150 0
146 155 0
151 161 0
154 164 0
155 164 0
142 150 0
151 163 0
155 167 0
152 161 0
155 165 0
155 164 0
154 164 0
151 163 0
157 169 0
154 167 0
147 159 0
158 171 0
156 169 0
154 163 0
153 164 0
165 180 0
152 164 0
157 169 0
163 178 0
161 176 0
157 171 0
162 176 0
165 178 0
160 174 0
155 169 0
165 181 0
167 182 0
157 171 0
160 175 0
166 183 0
160 173 0
163 177 0
163 179 0
165 181 0
157 173 0
158 175 0
166 182 0
160 176 0
163 181 0
164 183 0
165 185 0
164 180 0
163 181 0
185 206 147
192 212 177
187 208 147
192 212 163
185 205 147
188 209 151
183 204 133
181 203 120
179 202 120
178 200 102
179 201 88
177 200 92
174 197 88
177 200 80
177 200 80
176 200 102
173 196 67
173 197 72
175 199 80
172 195 25
175 198 76
174 197 57
174 198 95
175 199 88
173 197 88
175 198 67
173 196 57
173 198 88
176 199 51
174 198 72
174 197 67
172 195 51
172 196 72
174 197 72
172 195 57
173 196 72
176 198 62
176 199 72
173 196 44
176 199 80
173 196 51
172 196 80
176 200 88
171 195 76
176 199 72
174 197 80
174 197 84
173 197 72
171 194 62
174 197 62
172 196 62
175 198 84
172 196 62
171 196 72
172 196 67
174 197 62
173 197 62
172 196 80
174 198 76
172 195 36
174 197 72
175 198 76
174 197 76
171 193 62
172 196 80
172 195 72
174 198 76
168 192 57
155 178 84
123 148 143
112 139 145
100 129 148
113 139 147
98 126 154
104 131 147
109 135 160
109 136 153
112 139 152
117 142 162
119 143 171
109 136 170
123 147 162
115 139 168
106 133 170
110 137 171
92 121 172
96 125 172
98 126 174
87 117 181
73 107 176
83 114 181
79 111 180
86 116 183
79 111 181
76 109 179
71 105 176
85 115 177
74 106 176
84 115 179
65 101 174
79 110 172
62 98 170
65 101 171
64 100 165
60 97 166
65 99 156
61 98 165
61 97 165
64 99 160
61 96 154
64 99 149
60 96 161
63 98 158
61 96 151
64 99 157
62 97 146
59 94 151
63 98 153
63 96 139
61 95 145
64 97 140
65 99 143
61 96 156
60 96 147
60 96 145
60 95 151
60 96 148
60 95 152
61 96 158
61 97 157
61 97 157
58 93 141
60 95 145
61 96 151
61 97 158
61 96 152
61 97 156
61 97 158
61 97 157
60 96 153
61 97 155
60 96 147
59 95 152
61 96 154
61 97 156
60 95 145
61 97 156
60 96 154
60 96 151
61 96 151
62 97 155
61 96 151
60 96 147
61 97 153
60 95 149
61 97 161
61 97 154
62 97 154
61 96 154
62 98 160
61 97 147
62 98 158
61 97 159
61 97 153
62 98 154
60 95 143
61 97 154
61 97 150
61 96 152
61 97 153
62 98 154
62 98 154
62 98 160
62 98 153
62 98 161
61 97 150
61 97 159
61 97 152
62 97 152
61 97 148
60 96 142
61 96 145
61 97 148
61 97 155
61 97 156
61 97 153
61 97 158
61 97 154
61 97 157
61 97 149
61 97 152
62 98 159
61 97 147
61 97 156
60 95 149
61 97 153
62 97 152
61 97 152
61 96 143
62 97 154
61 96 149
62 97 149
61 96 148
61 96 150
62 97 153
62 98 154
60 95 150
61 97 151
62 98 153
61 97 155
61 96 155
60 95 147
61 96 142
62 97 149
61 96 142
61 96 144
62 98 158
61 96 147
61 97 145
62 98 151
61 96 150
61 96 149
60 95 140
61 97 152
61 96 145
62 97 152
61 97 147
61 97 150
61 97 154
61 96 148
61 96 148
61 96 148
61 96 144
60 95 148
61 96 148
60 96 142
60 95 144
60 95 145
62 97 147
59 94 135
59 93 125
60 95 135
60 94 135
60 94 140
59 93 125
60 95 136
59 93 125
61 96 138
61 96 144
60 94 133
60 94 140
60 95 139
58 92 119
59 92 125
58 92 132
59 92 124
57 89 124
59 89 103
91 111 75
114 127 36
111 120 18
119 128 0
120 129 0
122 130 0
125 132 0
114 123 0
113 123 0
116 125 0
123 135 0
112 118 0
128 136 0
107 116 0
121 130 0
127 136 0
108 114 0
114 121 0
115 123 0
122 130 0
120 125 0
111 117 0
118 125 0
115 123 0
113 120 0
116 122 0
115 123 0
118 123 0
125 132 0
121 126 0
115 118 0
114 119 0
115 123 0
109 112 0
124 128 0
114 119 0
108 108 0
111 115 0
117 120 0
109 111 0
112 116 0
127 133 0
116 118 0
116 120 0
112 116 0
116 119 0
116 117 0
114 117 0
118 120 0
120 123 0
125 128 0
109 111 0
125 129 0
110 112 0
131 133 0
124 125 0
112 113 0
123 126 0
124 125 0
119 121 0
134 139 0
120 120 0
120 121 0
135 139 0
125 127 0
131 136 0
124 128 0
126 124 0
127 129 0
138 142 0
132 136 0
137 141 0
136 142 0
134 137 0
137 141 0
142 150 0
125 130 0
127 132 0
132 137 0
138 146 0
135 139 0
142 147 0
140 145 0
144 148 0
145 152 0
140 148 0
150 156 0
144 151 0
151 162 0
155 165 0
153 164 0
146 154 0
153 159 0
144 151 0
140 146 0
144 155 0
152 163 0
150 159 0
148 156 0
150 159 0
158 172 0
148 158 0
154 165 0
151 163 0
150 160 0
153 163 0
156 167 0
151 161 0
155 168 0
153 166 0
152 165 0
151 160 0
157 170 0
160 173 0
159 172 0
160 172 0
159 175 0
164 179 0
157 169 0
155 169 0
164 180 0
158 173 0
158 171 0
161 176 0
160 177 0
157 172 0
158 172 0
162 178 0
160 174 0
159 173 0
165 181 0
164 179 0
164 179 0
164 180 0
164 180 0
163 181 0
166 183 0
162 178 0
164 181 0
164 178 0
163 180 0
166 185 0
193 213 161
188 208 144
186 207 142
187 208 142
183 203 117
185 206 128
183 205 130
176 197 88
179 202 108
174 197 80
176 200 108
175 199 62
175 198 76
176 199 67
174 197 88
174 198 51
177 201 105
174 197 62
176 199 67
173 196 44
169 193 36
175 199 92
172 196 62
174 197 72
173 196 62
171 195 51
174 198 72
174 197 62
172 196 72
171 195 88
171 195 84
175 199 92
175 199 92
174 197 72
172 195 88
173 197 84
172 195 44
173 197 84
176 199 57
170 194 36
173 197 51
174 198 72
174 197 67
172 195 62
175 198 72
170 194 62
174 197 57
175 200 99
171 195 62
173 197 57
170 194 72
169 193 67
176 199 62
172 196 72
173 196 57
172 195 80
175 198 57
172 197 84
171 194 72
173 197 57
172 195 76
172 195 44
172 195 72
171 195 80
174 197 80
171 195 62
171 194 62
172 195 51
158 181 79
124 150 130
116 142 137
112 138 134
113 139 148
92 120 135
116 142 158
100 127 145
104 132 153
103 130 151
98 126 140
100 128 151
99 128 163
108 134 157
110 137 152
100 128 157
98 126 165
91 121 165
92 122 169
85 116 171
80 112 172
86 116 176
85 116 177
79 111 175
80 112 176
86 116 179
77 109 179
74 107 172
80 111 178
77 109 176
82 113 175
71 105 171
68 102 165
70 104 160
64 99 163
73 105 166
61 97 163
62 98 163
68 102 167
61 96 157
61 97 163
62 98 163
69 102 161
60 96 162
63 99 161
62 97 153
61 96 153
60 95 150
64 98 151
65 99 156
71 103 149
72 104 146
62 96 142
66 100 154
60 95 148
62 97 145
59 94 149
60 96 152
59 94 146
60 95 141
60 95 151
60 96 143
60 95 138
59 95 154
59 95 158
60 95 149
58 94 148
61 97 153
60 96 150
61 96 159
60 96 150
60 95 151
60 95 147
60 95 141
61 97 155
60 96 151
61 96 148
60 96 153
60 95 144
59 94 148
61 97 155
60 95 147
61 97 147
61 96 153
61 96 154
61 97 159
61 96 155
60 96 150
61 97 154
62 98 163
62 98 155
62 97 155
61 96 154
60 95 147
61 97 151
61 96 158
61 96 144
61 97 157
62 98 158
60 95 152
61 97 153
61 97 156
60 96 143
60 95 143
63 98 160
61 97 150
61 96 149
61 97 150
62 98 155
60 96 147
60 95 144
62 97 153
60 96 149
61 97 155
62 98 154
61 97 150
60 96 153
61 97 155
61 97 150
61 97 152
61 97 152
61 96 152
60 95 143
61 96 153
61 96 148
60 95 144
61 97 150
62 98 157
60 95 149
60 96 145
61 96 149
61 97 151
60 96 151
63 99 163
62 98 152
61 97 150
60 95 139
61 97 154
61 97 145
59 94 130
61 97 152
61 97 148
60 95 142
60 96 142
61 96 141
61 96 140
60 95 139
60 96 148
61 96 147
61 96 149
59 94 137
61 96 139
61 96 145
62 97 152
63 99 161
60 96 147
61 96 148
60 95 143
60 95 143
61 96 137
61 97 151
61 95 144
61 96 144
60 95 136
61 97 147
61 96 148
63 98 154
60 95 137
61 95 142
60 95 147
60 95 145
60 95 144
60 94 130
60 96 140
60 94 139
61 95 131
60 94 138
59 94 120
60 95 141
59 92 134
59 94 134
58 92 124
59 93 132
59 92 128
59 93 129
60 94 137
58 91 111
58 91 125
57 89 115
72 99 110
97 114 66
117 127 25
120 132 0
118 132 0
124 135 0
133 144 0
116 126 0
121 130 0
112 118 0
120 128 0
115 124 0
116 128 0
114 121 0
122 131 0
107 117 0
118 126 0
126 135 0
109 117 0
118 126 0
107 115 0
121 130 0
107 113 0
116 127 0
109 114 0
114 121 0
117 125 0
121 128 0
109 113 0
120 125 0
119 124 0
123 129 0
113 119 0
120 122 0
107 111 0
119 124 0
121 128 0
121 128 0
121 123 0
128 132 0
117 121 0
118 121 0
121 126 0
121 126 0
118 119 0
112 117 0
125 130 0
120 126 0
112 117 0
125 132 0
116 121 0
124 128 0
127 131 0
112 117 0
133 137 0
133 136 0
129 129 0
124 126 0
126 128 0
125 130 0
120 122 0
127 128 0
120 121 0
123 129 0
122 123 0
127 129 0
126 128 0
139 143 0
135 142 0
132 134 0
134 140 0
137 141 0
136 142 0
137 140 0
133 138 0
129 134 0
133 139 0
133 135 0
141 147 0
140 145 0
138 144 0
133 136 0
141 148 0
136 143 0
141 148 0
139 147 0
136 142 0
141 148 0
137 143 0
140 147 0
148 155 0
154 164 0
144 152 0
149 159 0
147 155 0
146 153 0
146 154 0
149 158 0
157 169 0
149 156 0
150 158 0
149 159 0
157 169 0
154 165 0
151 160 0
153 161 0
154 165 0
156 168 0
153 167 0
155 166 0
156 169 0
158 167 0
153 166 0
155 165 0
158 173 0
159 172 0
157 170 0
162 178 0
161 176 0
162 174 0
156 170 0
161 179 0
157 173 0
157 170 0
162 180 0
161 175 0
161 178 0
160 174 0
161 176 0
155 171 0
163 179 0
158 172 0
158 174 0
159 176 0
164 178 0
162 180 0
162 179 0
161 177 0
162 178 0
163 181 0
164 180 0
163 180 0
164 180 0
187 208 149
184 205 137
181 203 117
181 203 111
180 202 105
181 204 122
174 197 92
174 198 76
174 196 76
176 199 62
175 198 84
174 197 67
177 201 88
174 197 72
175 198 72
171 194 76
173 197 57
173 197 76
176 199 72
174 198 88
171 195 44
172 196 88
175 198 76
173 196 51
171 195 84
176 198 72
175 198 51
174 198 62
175 198 67
175 198 76
173 197 62
176 199 76
174 197 84
173 196 62
169 192 57
174 198 80
172 196 62
174 198 84
171 193 76
174 197 51
172 195 44
175 198 95
175 198 84
174 197 80
172 195 72
171 194 67
173 196 67
170 195 76
174 198 88
171 194 72
176 198 57
173 197 92
171 194 76
173 197 72
173 196 80
173 196 84
172 194 67
174 197 92
172 196 62
172 196 88
172 195 57
174 198 76
173 196 62
174 197 62
171 194 57
172 195 62
172 195 62
174 197 80
166 190 74
143 167 120
120 145 129
106 132 142
107 134 152
99 126 136
106 132 150
99 127 154
88 117 154
100 128 142
120 145 163
97 126 154
101 129 152
99 126 162
97 124 149
100 127 169
93 122 167
100 127 154
108 135 172
98 126 173
94 123 172
81 113 171
85 116 174
78 110 165
72 105 173
81 112 175
79 110 176
83 113 176
68 103 174
90 120 181
94 122 182
78 110 176
74 107 177
79 110 172
79 111 176
71 104 170
65 100 162
69 104 174
61 97 161
61 97 164
61 97 161
61 97 158
61 97 159
67 101 164
63 99 162
59 95 153
59 93 145
64 98 157
64 98 145
64 98 147
62 96 150
61 97 152
60 96 154
62 96 149
65 99 144
61 97 155
63 97 141
60 94 139
59 95 144
60 96 150
60 95 150
59 94 144
59 95 152
60 95 147
59 94 143
60 95 149
61 97 152
60 95 154
60 96 149
60 96 149
60 96 148
61 97 160
61 96 155
60 96 147
61 97 154
61 97 156
60 95 148
60 96 154
59 95 145
61 97 154
61 97 157
62 97 154
60 95 145
60 96 150
60 95 144
62 98 159
60 96 150
61 97 157
60 95 149
62 98 157
61 96 155
61 97 148
62 97 152
61 96 154
60 95 146
61 96 150
61 97 147
62 98 161
61 96 154
60 96 146
61 97 154
61 96 152
61 97 153
61 97 151
61 97 158
61 96 151
62 98 156
61 97 154
61 97 157
60 96 145
61 97 154
61 96 151
61 97 155
60 95 149
60 96 142
61 97 157
60 96 144
61 97 156
60 95 141
61 96 151
60 95 143
61 97 147
61 96 148
60 96 151
61 96 147
61 96 150
61 97 152
61 97 149
62 97 155
61 96 150
61 97 153
63 99 160
61 97 152
62 97 152
60 96 145
60 96 145
61 96 148
62 97 153
60 95 139
61 96 144
61 96 148
61 96 142
60 95 139
60 95 140
61 96 149
62 97 153
62 97 154
62 97 154
60 95 139
61 96 149
59 95 142
60 96 144
62 97 150
61 96 145
62 97 151
59 94 128
62 97 151
61 96 147
62 98 156
60 95 147
61 96 143
61 96 133
62 98 157
61 96 139
59 93 124
61 96 141
61 96 148
60 95 136
61 96 142
60 94 136
60 94 135
59 93 134
60 94 141
61 96 145
61 96 147
61 95 144
59 94 133
61 96 148
59 93 133
60 95 139
60 94 131
58 92 124
56 89 114
56 89 124
58 92 118
59 93 137
60 94 137
58 91 125
60 93 125
74 96 95
111 125 60
115 125 0
126 138 0
123 136 0
118 128 0
130 139 0
115 124 0
117 127 0
115 125 0
122 133 0
108 117 0
128 138 0
114 122 0
109 121 0
119 126 0
112 121 0
126 135 0
113 120 0
122 131 0
108 118 0
109 116 0
114 119 0
119 126 0
116 122 0
105 114 0
110 117 0
112 119 0
126 133 0
123 133 0
120 126 0
131 136 0
119 125 0
123 128 0
121 127 0
116 123 0
110 116 0
120 125 0
126 132 0
113 119 0
116 118 0
119 125 0
122 128 0
110 113 0
110 113 0
118 124 0
115 119 0
118 124 0
113 116 0
120 120 0
122 127 0
125 131 0
133 139 0
127 131 0
117 122 0
120 126 0
127 132 0
119 121 0
121 126 0
128 132 0
127 132 0
125 130 0
125 129 0
119 124 0
136 143 0
131 135 0
132 138 0
136 141 0
138 143 0
135 139 0
134 140 0
138 143 0
136 142 0
135 142 0
139 145 0
131 135 0
137 144 0
130 128 0
145 151 0
138 146 0
142 149 0
138 146 0
149 158 0
144 151 0
143 151 0
144 153 0
146 155 0
147 157 0
142 148 0
149 158 0
155 165 0
133 141 0
148 157 0
155 165 0
147 157 0
151 163 0
152 162 0
155 166 0
143 153 0
147 155 0
155 169 0
156 167 0
148 160 0
149 161 0
155 166 0
150 159 0
147 158 0
153 165 0
153 167 0
154 170 0
159 171 0
149 159 0
154 165 0
157 169 0
160 172 0
156 169 0
161 172 0
160 176 0
156 167 0
158 172 0
156 171 0
153 167 0
161 174 0
160 174 0
160 178 0
157 175 0
163 179 0
160 173 0
162 176 0
161 179 0
157 172 0
160 176 0
164 178 0
154 168 0
160 177 0
167 185 0
164 183 0
165 183 0
163 180 0
161 178 0
166 183 0
162 182 0
163 181 0
184 206 135
182 204 114
178 201 92
180 202 105
177 200 88
172 195 57
174 197 72
174 198 80
173 197 67
175 198 62
173 197 84
173 197 67
171 194 57
172 195 67
175 199 84
173 197 76
176 200 72
175 199 67
173 197 57
173 198 57
175 198 57
173 197 80
175 199 84
173 197 72
175 198 62
172 196 72
171 195 57
174 199 80
171 195 62
173 197 67
173 197 72
173 197 67
171 195 51
169 192 57
172 196 67
171 194 57
175 199 80
172 196 67
171 195 76
172 195 88
173 197 72
174 197 72
174 197 76
170 194 72
174 198 92
171 195 80
172 195 67
169 192 67
173 196 80
174 198 92
171 195 76
172 195 51
173 197 76
172 196 95
170 194 76
175 199 92
171 195 72
172 195 72
172 194 67
174 198 76
173 196 67
171 195 84
171 194 76
173 196 67
172 196 72
174 198 67
167 189 62
173 196 67
171 194 62
155 178 113
126 151 117
115 142 137
100 128 147
94 122 140
101 128 144
105 132 150
89 117 152
102 129 154
98 125 133
94 122 151
101 129 150
106 132 156
105 131 150
113 139 164
95 123 155
96 124 147
101 128 159
92 121 167
101 128 159
86 116 164
88 117 168
73 106 166
69 103 171
78 110 175
83 114 173
76 108 177
89 118 181
69 103 171
78 110 181
82 113 178
82 113 176
62 98 170
74 107 172
71 104 167
66 101 171
67 101 160
71 104 165
64 99 159
62 98 160
60 96 161
64 98 156
64 99 162
62 98 166
64 99 157
67 101 154
64 99 150
65 99 149
62 96 147
63 98 146
64 97 150
63 97 150
65 98 142
63 97 156
65 99 151
60 95 148
62 97 150
59 94 145
60 95 149
60 95 144
59 94 144
60 95 157
60 95 155
61 97 156
61 96 145
59 94 147
61 96 148
61 96 149
58 93 136
60 95 150
60 95 147
62 97 156
60 95 144
60 96 156
60 95 148
60 95 149
60 96 148
60 96 146
61 96 148
61 97 151
60 95 148
62 97 156
61 97 158
60 95 148
62 97 156
60 96 153
61 96 151
61 96 155
59 94 140
60 95 145
60 95 147
62 98 155
61 96 157
61 97 154
61 97 157
60 95 148
62 97 156
61 97 157
62 98 156
62 97 153
61 97 149
62 98 160
61 96 148
61 96 154
61 97 154
61 96 147
60 95 145
60 96 145
61 97 151
61 97 149
61 96 147
61 97 155
61 96 142
60 96 141
60 96 151
61 96 141
61 97 155
61 96 143
61 96 157
62 97 154
62 98 152
61 96 145
61 96 143
61 96 157
62 98 161
61 96 147
61 97 154
62 97 149
61 96 149
61 97 145
61 97 156
62 98 153
61 96 148
61 96 147
60 95 141
61 96 148
61 96 145
61 95 145
61 97 153
61 97 151
61 96 143
61 97 147
60 95 145
61 96 147
60 96 148
61 96 145
61 97 151
60 95 144
61 96 150
62 97 150
61 96 142
61 96 144
61 96 144
61 96 143
60 95 143
60 95 143
60 95 145
61 97 155
60 96 135
60 96 135
61 96 144
60 95 139
61 96 150
60 94 136
59 93 128
60 95 144
61 95 135
61 96 149
60 95 141
60 95 139
60 95 135
60 94 134
60 94 136
58 92 126
61 96 149
59 93 136
61 96 142
59 93 130
58 91 120
58 92 120
60 94 135
60 94 129
59 93 122
60 94 131
59 93 128
59 92 121
57 90 102
69 98 119
101 118 75
114 126 36
115 125 0
126 138 0
116 125 0
115 125 0
127 138 0
114 124 0
110 118 0
113 123 0
117 129 0
114 120 0
118 128 0
124 134 0
117 128 0
116 125 0
122 132 0
111 121 0
122 130 0
126 135 0
116 124 0
113 122 0
127 136 0
113 121 0
117 126 0
121 129 0
115 124 0
114 120 0
128 136 0
126 131 0
115 120 0
106 109 0
115 121 0
108 112 0
125 132 0
109 115 0
120 124 0
122 125 0
127 134 0
114 116 0
123 130 0
117 120 0
129 136 0
119 125 0
109 113 0
122 126 0
114 117 0
135 140 0
124 130 0
135 139 0
122 128 0
122 126 0
131 135 0
116 121 0
130 135 0
121 127 0
134 141 0
136 142 0
132 136 0
128 131 0
125 130 0
130 134 0
136 142 0
133 138 0
126 128 0
132 137 0
129 133 0
140 147 0
133 138 0
133 138 0
134 140 0
136 143 0
143 146 0
133 135 0
132 135 0
145 154 0
143 149 0
138 144 0
143 150 0
140 146 0
136 139 0
138 141 0
146 152 0
135 141 0
146 153 0
135 142 0
144 152 0
139 144 0
146 153 0
152 161 0
137 146 0
146 155 0
149 160 0
150 160 0
152 161 0
150 162 0
149 156 0
148 160 0
150 161 0
152 160 0
146 156 0
155 165 0
157 167 0
147 156 0
159 172 0
153 166 0
153 166 0
158 172 0
158 171 0
151 162 0
157 169 0
158 173 0
153 165 0
153 167 0
159 170 0
153 166 0
159 173 0
157 171 0
154 168 0
159 172 0
155 170 0
151 163 0
156 171 0
161 174 0
164 179 0
157 171 0
158 174 0
159 173 0
156 170 0
158 172 0
161 178 0
160 176 0
164 182 0
162 179 0
160 177 0
162 178 0
165 184 0
163 181 0
165 182 0
164 183 0
168 187 0
163 180 0
160 179 0
178 200 111
179 201 102
179 202 105
179 202 92
173 197 62
176 200 84
173 198 72
171 195 88
174 198 72
175 199 62
173 197 67
176 199 67
170 194 67
173 196 76
170 194 67
173 197 62
172 195 72
175 198 84
170 194 62
173 196 44
170 193 72
174 198 72
171 194 44
170 194 67
172 195 67
174 197 62
174 198 62
173 197 80
173 196 51
172 196 84
172 195 62
174 198 80
172 196 62
171 195 51
169 193 62
172 197 88
173 197 44
171 195 57
172 196 80
172 196 88
173 196 57
173 196 92
172 195 67
175 198 76
170 194 84
174 197 88
171 194 80
170 194 76
171 195 80
170 194 84
169 193 67
168 192 80
173 196 80
170 193 76
170 194 67
173 195 72
172 195 76
167 191 62
169 193 62
173 197 62
175 198 92
170 194 36
170 194 67
169 192 67
170 193 76
168 192 80
171 194 67
168 191 67
167 190 36
167 191 108
136 161 134
116 141 121
102 128 145
88 117 143
102 129 151
102 129 152
82 113 153
104 132 153
104 131 150
98 126 159
109 136 167
109 136 164
109 136 162
93 121 157
105 132 151
106 133 143
90 119 156
98 126 152
92 121 161
96 124 161
94 123 168
93 122 165
81 112 169
82 113 178
78 110 170
94 123 181
84 115 181
79 110 178
77 109 178
82 113 179
81 112 177
69 103 169
76 108 175
77 109 172
65 100 163
68 102 166
80 111 171
64 99 167
67 101 164
64 99 165
67 101 162
61 97 155
61 96 156
60 96 157
61 97 159
61 97 159
60 96 153
62 98 155
64 97 145
66 100 148
67 101 149
68 101 145
63 96 148
62 97 154
71 103 152
63 97 141
60 95 146
60 95 156
59 95 150
60 95 157
61 97 147
60 95 152
59 94 150
60 95 142
60 95 147
58 93 146
61 97 155
61 96 150
60 96 150
59 95 149
61 96 154
58 93 137
61 96 150
59 94 142
60 95 148
59 94 145
62 98 161
61 97 155
60 96 147
60 96 147
60 95 140
61 97 155
61 97 149
61 97 154
60 96 147
59 95 140
60 95 143
59 94 137
61 96 145
62 97 155
60 95 141
60 95 138
61 96 149
61 97 154
60 96 144
61 96 144
61 96 149
61 96 150
62 97 151
62 97 157
61 96 145
61 97 160
61 97 148
61 97 157
59 94 139
61 96 144
62 98 158
61 96 146
61 96 145
62 97 152
60 95 147
62 97 152
62 97 149
61 97 148
62 97 150
60 95 149
61 97 150
62 98 151
60 95 145
61 96 141
62 98 162
61 96 154
62 97 150
62 97 155
61 97 152
61 96 148
63 99 160
61 97 157
61 96 149
60 96 150
61 97 147
60 95 145
62 97 148
61 97 145
62 97 152
60 96 147
60 96 144
61 96 153
62 98 159
61 97 149
61 96 148
61 96 147
62 98 152
61 96 143
61 97 149
60 95 136
62 97 151
61 96 142
62 97 150
61 96 145
61 96 139
60 94 134
60 96 148
61 97 150
61 96 147
60 95 135
61 96 143
61 95 145
61 95 139
62 97 148
60 95 133
60 95 133
60 95 141
59 93 131
61 96 142
59 94 137
61 96 149
60 96 142
60 96 141
60 95 139
60 95 131
59 94 130
59 93 132
60 95 135
61 96 148
60 94 135
61 96 144
60 94 130
60 94 132
58 92 129
60 94 139
59 92 121
59 92 133
58 91 124
60 94 134
58 91 117
81 103 87
109 124 44
109 120 44
123 133 0
126 140 0
127 139 0
114 125 0
105 115 0
107 116 0
126 138 0
118 129 0
122 130 0
121 129 0
109 118 0
123 133 0
116 127 0
122 132 0
118 126 0
120 129 0
122 130 0
109 117 0
128 137 0
125 132 0
110 117 0
113 119 0
116 124 0
122 131 0
124 131 0
121 130 0
115 121 0
124 131 0
112 120 0
121 123 0
117 123 0
122 129 0
117 124 0
125 132 0
116 120 0
118 125 0
117 126 0
118 123 0
130 136 0
126 132 0
131 137 0
128 133 0
122 128 0
119 122 0
126 132 0
104 109 0
115 121 0
121 127 0
129 135 0
127 134 0
114 118 0
128 135 0
130 134 0
119 123 0
140 145 0
122 126 0
128 133 0
123 129 0
129 135 0
136 140 0
128 132 0
133 139 0
130 137 0
123 127 0
128 132 0
135 141 0
134 134 0
134 139 0
128 130 0
135 139 0
135 141 0
148 156 0
140 148 0
137 145 0
140 149 0
146 156 0
143 150 0
143 150 0
151 161 0
139 148 0
154 163 0
145 151 0
136 143 0
144 151 0
146 156 0
146 154 0
142 149 0
148 157 0
145 154 0
145 155 0
141 149 0
150 158 0
151 161 0
153 161 0
147 155 0
153 165 0
152 164 0
148 158 0
155 166 0
151 163 0
154 164 0
156 168 0
153 165 0
156 168 0
154 164 0
154 165 0
152 163 0
157 167 0
155 168 0
154 167 0
156 168 0
156 168 0
160 173 0
157 172 0
155 167 0
158 172 0
161 177 0
157 174 0
159 175 0
153 167 0
156 170 0
160 176 0
152 165 0
163 180 0
160 174 0
161 177 0
158 171 0
165 181 0
163 176 0
162 177 0
158 173 0
162 178 0
166 183 0
161 177 0
162 179 0
160 179 0
164 181 0
160 176 0
166 185 0
165 182 0
164 179 0
177 199 92
176 199 76
172 196 62
174 197 84
175 199 88
171 195 57
171 195 80
176 200 72
170 194 51
174 198 102
173 197 76
172 195 57
176 199 80
172 195 72
172 196 80
175 198 57
172 195 51
175 199 62
172 196 62
176 199 67
173 197 57
175 199 84
173 197 80
176 200 88
173 197 76
173 197 57
169 193 72
171 195 67
172 196 84
173 197 88
175 200 92
172 196 84
170 193 57
173 196 95
170 194 76
174 198 84
169 193 57
175 198 80
173 197 72
173 197 76
174 198 80
169 192 76
168 191 44
165 190 80
172 196 62
172 195 57
167 191 51
173 197 72
174 198 80
171 195 62
172 195 62
175 198 72
175 199 62
170 193 84
169 193 80
167 192 67
172 196 67
172 195 80
169 192 72
168 192 62
171 194 36
172 195 72
168 192 62
174 197 67
169 193 84
173 196 72
174 197 57
170 194 51
169 193 67
172 196 86
157 181 102
127 151 126
101 128 141
104 130 150
102 129 147
88 117 157
95 123 148
96 124 143
102 129 154
90 119 154
99 126 137
99 126 156
100 128 156
98 126 151
109 135 144
98 125 154
107 134 158
99 126 149
118 143 153
106 132 155
98 126 151
88 117 158
83 113 163
90 120 158
78 109 164
80 112 171
77 110 175
71 105 177
84 114 178
82 112 177
71 104 175
71 104 175
71 104 169
67 102 168
74 107 175
66 101 161
71 104 159
62 98 163
68 102 168
62 98 156
62 98 160
60 96 157
61 96 156
61 97 158
62 97 159
62 98 164
60 95 150
65 99 149
62 98 162
62 97 148
59 94 150
61 95 142
61 96 156
70 104 152
64 97 150
64 98 143
59 93 144
61 95 140
60 95 151
59 94 145
60 95 157
59 94 146
59 94 144
60 96 151
59 95 149
59 95 155
61 96 150
59 94 150
61 97 151
59 94 147
61 96 155
60 96 156
60 95 145
60 96 141
60 95 148
61 96 154
60 96 148
61 96 149
60 96 149
59 95 154
60 95 152
59 95 140
61 96 148
61 97 155
61 97 151
59 94 141
62 97 158
60 96 148
61 96 150
61 97 158
61 97 157
60 95 148
61 96 151
60 96 148
60 96 144
60 96 149
61 97 151
61 97 151
62 97 159
61 97 155
61 97 158
61 97 153
61 97 154
61 96 150
61 96 144
60 96 151
61 96 149
61 96 150
62 97 152
60 95 144
61 96 145
62 97 148
61 96 147
61 96 149
61 97 145
61 96 152
61 96 145
61 96 143
61 96 151
59 94 143
60 96 144
61 96 147
61 97 153
61 97 156
61 97 149
62 98 155
60 95 148
62 97 153
61 97 149
60 95 142
61 96 149
60 96 148
60 95 145
61 96 144
61 96 153
61 97 153
61 96 145
61 96 148
60 95 140
60 95 144
60 95 137
61 96 141
61 96 149
61 96 145
60 95 143
61 97 145
63 99 160
61 96 151
61 96 151
59 94 140
62 97 150
60 95 136
61 96 141
60 95 144
60 94 135
61 95 130
60 95 143
60 95 135
59 94 143
61 96 143
61 96 143
60 95 142
60 95 136
60 96 147
61 96 147
60 95 141
60 95 139
61 96 141
61 96 147
59 94 129
61 95 144
59 93 125
61 95 137
60 94 131
61 96 148
61 95 145
59 92 131
60 94 131
59 92 121
57 90 124
59 93 130
58 92 126
58 92 125
56 89 115
57 90 124
69 97 118
80 100 90
109 120 31
123 137 18
114 124 0
112 122 0
124 136 0
109 120 0
116 129 0
124 136 0
126 133 0
122 131 0
117 126 0
115 126 0
117 126 0
129 139 0
119 129 0
110 115 0
123 132 0
120 129 0
127 135 0
127 134 0
124 129 0
114 121 0
120 130 0
120 130 0
121 131 0
117 127 0
127 135 0
121 131 0
120 124 0
125 134 0
134 145 0
122 130 0
114 120 0
128 136 0
120 125 0
123 132 0
119 127 0
118 125 0
124 130 0
119 124 0
121 126 0
117 122 0
115 123 0
123 131 0
118 122 0
121 128 0
132 140 0
125 129 0
123 127 0
129 133 0
121 125 0
115 122 0
131 138 0
137 145 0
140 147 0
122 128 0
129 135 0
136 142 0
133 140 0
110 111 0
131 136 0
121 127 0
131 136 0
129 134 0
119 123 0
134 141 0
135 139 0
132 138 0
142 148 0
130 135 0
132 138 0
136 143 0
141 147 0
137 143 0
137 142 0
135 144 0
137 143 0
144 153 0
139 145 0
146 152 0
147 159 0
140 148 0
148 159 0
141 149 0
145 153 0
143 153 0
146 157 0
142 150 0
151 160 0
149 157 0
149 159 0
144 153 0
151 158 0
151 162 0
147 155 0
150 160 0
144 152 0
149 161 0
151 162 0
152 164 0
144 152 0
158 168 0
153 164 0
149 158 0
148 157 0
151 162 0
147 159 0
159 171 0
155 164 0
161 176 0
155 168 0
151 163 0
159 171 0
153 166 0
159 174 0
157 170 0
159 174 0
157 171 0
161 173 0
165 181 0
162 177 0
155 172 0
158 173 0
158 174 0
157 172 0
163 180 0
161 174 0
159 173 0
159 174 0
163 180 0
154 167 0
165 181 0
161 179 0
164 181 0
162 178 0
165 182 0
163 179 0
164 180 0
165 183 0
166 183 0
163 181 0
166 184 0
162 179 0
174 198 72
177 200 88
175 199 80
172 196 72
175 198 80
173 196 62
171 195 72
172 196 72
173 197 72
170 193 72
174 197 62
177 200 88
172 196 67
175 198 57
171 195 67
173 197 72
173 197 57
172 196 92
174 197 62
170 194 62
172 196 80
171 195 76
174 197 67
172 196 84
173 197 67
171 195 44
170 193 67
171 194 62
173 197 76
171 195 76
174 197 57
172 197 95
173 196 57
170 193 88
174 197 57
170 193 76
173 197 72
171 194 57
174 197 76
176 200 92
173 196 72
173 197 80
170 194 67
173 197 57
171 195 76
174 197 62
169 193 84
172 196 62
174 198 80
169 193 57
172 196 62
174 198 99
168 191 80
168 192 72
173 196 88
171 195 72
173 196 76
169 192 62
171 195 80
167 190 44
170 194 84
171 193 67
168 191 80
166 190 67
169 192 36
174 197 84
171 194 57
172 196 72
169 192 76
166 189 76
161 185 95
143 166 103
107 134 139
100 127 139
92 121 133
92 120 147
94 121 145
100 127 151
90 118 144
87 116 145
95 122 154
101 129 157
108 135 158
94 122 156
108 135 159
96 124 153
108 134 154
97 125 150
98 126 156
93 122 147
107 133 152
101 128 157
94 122 162
84 115 159
83 114 162
90 120 160
85 114 171
78 110 179
80 112 173
76 109 170
76 108 174
79 111 176
76 108 172
71 104 169
90 119 175
82 112 175
64 99 165
68 102 166
64 99 157
61 97 158
65 100 171
60 96 158
61 97 159
61 97 164
61 97 158
60 95 149
61 96 150
63 98 153
60 95 147
66 100 148
60 95 151
62 96 155
64 98 148
62 97 149
58 93 139
67 100 144
67 100 140
59 95 151
59 94 146
60 95 148
60 95 150
59 95 148
60 95 145
61 96 149
60 96 154
59 94 146
59 94 143
59 94 139
59 94 143
61 96 148
59 95 145
59 93 141
61 97 152
59 95 145
59 94 148
59 94 145
59 94 146
59 93 138
60 95 153
59 95 144
59 95 149
61 97 153
61 96 156
61 97 154
61 97 156
60 96 149
60 96 146
60 95 143
60 95 145
62 97 155
61 96 147
61 96 149
61 96 150
61 97 154
61 97 158
62 97 157
63 98 155
62 98 158
60 96 144
62 97 154
61 97 155
60 95 144
60 95 145
61 97 151
61 96 150
61 96 150
60 96 152
61 97 155
60 95 146
61 96 148
61 96 137
62 97 157
62 98 155
60 95 139
61 97 155
61 97 150
62 97 150
62 98 152
60 95 148
60 96 149
61 96 142
60 96 147
61 97 149
61 96 148
61 97 151
61 96 147
61 97 153
61 96 145
62 97 154
61 97 151
62 97 152
61 96 140
60 95 139
61 96 144
61 96 142
62 98 158
62 98 161
60 95 140
60 96 141
61 95 140
63 98 156
61 96 142
61 96 145
62 98 156
60 95 137
60 95 139
60 96 142
60 95 136
61 97 147
61 96 144
60 95 136
60 94 137
62 97 149
61 96 140
61 96 145
59 94 130
61 96 139
60 96 148
62 97 151
61 97 148
61 96 142
61 96 145
60 95 141
61 96 143
59 94 135
61 96 142
61 96 147
60 95 143
62 97 144
60 95 142
59 94 130
60 95 142
59 93 130
61 96 142
59 93 129
59 93 130
60 95 137
59 93 134
58 91 126
60 95 139
59 93 128
58 91 136
59 93 119
57 90 118
58 89 126
82 107 95
101 114 57
104 115 31
122 134 0
119 131 0
111 120 0
125 137 0
129 139 0
123 134 0
126 137 0
113 122 0
101 110 0
114 125 0
129 142 0
124 135 0
109 121 0
107 117 0
112 123 0
122 134 0
124 134 0
127 139 0
123 133 0
126 135 0
126 134 0
119 129 0
118 129 0
110 116 0
125 135 0
122 132 0
111 119 0
127 136 0
120 129 0
124 134 0
118 125 0
119 125 0
122 132 0
131 141 0
130 140 0
123 132 0
124 129 0
125 132 0
118 125 0
121 127 0
128 134 0
123 130 0
130 138 0
125 131 0
125 132 0
120 126 0
127 134 0
141 148 0
130 139 0
135 143 0
124 126 0
131 135 0
128 134 0
131 140 0
132 137 0
134 138 0
135 139 0
135 140 0
131 138 0
139 148 0
129 134 0
136 142 0
139 144 0
128 133 0
122 128 0
138 146 0
138 146 0
136 142 0
137 145 0
138 146 0
137 146 0
145 153 0
138 143 0
141 147 0
141 147 0
138 144 0
144 151 0
136 144 0
140 150 0
137 144 0
146 156 0
149 158 0
150 160 0
146 156 0
150 157 0
138 149 0
152 162 0
142 152 0
143 153 0
149 161 0
148 156 0
152 162 0
150 160 0
148 158 0
154 166 0
153 163 0
153 162 0
152 163 0
150 161 0
150 158 0
158 171 0
147 157 0
153 167 0
156 166 0
153 165 0
153 164 0
162 175 0
156 169 0
154 166 0
156 169 0
156 167 0
160 173 0
155 170 0
164 179 0
159 176 0
157 173 0
152 165 0
159 175 0
162 179 0
162 178 0
162 179 0
155 171 0
160 177 0
164 179 0
163 179 0
164 181 0
161 176 0
171 188 0
162 179 0
161 178 0
155 169 0
162 181 0
161 177 0
158 174 0
162 178 0
162 179 0
167 189 0
167 185 0
156 170 0
161 179 0
168 187 0
159 177 0
172 196 67
173 197 72
175 199 62
175 198 51
175 199 95
175 198 67
174 198 102
172 195 62
175 198 57
175 198 84
173 197 80
170 194 67
176 199 72
175 198 72
173 196 57
174 197 67
172 196 62
173 196 67
174 198 67
171 193 36
173 197 67
174 199 67
170 194 76
170 195 80
170 194 92
172 196 72
171 194 57
174 199 92
175 198 72
172 197 76
174 198 105
170 194 76
174 197 67
172 195 36
170 195 67
170 193 57
171 195 80
171 195 51
172 196 57
169 193 51
173 196 80
167 192 84
172 196 88
172 195 67
172 196 80
171 195 88
170 195 92
175 198 80
171 194 67
168 192 57
165 189 62
171 193 80
172 196 80
172 195 76
170 193 57
171 194 57
172 195 57
171 196 84
174 197 88
168 191 67
170 192 57
169 191 57
169 192 51
170 195 88
170 192 80
172 195 84
172 196 62
166 189 72
170 193 84
171 194 67
166 190 62
153 177 97
125 150 114
106 133 152
99 127 153
105 132 150
96 124 143
99 126 151
85 115 153
98 126 154
93 122 150
107 133 145
97 125 165
95 123 154
106 133 162
100 127 148
95 123 159
95 123 148
110 137 152
106 133 157
106 132 150
105 132 151
85 114 153
90 118 160
92 121 159
81 112 172
82 113 167
97 125 177
83 113 169
76 108 170
80 111 168
84 114 176
70 104 166
87 116 178
81 111 170
74 107 170
71 105 169
65 100 168
63 99 166
68 103 170
62 98 159
64 98 159
69 103 168
61 97 166
61 97 163
60 96 159
60 95 153
65 100 159
63 98 154
63 98 159
63 98 154
62 96 145
64 98 143
65 99 147
62 96 150
63 96 142
65 98 137
59 94 143
61 96 140
63 98 149
59 94 139
62 96 147
59 94 141
59 94 147
59 93 140
60 94 147
60 95 144
59 94 141
60 95 154
60 95 147
60 96 145
61 96 153
60 96 145
60 96 149
59 94 141
60 95 139
59 94 142
60 94 137
60 96 142
60 95 147
60 95 145
61 96 151
60 95 145
60 95 143
61 97 152
61 96 154
60 96 141
61 96 150
59 93 138
62 97 155
60 96 150
61 97 151
59 95 144
59 94 140
62 98 158
60 95 144
61 96 144
61 96 149
60 95 146
61 96 156
61 96 151
60 95 141
62 97 153
61 97 150
61 97 154
61 97 151
61 97 155
62 97 153
62 98 152
61 96 153
62 98 151
60 95 143
61 96 150
61 97 148
60 95 145
62 97 154
60 96 143
62 97 149
61 97 148
61 96 152
61 96 149
61 96 148
61 97 152
61 97 143
60 95 136
60 95 145
62 98 157
61 97 149
60 95 143
60 95 140
62 97 150
60 96 143
60 95 145
60 96 147
61 96 143
60 95 139
60 95 133
60 95 144
62 97 149
60 94 134
61 96 140
61 97 150
61 97 148
61 97 151
61 96 136
60 95 144
60 94 136
61 96 148
60 95 140
61 97 147
62 97 145
60 95 134
59 94 137
62 98 149
60 96 142
60 96 145
60 95 140
61 96 143
61 96 143
59 93 137
61 95 135
59 94 134
60 94 130
61 96 147
60 95 136
59 93 128
61 95 137
61 96 147
62 97 151
60 95 130
60 95 136
61 96 135
60 94 130
58 91 125
60 94 129
59 92 131
59 92 134
60 95 133
59 93 126
58 92 120
58 92 120
59 93 126
56 88 117
58 91 115
62 91 115
100 118 72
102 118 47
110 122 25
123 138 0
120 132 0
114 126 0
114 126 0
114 125 0
128 141 0
117 128 0
128 140 0
112 123 0
116 127 0
113 124 0
117 126 0
118 128 0
125 136 0
118 128 0
114 122 0
124 135 0
122 132 0
117 129 0
123 133 0
121 130 0
122 132 0
125 133 0
121 128 0
122 131 0
110 116 0
110 120 0
129 141 0
126 133 0
127 134 0
129 140 0
122 130 0
130 139 0
126 135 0
126 135 0
131 140 0
128 136 0
119 128 0
128 135 0
118 125 0
126 133 0
120 128 0
130 139 0
126 134 0
121 126 0
132 137 0
121 128 0
120 124 0
125 133 0
135 144 0
126 132 0
135 144 0
130 137 0
121 126 0
131 138 0
139 147 0
134 139 0
130 135 0
136 143 0
120 127 0
135 143 0
138 146 0
139 147 0
127 133 0
133 140 0
128 134 0
143 153 0
125 128 0
144 151 0
144 151 0
140 147 0
143 150 0
141 146 0
135 141 0
134 139 0
141 148 0
141 149 0
142 152 0
148 156 0
145 153 0
150 160 0
143 153 0
144 154 0
140 149 0
139 146 0
145 153 0
144 156 0
144 154 0
155 166 0
142 152 0
148 160 0
147 158 0
150 162 0
157 170 0
154 167 0
148 157 0
156 168 0
152 166 0
154 164 0
153 164 0
150 162 0
148 158 0
147 158 0
151 163 0
153 167 0
151 161 0
161 175 0
153 168 0
158 173 0
150 162 0
152 163 0
161 174 0
156 169 0
160 176 0
155 168 0
159 173 0
159 173 0
159 172 0
156 169 0
158 173 0
161 178 0
163 180 0
157 172 0
156 171 0
162 179 0
164 180 0
159 172 0
162 179 0
158 176 0
159 172 0
161 176 0
166 182 0
160 177 0
161 177 0
161 178 0
163 178 0
165 181 0
164 183 0
162 178 0
165 184 0
169 185 0
162 180 0
177 200 76
172 196 76
174 198 84
171 195 51
173 197 76
176 199 57
172 196 76
174 198 57
169 193 57
175 200 84
175 198 80
176 199 84
175 198 62
173 197 92
173 197 80
172 195 51
173 197 72
173 196 72
172 196 80
173 196 44
173 197 57
171 196 76
165 187 51
173 197 76
169 193 72
166 189 62
171 195 80
175 199 67
174 197 62
173 197 105
169 193 76
174 198 92
170 193 67
174 198 92
171 194 72
171 194 72
172 196 88
170 194 67
169 194 62
172 196 80
168 192 62
171 195 92
170 193 76
170 193 72
172 196 76
171 195 76
172 196 76
172 196 72
170 193 67
169 192 57
167 190 72
168 191 76
167 190 62
172 195 76
169 193 62
171 194 67
166 190 67
171 193 76
168 191 76
170 194 72
169 193 67
170 194 72
167 190 84
168 191 67
168 192 67
169 192 76
171 195 84
171 193 57
167 190 67
171 194 76
169 193 67
161 184 74
130 155 118
110 136 140
93 121 156
96 123 149
98 126 158
97 125 151
99 126 147
105 132 154
92 121 152
107 134 153
101 128 154
101 128 149
95 123 151
111 137 165
105 131 152
100 128 148
107 132 154
98 125 141
91 120 158
98 125 161
91 119 146
84 115 150
85 115 151
76 108 159
82 112 167
95 123 161
81 111 167
85 115 165
73 106 167
71 105 170
89 118 183
71 104 168
85 115 174
70 103 167
79 110 174
74 106 170
72 105 166
61 98 166
71 103 164
63 98 155
61 97 162
61 97 158
59 95 158
61 97 155
60 95 152
59 95 148
60 96 153
66 99 148
60 95 147
65 99 153
61 96 144
62 96 151
65 99 150
64 98 147
66 99 142
63 98 148
62 95 143
61 96 149
60 95 153
63 97 149
60 96 154
60 95 147
60 96 154
59 94 145
59 94 144
61 95 149
60 95 149
59 94 138
60 95 143
60 96 150
59 94 143
60 95 144
61 96 148
61 96 151
60 95 145
62 97 158
61 96 152
60 95 143
61 96 150
60 96 144
60 95 148
60 95 150
60 96 149
60 96 149
61 96 153
60 96 150
60 96 148
61 96 149
60 95 144
61 96 149
61 97 156
60 95 146
60 96 153
61 96 153
61 96 145
61 96 147
60 95 144
60 95 135
60 95 145
61 96 149
61 96 142
61 96 147
61 96 144
61 96 143
60 95 149
60 95 142
61 96 150
62 98 160
60 96 145
61 96 150
62 98 155
61 96 145
60 96 148
60 96 150
61 97 154
61 97 147
61 96 145
60 96 150
59 94 133
62 97 152
61 97 145
60 95 143
61 96 141
62 97 151
61 96 150
61 96 140
61 96 150
62 97 149
61 96 144
60 96 143
61 97 148
60 96 145
62 97 151
61 96 145
60 95 143
61 96 145
61 97 153
61 96 151
59 94 141
60 95 142
61 96 144
61 96 144
61 96 141
61 97 143
60 95 131
59 94 135
60 96 143
62 97 150
61 96 149
60 95 140
60 94 140
60 94 131
61 96 151
61 96 139
61 96 140
60 94 141
61 96 144
61 96 136
60 94 129
61 96 149
60 95 139
60 94 137
60 95 135
61 96 148
59 94 142
60 95 139
60 95 141
58 92 121
59 93 128
61 96 136
60 95 140
59 93 129
60 94 137
59 93 129
59 93 131
60 94 136
59 92 121
59 93 126
59 93 127
58 91 117
59 92 129
59 90 121
78 96 90
89 108 66
106 118 36
123 136 0
111 125 0
118 129 0
117 129 0
109 120 0
129 142 0
117 129 0
122 134 0
119 130 0
120 131 0
120 132 0
112 122 0
130 139 0
121 134 0
116 126 0
128 139 0
115 125 0
113 121 0
121 129 0
117 127 0
115 125 0
131 139 0
122 130 0
123 132 0
125 135 0
122 132 0
123 132 0
115 121 0
125 134 0
124 133 0
127 135 0
125 133 0
127 138 0
118 125 0
124 133 0
125 133 0
125 134 0
131 139 0
123 130 0
123 132 0
129 137 0
128 137 0
127 134 0
127 133 0
124 133 0
117 125 0
122 127 0
123 129 0
135 145 0
133 141 0
133 140 0
136 143 0
131 139 0
130 136 0
132 139 0
124 129 0
130 136 0
132 141 0
139 150 0
129 136 0
120 127 0
137 146 0
132 138 0
135 142 0
128 134 0
133 140 0
133 143 0
146 155 0
138 145 0
132 137 0
140 149 0
138 143 0
137 142 0
141 149 0
132 141 0
146 155 0
142 151 0
146 156 0
137 145 0
145 154 0
145 155 0
152 161 0
151 160 0
141 152 0
148 156 0
137 148 0
150 160 0
150 159 0
146 154 0
149 158 0
146 153 0
152 167 0
146 157 0
150 162 0
149 157 0
150 163 0
155 166 0
147 158 0
158 171 0
150 161 0
153 164 0
150 162 0
155 166 0
158 172 0
151 164 0
155 168 0
161 174 0
152 165 0
160 175 0
158 174 0
157 170 0
161 174 0
162 176 0
159 175 0
158 173 0
153 165 0
153 166 0
159 174 0
155 171 0
163 181 0
160 175 0
161 176 0
157 172 0
164 179 0
161 176 0
162 179 0
158 172 0
165 183 0
164 182 0
165 182 0
157 173 0
159 176 0
163 179 0
161 176 0
157 174 0
160 176 0
158 175 0
166 185 0
161 181 0
163 181 0
161 176 0
162 180 0
162 182 0
172 196 80
175 198 80
175 199 80
174 198 92
172 197 84
173 197 72
171 195 57
173 197 99
171 195 72
173 197 80
174 198 84
170 194 72
169 192 57
171 194 76
172 196 76
172 196 72
167 191 84
172 196 62
169 193 72
168 191 57
175 198 80
170 192 44
171 195 88
172 195 80
170 195 62
177 201 95
173 197 72
171 195 80
173 197 62
171 196 72
173 197 76
171 195 80
173 197 88
174 197 72
173 197 92
171 194 72
169 192 62
170 194 72
166 189 62
170 193 76
169 193 67
171 194 57
171 195 84
171 196 76
168 192 62
172 195 84
175 199 84
170 193 62
166 190 62
173 197 57
172 196 92
163 186 72
171 194 76
167 192 88
172 196 92
171 196 88
170 193 92
167 192 95
173 196 80
166 190 76
167 191 76
170 193 36
168 190 44
167 191 62
169 191 72
166 190 72
173 197 80
170 193 80
167 190 76
168 192 57
173 197 80
171 194 65
160 184 95
128 152 126
102 129 140
102 129 149
97 126 150
91 120 157
92 120 134
97 124 145
99 125 143
87 116 149
94 122 150
92 120 139
109 135 153
101 128 158
106 132 152
101 128 143
90 118 157
98 125 153
88 116 146
91 120 158
93 121 147
102 128 148
95 122 158
96 123 151
93 121 165
82 113 166
99 127 164
86 115 163
75 108 174
80 112 171
77 109 170
78 110 177
77 109 176
84 114 177
75 107 176
70 103 163
71 104 164
61 97 166
65 100 168
64 99 161
63 99 163
67 101 167
60 96 161
61 97 158
60 95 149
60 96 156
60 96 150
59 95 149
61 95 143
63 97 147
63 97 150
60 95 156
63 98 151
61 94 130
71 104 147
66 99 141
64 98 144
62 96 147
64 97 146
59 93 136
60 95 151
59 93 139
60 95 150
60 95 142
59 94 143
59 94 146
60 95 148
61 96 150
59 94 144
59 93 135
61 96 150
61 96 152
61 96 146
60 95 144
60 95 146
61 96 155
60 96 148
61 96 146
60 94 147
62 97 154
60 96 143
59 94 142
59 94 137
59 93 137
59 94 141
60 95 150
62 97 149
61 96 143
60 96 142
61 97 153
60 95 145
61 97 151
62 98 157
61 96 151
61 96 148
61 96 142
61 96 153
61 97 149
61 96 153
61 96 149
60 96 140
60 95 141
60 95 140
60 95 144
60 96 142
61 97 153
61 96 143
60 96 150
60 95 143
60 95 142
61 97 157
61 97 152
61 97 150
61 96 150
61 96 148
60 95 140
61 96 140
61 97 153
62 97 147
62 98 152
61 96 153
61 97 150
61 96 145
62 98 156
61 96 147
61 96 145
61 96 142
62 98 153
60 95 145
60 95 141
61 96 151
62 97 142
61 96 148
61 96 147
61 96 137
61 96 148
60 95 140
61 96 143
61 96 144
60 95 147
61 96 151
61 96 143
61 96 142
60 95 141
61 96 145
61 96 149
61 97 149
60 95 140
61 96 148
61 96 143
60 96 148
60 95 135
59 94 136
60 95 133
61 96 139
61 96 147
60 94 137
62 97 147
60 95 133
61 96 145
60 95 137
60 95 141
60 94 130
60 94 126
60 95 145
61 96 142
60 95 140
59 93 133
60 94 130
59 93 139
58 93 124
58 92 128
57 90 120
59 93 130
58 92 124
58 91 125
59 92 125
59 92 129
57 90 111
57 90 118
59 92 124
73 100 100
94 113 85
102 116 31
118 130 0
118 132 0
121 133 0
123 134 0
115 124 0
128 143 0
118 130 0
129 143 0
113 125 0
119 130 0
118 128 0
113 125 0
129 141 0
122 133 0
118 131 0
118 127 0
120 130 0
120 132 0
128 138 0
128 138 0
119 129 0
114 124 0
121 130 0
116 128 0
120 129 0
112 121 0
124 135 0
127 138 0
127 140 0
123 132 0
124 133 0
124 136 0
127 134 0
123 132 0
117 125 0
126 136 0
127 137 0
124 133 0
129 137 0
124 131 0
128 134 0
127 134 0
118 122 0
124 131 0
132 142 0
131 141 0
122 130 0
138 147 0
130 138 0
121 129 0
120 129 0
135 144 0
129 138 0
133 142 0
133 143 0
134 144 0
136 143 0
129 139 0
132 139 0
128 137 0
131 137 0
137 145 0
127 133 0
137 144 0
129 140 0
133 142 0
130 136 0
134 140 0
146 155 0
136 145 0
140 150 0
140 147 0
144 155 0
135 143 0
138 147 0
140 148 0
145 152 0
138 145 0
139 147 0
138 147 0
148 158 0
150 159 0
150 162 0
139 147 0
147 161 0
151 160 0
149 161 0
141 152 0
134 142 0
151 161 0
147 158 0
147 156 0
146 158 0
156 169 0
149 159 0
154 168 0
151 162 0
148 156 0
147 158 0
151 160 0
151 165 0
154 166 0
154 169 0
149 159 0
159 173 0
146 159 0
158 170 0
154 168 0
153 166 0
156 171 0
155 168 0
155 168 0
155 169 0
163 179 0
165 181 0
161 176 0
157 172 0
159 175 0
165 183 0
161 176 0
156 172 0
156 171 0
161 178 0
156 171 0
162 177 0
156 170 0
160 175 0
158 174 0
164 181 0
160 176 0
164 180 0
159 174 0
162 181 0
163 179 0
163 180 0
161 177 0
166 183 0
163 184 0
157 176 0
157 173 0
168 187 0
162 179 0
159 177 0
163 180 0
175 198 88
175 199 84
172 195 80
174 198 88
171 195 76
174 197 57
171 195 84
171 195 62
173 197 67
174 198 76
174 197 62
170 193 88
175 198 51
176 200 76
171 195 72
171 195 67
172 196 84
170 193 44
170 194 80
172 196 62
168 192 44
172 196 76
174 197 76
174 198 95
169 193 62
172 196 80
171 194 51
173 196 80
173 197 57
169 192 57
171 196 84
171 196 76
168 192 72
167 191 67
173 196 67
172 196 92
170 194 67
165 188 57
173 197 80
171 195 88
167 190 36
172 196 80
171 195 88
169 192 67
173 197 95
168 193 80
173 197 72
174 198 88
171 195 72
172 196 72
171 195 80
170 194 80
166 190 84
170 194 57
168 190 51
168 192 51
169 192 76
166 189 57
169 192 62
163 186 72
167 191 76
167 191 76
169 193 62
166 190 76
163 186 67
168 191 76
169 193 80
171 195 80
173 197 84
166 189 51
164 187 72
164 186 67
166 190 90
138 162 103
102 127 120
91 119 143
88 116 145
87 116 147
94 122 142
93 121 162
96 123 147
110 136 136
83 112 148
98 124 143
99 126 148
91 120 161
101 128 167
90 119 157
101 129 149
103 129 129
97 124 143
94 122 151
92 120 143
104 131 148
98 126 156
98 125 158
83 113 154
99 127 142
81 112 160
82 112 158
92 120 167
73 106 165
78 109 169
84 114 174
82 112 178
78 110 167
87 116 177
74 106 166
73 106 166
64 99 157
67 101 169
61 98 165
62 99 169
62 98 165
61 97 159
62 97 155
61 96 159
63 97 157
63 98 150
61 96 153
60 95 148
59 94 145
61 95 145
62 97 150
60 96 155
65 98 135
69 101 149
62 97 149
58 92 142
59 94 145
62 96 141
60 95 137
60 95 153
62 97 141
60 95 146
60 95 147
60 96 153
59 94 149
59 94 143
61 96 151
60 96 143
58 92 139
60 95 150
59 93 135
59 94 139
60 95 140
61 95 141
59 94 145
59 94 140
61 97 155
60 95 145
60 96 142
60 95 147
60 95 144
60 96 142
61 96 151
62 98 158
60 95 150
60 96 147
60 95 143
60 95 143
60 96 150
61 97 150
60 96 148
62 97 153
61 97 155
61 95 142
60 96 150
60 96 145
60 95 140
61 96 143
60 95 141
59 94 147
61 96 149
60 95 149
61 96 151
61 96 145
60 95 143
61 96 147
61 96 149
60 94 142
61 96 142
61 96 147
61 97 152
60 96 145
61 97 150
60 95 140
61 96 141
62 97 154
60 96 151
61 96 148
61 96 142
62 97 154
60 95 136
60 95 136
60 95 144
61 97 151
61 97 155
61 96 145
60 96 144
61 95 144
61 96 143
60 95 143
61 96 144
60 96 149
61 96 139
61 96 147
61 95 140
61 96 145
59 94 135
61 96 145
61 96 144
61 96 139
60 95 137
60 95 137
60 94 129
60 95 137
61 96 139
60 96 143
60 95 140
62 98 156
60 96 135
61 96 139
61 96 143
61 96 142
61 96 141
60 94 135
61 96 148
61 96 143
59 94 135
61 97 149
59 93 120
59 94 133
60 95 140
60 95 136
60 95 134
58 92 124
61 96 141
60 95 134
60 95 143
60 95 131
59 93 126
60 94 131
60 95 128
60 94 126
57 91 117
58 92 121
59 93 129
59 92 127
60 93 132
57 89 118
58 90 126
55 87 104
75 99 96
103 117 44
107 118 0
121 133 0
123 137 0
114 129 0
122 132 0
123 136 0
124 136 0
120 132 0
122 135 0
120 130 0
116 126 0
131 146 0
122 131 0
128 141 0
122 132 0
124 139 0
119 132 0
126 138 0
126 138 0
127 140 0
125 138 0
126 136 0
122 134 0
109 118 0
116 123 0
118 131 0
128 139 0
128 141 0
114 124 0
127 140 0
127 139 0
129 140 0
116 125 0
127 136 0
136 146 0
134 145 0
116 125 0
136 149 0
129 137 0
131 140 0
119 127 0
133 141 0
112 120 0
122 131 0
122 130 0
131 141 0
126 135 0
128 139 0
133 142 0
131 138 0
134 142 0
135 143 0
132 139 0
130 136 0
131 137 0
132 138 0
136 145 0
130 136 0
134 141 0
141 150 0
141 150 0
137 146 0
138 147 0
137 145 0
138 147 0
137 146 0
131 138 0
138 148 0
140 147 0
133 140 0
140 149 0
141 149 0
143 152 0
137 149 0
134 143 0
147 157 0
140 151 0
139 148 0
142 151 0
141 150 0
147 159 0
145 157 0
145 155 0
148 156 0
154 167 0
149 160 0
145 152 0
150 161 0
141 149 0
144 153 0
151 160 0
151 163 0
159 173 0
146 159 0
147 158 0
148 158 0
159 171 0
153 164 0
156 171 0
153 166 0
155 168 0
144 156 0
154 165 0
145 155 0
153 165 0
154 167 0
162 177 0
150 162 0
162 178 0
153 165 0
151 166 0
159 173 0
151 166 0
153 168 0
158 172 0
155 170 0
155 167 0
165 180 0
157 172 0
163 179 0
160 176 0
156 173 0
155 172 0
156 170 0
162 177 0
160 177 0
158 174 0
164 180 0
160 177 0
165 181 0
164 179 0
160 177 0
159 178 0
158 175 0
161 177 0
165 183 0
158 174 0
162 177 0
161 180 0
164 183 0
162 179 0
164 179 0
159 175 0
167 186 0
163 180 0
174 197 67
173 196 62
175 199 72
174 198 67
175 199 84
175 198 72
174 198 67
173 197 92
173 197 62
173 197 57
172 196 44
174 198 84
173 196 67
172 197 84
172 197 80
173 198 102
173 197 62
176 200 95
172 196 51
174 198 92
170 194 51
172 195 72
174 198 67
173 198 84
172 196 80
170 195 76
171 195 67
173 197 72
173 196 76
171 194 76
171 195 57
172 195 72
170 194 76
170 193 62
164 188 67
168 193 80
169 193 84
169 193 51
170 194 51
170 194 72
171 194 80
173 196 67
169 193 62
166 191 72
170 193 67
172 196 67
170 194 80
170 193 57
169 192 62
171 195 84
172 196 80
173 197 67
167 191 76
166 191 67
169 193 67
174 197 84
166 188 67
167 190 76
172 196 80
169 193 67
167 191 67
173 196 67
168 191 76
169 192 72
167 191 80
167 190 51
169 192 72
167 191 67
167 189 72
168 191 36
170 194 88
167 191 99
170 192 84
154 177 95
129 153 102
98 124 121
92 120 143
88 115 136
91 119 150
96 124 147
100 128 151
79 109 140
107 133 151
89 117 153
96 123 154
102 128 154
90 118 145
89 117 153
88 116 147
97 124 148
100 127 139
99 127 153
98 126 158
98 125 145
101 127 157
94 122 153
96 123 155
92 120 157
91 120 147
96 124 151
77 107 158
86 115 166
77 109 172
70 104 171
79 110 174
77 109 172
79 110 176
88 117 179
74 106 166
72 105 170
65 100 168
61 97 157
69 103 164
61 97 157
65 100 164
60 96 158
60 96 156
60 95 155
60 96 150
60 96 156
59 94 150
62 97 155
65 99 151
64 99 153
63 97 140
60 95 147
61 96 151
59 95 151
65 99 145
60 93 133
67 100 136
61 95 147
59 94 143
58 93 139
59 94 140
60 95 147
60 94 148
59 94 138
58 93 142
59 94 135
59 94 140
60 94 137
60 95 147
57 92 127
60 96 157
60 96 147
60 95 145
61 97 156
61 97 154
60 95 143
59 94 149
60 95 145
60 96 148
58 93 139
62 97 149
61 96 148
59 95 136
61 96 148
60 95 149
60 95 141
60 95 150
61 96 142
61 96 144
61 96 153
61 97 152
60 95 141
60 95 140
59 94 141
61 96 148
62 98 154
60 95 149
62 97 154
60 95 141
61 97 149
60 95 134
60 96 148
60 95 143
61 97 147
60 96 141
60 95 150
60 95 145
61 97 147
60 95 151
61 97 152
61 97 148
61 96 150
61 97 149
60 95 136
61 97 148
62 97 149
60 95 133
61 96 144
62 97 153
60 95 142
61 96 143
60 95 135
60 95 139
61 96 142
61 96 143
61 96 144
60 95 145
60 95 145
62 97 148
60 95 140
60 95 144
62 97 152
61 96 149
62 97 149
60 96 140
60 94 133
61 96 142
59 94 135
61 96 144
61 96 145
61 96 136
61 96 140
61 96 142
60 95 131
61 96 140
59 94 137
61 95 137
61 96 139
60 95 135
61 96 142
61 96 142
60 94 134
61 96 142
60 95 134
62 97 151
60 95 139
58 92 130
59 94 131
61 96 134
60 95 140
60 94 135
59 93 128
61 95 142
59 93 128
58 92 115
60 95 141
58 92 124
61 96 139
59 93 126
60 94 135
59 93 134
59 93 125
58 92 125
58 91 125
58 91 118
58 92 124
54 86 103
57 90 121
70 96 114
92 109 70
114 127 36
125 136 0
121 132 0
123 137 0
114 127 0
112 124 0
127 140 0
121 133 0
131 142 0
123 135 0
118 130 0
122 131 0
125 137 0
120 132 0
124 134 0
126 137 0
117 130 0
125 137 0
114 125 0
119 128 0
117 126 0
123 132 0
119 129 0
113 124 0
122 132 0
118 126 0
131 146 0
123 134 0
118 129 0
129 140 0
122 133 0
127 135 0
126 137 0
111 119 0
122 132 0
113 122 0
130 139 0
117 124 0
125 136 0
129 137 0
137 150 0
121 131 0
119 129 0
131 140 0
128 135 0
120 128 0
124 133 0
126 133 0
130 140 0
125 131 0
129 137 0
125 133 0
135 144 0
136 145 0
128 134 0
139 149 0
133 141 0
137 144 0
135 143 0
133 143 0
142 150 0
138 147 0
135 144 0
138 147 0
126 136 0
142 151 0
140 149 0
138 148 0
136 143 0
136 146 0
142 152 0
134 144 0
136 144 0
142 153 0
145 154 0
133 142 0
140 152 0
133 141 0
134 140 0
148 158 0
145 154 0
144 153 0
146 155 0
138 147 0
142 151 0
151 163 0
141 147 0
146 156 0
152 165 0
141 151 0
152 163 0
136 146 0
154 165 0
150 161 0
149 160 0
152 164 0
149 157 0
158 171 0
149 160 0
154 164 0
160 173 0
154 165 0
159 172 0
148 158 0
154 169 0
146 155 0
153 167 0
157 172 0
156 168 0
156 171 0
152 162 0
158 172 0
152 165 0
157 172 0
160 176 0
162 178 0
158 175 0
161 176 0
165 181 0
156 172 0
162 177 0
153 164 0
163 179 0
160 177 0
165 180 0
159 176 0
162 178 0
161 177 0
158 174 0
160 175 0
158 173 0
157 171 0
162 180 0
163 179 0
162 180 0
161 177 0
157 176 0
161 178 0
162 179 0
168 186 0
159 176 0
164 182 0
165 183 0
167 184 0
164 182 0
163 181 0
171 195 67
170 193 72
173 196 44
169 193 67
173 197 72
171 194 57
172 196 72
173 197 72
176 200 84
173 197 92
172 195 72
174 197 62
174 197 67
173 197 62
172 196 72
171 195 76
174 198 57
170 194 67
172 195 72
172 196 76
170 194 62
170 194 76
173 197 76
173 197 57
171 195 88
171 195 76
172 197 80
175 199 92
172 197 62
172 195 76
174 198 92
172 197 72
169 193 62
168 192 67
170 192 44
168 192 76
168 191 72
172 196 72
174 198 84
167 191 62
167 190 72
169 192 62
169 193 72
167 191 67
168 193 76
173 196 76
166 189 72
167 190 72
169 192 44
171 194 51
170 192 67
171 196 80
168 191 72
165 189 44
170 193 57
169 192 84
171 194 62
172 195 88
167 191 72
164 187 62
165 188 76
172 195 92
168 191 92
168 192 67
168 191 80
167 190 76
173 196 72
172 196 88
166 189 72
162 186 57
172 195 92
163 187 67
166 189 84
171 195 67
139 164 108
116 141 135
91 119 124
101 128 143
101 128 156
103 129 156
91 119 133
87 116 143
91 120 153
98 125 144
90 119 156
86 115 148
91 119 144
99 126 159
97 124 149
96 124 140
89 117 143
113 138 157
94 122 158
108 134 137
90 118 148
101 128 148
99 127 155
89 118 150
95 123 155
93 121 149
87 115 160
81 112 160
94 123 171
94 122 171
80 111 171
91 119 179
79 110 174
74 106 170
67 101 162
74 107 164
64 99 163
64 99 160
70 103 157
62 98 168
64 99 158
62 98 161
64 98 150
62 97 151
62 98 154
61 96 151
61 96 148
67 101 156
61 96 149
65 99 149
65 99 147
64 98 155
62 97 148
59 94 147
64 98 145
63 97 136
64 98 145
65 99 147
61 95 137
61 97 157
58 92 135
60 95 146
60 95 149
58 92 133
61 96 147
61 96 148
60 95 143
61 96 149
59 94 140
60 96 149
58 92 138
60 96 142
60 95 142
59 95 153
61 96 152
60 95 154
60 96 145
59 94 141
60 96 148
61 97 157
60 95 144
60 96 150
60 95 145
61 97 148
60 95 139
60 95 141
61 97 148
60 95 145
60 95 141
60 95 143
60 95 144
60 95 142
61 97 143
61 96 145
61 96 144
61 96 145
60 95 145
60 96 151
61 96 153
62 97 147
61 96 147
61 96 150
61 96 151
61 97 152
61 96 143
60 95 140
62 98 156
60 95 140
60 96 143
60 95 133
61 96 143
60 94 137
60 96 147
60 95 139
60 95 137
59 94 124
61 96 143
62 97 151
61 96 139
61 96 144
60 95 133
60 95 140
61 97 149
60 95 144
61 96 143
60 95 142
60 95 137
61 96 143
60 95 134
61 96 142
60 95 150
62 97 155
60 95 145
61 96 145
61 96 142
60 95 137
61 96 140
60 96 144
61 96 139
61 96 145
60 95 137
60 95 135
61 96 150
62 97 142
61 95 140
60 95 135
60 95 136
61 96 145
59 94 139
61 96 143
61 96 145
60 95 142
60 95 136
59 94 129
59 94 134
60 94 130
59 94 137
62 96 142
60 94 133
61 96 139
60 95 134
61 96 137
61 96 148
60 94 131
59 93 136
59 94 134
59 94 135
59 93 128
60 95 135
59 94 130
59 94 130
58 92 125
57 91 113
59 93 129
58 92 124
59 92 121
58 91 122
56 88 113
83 106 96
121 136 44
111 123 25
127 140 0
121 134 0
120 132 0
125 140 0
116 130 0
118 127 0
121 132 0
110 122 0
117 130 0
107 119 0
120 132 0
118 126 0
129 142 0
130 143 0
120 133 0
125 136 0
130 142 0
122 137 0
120 131 0
126 138 0
120 132 0
110 119 0
121 133 0
126 138 0
120 133 0
120 130 0
124 137 0
118 128 0
126 135 0
116 126 0
124 134 0
139 151 0
132 142 0
126 135 0
129 140 0
131 142 0
135 143 0
121 130 0
124 131 0
132 143 0
140 149 0
131 141 0
127 138 0
123 130 0
132 143 0
132 140 0
132 140 0
130 137 0
139 150 0
123 132 0
127 135 0
126 136 0
136 148 0
131 142 0
140 150 0
123 132 0
130 138 0
136 146 0
130 138 0
133 142 0
139 145 0
148 160 0
141 151 0
132 141 0
139 150 0
136 145 0
140 148 0
141 150 0
134 142 0
142 150 0
145 155 0
138 147 0
142 150 0
145 157 0
140 150 0
134 145 0
150 161 0
140 152 0
136 143 0
145 157 0
144 155 0
143 153 0
146 155 0
142 149 0
150 160 0
143 155 0
141 149 0
148 159 0
150 161 0
148 158 0
141 155 0
138 146 0
147 160 0
146 159 0
150 164 0
149 160 0
160 173 0
151 164 0
150 162 0
151 162 0
156 168 0
153 164 0
153 167 0
151 167 0
156 169 0
150 164 0
157 173 0
151 165 0
157 170 0
154 169 0
158 170 0
155 168 0
156 169 0
155 166 0
161 174 0
158 174 0
149 163 0
158 173 0
160 178 0
159 176 0
157 174 0
160 176 0
159 175 0
164 180 0
163 179 0
163 179 0
157 173 0
160 176 0
162 179 0
162 178 0
165 183 0
162 178 0
164 181 0
164 180 0
166 183 0
164 180 0
160 178 0
165 183 0
160 178 0
161 181 0
160 176 0
162 180 0
167 186 0
162 179 0
163 182 0
172 196 67
172 195 76
172 196 84
172 196 67
173 197 62
171 194 51
173 195 57
173 195 76
173 197 76
171 195 57
173 197 72
173 196 44
172 195 80
175 199 95
174 198 99
170 194 62
174 197 72
175 198 72
168 192 51
174 198 84
169 193 67
171 195 72
170 193 44
166 190 62
171 195 72
172 195 88
173 197 62
169 193 57
171 195 76
169 193 72
172 195 57
172 197 67
172 196 72
171 196 76
172 196 80
170 194 62
164 188 51
169 192 80
168 191 62
172 195 51
170 194 76
166 191 62
172 196 84
168 192 67
171 195 80
168 192 62
170 194 72
169 193 72
172 195 84
166 189 57
169 193 57
164 187 80
172 195 76
170 194 67
168 192 62
167 190 80
170 193 84
172 196 84
168 191 51
166 188 57
167 191 51
170 195 76
166 190 57
173 197 84
166 190 51
167 190 62
170 194 72
166 190 67
163 186 67
167 191 80
167 190 76
171 194 95
165 188 76
168 192 67
157 180 92
115 140 95
98 125 134
89 116 141
96 123 136
85 115 143
91 119 135
98 125 145
103 130 142
93 121 143
100 127 147
99 126 148
81 109 134
78 107 134
91 119 145
99 126 162
103 129 149
92 119 151
105 131 152
108 134 151
105 131 150
96 124 148
102 128 152
113 139 148
100 127 143
98 126 150
84 114 157
93 121 162
72 105 170
76 107 155
73 106 164
78 110 166
78 109 170
70 104 170
74 106 168
71 104 168
82 112 165
66 100 162
72 105 170
69 103 161
64 99 165
63 98 160
66 100 159
63 98 157
64 98 154
61 96 149
58 94 145
60 96 157
60 95 155
67 101 149
64 99 147
62 96 146
63 97 153
63 97 136
69 101 142
62 96 141
66 100 143
60 95 150
59 93 142
59 93 137
59 94 138
60 95 151
60 95 147
59 94 142
60 94 140
61 96 151
60 95 143
59 94 141
59 95 150
60 95 148
60 95 144
59 94 136
59 94 138
58 93 135
60 95 143
59 94 139
59 94 149
59 94 140
59 94 135
59 94 142
60 95 144
60 96 153
59 94 140
61 97 150
61 96 154
60 96 142
61 97 145
61 97 148
60 95 143
60 95 151
61 96 148
60 96 153
60 95 138
60 95 143
61 96 143
60 94 139
61 95 148
61 97 151
60 96 144
61 97 150
60 95 139
62 97 152
61 96 147
61 96 145
60 95 145
62 97 152
61 96 142
61 96 150
61 96 147
60 96 143
62 97 148
60 94 136
61 96 148
61 96 149
61 96 148
60 95 143
59 94 134
61 96 150
61 95 149
62 97 158
61 96 143
61 96 141
61 97 149
60 95 135
62 97 152
61 96 148
61 96 144
61 96 152
61 97 152
60 96 148
60 95 133
60 95 133
60 95 144
59 93 129
61 96 139
61 96 139
61 96 145
60 95 141
59 93 131
61 96 144
60 95 136
61 96 144
61 96 137
61 96 139
61 96 141
60 95 137
59 93 126
60 95 137
61 96 144
60 95 133
60 95 136
59 94 129
61 96 140
59 94 130
59 93 126
60 95 142
59 94 130
59 93 133
59 93 128
59 94 131
59 93 134
59 93 129
61 96 140
59 94 130
58 91 130
59 93 135
61 96 136
58 91 121
59 93 122
61 95 140
58 91 132
60 94 135
59 92 121
57 90 113
60 95 129
59 92 128
58 92 132
79 103 99
100 117 68
102 114 25
120 135 0
102 116 0
118 133 0
130 143 0
116 126 0
113 127 0
103 116 0
120 133 0
110 123 0
115 128 0
121 134 0
119 130 0
111 121 0
121 132 0
123 136 0
133 144 0
117 129 0
131 142 0
121 131 0
122 133 0
128 140 0
122 134 0
125 135 0
125 138 0
127 140 0
124 135 0
128 139 0
123 133 0
132 142 0
122 132 0
127 140 0
128 138 0
117 126 0
128 139 0
123 133 0
132 143 0
135 149 0
125 137 0
136 146 0
115 124 0
120 128 0
123 129 0
120 129 0
129 139 0
125 134 0
126 135 0
130 140 0
126 135 0
134 144 0
137 147 0
143 156 0
118 125 0
141 152 0
141 152 0
142 154 0
143 154 0
135 144 0
130 139 0
126 136 0
130 136 0
137 144 0
142 154 0
140 151 0
141 148 0
130 138 0
141 150 0
142 152 0
134 144 0
139 149 0
143 155 0
139 148 0
145 155 0
138 150 0
138 147 0
137 149 0
141 148 0
146 156 0
139 150 0
140 149 0
147 156 0
143 153 0
142 154 0
145 154 0
141 149 0
141 150 0
148 158 0
148 160 0
153 165 0
146 158 0
148 159 0
148 159 0
148 157 0
149 162 0
146 156 0
148 159 0
154 167 0
146 158 0
145 154 0
150 163 0
150 162 0
157 172 0
156 167 0
149 162 0
157 169 0
152 166 0
155 169 0
156 169 0
153 168 0
159 173 0
152 167 0
155 170 0
153 168 0
156 170 0
159 173 0
157 173 0
157 174 0
159 172 0
159 173 0
154 167 0
158 172 0
153 166 0
162 178 0
158 170 0
160 174 0
159 174 0
159 175 0
162 179 0
158 173 0
159 174 0
159 177 0
156 173 0
168 186 0
160 177 0
161 178 0
164 183 0
165 183 0
161 178 0
161 180 0
167 186 0
165 182 0
162 178 0
157 177 0
164 183 0
169 186 0
162 179 0
157 175 0
171 194 51
175 199 92
173 196 72
172 196 72
174 197 67
173 196 57
174 198 62
171 194 72
170 194 62
169 193 80
175 200 95
171 194 88
169 193 57
169 193 72
175 199 92
174 198 80
170 194 57
171 195 67
173 197 67
175 199 72
174 198 80
170 193 62
169 193 95
170 194 88
170 194 62
166 191 80
170 193 62
172 196 88
170 195 80
173 196 76
168 192 51
173 197 92
171 195 62
171 195 84
172 197 88
171 196 80
170 195 72
170 195 76
172 196 80
168 192 62
172 196 51
172 195 67
167 191 72
170 193 62
169 194 76
165 188 80
166 189 80
168 191 76
170 194 80
170 194 80
167 190 51
171 195 72
170 194 72
169 192 72
170 193 76
172 195 67
170 194 80
166 189 72
164 187 36
166 190 62
170 195 84
167 191 72
171 194 62
162 186 84
167 190 67
164 187 57
165 189 72
165 187 84
165 188 51
163 186 72
171 194 67
170 193 67
170 192 84
168 191 51
160 183 72
138 162 108
119 144 114
95 122 134
81 111 135
103 130 148
94 122 139
98 125 144
89 117 129
90 119 145
99 125 147
87 115 140
86 115 140
102 128 153
84 112 146
103 130 146
102 128 153
108 134 158
100 127 141
96 123 158
100 127 143
90 117 141
97 125 160
101 128 149
91 120 154
96 123 138
93 120 142
89 118 150
95 124 175
80 110 157
90 119 164
82 113 169
79 109 155
76 108 170
85 115 175
65 101 168
74 106 170
64 99 159
73 105 167
64 98 157
60 96 160
61 96 157
62 97 158
64 97 143
64 99 157
61 97 157
60 95 151
62 97 150
60 95 150
64 98 141
61 95 141
61 96 150
64 98 148
62 96 145
59 94 144
67 99 134
63 96 139
63 97 140
71 102 138
60 96 145
60 93 119
60 94 132
57 91 131
60 94 139
58 92 139
59 93 144
61 96 147
60 95 140
61 97 150
60 94 145
60 95 142
61 96 152
59 94 142
59 94 143
59 95 146
59 94 138
61 97 148
60 95 139
62 97 159
59 94 137
59 94 137
60 94 138
60 94 144
60 95 140
60 95 140
59 94 137
59 94 141
60 95 143
60 95 146
60 95 151
61 96 144
61 96 139
60 95 144
60 95 147
62 97 147
61 95 140
60 96 144
61 96 144
60 95 137
61 96 144
60 96 151
62 97 149
60 95 138
61 97 145
61 96 148
61 96 149
62 97 148
60 95 134
60 96 140
60 96 142
60 95 135
61 96 144
61 96 144
60 96 142
62 97 145
60 95 135
61 96 141
60 95 137
61 96 145
62 98 156
60 95 149
61 96 144
60 95 137
60 95 135
60 95 142
61 96 141
61 96 140
61 96 147
59 94 133
61 96 144
63 98 155
61 96 142
62 98 151
62 97 150
61 96 148
59 94 128
61 97 147
61 96 145
62 97 150
61 96 141
60 94 139
62 97 144
60 94 134
62 97 150
62 98 154
60 95 136
59 94 131
59 94 136
60 95 140
60 94 133
60 94 135
59 94 130
60 95 139
61 95 133
60 94 129
60 95 140
60 94 130
61 95 134
60 95 137
59 93 125
61 96 142
60 94 129
60 95 136
60 95 135
58 92 129
59 93 124
59 93 121
58 92 129
59 93 129
59 93 125
59 92 131
59 92 124
58 91 124
56 89 114
58 91 120
58 90 117
66 95 114
84 103 65
99 114 31
106 117 0
123 139 0
117 128 0
108 120 0
123 134 0
106 118 0
122 136 0
127 142 0
125 139 0
120 133 0
112 126 0
126 140 0
135 149 0
122 134 0
120 132 0
119 132 0
121 132 0
123 136 0
123 135 0
118 128 0
122 135 0
126 138 0
128 141 0
118 128 0
127 137 0
136 149 0
131 141 0
121 134 0
128 141 0
124 134 0
122 133 0
130 142 0
127 139 0
122 132 0
128 139 0
132 142 0
115 124 0
130 141 0
127 134 0
132 144 0
135 144 0
130 142 0
127 136 0
124 133 0
139 149 0
134 147 0
126 137 0
137 148 0
141 152 0
122 130 0
129 137 0
133 142 0
137 148 0
139 149 0
138 149 0
137 148 0
133 140 0
130 141 0
134 145 0
143 154 0
139 147 0
135 149 0
141 150 0
119 129 0
143 154 0
137 145 0
142 154 0
145 154 0
139 147 0
143 151 0
141 153 0
144 155 0
140 150 0
140 149 0
131 139 0
137 146 0
140 150 0
139 149 0
140 153 0
149 160 0
149 159 0
142 151 0
139 151 0
146 158 0
142 150 0
146 158 0
146 158 0
151 165 0
149 161 0
148 158 0
143 155 0
143 153 0
148 160 0
154 168 0
155 163 0
147 157 0
151 165 0
155 166 0
148 160 0
156 169 0
153 165 0
157 169 0
158 172 0
156 170 0
148 162 0
153 165 0
157 169 0
149 163 0
148 163 0
160 176 0
159 174 0
158 174 0
155 171 0
162 176 0
156 170 0
155 170 0
155 168 0
160 178 0
160 177 0
160 176 0
159 174 0
156 171 0
159 177 0
156 173 0
161 176 0
160 177 0
158 172 0
164 183 0
157 172 0
162 176 0
163 181 0
158 174 0
162 181 0
160 177 0
160 178 0
163 182 0
161 178 0
168 186 0
162 179 0
163 179 0
163 181 0
164 183 0
162 181 0
163 179 0
167 187 0
168 187 0
162 180 0
172 196 62
171 195 80
173 197 72
172 196 72
173 197 88
173 196 62
172 197 92
171 194 80
170 195 62
171 195 62
175 198 84
168 193 72
171 194 51
174 198 84
175 199 84
173 197 80
166 189 72
171 194 72
168 191 67
170 193 72
171 194 84
169 192 36
168 192 80
167 192 76
175 199 80
171 195 76
169 194 57
173 197 72
172 196 57
170 194 57
172 196 84
168 192 92
171 195 67
173 197 84
169 193 80
168 192 72
169 193 95
167 192 51
168 192 92
167 191 36
168 192 76
167 190 51
168 191 72
169 193 57
169 191 44
167 190 62
169 193 76
169 194 72
166 189 67
167 191 80
166 190 51
164 187 67
170 194 76
168 192 84
169 194 88
164 188 62
163 188 76
173 197 102
168 191 92
159 183 57
167 191 76
162 186 67
166 189 80
160 184 62
165 188 57
168 190 76
162 186 92
164 188 72
166 189 67
166 188 80
168 191 67
171 194 102
169 193 92
166 189 67
167 191 57
159 183 102
137 161 108
98 125 137
79 109 135
83 113 141
89 117 144
104 130 145
95 122 141
104 130 143
98 125 145
88 115 133
99 125 144
111 137 156
85 113 137
98 125 144
90 119 145
96 124 146
104 131 150
107 132 154
106 132 150
102 129 150
105 131 162
103 130 146
91 120 150
89 117 149
104 130 133
103 130 155
83 112 144
85 115 154
80 110 157
79 110 169
85 114 164
77 109 160
74 106 168
67 101 166
74 106 172
74 106 168
85 114 173
67 101 159
63 98 159
63 97 151
68 101 159
69 102 155
62 97 157
61 96 155
61 97 155
60 96 147
60 96 148
60 95 153
60 94 144
59 94 147
67 100 145
63 97 144
59 93 143
63 96 143
65 98 137
62 96 135
64 98 135
62 96 128
61 95 141
65 98 141
59 94 141
58 92 136
60 96 147
59 94 134
59 93 141
59 94 142
59 94 139
58 93 140
61 97 157
59 94 148
59 94 141
59 94 141
60 95 142
59 94 141
59 94 141
61 96 145
59 93 133
60 95 142
60 96 145
60 95 144
60 95 138
59 94 139
60 95 143
59 94 133
61 96 144
60 95 143
59 94 136
60 95 137
61 96 144
59 93 136
61 96 148
61 96 142
60 95 143
60 95 147
61 96 147
61 95 142
61 96 141
60 95 141
61 96 147
61 97 152
60 94 133
60 95 143
62 97 148
60 95 142
61 96 147
62 97 150
59 94 142
61 96 147
60 95 143
60 95 143
61 96 140
60 96 142
60 96 142
60 95 144
62 97 151
59 94 139
61 97 148
59 95 137
60 95 140
60 96 141
60 96 145
61 96 145
61 97 148
60 94 136
60 95 142
61 96 148
59 94 131
61 96 141
61 96 140
61 96 147
61 97 148
60 95 145
59 94 136
60 96 142
61 96 142
61 96 145
61 95 140
60 95 141
59 94 131
59 93 129
60 95 140
60 95 134
61 95 136
60 95 134
62 97 150
61 96 145
61 95 134
60 94 136
60 94 135
59 93 129
60 94 126
61 96 141
61 96 140
60 95 143
58 93 125
60 95 141
59 94 139
59 94 134
59 93 122
60 94 133
61 96 141
57 91 123
60 94 131
61 95 134
59 94 122
59 93 128
58 91 111
59 93 124
59 93 121
57 89 118
58 91 111
57 91 118
57 90 117
59 91 120
77 100 86
91 107 54
113 127 18
118 131 0
111 124 0
114 127 0
121 132 0
129 140 0
116 128 0
118 133 0
129 142 0
113 125 0
122 135 0
123 135 0
112 124 0
125 138 0
123 134 0
116 128 0
128 141 0
123 136 0
126 138 0
110 116 0
121 135 0
139 151 0
122 131 0
130 141 0
129 141 0
127 139 0
133 147 0
136 148 0
120 130 0
131 145 0
133 142 0
125 135 0
128 142 0
122 133 0
127 139 0
135 147 0
133 142 0
137 148 0
128 139 0
139 151 0
134 145 0
124 135 0
138 150 0
133 143 0
131 141 0
138 149 0
131 145 0
132 141 0
136 148 0
124 135 0
142 154 0
131 141 0
138 150 0
123 131 0
134 145 0
137 146 0
136 148 0
141 156 0
138 147 0
128 138 0
130 143 0
138 147 0
143 155 0
134 145 0
134 144 0
135 145 0
140 151 0
150 163 0
135 144 0
142 156 0
137 149 0
136 147 0
144 156 0
142 152 0
142 153 0
137 148 0
141 153 0
140 151 0
144 154 0
140 151 0
147 160 0
151 162 0
147 156 0
152 163 0
155 167 0
156 171 0
156 168 0
146 157 0
144 157 0
148 160 0
147 159 0
149 161 0
150 164 0
141 151 0
154 166 0
155 170 0
145 156 0
150 163 0
150 165 0
160 174 0
155 167 0
147 160 0
152 168 0
155 168 0
153 165 0
149 161 0
152 166 0
155 169 0
157 171 0
156 169 0
156 169 0
153 168 0
155 170 0
159 175 0
154 166 0
160 174 0
164 180 0
153 165 0
163 176 0
158 173 0
157 174 0
161 179 0
161 177 0
158 176 0
157 173 0
155 167 0
156 170 0
161 178 0
155 170 0
166 183 0
159 174 0
161 177 0
161 178 0
156 170 0
162 179 0
165 182 0
158 172 0
166 182 0
166 185 0
166 184 0
163 179 0
160 179 0
163 179 0
160 177 0
165 184 0
166 184 0
161 178 0
162 182 0
172 196 51
171 195 72
173 197 80
173 197 80
174 198 76
172 197 108
171 195 88
173 196 72
172 196 80
173 196 72
172 196 62
169 192 80
170 193 95
166 190 62
172 196 67
173 196 67
171 194 25
170 194 51
171 196 80
169 192 57
171 194 72
168 191 67
172 196 72
170 195 76
173 197 88
168 192 67
169 194 72
170 194 67
172 197 80
173 197 44
173 197 62
168 192 80
170 194 57
169 193 36
169 194 84
168 193 76
170 194 84
172 196 80
166 191 72
169 193 76
170 194 80
168 191 72
166 190 51
173 197 72
166 190 76
167 191 67
168 192 80
160 185 99
170 194 76
168 192 80
169 193 72
168 191 67
167 190 72
169 192 67
165 189 76
169 193 76
168 192 67
164 188 76
167 191 84
166 190 80
172 196 76
169 192 72
167 190 88
162 185 51
163 187 84
162 185 76
159 182 67
162 186 72
159 183 62
166 189 62
163 185 67
164 187 84
159 183 76
156 180 76
161 182 51
163 185 62
160 183 92
117 142 111
99 126 131
96 123 141
76 107 135
96 123 145
87 115 130
85 114 134
88 116 146
97 124 151
90 119 155
93 120 123
91 119 141
105 131 150
99 126 149
89 117 150
104 131 154
95 122 148
106 132 163
100 127 151
90 118 140
93 121 149
92 121 148
94 120 150
94 121 143
91 119 154
95 122 155
92 121 150
89 118 150
95 123 155
85 115 168
84 114 165
71 105 171
70 103 162
68 102 167
79 110 167
74 107 167
73 105 165
73 105 160
70 103 162
64 99 158
63 98 158
60 96 154
60 95 154
65 98 146
60 95 148
61 96 156
60 95 141
61 96 149
62 97 145
61 96 148
61 94 134
61 96 144
63 97 143
63 96 140
66 99 138
62 94 129
57 91 132
62 96 135
60 94 136
62 96 139
58 93 139
58 93 135
59 94 135
58 93 131
59 94 134
60 95 143
59 93 135
59 94 137
60 95 147
61 96 150
59 93 138
61 96 144
60 96 150
60 95 140
59 94 135
61 96 145
61 96 147
60 95 149
59 94 134
60 95 141
59 93 140
58 93 132
61 96 153
58 93 133
60 95 145
59 94 140
60 95 136
61 96 144
60 94 137
59 94 138
59 94 139
61 97 153
60 95 146
60 95 136
59 94 141
62 98 154
60 95 143
60 95 146
60 95 133
60 95 141
60 95 137
61 96 145
60 94 136
61 96 148
61 96 143
60 95 141
62 98 153
61 96 141
60 96 142
60 95 135
61 96 143
61 97 151
60 95 142
61 96 145
60 94 136
60 94 134
60 95 139
61 97 151
59 93 135
61 96 151
60 95 139
60 95 136
61 96 151
61 96 143
59 94 140
59 94 134
60 95 139
61 96 142
60 95 137
61 96 142
61 96 143
60 96 141
61 95 137
61 95 140
60 95 135
60 95 141
60 95 141
61 96 141
59 94 136
60 94 135
60 95 139
60 95 140
59 94 129
59 94 133
60 95 139
60 95 136
59 93 126
60 95 131
59 94 124
60 94 134
60 95 136
60 94 130
60 94 135
60 94 128
59 93 126
59 93 125
60 94 134
59 94 131
60 94 137
61 96 142
59 94 133
57 91 122
60 95 140
58 92 110
59 93 120
58 91 118
58 92 128
60 94 134
58 92 125
58 91 115
57 90 114
60 91 118
65 93 97
96 113 67
108 123 51
108 120 18
120 134 0
107 120 0
119 132 0
118 133 0
109 120 0
116 130 0
120 131 0
122 136 0
119 132 0
130 143 0
110 125 0
114 126 0
118 130 0
132 144 0
129 142 0
126 141 0
128 142 0
137 150 0
129 143 0
135 147 0
118 131 0
130 144 0
132 148 0
133 145 0
121 132 0
131 144 0
121 135 0
128 139 0
129 140 0
134 146 0
131 145 0
130 143 0
135 148 0
130 141 0
130 143 0
130 141 0
132 144 0
134 146 0
131 142 0
119 129 0
135 147 0
140 150 0
135 147 0
140 151 0
128 140 0
137 147 0
120 131 0
137 150 0
129 141 0
129 140 0
135 147 0
140 152 0
133 142 0
144 157 0
134 145 0
138 151 0
136 148 0
143 153 0
143 156 0
142 154 0
143 152 0
130 142 0
139 151 0
138 147 0
143 156 0
141 152 0
141 152 0
137 147 0
150 162 0
148 161 0
146 156 0
143 155 0
143 154 0
142 152 0
145 159 0
131 140 0
141 152 0
147 160 0
135 148 0
147 158 0
144 157 0
139 148 0
140 153 0
145 159 0
139 149 0
144 155 0
145 157 0
143 155 0
147 161 0
151 165 0
149 165 0
149 162 0
146 159 0
155 170 0
159 171 0
157 170 0
150 164 0
151 164 0
155 170 0
155 169 0
151 165 0
157 171 0
151 166 0
156 170 0
158 175 0
153 166 0
155 171 0
156 170 0
150 163 0
158 171 0
156 171 0
151 162 0
159 174 0
153 171 0
158 173 0
151 168 0
160 173 0
152 167 0
158 176 0
152 166 0
157 171 0
153 167 0
156 172 0
163 181 0
156 173 0
159 176 0
166 184 0
163 179 0
161 177 0
157 175 0
164 179 0
163 180 0
161 178 0
160 175 0
162 177 0
161 178 0
163 181 0
163 182 0
164 183 0
163 180 0
167 185 0
167 185 0
161 175 0
166 184 0
164 182 0
160 177 0
160 179 0
174 197 92
173 197 80
175 198 88
171 196 80
174 199 88
175 199 84
169 193 44
171 194 62
171 195 76
169 192 72
166 191 67
171 195 72
174 198 99
172 196 80
173 197 72
170 194 95
173 198 80
171 194 76
167 191 67
169 193 84
166 190 76
172 196 72
174 198 88
170 194 51
170 194 76
175 199 62
169 193 92
169 193 57
169 192 62
169 194 95
171 194 72
169 194 80
169 192 51
166 191 72
167 190 72
169 193 72
168 192 44
167 191 76
168 192 88
168 192 84
167 192 76
169 192 67
173 197 84
166 190 88
167 191 57
168 191 88
163 186 80
169 193 67
172 196 95
163 187 67
168 191 84
167 191 67
168 192 67
174 198 84
169 193 67
167 192 88
167 191 80
159 181 84
167 192 62
164 187 84
173 197 92
168 192 72
164 188 72
170 194 84
170 194 92
158 181 62
165 188 57
165 188 80
166 190 84
158 182 76
159 182 80
166 189 76
168 191 84
165 189 76
166 189 76
167 190 72
162 185 72
135 160 105
112 138 137
85 114 143
89 117 137
89 116 129
93 121 148
90 118 145
99 126 154
83 113 143
100 127 140
98 125 158
104 130 145
82 110 143
94 120 145
97 124 133
100 127 152
99 125 150
94 122 158
95 122 153
99 126 158
106 132 138
96 123 145
102 128 148
95 122 140
99 125 149
99 125 152
85 114 154
89 118 147
92 120 158
89 117 154
81 112 162
75 107 163
73 105 159
78 109 169
81 111 163
72 104 165
73 105 160
76 107 167
61 98 162
61 97 155
61 97 164
65 99 158
61 97 154
61 96 154
63 97 152
60 96 148
61 96 150
65 99 152
59 95 141
63 98 154
65 99 141
59 95 142
62 96 140
63 96 131
65 98 142
62 96 143
62 96 146
58 91 136
61 95 143
61 96 144
62 97 144
59 92 143
60 95 139
61 96 145
60 94 143
61 96 150
59 94 134
60 95 141
60 95 150
59 94 150
59 94 131
60 95 141
60 95 146
60 95 146
60 95 141
60 94 139
59 94 136
60 95 141
60 96 149
59 94 139
59 94 136
60 95 141
60 95 143
61 96 143
59 93 133
61 96 145
61 97 143
60 95 142
60 95 140
61 95 143
60 95 137
62 97 154
61 96 145
59 94 134
60 95 133
59 94 136
61 96 137
61 96 143
61 97 148
60 96 144
61 96 147
61 96 145
60 95 141
60 95 139
60 95 143
59 93 133
60 95 133
59 94 129
60 95 141
60 94 141
59 93 131
61 96 142
61 96 141
61 96 150
63 98 151
59 94 126
60 95 143
60 94 143
58 93 130
61 96 140
60 94 138
61 96 140
60 95 135
61 96 141
60 95 137
61 96 137
60 95 136
60 95 143
60 95 143
61 96 134
60 95 140
61 96 141
60 95 136
60 95 143
60 94 136
60 96 145
59 93 134
61 96 135
59 94 124
61 96 143
60 94 131
60 94 134
60 94 125
59 94 135
60 95 131
60 95 140
60 95 137
60 95 136
59 93 126
60 95 135
59 94 134
57 90 124
60 94 129
58 93 126
58 92 125
60 94 130
60 94 129
59 92 124
60 94 130
61 96 133
58 92 121
59 92 128
59 93 124
60 94 128
57 90 115
57 90 117
57 90 120
56 88 116
59 92 126
58 91 115
57 90 120
63 93 102
97 118 84
115 129 57
111 123 18
114 127 0
110 124 0
111 124 0
117 131 0
113 126 0
111 125 0
116 131 0
114 126 0
115 131 0
116 129 0
126 139 0
117 129 0
134 148 0
123 136 0
119 133 0
128 142 0
130 143 0
132 147 0
120 133 0
125 138 0
129 142 0
123 138 0
126 141 0
116 127 0
128 141 0
127 136 0
112 124 0
134 147 0
141 154 0
125 138 0
129 139 0
119 132 0
126 138 0
136 149 0
128 139 0
134 148 0
126 135 0
135 147 0
136 147 0
125 138 0
133 145 0
127 139 0
130 142 0
120 134 0
131 143 0
139 151 0
134 144 0
134 145 0
135 146 0
138 148 0
138 151 0
134 144 0
125 134 0
135 145 0
137 150 0
142 154 0
142 153 0
139 150 0
141 154 0
142 154 0
142 155 0
137 151 0
142 155 0
135 144 0
141 154 0
142 152 0
142 153 0
140 151 0
149 162 0
139 152 0
150 160 0
140 151 0
136 146 0
139 148 0
145 155 0
145 154 0
149 160 0
141 154 0
149 160 0
154 165 0
143 155 0
143 154 0
144 153 0
142 153 0
152 166 0
142 155 0
152 168 0
147 160 0
141 153 0
155 168 0
154 166 0
153 168 0
142 155 0
147 159 0
157 171 0
156 167 0
151 163 0
150 163 0
153 168 0
158 171 0
152 166 0
152 166 0
156 169 0
153 168 0
154 170 0
155 170 0
154 166 0
158 173 0
157 171 0
156 173 0
153 169 0
161 177 0
151 163 0
157 175 0
154 169 0
154 169 0
160 173 0
152 165 0
157 173 0
161 178 0
159 173 0
161 176 0
158 174 0
156 174 0
160 175 0
151 167 0
161 179 0
161 179 0
161 179 0
162 180 0
160 178 0
161 178 0
158 174 0
165 183 0
166 184 0
158 175 0
161 176 0
162 179 0
163 181 0
164 183 0
166 183 0
163 182 0
162 180 0
161 178 0
163 181 0
168 189 0
164 181 0
164 181 0
172 197 72
175 198 76
175 199 88
171 194 57
173 196 76
175 197 51
174 198 76
175 198 92
168 194 72
172 197 76
167 192 84
168 193 76
173 196 88
171 195 80
164 188 57
170 194 95
168 192 72
170 194 72
167 192 92
169 194 92
172 196 57
166 191 84
165 189 67
169 191 51
171 195 51
169 193 99
172 196 72
173 197 76
170 194 57
169 193 62
173 196 67
170 194 80
167 191 62
168 193 76
169 193 88
170 194 67
169 193 80
167 191 72
171 196 76
169 193 92
167 191 76
167 191 80
171 194 57
166 190 72
167 192 67
168 193 67
172 197 95
166 189 72
161 184 67
165 189 76
167 191 57
163 187 57
166 191 62
169 193 67
167 190 36
164 188 92
166 189 62
167 190 62
166 191 102
168 192 84
166 190 80
165 189 62
161 185 57
168 191 62
168 191 80
163 187 72
160 184 67
166 190 72
167 190 72
165 190 57
153 176 72
163 186 76
164 188 88
163 186 92
163 187 67
167 191 76
163 187 72
153 176 76
120 145 102
100 127 134
108 134 146
92 119 140
91 119 137
103 130 142
100 126 148
92 120 149
92 119 145
90 118 154
101 128 145
101 127 151
89 117 140
90 117 148
110 136 160
95 123 150
81 110 140
91 118 131
98 123 150
92 119 142
98 124 148
85 114 137
103 129 150
98 125 140
108 133 151
94 122 145
102 129 154
91 119 166
94 122 164
79 109 158
79 110 154
83 113 163
77 108 162
77 107 163
81 112 172
67 101 156
71 104 161
70 103 168
65 100 157
63 98 158
66 100 157
63 98 161
67 100 155
60 95 152
62 98 164
60 95 149
63 97 148
61 96 154
62 97 144
65 98 138
61 96 143
59 94 136
62 96 146
67 99 136
62 95 128
68 100 131
65 98 135
62 96 131
63 96 146
59 94 143
60 94 138
59 94 142
57 92 137
59 94 142
58 92 133
59 94 135
59 93 130
58 93 134
60 94 141
59 93 134
60 96 140
60 95 145
60 95 143
59 94 140
59 94 139
60 95 139
60 95 144
60 94 141
59 94 141
60 94 137
60 95 140
60 95 133
59 94 141
61 96 145
60 96 144
60 95 139
60 95 139
60 95 139
61 96 150
61 96 145
60 95 141
61 96 147
61 96 143
60 95 135
60 95 144
61 96 147
60 96 137
60 95 142
59 94 137
59 93 128
59 94 142
61 97 143
58 92 131
60 96 140
61 96 148
61 96 140
60 94 141
61 96 142
60 95 141
60 95 143
60 95 143
60 94 131
61 97 149
61 96 143
60 95 133
61 96 145
60 95 139
61 97 148
60 94 134
59 94 134
62 97 144
58 92 122
60 94 134
59 94 131
60 95 139
60 95 142
60 95 136
60 95 137
60 95 145
61 97 148
60 94 129
62 97 153
60 95 140
61 95 139
60 95 142
60 94 134
61 96 142
60 95 130
61 96 144
60 95 137
59 93 129
60 95 135
60 95 133
61 95 135
59 93 129
61 95 134
61 96 144
60 95 134
60 94 126
59 93 131
61 96 147
60 94 131
59 93 130
59 94 126
57 91 122
59 94 126
61 95 137
59 94 131
58 91 124
59 93 120
58 92 121
58 91 125
60 94 135
58 91 122
58 92 128
58 91 120
59 93 125
56 89 111
57 89 103
65 96 113
66 93 89
95 114 54
107 120 31
113 124 0
111 126 0
112 124 0
123 137 0
119 131 0
123 135 0
115 129 0
120 133 0
118 130 0
108 120 0
130 144 0
131 146 0
122 136 0
132 147 0
125 138 0
123 139 0
121 133 0
134 148 0
119 132 0
120 132 0
129 142 0
123 137 0
131 143 0
126 136 0
134 148 0
129 143 0
125 137 0
132 147 0
136 149 0
121 133 0
140 154 0
125 137 0
122 134 0
131 142 0
137 151 0
137 149 0
126 137 0
126 139 0
131 145 0
127 139 0
129 142 0
135 149 0
130 141 0
132 143 0
133 146 0
122 135 0
134 145 0
132 143 0
141 153 0
139 152 0
143 157 0
136 150 0
134 148 0
139 153 0
143 151 0
134 146 0
135 147 0
138 150 0
144 157 0
135 148 0
141 151 0
144 154 0
141 153 0
137 150 0
141 150 0
143 153 0
142 157 0
132 140 0
135 146 0
140 151 0
139 150 0
143 156 0
150 162 0
145 156 0
142 155 0
144 155 0
144 156 0
143 154 0
146 157 0
146 158 0
148 161 0
151 165 0
143 153 0
146 159 0
141 154 0
151 165 0
151 166 0
148 159 0
148 163 0
146 159 0
146 160 0
142 155 0
148 160 0
154 166 0
152 168 0
150 163 0
153 164 0
156 171 0
146 157 0
146 159 0
149 161 0
153 170 0
157 173 0
160 177 0
158 174 0
154 170 0
154 167 0
154 167 0
153 165 0
149 165 0
154 169 0
164 179 0
161 179 0
163 179 0
157 173 0
157 171 0
156 170 0
154 168 0
158 174 0
156 173 0
156 171 0
163 180 0
157 173 0
160 171 0
161 175 0
162 180 0
155 173 0
160 176 0
158 174 0
154 171 0
161 179 0
161 176 0
158 174 0
163 179 0
163 182 0
163 182 0
165 182 0
163 180 0
160 180 0
165 184 0
166 184 0
162 179 0
162 181 0
166 185 0
166 184 0
158 176 0
167 184 0
167 184 0
163 180 0
170 194 67
169 192 67
171 194 72
171 194 44
172 195 80
175 198 80
172 196 76
174 199 84
168 191 57
172 195 62
169 192 76
172 195 57
175 199 76
171 195 84
171 195 84
169 194 80
172 195 72
172 195 67
171 195 72
168 192 57
172 196 80
169 193 67
169 193 57
167 191 72
172 196 92
167 191 76
167 190 76
170 195 57
170 194 80
169 192 51
170 194 80
171 194 62
170 194 72
169 194 67
168 193 62
173 197 67
169 193 67
167 192 92
167 191 57
171 195 102
167 192 57
172 195 80
167 191 92
164 187 44
169 193 72
169 192 57
162 185 51
168 193 84
166 188 80
169 192 84
172 196 80
167 191 62
163 187 62
164 188 62
165 188 80
167 191 67
167 191 57
168 191 72
166 189 95
161 185 62
164 188 80
165 189 80
160 183 67
166 190 102
163 188 67
167 190 80
162 185 57
160 184 76
164 187 67
164 188 67
161 184 67
169 192 76
161 183 62
167 190 84
158 180 62
168 192 92
162 184 72
162 185 76
149 172 103
111 136 110
90 118 126
94 121 134
83 112 133
85 112 125
88 116 142
95 122 143
98 124 149
100 126 148
103 129 145
96 123 145
102 128 158
90 118 147
85 113 141
96 124 151
101 126 153
93 120 136
85 113 143
90 117 136
99 126 153
96 123 133
93 119 137
94 120 126
98 125 150
95 123 143
87 115 138
95 122 160
93 121 153
85 115 162
86 115 158
86 116 166
85 114 166
86 115 160
71 104 166
70 103 164
74 105 161
69 102 164
67 101 165
63 98 156
62 97 157
64 98 156
65 98 153
61 96 149
59 94 141
60 95 150
61 96 150
61 96 151
62 97 142
59 94 140
61 96 135
66 99 134
62 97 147
64 96 137
66 99 140
60 94 130
67 99 133
63 97 131
65 98 131
59 94 137
57 91 123
60 94 136
60 95 136
59 94 137
59 94 140
59 94 133
59 94 133
58 92 134
59 93 131
60 95 143
59 93 134
59 94 141
60 96 140
61 97 154
60 95 139
60 96 149
61 96 147
59 93 142
61 96 144
61 96 149
59 94 130
60 95 143
59 93 129
61 96 145
60 95 144
60 95 147
60 95 142
61 96 142
60 96 141
59 93 130
60 95 134
60 96 140
60 95 140
59 93 131
59 94 136
60 95 140
59 94 135
61 96 148
61 96 142
59 94 131
61 96 144
60 95 144
60 95 140
59 93 125
57 92 126
60 95 142
60 94 134
61 96 142
61 96 150
60 96 145
60 95 141
61 97 155
59 94 139
62 97 150
60 95 131
59 94 135
62 97 143
60 95 134
60 95 134
59 94 137
59 94 135
60 94 140
61 97 145
61 96 144
60 95 140
60 95 145
61 97 148
59 93 134
62 97 148
59 94 136
60 95 136
61 96 148
60 95 134
60 95 136
60 95 134
60 95 139
61 96 136
61 95 145
60 94 126
62 96 145
58 93 126
60 95 135
59 94 130
60 95 140
60 95 134
59 94 126
60 95 133
60 94 131
59 93 130
60 94 133
59 94 126
59 92 122
59 94 129
57 90 118
59 93 125
60 95 136
57 91 124
58 92 124
58 92 125
57 91 114
58 92 114
59 93 129
59 93 125
58 92 117
58 91 122
58 90 125
56 88 118
56 88 111
60 92 107
77 103 107
92 108 76
117 131 36
110 122 0
109 122 0
111 123 0
116 130 0
113 126 0
120 134 0
125 138 0
123 138 0
107 120 0
108 120 0
116 130 0
122 134 0
127 139 0
124 141 0
124 138 0
119 132 0
121 136 0
130 144 0
130 142 0
113 128 0
128 142 0
123 135 0
127 141 0
115 126 0
129 142 0
126 139 0
126 139 0
125 137 0
129 141 0
120 132 0
141 155 0
123 137 0
131 144 0
129 143 0
132 144 0
131 144 0
122 135 0
135 147 0
133 148 0
130 142 0
124 135 0
134 146 0
133 145 0
136 150 0
124 136 0
133 147 0
136 146 0
139 150 0
145 156 0
140 153 0
137 149 0
127 140 0
139 149 0
134 147 0
142 154 0
139 149 0
133 145 0
126 136 0
146 157 0
137 148 0
135 148 0
133 142 0
133 144 0
137 150 0
138 149 0
142 155 0
141 154 0
150 161 0
138 150 0
142 153 0
144 155 0
143 157 0
148 164 0
145 158 0
144 156 0
140 151 0
147 159 0
147 158 0
141 152 0
152 166 0
143 156 0
146 154 0
142 152 0
145 156 0
145 156 0
151 164 0
147 159 0
146 161 0
146 159 0
149 163 0
152 164 0
151 166 0
150 163 0
147 160 0
151 166 0
154 169 0
153 169 0
152 167 0
156 171 0
158 171 0
156 170 0
157 173 0
151 166 0
153 169 0
155 169 0
158 173 0
159 176 0
152 166 0
158 173 0
161 175 0
155 168 0
154 168 0
145 158 0
157 171 0
161 176 0
161 178 0
161 178 0
157 173 0
164 179 0
156 171 0
162 179 0
160 175 0
162 177 0
160 175 0
160 178 0
155 171 0
159 178 0
157 174 0
165 183 0
162 179 0
159 174 0
164 182 0
164 181 0
168 187 0
159 177 0
162 179 0
165 183 0
161 180 0
162 180 0
166 185 0
161 178 0
162 181 0
164 181 0
164 183 0
164 182 0
167 184 0
162 178 0
169 188 0
165 182 0
161 178 0
173 196 72
174 198 51
171 196 84
171 195 57
173 198 76
172 196 80
170 194 72
171 195 57
172 196 88
173 197 99
169 193 51
170 195 72
174 198 84
171 195 57
170 194 57
166 190 51
168 192 67
172 197 88
171 194 44
171 194 72
167 192 80
171 194 67
173 196 62
169 192 44
169 193 80
170 193 67
168 192 76
171 194 67
169 194 72
168 193 67
167 191 62
171 195 51
169 193 84
164 187 57
166 190 67
167 191 76
163 188 76
167 192 62
167 191 51
167 190 62
165 189 51
166 189 51
166 190 80
165 189 67
173 196 62
168 193 72
166 190 72
167 192 76
164 187 80
163 187 72
166 190 76
158 182 80
167 191 67
169 192 67
166 190 72
170 194 67
166 190 67
169 192 80
167 191 95
166 191 76
166 190 92
165 188 67
168 191 76
167 191 67
169 191 62
163 186 62
167 190 72
158 181 51
162 185 44
165 188 62
160 184 62
163 186 84
162 185 76
167 190 80
170 193 95
165 188 76
159 182 80
164 188 72
163 186 86
128 153 107
120 145 121
84 112 137
91 118 147
85 114 137
83 112 129
93 120 144
102 128 139
91 119 140
93 120 139
87 116 128
94 121 150
98 125 142
92 120 142
87 115 139
97 123 141
75 105 134
93 120 154
104 130 150
98 125 154
95 121 145
87 115 150
94 121 138
95 122 144
93 121 156
94 120 140
101 128 150
96 123 145
98 124 160
85 114 149
88 117 166
68 102 160
84 112 162
82 113 173
68 101 158
73 105 159
69 102 162
78 108 160
67 99 154
66 100 159
61 97 152
64 98 154
65 98 156
60 96 146
65 100 158
62 96 140
61 97 151
61 97 156
65 99 150
61 96 150
58 93 142
67 100 148
64 97 137
72 103 135
62 95 130
65 99 141
65 97 126
58 92 131
63 96 137
59 93 136
61 95 139
58 93 140
59 94 140
60 95 140
60 94 138
59 94 129
59 94 141
59 94 134
62 97 150
59 94 135
60 95 140
60 95 141
59 94 133
60 94 146
60 95 140
59 94 140
56 89 128
60 95 141
59 94 138
59 93 131
60 94 134
60 95 139
59 94 142
61 96 144
59 94 136
60 95 141
59 94 139
60 95 136
60 95 133
61 96 141
59 94 136
59 94 134
61 96 148
60 94 135
60 95 137
59 93 136
61 97 148
60 95 140
60 95 139
60 95 142
61 96 144
59 94 131
61 96 145
60 96 144
61 95 141
59 94 145
60 94 140
60 94 139
61 96 144
60 94 142
60 95 141
60 95 143
60 95 134
59 94 132
61 96 137
61 96 141
60 95 137
60 94 131
60 94 130
60 95 143
61 96 143
60 95 144
60 95 143
62 97 148
61 95 135
60 95 136
60 94 140
60 95 134
58 92 129
60 95 141
59 94 130
60 95 130
59 93 122
61 95 143
59 94 121
59 94 126
60 95 143
60 95 129
59 93 133
59 93 131
59 93 133
60 94 130
60 94 133
61 96 135
58 92 115
59 93 129
59 93 125
61 95 133
60 94 134
60 94 134
59 93 125
59 93 128
60 94 135
58 92 137
59 94 126
60 94 121
59 93 126
58 92 118
58 92 122
56 89 108
59 93 129
57 90 117
58 90 123
57 91 118
57 90 114
58 91 114
56 88 113
72 99 110
89 110 78
113 129 54
111 124 18
123 137 0
122 136 0
112 126 0
121 136 0
124 137 0
125 139 0
117 129 0
130 145 0
114 127 0
124 138 0
119 133 0
124 137 0
120 133 0
126 140 0
136 150 0
126 141 0
130 143 0
123 138 0
131 147 0
135 147 0
125 139 0
134 147 0
138 152 0
126 142 0
130 143 0
129 145 0
123 135 0
116 130 0
139 154 0
118 132 0
126 139 0
133 148 0
136 148 0
137 151 0
128 139 0
125 137 0
137 149 0
142 157 0
136 150 0
126 140 0
141 151 0
131 143 0
125 137 0
134 150 0
130 142 0
137 148 0
126 140 0
149 161 0
135 147 0
128 140 0
130 142 0
136 149 0
130 142 0
132 144 0
146 161 0
142 154 0
131 143 0
138 150 0
144 154 0
149 164 0
137 150 0
136 148 0
141 153 0
141 153 0
147 159 0
140 151 0
133 143 0
143 156 0
151 165 0
144 156 0
144 158 0
147 160 0
138 150 0
138 151 0
146 158 0
141 151 0
142 154 0
139 152 0
138 150 0
142 152 0
149 163 0
143 156 0
150 163 0
148 161 0
147 160 0
147 160 0
145 156 0
147 160 0
145 158 0
153 166 0
151 166 0
150 163 0
151 164 0
145 157 0
157 171 0
149 164 0
148 160 0
151 165 0
152 167 0
151 163 0
156 168 0
155 170 0
153 167 0
152 164 0
153 165 0
157 171 0
157 171 0
153 166 0
153 169 0
162 177 0
156 170 0
157 175 0
160 176 0
154 169 0
160 176 0
156 171 0
155 171 0
154 169 0
160 177 0
157 175 0
160 177 0
161 176 0
163 180 0
157 172 0
163 180 0
167 184 0
159 179 0
162 178 0
154 170 0
163 180 0
159 174 0
160 178 0
162 178 0
159 178 0
162 179 0
161 178 0
161 176 0
162 180 0
158 177 0
164 181 0
165 182 0
160 178 0
164 181 0
164 181 0
162 181 0
163 181 0
159 179 0
169 189 0
163 181 0
165 184 0
170 193 76
170 193 72
174 196 62
172 197 67
172 196 76
173 197 99
172 195 84
166 190 51
168 192 76
172 197 80
169 193 51
173 198 95
169 194 92
174 198 88
169 192 76
172 197 92
175 198 72
174 199 84
171 194 76
172 196 76
167 192 80
171 195 67
168 193 80
171 196 80
167 191 76
166 190 67
165 189 72
175 199 84
167 191 84
168 192 72
166 191 76
171 195 76
167 191 76
167 191 57
169 192 80
167 190 80
171 196 92
162 185 36
168 192 76
160 183 72
167 190 62
169 193 67
171 195 80
167 191 57
166 191 76
169 193 80
174 198 84
163 187 67
170 194 80
167 190 57
166 191 92
163 188 80
165 189 62
167 190 80
169 193 88
166 190 67
166 191 92
164 188 80
165 188 44
162 186 76
165 189 88
164 187 67
165 188 80
166 190 62
165 188 62
162 186 88
164 187 51
161 184 62
165 188 80
163 186 44
165 189 67
162 186 84
167 189 76
165 188 62
162 185 76
163 186 72
163 187 76
160 182 57
162 185 57
156 179 80
124 149 133
101 128 143
78 107 125
87 115 136
91 118 127
80 109 143
100 126 143
90 118 143
95 121 141
104 130 135
106 132 151
96 123 136
87 115 136
99 125 153
87 115 144
96 122 144
80 109 131
95 122 147
90 117 143
92 119 151
93 120 132
102 129 142
106 132 129
100 126 141
97 124 147
109 134 147
84 113 139
83 113 150
92 121 157
85 114 157
75 107 156
84 113 159
90 119 166
64 98 151
86 115 165
78 107 152
65 99 155
79 108 163
66 98 150
66 99 158
62 97 146
63 97 148
65 98 156
62 96 141
61 97 154
62 96 145
60 96 148
60 95 145
61 95 140
61 95 137
61 95 137
63 96 133
62 96 137
65 98 137
76 107 136
64 97 131
64 97 143
63 96 128
65 98 140
60 94 128
59 93 142
58 93 134
59 94 143
59 94 140
59 93 141
59 94 137
59 94 129
59 94 140
59 93 137
60 94 142
58 92 124
61 96 145
58 92 129
61 95 137
60 94 134
59 94 135
58 93 124
61 96 151
59 94 134
60 95 136
59 94 137
60 94 134
59 94 135
59 94 136
60 95 139
60 95 136
59 94 142
60 95 141
61 96 141
59 94 135
60 95 147
61 96 141
59 93 131
59 94 136
61 96 147
60 96 142
59 94 139
61 96 151
59 93 128
60 95 141
60 94 130
60 95 141
59 94 139
59 94 140
60 95 136
61 95 134
59 93 131
60 95 145
60 95 137
61 96 143
61 95 143
61 96 151
61 96 141
59 94 137
60 95 136
61 95 141
60 94 133
59 93 131
60 95 139
60 95 136
59 94 135
60 94 134
60 95 131
60 95 139
60 95 137
60 94 131
59 94 136
59 94 136
60 94 130
60 95 136
60 95 125
60 95 131
60 94 139
59 93 122
60 94 130
60 94 131
59 94 133
60 94 135
60 95 134
59 93 126
59 93 128
59 94 135
59 94 129
59 94 134
58 92 128
59 92 124
58 92 124
58 93 122
58 93 122
58 91 120
58 91 125
58 92 113
60 95 130
60 94 129
59 93 125
57 90 118
58 91 120
57 91 111
57 91 108
58 91 120
57 90 122
57 90 122
57 91 114
59 93 118
57 91 108
63 92 97
91 112 84
110 126 48
106 120 0
118 130 0
114 127 0
119 133 0
119 133 0
121 138 0
123 137 0
125 139 0
114 130 0
122 135 0
114 128 0
128 143 0
122 134 0
128 140 0
125 140 0
125 138 0
126 138 0
127 142 0
121 135 0
120 134 0
130 144 0
135 149 0
124 138 0
114 129 0
133 146 0
125 139 0
128 140 0
131 147 0
133 148 0
131 147 0
131 145 0
121 135 0
130 144 0
135 148 0
127 141 0
131 143 0
125 140 0
127 139 0
136 149 0
132 145 0
137 150 0
136 151 0
142 156 0
137 151 0
130 145 0
135 149 0
133 145 0
136 150 0
135 150 0
140 150 0
144 160 0
137 152 0
135 148 0
142 155 0
138 151 0
137 149 0
143 156 0
132 146 0
136 148 0
139 152 0
139 150 0
132 141 0
137 150 0
137 149 0
141 153 0
135 146 0
139 152 0
142 155 0
141 155 0
139 152 0
144 158 0
135 146 0
140 151 0
141 154 0
149 162 0
139 154 0
135 145 0
147 161 0
147 161 0
151 166 0
140 153 0
146 159 0
150 164 0
147 158 0
143 157 0
150 164 0
144 158 0
149 161 0
155 169 0
152 165 0
158 172 0
149 163 0
148 161 0
147 160 0
151 165 0
150 162 0
151 163 0
145 157 0
151 165 0
154 168 0
156 172 0
148 162 0
154 171 0
158 173 0
157 169 0
150 165 0
152 167 0
157 173 0
153 168 0
150 165 0
158 173 0
152 167 0
151 163 0
156 171 0
157 173 0
153 167 0
162 176 0
156 172 0
154 169 0
151 167 0
162 178 0
162 178 0
153 171 0
160 176 0
163 178 0
159 176 0
158 174 0
167 186 0
158 173 0
156 173 0
161 176 0
167 185 0
161 181 0
162 182 0
161 177 0
159 176 0
165 184 0
160 178 0
165 184 0
167 186 0
163 182 0
160 178 0
165 183 0
165 184 0
164 180 0
165 183 0
164 182 0
163 182 0
163 183 0
160 179 0
163 182 0
159 178 0
171 195 51
174 197 62
173 197 84
171 195 67
171 194 36
172 195 51
170 193 67
170 195 92
173 197 62
176 199 84
170 193 67
170 195 72
168 192 67
174 198 92
173 197 51
173 196 67
170 194 80
173 197 80
172 196 67
171 194 67
167 192 67
168 192 67
174 198 88
167 191 72
170 194 84
172 195 57
170 194 72
168 193 67
169 193 72
171 195 84
169 194 44
169 193 88
167 191 84
165 188 57
163 188 57
169 193 80
166 189 51
169 193 44
170 194 80
167 191 76
168 191 67
164 188 67
162 186 72
169 193 76
160 184 92
168 192 67
168 191 80
166 190 76
165 189 51
168 191 62
168 191 62
165 188 62
168 191 51
168 191 76
164 187 67
168 190 57
163 187 57
164 188 62
166 191 67
161 184 44
160 182 36
166 189 76
171 194 88
160 183 72
165 189 84
157 179 67
165 189 88
163 186 72
165 189 80
161 185 67
165 188 88
163 187 67
162 184 72
161 183 84
163 187 67
155 178 72
153 176 76
161 183 76
156 178 36
160 182 76
149 172 94
107 132 121
93 118 124
97 124 136
88 116 135
83 112 137
88 116 140
88 117 148
90 118 142
101 127 149
96 122 143
90 118 152
82 109 131
94 121 147
89 117 147
103 129 150
100 126 138
101 126 147
94 121 137
94 121 138
115 139 145
101 127 140
90 117 150
105 130 145
86 115 144
101 126 139
91 118 140
87 115 142
90 118 141
77 108 154
83 112 153
86 115 164
80 110 158
70 103 160
80 110 160
67 101 164
72 104 160
71 103 158
66 100 159
71 103 160
67 99 150
65 98 150
60 96 147
61 97 158
60 96 149
65 99 155
60 96 144
61 96 147
61 96 143
64 97 136
60 96 150
59 93 134
60 95 144
66 99 136
63 95 134
64 97 131
64 98 136
61 94 133
64 96 121
61 94 139
60 94 137
58 92 133
59 94 139
58 93 133
60 94 136
59 93 136
59 94 138
59 94 137
58 93 132
60 95 149
61 96 139
59 93 131
59 93 131
58 93 135
60 94 137
60 95 141
60 94 141
61 95 134
59 94 131
60 95 131
60 95 140
58 93 133
59 94 143
59 94 134
60 94 132
60 95 144
60 94 138
60 95 137
59 93 135
59 94 139
60 95 143
60 95 145
61 96 139
59 94 139
58 93 131
60 95 140
59 94 135
60 95 139
59 94 133
60 94 144
60 94 131
60 96 144
59 94 130
60 95 129
61 96 147
61 97 143
59 94 139
60 95 140
60 95 135
60 95 136
61 95 135
61 96 142
60 94 129
59 94 124
58 93 136
61 96 141
60 95 142
60 94 133
59 93 131
59 93 137
60 95 136
60 94 134
59 94 131
60 95 135
60 94 134
61 96 142
59 94 121
60 95 139
60 95 139
60 95 131
59 94 133
60 95 136
59 93 130
59 93 122
62 97 144
59 94 133
60 94 130
61 96 137
61 96 142
60 94 136
60 94 133
58 92 124
58 93 125
60 95 135
61 96 131
60 94 130
60 94 126
61 95 136
60 94 131
58 92 117
59 93 126
59 93 128
59 93 122
58 92 129
60 95 140
59 93 114
58 92 114
58 92 118
59 93 118
57 90 114
57 91 108
56 89 117
58 91 122
56 88 121
59 91 105
81 103 92
107 123 54
110 124 25
116 132 0
114 127 0
122 135 0
119 134 0
125 140 0
123 136 0
135 150 0
122 137 0
110 123 0
122 137 0
126 141 0
110 123 0
114 127 0
117 131 0
129 143 0
129 143 0
133 147 0
135 149 0
132 146 0
127 141 0
123 137 0
134 148 0
123 136 0
125 139 0
141 156 0
131 146 0
129 144 0
131 143 0
125 141 0
124 138 0
124 137 0
131 145 0
127 143 0
130 145 0
134 147 0
142 157 0
132 146 0
123 137 0
129 141 0
140 157 0
134 148 0
136 149 0
135 147 0
129 142 0
140 155 0
138 152 0
135 146 0
140 157 0
133 146 0
136 149 0
139 154 0
146 160 0
144 157 0
137 149 0
133 145 0
134 147 0
141 153 0
131 142 0
126 136 0
139 151 0
142 156 0
145 159 0
140 153 0
141 154 0
145 160 0
147 160 0
142 155 0
140 153 0
141 156 0
147 159 0
144 156 0
150 165 0
145 159 0
145 159 0
141 154 0
145 159 0
143 159 0
147 160 0
147 162 0
142 155 0
146 162 0
146 159 0
145 159 0
142 157 0
155 168 0
146 159 0
150 164 0
153 168 0
147 160 0
151 166 0
150 164 0
146 158 0
148 163 0
147 162 0
156 171 0
147 159 0
159 173 0
147 161 0
151 163 0
147 160 0
155 170 0
150 163 0
157 174 0
155 168 0
159 174 0
156 169 0
151 166 0
151 167 0
156 171 0
152 170 0
165 181 0
158 176 0
160 176 0
158 172 0
154 170 0
161 175 0
154 170 0
159 178 0
155 170 0
147 163 0
159 174 0
163 180 0
158 175 0
159 176 0
155 172 0
162 178 0
160 174 0
162 179 0
162 177 0
158 175 0
156 172 0
165 182 0
157 175 0
160 177 0
161 179 0
160 175 0
162 179 0
165 183 0
160 178 0
162 181 0
162 181 0
167 186 0
168 187 0
162 180 0
164 184 0
165 185 0
164 181 0
165 182 0
162 181 0
163 181 0
160 179 0
167 186 0
169 192 72
172 196 76
171 194 72
171 195 76
171 195 57
169 192 88
172 196 62
170 193 76
169 193 62
173 198 84
170 193 62
173 197 67
168 192 76
171 195 57
171 195 80
172 196 84
169 193 51
169 193 57
170 194 76
169 193 84
166 190 67
166 191 84
169 193 72
169 194 76
170 194 88
169 194 99
168 193 72
168 193 84
167 190 51
163 186 72
168 192 72
164 189 62
168 191 84
170 194 76
170 194 84
170 194 84
169 194 57
169 194 88
166 190 62
168 192 72
166 191 88
168 193 88
170 193 62
168 192 88
168 192 51
170 194 67
163 186 67
166 191 84
164 188 57
165 188 67
161 185 72
164 188 67
168 192 57
169 193 76
159 183 67
162 185 44
165 189 62
165 189 67
166 190 67
165 188 80
168 191 92
170 194 95
166 189 67
162 185 80
164 187 67
161 185 67
165 188 72
158 181 51
164 188 76
162 186 72
163 187 92
163 186 84
165 189 62
167 191 80
161 184 67
156 179 72
168 192 76
163 186 92
156 180 67
160 183 72
157 180 62
143 166 92
96 122 120
94 122 133
90 118 133
90 117 133
90 118 136
95 121 141
97 124 143
88 115 141
100 126 152
97 123 149
88 115 141
95 122 143
84 112 141
105 131 152
84 112 137
102 128 155
103 129 145
86 113 140
88 115 131
99 126 163
100 126 150
100 126 152
99 125 139
95 123 162
75 105 139
92 118 129
91 119 148
98 124 140
86 115 149
94 121 156
79 109 158
84 114 164
77 108 154
82 111 160
64 98 152
73 104 158
68 101 154
69 102 155
66 100 157
65 99 158
61 96 153
63 97 144
62 97 149
61 95 148
61 96 145
62 96 136
59 94 137
59 94 133
64 97 144
63 98 149
61 95 138
59 93 140
73 103 128
66 99 129
64 98 133
62 95 126
64 98 134
58 92 128
62 96 138
60 94 147
60 94 137
60 94 137
59 94 134
59 94 135
61 96 141
60 96 139
59 94 136
58 93 133
58 93 133
59 94 137
60 95 142
60 95 138
60 95 140
59 94 132
60 95 142
60 94 140
57 92 133
59 93 135
59 94 136
59 94 141
59 94 133
60 95 140
59 94 131
60 95 143
60 95 139
60 95 136
59 94 126
58 92 129
59 94 133
61 95 135
60 95 137
59 93 125
59 94 134
59 93 131
59 93 129
60 95 139
59 94 135
59 93 134
61 95 143
59 93 134
60 94 136
60 95 137
60 95 136
60 94 134
60 95 140
59 94 133
59 93 126
61 96 143
61 96 141
60 95 140
59 93 128
59 94 139
59 94 129
61 95 133
59 94 129
60 94 131
59 92 121
60 95 139
60 95 131
60 95 139
59 93 125
60 94 130
60 95 129
60 95 140
60 95 136
58 92 120
60 95 134
60 95 144
61 95 139
59 93 130
61 95 137
60 94 140
59 94 134
59 94 122
59 94 129
59 94 134
60 95 137
59 93 131
60 95 135
61 96 142
59 94 129
58 93 122
60 95 134
60 94 131
60 94 126
58 91 115
59 94 126
58 92 120
59 94 134
58 92 118
59 92 121
57 90 121
59 93 128
58 92 122
58 91 121
56 89 114
57 89 115
58 91 124
58 92 121
55 88 115
57 89 114
58 90 103
67 94 83
103 123 70
121 137 25
113 125 18
109 122 0
117 132 0
125 139 0
125 139 0
115 129 0
121 136 0
128 140 0
117 129 0
122 137 0
131 146 0
117 131 0
111 123 0
130 143 0
121 136 0
128 140 0
133 148 0
124 138 0
129 143 0
125 138 0
131 149 0
141 158 0
133 146 0
127 139 0
123 139 0
124 140 0
123 136 0
135 149 0
131 146 0
128 144 0
125 138 0
129 142 0
127 142 0
128 142 0
131 145 0
132 145 0
134 147 0
128 140 0
133 147 0
132 145 0
142 157 0
126 138 0
133 147 0
133 147 0
128 141 0
130 144 0
142 157 0
138 153 0
140 153 0
134 148 0
144 158 0
134 148 0
136 147 0
137 152 0
139 154 0
134 151 0
132 143 0
142 157 0
144 160 0
135 148 0
139 154 0
132 143 0
141 155 0
148 163 0
136 147 0
143 158 0
138 150 0
139 151 0
142 156 0
144 158 0
142 154 0
145 161 0
143 156 0
144 158 0
145 159 0
147 162 0
139 151 0
143 155 0
157 171 0
146 157 0
149 162 0
152 163 0
151 165 0
149 162 0
150 165 0
155 171 0
155 171 0
151 166 0
153 167 0
151 167 0
147 164 0
151 165 0
150 165 0
150 165 0
154 169 0
157 173 0
151 165 0
156 169 0
156 173 0
154 171 0
144 155 0
153 166 0
150 162 0
159 175 0
155 172 0
156 170 0
163 179 0
159 174 0
157 174 0
156 172 0
158 172 0
160 178 0
160 176 0
158 176 0
156 172 0
155 171 0
156 173 0
158 173 0
159 177 0
157 175 0
150 164 0
158 175 0
157 173 0
161 179 0
159 175 0
159 176 0
159 176 0
163 183 0
151 169 0
163 181 0
166 184 0
163 181 0
161 177 0
163 178 0
161 178 0
157 174 0
162 179 0
164 182 0
164 182 0
159 176 0
164 185 0
158 178 0
161 178 0
163 183 0
164 181 0
159 174 0
159 179 0
166 186 0
159 175 0
163 183 0
165 184 0
164 183 0
165 184 0
173 197 67
172 196 62
174 197 67
173 196 72
174 199 92
169 194 67
169 193 57
173 197 80
172 195 84
170 194 67
172 196 80
173 196 72
173 197 72
171 195 62
168 193 88
170 194 84
168 192 72
168 192 57
173 197 76
168 193 72
170 193 76
171 195 62
167 191 57
168 192 62
171 194 72
167 191 76
169 193 67
168 192 57
171 195 62
171 194 36
171 195 80
167 192 95
165 188 57
170 194 80
168 192 72
167 193 92
167 192 76
167 191 57
164 188 72
171 195 72
172 196 95
166 190 67
165 188 67
166 190 80
167 192 80
165 189 84
165 188 62
167 192 88
164 189 72
162 185 57
166 190 102
165 190 51
169 192 62
162 185 80
161 184 72
166 189 80
167 190 67
164 189 92
166 190 84
164 188 72
167 191 76
165 188 62
167 191 76
166 189 92
164 187 51
161 185 76
160 183 67
162 185 51
157 180 76
168 191 80
159 183 72
160 183 80
163 186 57
161 183 62
160 182 67
155 177 95
155 177 84
156 179 62
154 176 67
161 183 72
154 177 51
155 178 76
128 150 94
87 114 133
86 114 132
88 114 111
92 120 126
87 114 120
91 119 131
100 127 154
96 123 161
93 120 141
83 111 135
101 127 149
108 133 163
90 118 143
116 141 160
103 129 141
94 121 143
90 117 140
86 113 133
88 114 138
90 118 125
100 126 142
88 116 136
96 122 143
88 115 141
91 119 145
96 123 145
96 123 144
83 112 145
84 113 153
85 114 155
87 114 153
73 104 152
83 112 159
76 106 158
83 110 155
76 105 155
65 99 160
63 97 151
61 96 150
65 98 144
62 96 148
61 96 149
63 97 146
64 98 151
60 95 149
65 99 155
60 95 145
61 96 146
62 96 137
61 95 136
58 93 135
67 100 143
69 100 120
65 97 128
60 94 116
64 97 128
59 93 131
64 96 126
61 94 132
61 95 124
58 92 126
60 95 139
59 93 129
59 93 126
58 92 139
60 94 132
59 94 138
58 92 124
60 95 143
60 95 139
59 94 137
60 94 136
59 93 136
60 95 144
61 96 137
59 94 142
58 92 136
59 94 140
58 92 131
59 93 133
60 95 139
60 95 140
59 93 129
60 95 129
60 95 139
59 93 134
59 93 131
60 94 133
60 94 135
59 93 136
60 95 136
59 93 130
60 95 132
60 95 136
60 94 136
59 94 131
61 96 141
59 94 133
59 94 131
60 95 134
61 96 139
60 94 136
60 94 133
60 95 136
60 95 137
59 93 131
62 97 148
60 94 128
61 96 144
60 94 126
60 94 133
59 94 131
60 94 129
61 95 135
60 95 131
61 96 140
59 93 131
59 94 133
60 95 144
59 94 126
58 93 124
59 93 124
60 94 128
60 95 137
59 94 133
59 94 129
61 96 142
60 95 134
59 93 133
60 94 133
60 94 128
60 94 125
59 93 126
59 94 128
58 92 129
61 95 136
58 92 122
59 93 125
58 92 114
60 94 131
60 94 133
60 94 128
59 93 133
58 92 125
58 92 129
59 93 124
59 92 128
59 92 118
59 93 118
60 94 128
59 92 121
58 92 117
58 91 120
59 92 122
56 89 117
57 91 121
57 90 113
57 91 118
55 87 97
56 88 99
63 89 82
89 107 80
110 126 36
107 121 18
114 128 0
117 132 0
102 115 0
117 132 0
121 135 0
118 133 0
114 127 0
121 137 0
124 140 0
124 137 0
130 145 0
123 137 0
110 124 0
121 138 0
115 128 0
125 141 0
131 145 0
132 149 0
131 146 0
127 142 0
120 133 0
129 144 0
122 136 0
114 128 0
134 149 0
125 140 0
134 149 0
123 139 0
133 148 0
144 159 0
138 151 0
139 155 0
123 137 0
133 147 0
116 128 0
137 153 0
141 155 0
124 139 0
132 145 0
130 143 0
130 143 0
144 159 0
138 152 0
135 146 0
142 157 0
140 153 0
133 146 0
143 158 0
140 153 0
144 159 0
142 155 0
142 158 0
140 155 0
138 152 0
136 150 0
139 154 0
127 140 0
130 141 0
140 154 0
144 158 0
137 149 0
140 152 0
146 160 0
141 154 0
139 152 0
144 158 0
142 154 0
147 160 0
144 157 0
141 155 0
146 158 0
141 154 0
140 152 0
143 155 0
149 163 0
148 164 0
147 164 0
145 158 0
146 158 0
146 161 0
146 162 0
146 159 0
157 172 0
153 167 0
149 163 0
146 161 0
155 167 0
145 161 0
152 169 0
141 154 0
152 166 0
148 162 0
158 175 0
154 170 0
148 161 0
153 167 0
147 161 0
150 165 0
152 166 0
155 168 0
162 180 0
143 158 0
151 167 0
155 171 0
155 171 0
154 169 0
160 176 0
156 172 0
160 176 0
156 171 0
157 175 0
148 165 0
160 177 0
157 175 0
155 172 0
153 168 0
156 171 0
151 168 0
161 179 0
163 181 0
164 180 0
159 175 0
158 175 0
163 179 0
158 175 0
159 177 0
157 174 0
159 177 0
163 181 0
161 178 0
161 180 0
156 172 0
161 178 0
160 177 0
163 179 0
165 181 0
162 178 0
158 173 0
160 178 0
157 173 0
162 179 0
161 177 0
158 175 0
164 181 0
160 178 0
166 186 0
165 183 0
166 183 0
156 174 0
167 186 0
158 175 0
166 185 0
167 185 0
168 192 62
172 195 57
172 196 62
170 194 72
170 194 62
169 193 84
172 196 84
169 193 67
172 196 72
171 194 62
173 196 67
167 192 44
169 192 51
172 196 92
169 193 67
167 190 57
170 195 62
169 194 67
173 198 88
169 194 80
167 191 62
171 194 62
167 192 76
167 191 72
171 195 76
165 189 72
164 188 72
169 193 80
167 191 57
168 193 76
171 196 76
166 190 76
169 194 84
170 194 51
172 196 62
171 196 76
173 197 80
172 196 76
169 193 51
168 192 95
170 194 62
172 196 88
167 191 72
165 189 57
165 189 67
166 189 57
166 190 57
161 185 80
162 186 62
163 188 67
164 188 76
165 191 88
164 188 99
168 192 84
163 186 51
159 183 67
172 196 95
163 186 51
163 188 51
163 187 72
166 189 72
162 187 84
161 185 72
163 187 67
160 184 72
164 188 67
165 189 88
158 181 88
160 183 67
161 185 72
153 177 57
162 185 72
158 181 80
160 184 44
162 186 36
158 181 67
162 185 57
163 185 62
164 188 67
162 185 72
160 182 76
155 177 62
154 177 86
107 132 95
83 112 117
103 129 133
84 112 138
100 127 140
93 120 135
85 114 149
91 118 139
94 121 141
87 115 139
97 123 137
87 114 137
97 124 149
96 122 141
102 128 139
89 114 137
88 115 142
97 123 148
87 114 139
96 122 143
110 135 147
100 126 140
99 126 152
91 118 134
111 136 136
91 118 141
91 117 142
90 118 150
86 114 139
84 113 156
65 97 142
82 111 156
81 111 160
78 108 157
88 116 166
70 102 153
74 104 154
73 103 161
66 99 154
67 99 151
60 95 147
64 98 150
61 96 152
59 94 145
61 96 150
62 96 144
59 94 136
65 99 140
60 94 144
65 99 143
63 97 129
64 97 134
63 97 137
70 102 137
64 96 119
64 96 125
69 99 134
59 93 134
58 92 133
59 94 131
59 93 132
58 92 125
60 94 136
58 93 131
59 94 136
59 94 134
59 93 131
58 93 136
59 94 127
60 95 142
60 95 139
61 95 136
58 92 122
59 93 132
59 93 134
58 93 133
59 93 135
59 94 138
59 94 129
61 96 140
60 95 144
59 93 134
60 94 131
60 94 141
60 95 137
61 97 143
60 95 141
58 92 124
60 94 128
60 95 139
61 97 147
58 92 118
59 94 135
60 95 131
59 93 124
59 93 131
60 94 125
61 96 142
60 94 131
59 94 128
61 97 147
60 95 131
60 95 139
60 94 133
61 97 149
60 95 134
61 96 141
60 95 136
59 93 128
59 93 128
61 96 143
60 94 140
58 91 121
60 95 139
60 95 130
59 93 137
59 94 130
61 96 139
60 95 134
60 95 134
60 95 135
60 95 140
59 93 124
59 93 124
58 92 118
59 94 134
59 94 128
59 94 130
60 95 134
59 93 135
60 95 129
61 96 143
58 92 115
59 93 130
60 95 133
58 92 118
59 94 125
59 94 126
60 95 140
61 95 141
59 94 134
60 94 133
60 94 130
59 93 130
59 93 128
59 93 125
57 90 108
58 91 113
58 92 117
58 91 120
60 95 130
57 91 115
58 91 118
59 92 130
57 90 118
57 91 117
55 87 100
55 87 99
58 91 108
80 106 108
74 96 62
103 120 44
119 137 18
107 120 0
108 122 0
113 126 0
117 132 0
114 129 0
117 130 0
107 119 0
120 134 0
103 116 0
117 130 0
121 133 0
121 136 0
118 130 0
121 135 0
122 137 0
132 149 0
115 130 0
123 138 0
125 139 0
122 136 0
131 147 0
130 145 0
116 131 0
137 153 0
131 148 0
124 140 0
134 151 0
121 138 0
130 147 0
132 146 0
130 145 0
122 136 0
128 143 0
142 158 0
135 149 0
132 146 0
135 148 0
129 145 0
139 154 0
137 153 0
135 150 0
140 155 0
121 134 0
138 152 0
130 141 0
141 153 0
133 147 0
142 158 0
141 155 0
128 141 0
131 143 0
143 155 0
144 159 0
141 154 0
133 148 0
146 160 0
141 155 0
136 149 0
134 149 0
143 158 0
144 158 0
143 158 0
138 152 0
144 157 0
142 158 0
145 159 0
138 153 0
144 159 0
144 159 0
140 154 0
141 155 0
141 153 0
146 162 0
142 158 0
146 159 0
137 150 0
143 156 0
144 158 0
145 157 0
149 164 0
146 157 0
150 165 0
150 165 0
149 163 0
140 154 0
142 156 0
148 162 0
151 164 0
152 165 0
154 168 0
146 158 0
146 159 0
150 165 0
144 159 0
156 172 0
157 172 0
152 167 0
153 167 0
154 169 0
158 174 0
157 173 0
151 165 0
156 171 0
152 167 0
147 161 0
154 171 0
153 169 0
155 171 0
150 165 0
156 171 0
163 179 0
159 178 0
151 166 0
153 168 0
159 173 0
152 168 0
157 175 0
158 173 0
157 175 0
159 176 0
156 172 0
157 174 0
160 178 0
158 174 0
161 178 0
152 169 0
159 176 0
159 175 0
158 176 0
159 175 0
160 178 0
154 172 0
162 180 0
158 175 0
164 181 0
162 180 0
164 184 0
152 169 0
159 177 0
161 180 0
157 175 0
160 179 0
164 183 0
161 180 0
162 183 0
158 176 0
157 174 0
165 184 0
163 179 0
166 185 0
165 184 0
165 183 0
167 186 0
167 185 0
171 195 67
170 193 67
172 196 62
172 196 84
173 197 76
171 194 51
172 196 72
171 195 57
170 194 67
171 194 67
169 193 57
170 195 80
171 195 57
172 195 57
172 195 80
171 195 72
168 191 51
173 197 76
170 195 80
170 193 72
169 193 62
165 190 72
171 196 92
169 193 92
169 193 76
170 193 51
169 194 80
169 193 72
171 195 88
172 196 76
167 192 76
168 192 84
167 191 51
166 190 76
172 196 84
168 193 80
166 190 80
170 194 72
167 191 67
168 192 72
169 194 80
168 192 84
168 192 72
165 189 57
165 189 95
161 185 57
167 191 72
168 192 88
164 188 57
166 190 76
162 185 51
164 188 76
165 188 62
162 186 57
167 191 76
171 195 99
162 186 72
161 185 72
161 185 62
164 188 76
166 189 76
160 183 62
157 181 51
159 182 62
163 186 84
165 187 62
163 186 72
160 183 80
164 188 76
160 183 67
164 187 72
160 184 67
160 183 80
158 180 72
159 182 72
157 180 67
160 182 62
152 175 62
158 181 80
164 187 84
157 179 67
156 178 62
156 178 76
143 166 105
106 132 122
80 109 128
86 114 120
88 116 148
98 124 134
71 101 112
84 112 131
109 134 142
89 116 133
92 120 150
87 114 135
75 104 137
93 120 139
95 122 136
89 117 133
100 127 138
98 123 147
91 117 142
93 120 147
96 121 132
94 120 142
83 112 147
97 124 136
97 123 147
100 125 139
97 123 155
95 122 140
83 111 138
88 116 151
79 109 135
87 116 157
76 106 148
72 105 152
68 101 153
75 106 161
64 97 153
72 103 157
63 98 157
63 97 148
67 101 152
64 96 141
60 95 138
62 95 142
60 96 148
62 97 143
61 95 144
59 94 137
64 97 131
64 98 129
66 99 134
67 99 134
69 101 123
62 96 133
72 103 129
60 93 120
64 96 121
58 91 121
57 91 115
59 94 134
62 95 131
59 93 126
58 92 126
57 90 126
58 92 125
59 93 136
59 94 125
57 91 123
60 94 132
59 94 140
58 93 133
60 94 136
60 94 140
60 94 139
58 92 132
59 93 134
58 93 125
58 93 129
59 94 141
58 93 131
59 93 142
58 92 133
61 96 145
58 93 126
60 94 130
60 94 131
58 93 130
60 95 140
60 95 136
61 96 139
60 96 140
60 95 129
61 96 144
61 95 140
59 94 129
60 94 131
59 93 129
60 94 130
60 94 130
60 94 134
59 94 131
59 94 129
59 94 137
60 95 134
60 94 133
61 95 134
61 95 147
60 95 135
60 95 136
59 93 126
61 96 140
59 94 135
59 94 142
59 93 133
60 94 133
59 93 129
61 96 143
58 93 130
60 95 131
59 93 130
59 93 133
61 96 143
59 94 129
59 93 129
60 95 131
60 95 131
59 93 124
59 93 129
60 95 129
60 95 134
59 93 131
60 94 136
59 94 136
59 92 124
58 91 114
59 93 126
59 93 124
59 94 125
59 93 125
60 94 134
60 95 128
59 93 121
58 91 121
59 93 126
57 90 117
59 94 125
59 93 125
58 92 120
59 92 118
57 91 121
57 90 120
59 92 120
58 91 115
58 92 124
57 89 118
59 93 120
59 92 121
56 89 107
70 98 92
77 100 78
110 126 51
110 124 18
113 126 0
115 127 0
107 120 0
113 125 0
123 137 0
113 128 0
119 135 0
120 135 0
120 135 0
120 135 0
118 133 0
127 141 0
127 144 0
120 136 0
124 140 0
120 134 0
121 135 0
121 136 0
126 137 0
131 145 0
120 135 0
120 133 0
125 142 0
130 144 0
131 149 0
125 138 0
129 143 0
127 141 0
133 150 0
129 145 0
122 136 0
129 143 0
128 145 0
138 153 0
141 156 0
129 143 0
139 151 0
133 149 0
140 157 0
132 147 0
137 152 0
124 139 0
138 153 0
143 158 0
134 145 0
135 148 0
136 150 0
131 146 0
143 161 0
138 153 0
139 152 0
130 143 0
136 151 0
145 160 0
139 154 0
125 138 0
142 159 0
137 150 0
143 157 0
135 151 0
137 152 0
143 159 0
141 158 0
146 163 0
144 157 0
142 158 0
145 160 0
145 157 0
147 163 0
142 156 0
141 153 0
145 161 0
145 159 0
149 161 0
145 158 0
136 150 0
144 159 0
151 164 0
148 165 0
149 164 0
151 165 0
149 164 0
144 157 0
154 173 0
149 164 0
152 167 0
142 156 0
149 162 0
152 167 0
150 165 0
149 166 0
151 161 0
150 166 0
145 158 0
145 161 0
151 165 0
151 166 0
157 173 0
153 168 0
145 160 0
153 171 0
147 161 0
151 167 0
160 176 0
151 168 0
154 169 0
155 172 0
146 160 0
153 169 0
156 173 0
155 169 0
157 173 0
155 171 0
157 172 0
151 167 0
157 175 0
155 173 0
152 168 0
158 174 0
157 172 0
159 174 0
156 173 0
157 174 0
159 177 0
158 175 0
158 174 0
152 170 0
162 178 0
160 178 0
158 176 0
160 175 0
156 174 0
157 174 0
165 184 0
159 177 0
164 182 0
162 180 0
163 182 0
162 180 0
160 177 0
163 182 0
165 184 0
162 182 0
163 181 0
163 181 0
165 182 0
163 181 0
163 182 0
160 179 0
162 182 0
162 178 0
161 180 0
165 184 0
167 186 0
166 185 0
168 193 62
172 196 76
172 195 72
170 195 67
173 195 72
172 196 72
170 194 88
170 193 67
170 194 84
172 197 99
168 192 62
171 196 84
171 195 51
172 196 88
171 195 72
172 196 76
169 194 84
172 196 76
168 191 67
171 194 51
171 194 72
168 192 62
167 191 62
170 195 102
164 187 80
171 195 84
172 197 108
165 189 95
166 190 80
166 189 51
169 193 62
167 192 72
169 192 80
167 191 67
169 193 88
168 192 62
170 194 80
164 187 36
169 193 44
171 195 80
165 188 72
171 196 84
165 189 80
163 187 62
166 190 76
165 189 67
163 187 88
160 184 51
165 189 62
163 187 72
162 185 62
162 186 67
160 185 80
163 186 51
164 188 62
162 185 67
164 188 67
162 186 76
157 181 72
164 188 67
166 189 88
167 190 80
156 180 80
153 176 76
161 186 92
163 187 80
159 182 57
160 185 72
159 182 67
160 184 92
156 179 72
158 181 76
158 180 57
160 183 67
153 175 36
159 183 62
155 177 51
161 182 72
158 181 62
161 183 88
157 179 51
155 178 51
159 182 76
156 178 88
131 154 120
103 128 135
92 119 134
98 124 133
83 112 136
91 118 137
105 130 141
105 130 144
94 120 139
86 113 134
93 119 140
102 128 151
91 118 134
102 128 150
90 117 141
97 123 145
89 117 143
90 117 135
85 114 143
92 117 133
100 125 135
80 109 135
98 124 145
109 134 149
97 124 139
92 120 147
93 119 134
91 119 139
97 124 157
88 116 141
82 111 148
72 103 156
76 107 149
72 104 159
74 104 157
69 101 152
72 104 163
69 101 154
63 98 156
65 98 147
69 100 139
61 96 149
60 94 150
63 97 151
60 95 142
62 97 152
60 95 134
63 96 139
60 94 130
63 97 142
62 96 138
60 93 137
63 97 130
68 100 129
72 103 130
61 94 122
64 96 122
57 91 127
57 91 129
60 93 130
58 92 124
57 91 125
59 93 129
59 93 134
59 94 129
59 94 125
59 93 132
59 94 137
59 94 134
59 93 135
60 95 142
59 93 126
59 94 139
60 95 140
58 93 138
59 93 129
59 94 124
60 95 139
60 95 139
57 91 127
59 94 129
60 95 141
58 92 131
59 94 131
59 93 134
60 95 139
60 95 134
61 96 144
58 92 124
59 93 130
59 93 135
59 94 131
61 96 143
57 91 129
60 95 131
60 95 145
59 94 124
60 95 133
60 94 131
60 95 140
60 95 139
60 94 137
60 95 136
59 93 126
58 92 124
59 93 129
59 93 125
59 93 126
59 94 131
60 94 131
59 94 134
58 93 133
60 95 142
59 94 125
58 92 122
60 94 129
58 92 120
59 94 133
59 94 131
59 93 128
60 95 139
60 94 135
60 94 141
58 92 128
59 93 126
61 95 137
59 93 124
59 93 121
59 93 125
59 93 129
60 95 134
59 94 126
60 95 136
59 94 128
60 94 122
57 91 114
58 92 120
58 92 120
58 92 126
60 94 129
59 93 121
58 92 122
58 92 118
57 91 117
58 92 120
58 92 128
58 92 126
58 91 121
57 91 111
57 91 118
57 90 105
56 89 111
57 90 115
56 89 102
58 91 111
60 91 113
60 89 100
88 109 72
112 129 47
122 135 0
120 135 0
112 126 0
118 132 0
117 131 0
114 131 0
121 137 0
119 133 0
123 136 0
127 141 0
119 135 0
110 124 0
120 135 0
123 136 0
126 141 0
125 141 0
116 131 0
119 131 0
129 144 0
133 148 0
133 147 0
124 140 0
122 135 0
126 142 0
128 142 0
124 139 0
129 146 0
126 144 0
139 155 0
128 144 0
135 149 0
131 145 0
131 148 0
140 155 0
134 148 0
132 148 0
138 150 0
137 153 0
129 147 0
131 146 0
139 156 0
132 147 0
128 143 0
124 138 0
141 156 0
132 147 0
133 147 0
135 150 0
140 158 0
133 150 0
138 151 0
136 147 0
151 165 0
140 154 0
131 146 0
140 154 0
133 145 0
143 158 0
136 153 0
142 156 0
136 150 0
143 157 0
137 154 0
143 158 0
153 168 0
141 156 0
146 160 0
141 156 0
145 159 0
139 152 0
135 149 0
139 154 0
141 155 0
148 162 0
143 157 0
146 160 0
153 170 0
141 156 0
148 162 0
151 165 0
153 166 0
151 167 0
137 152 0
147 162 0
147 160 0
149 163 0
148 162 0
150 165 0
149 164 0
154 169 0
152 167 0
157 172 0
150 164 0
148 163 0
149 165 0
156 172 0
150 164 0
151 168 0
154 169 0
153 169 0
155 170 0
158 171 0
158 176 0
146 160 0
148 162 0
158 175 0
153 170 0
154 171 0
155 172 0
156 173 0
155 171 0
157 174 0
154 170 0
157 174 0
155 170 0
157 174 0
158 176 0
162 179 0
152 167 0
163 181 0
163 180 0
158 175 0
158 174 0
153 168 0
154 168 0
162 180 0
154 172 0
158 177 0
153 171 0
158 174 0
159 177 0
158 174 0
154 171 0
156 174 0
157 176 0
164 183 0
165 183 0
164 184 0
160 179 0
160 180 0
160 179 0
163 181 0
165 184 0
162 181 0
164 183 0
165 183 0
162 182 0
162 179 0
167 187 0
168 188 0
164 183 0
166 186 0
164 183 0
162 179 0
169 189 0
166 184 0
165 184 0
173 196 57
171 194 62
169 193 67
167 191 67
173 197 72
171 196 92
172 196 76
167 191 67
168 192 76
173 197 62
172 195 62
172 196 72
169 193 76
171 194 72
168 192 76
172 196 84
170 194 67
169 193 95
168 192 67
165 189 57
170 194 57
171 195 84
169 193 80
169 193 67
171 195 76
171 195 80
171 195 72
168 193 80
166 189 76
169 193 67
169 193 72
162 187 67
166 190 51
165 190 72
169 193 57
169 193 62
168 192 76
164 189 84
165 188 62
163 187 51
168 193 72
165 190 80
165 190 88
166 190 76
163 187 62
165 190 76
168 192 72
162 186 72
161 185 57
168 192 80
165 190 62
162 187 72
165 190 72
162 184 62
158 181 51
166 190 57
161 184 67
165 188 72
164 188 25
164 187 92
158 182 80
164 188 84
162 186 67
158 181 44
161 184 84
158 182 72
168 192 76
162 185 57
160 184 57
162 185 67
164 188 88
159 182 62
155 178 44
165 188 65
155 177 72
167 189 88
155 178 62
156 180 76
158 181 62
159 182 76
156 178 84
149 170 51
155 179 88
158 180 67
142 164 62
112 135 92
93 120 126
79 107 115
95 121 122
88 116 132
79 106 122
82 111 126
82 110 125
98 124 135
98 124 135
101 126 143
89 116 131
102 127 150
93 120 147
86 114 143
99 124 145
88 115 144
97 123 138
85 112 132
106 130 145
86 113 128
101 126 143
90 117 139
92 120 140
88 117 142
80 110 135
92 119 131
98 125 155
96 122 155
90 118 157
74 106 157
77 107 148
76 107 148
72 103 154
80 108 156
70 102 153
66 99 151
68 100 151
67 98 152
73 102 149
62 95 140
63 97 155
61 95 133
64 96 137
62 95 141
62 96 141
62 96 137
66 99 136
58 93 137
61 95 139
64 98 139
63 96 136
71 101 121
69 101 133
70 100 129
58 90 117
69 100 117
64 97 131
61 93 136
59 94 134
58 92 131
59 93 122
60 95 133
59 93 128
59 93 131
58 91 125
60 94 139
58 92 133
59 94 135
59 93 134
59 93 126
59 93 129
60 94 133
59 93 139
59 94 126
59 93 129
58 92 121
59 94 136
59 93 134
58 92 127
58 93 132
58 92 121
59 94 134
59 93 133
61 95 139
59 94 131
60 95 136
59 93 126
58 92 121
59 92 122
59 93 131
59 94 137
59 93 125
60 94 133
58 92 125
59 93 121
59 94 129
60 95 140
59 94 128
59 93 130
59 94 134
59 94 136
60 94 133
60 95 131
60 94 133
59 94 131
59 94 136
60 94 136
60 95 137
58 92 129
60 94 136
59 93 124
60 95 143
59 94 125
59 94 130
59 93 134
61 95 128
58 92 126
59 93 120
59 93 124
59 93 137
59 93 124
59 94 136
59 94 128
60 94 124
59 94 128
60 94 130
60 94 129
59 93 129
59 93 130
59 93 124
59 94 121
59 93 125
58 93 124
57 91 108
59 93 121
58 92 121
57 90 111
59 92 118
58 92 117
61 96 139
60 94 125
60 94 128
57 90 107
56 89 111
57 91 110
57 90 122
59 92 124
58 92 124
59 93 125
59 93 114
55 87 102
57 89 107
56 88 100
65 94 97
82 103 86
92 110 60
102 117 18
105 118 0
120 136 0
119 136 0
111 128 0
117 131 0
131 146 0
123 138 0
124 142 0
116 131 0
125 138 0
122 137 0
127 142 0
125 139 0
115 128 0
136 151 0
122 138 0
130 146 0
128 144 0
132 145 0
124 138 0
119 135 0
125 139 0
126 143 0
126 141 0
122 138 0
131 149 0
140 155 0
130 145 0
138 153 0
128 146 0
127 143 0
132 147 0
126 141 0
130 146 0
139 154 0
134 150 0
129 145 0
124 140 0
141 157 0
145 158 0
142 161 0
130 143 0
136 153 0
131 148 0
139 155 0
135 150 0
129 145 0
135 149 0
142 157 0
137 154 0
139 155 0
138 152 0
141 158 0
132 147 0
138 153 0
137 150 0
133 147 0
133 148 0
139 154 0
148 165 0
144 158 0
140 152 0
149 162 0
145 159 0
150 165 0
142 158 0
139 154 0
145 159 0
147 160 0
142 158 0
141 157 0
134 148 0
149 166 0
151 167 0
145 162 0
142 157 0
142 159 0
141 155 0
145 159 0
143 159 0
144 156 0
151 165 0
150 166 0
145 161 0
153 170 0
153 168 0
150 166 0
148 162 0
155 170 0
150 164 0
151 168 0
156 172 0
152 167 0
152 168 0
144 159 0
151 165 0
154 169 0
149 164 0
155 169 0
155 171 0
150 163 0
150 166 0
155 172 0
152 169 0
155 171 0
156 172 0
160 176 0
158 176 0
154 169 0
153 166 0
160 178 0
161 178 0
155 170 0
157 172 0
157 173 0
156 172 0
157 173 0
152 168 0
159 175 0
166 183 0
158 175 0
161 179 0
160 178 0
158 175 0
159 177 0
159 177 0
157 174 0
158 174 0
158 175 0
157 175 0
163 182 0
156 172 0
156 173 0
164 183 0
164 183 0
159 178 0
158 175 0
164 182 0
158 176 0
158 176 0
157 176 0
159 175 0
163 183 0
167 187 0
162 179 0
168 187 0
166 185 0
165 183 0
164 182 0
164 184 0
161 180 0
165 185 0
163 183 0
173 193 0
159 176 0
161 180 0
163 183 0
169 194 76
170 193 62
169 193 80
168 191 57
171 195 57
167 191 62
170 194 80
171 195 67
168 192 67
172 197 72
168 193 72
171 195 76
173 197 72
171 194 57
170 195 84
173 197 57
167 191 72
167 191 80
171 194 67
169 192 67
171 195 80
167 190 62
167 191 62
169 193 62
170 195 72
168 193 76
170 194 84
168 193 84
169 193 67
165 190 67
169 194 67
168 192 44
173 197 84
168 193 67
164 189 76
163 187 67
165 190 57
168 193 92
166 190 72
168 191 76
168 192 80
168 192 76
160 183 57
166 191 84
163 187 62
166 189 67
165 189 57
163 187 76
165 189 57
164 189 67
167 191 57
160 184 80
165 189 92
160 183 62
164 188 72
157 180 44
156 181 84
157 181 62
164 189 84
163 186 51
166 189 36
155 180 86
163 186 44
160 184 57
161 185 62
160 183 76
157 179 51
161 185 92
166 189 88
164 187 67
160 183 62
161 185 92
162 185 72
160 184 62
159 182 44
158 181 80
155 178 72
152 176 67
152 175 54
156 179 76
160 183 76
148 171 76
155 177 80
153 175 76
153 176 80
138 162 82
98 124 105
86 113 108
82 111 128
80 109 139
95 121 124
87 114 123
95 121 131
93 118 136
100 126 143
79 108 131
85 112 120
91 117 132
77 105 136
89 115 122
94 120 141
93 118 135
97 123 142
101 126 139
108 132 142
91 116 129
92 119 148
104 130 147
100 125 141
94 121 139
90 117 141
93 120 142
98 124 142
104 129 151
93 120 145
93 120 152
81 111 154
82 111 151
92 118 158
82 110 147
83 111 157
71 102 154
73 105 162
73 104 155
66 97 134
69 100 148
60 95 148
60 96 150
63 97 140
62 96 139
59 94 135
60 94 121
62 96 144
60 93 131
62 96 137
58 92 128
62 96 123
72 103 128
64 97 122
65 97 118
64 97 133
65 97 126
59 92 119
60 93 122
58 91 126
57 90 123
57 90 122
59 93 136
60 95 140
57 91 122
60 95 135
59 94 128
59 93 136
59 93 122
61 96 143
59 93 129
61 96 133
58 92 121
58 93 126
59 93 128
58 91 129
60 94 127
59 93 131
58 92 122
60 94 129
59 94 136
60 94 128
58 92 124
60 95 135
58 92 133
58 92 121
59 94 130
58 92 115
60 95 139
58 93 133
60 94 136
61 95 131
58 93 124
60 95 135
59 93 118
60 94 131
59 93 125
59 94 128
60 94 136
58 93 131
59 93 129
61 95 141
59 94 134
59 94 136
59 93 128
59 93 125
61 96 145
59 94 130
59 94 134
59 93 133
58 92 121
58 92 122
60 94 133
60 94 130
60 94 131
61 96 139
60 95 131
59 93 134
58 92 124
58 92 128
60 95 131
61 95 139
60 94 130
59 94 124
59 93 120
57 90 115
58 91 122
61 96 139
59 94 125
59 93 126
59 94 124
59 93 130
58 92 118
58 92 126
58 92 114
57 90 107
60 94 130
58 92 120
58 93 117
59 93 129
59 93 121
58 92 118
58 92 115
59 92 118
58 91 117
58 92 114
59 92 124
57 91 108
57 90 114
56 89 103
58 91 123
56 87 100
56 89 102
62 91 100
80 102 78
99 117 62
102 117 18
110 122 0
109 123 0
124 142 0
119 131 0
127 141 0
102 115 0
114 129 0
117 132 0
113 128 0
126 141 0
122 138 0
115 128 0
118 132 0
126 143 0
123 140 0
123 138 0
129 145 0
129 144 0
119 132 0
119 134 0
117 132 0
126 143 0
128 145 0
128 141 0
130 144 0
120 135 0
141 158 0
132 147 0
134 149 0
127 143 0
143 160 0
129 145 0
130 146 0
128 141 0
141 157 0
128 144 0
131 144 0
129 144 0
135 149 0
134 152 0
131 145 0
139 156 0
133 147 0
138 153 0
133 147 0
131 146 0
145 162 0
142 157 0
137 150 0
139 155 0
136 151 0
138 152 0
141 154 0
145 160 0
142 156 0
139 155 0
144 160 0
145 164 0
150 167 0
142 160 0
132 146 0
142 158 0
138 150 0
139 154 0
134 146 0
146 160 0
145 161 0
137 152 0
140 152 0
143 157 0
143 160 0
145 159 0
152 170 0
146 161 0
149 165 0
141 157 0
152 168 0
147 164 0
141 156 0
148 164 0
144 160 0
147 163 0
145 160 0
153 171 0
141 155 0
149 164 0
153 171 0
151 167 0
147 162 0
147 164 0
147 164 0
152 166 0
153 168 0
151 167 0
146 162 0
154 169 0
157 173 0
147 163 0
149 166 0
154 169 0
151 166 0
147 164 0
146 161 0
153 170 0
150 168 0
155 171 0
148 161 0
144 159 0
156 174 0
157 174 0
159 174 0
153 170 0
152 168 0
155 172 0
154 170 0
150 167 0
159 175 0
165 181 0
155 170 0
158 178 0
163 179 0
162 180 0
164 182 0
155 175 0
160 179 0
161 179 0
157 170 0
158 177 0
160 177 0
158 176 0
159 178 0
158 174 0
162 181 0
164 182 0
160 178 0
164 183 0
157 176 0
163 183 0
164 182 0
159 179 0
167 184 0
163 180 0
163 180 0
165 184 0
162 180 0
165 185 0
164 184 0
164 183 0
161 180 0
157 177 0
161 180 0
157 174 0
165 185 0
168 187 0
166 185 0
166 185 0
160 179 0
162 180 0
173 197 80
173 197 72
169 193 57
168 192 57
169 193 62
170 194 80
170 194 84
169 193 76
175 199 80
169 193 84
170 193 62
170 194 80
170 194 80
168 193 84
171 196 67
169 193 84
169 193 80
171 196 88
166 190 72
168 192 57
170 194 72
169 193 80
171 194 44
169 193 80
170 193 72
167 192 76
166 190 67
170 194 88
165 189 84
164 187 51
164 189 76
168 192 76
167 191 80
167 191 72
167 192 76
168 191 72
163 186 62
164 188 95
157 182 67
165 190 84
168 192 76
165 189 57
165 189 62
166 191 88
159 183 57
167 191 72
166 189 76
166 189 67
162 186 67
161 185 67
165 189 51
166 191 84
162 186 76
160 185 72
160 183 57
163 186 62
166 190 88
164 188 76
164 188 84
165 189 57
164 187 62
162 187 84
164 188 76
163 186 62
159 181 67
160 183 76
155 179 57
161 185 76
161 184 88
162 186 62
160 183 62
151 173 44
165 187 76
158 182 62
158 180 51
155 177 62
158 180 84
154 177 80
160 183 80
151 173 67
158 180 84
156 179 72
146 168 67
156 178 76
142 164 67
152 174 57
135 157 99
99 125 124
98 124 125
89 115 121
90 116 112
102 128 136
90 118 139
91 117 136
92 118 140
92 118 144
104 129 147
83 111 124
98 122 134
90 117 134
92 118 131
88 115 131
87 115 134
87 116 133
94 120 139
90 117 129
101 126 132
98 123 135
106 132 141
95 121 124
94 121 131
95 121 146
92 119 144
89 115 127
84 112 139
86 113 146
88 117 151
81 111 148
70 102 151
77 107 160
69 101 150
78 108 164
67 100 152
67 100 148
69 99 145
63 97 137
69 101 142
59 93 133
59 95 141
62 96 147
60 95 143
59 94 144
65 98 130
62 96 136
63 97 142
65 98 131
61 95 139
67 99 119
62 94 117
70 101 126
66 98 120
64 96 117
67 98 115
63 95 119
62 96 137
59 93 134
58 92 124
59 94 128
60 94 136
59 94 130
59 93 124
58 92 127
58 91 126
58 93 133
60 94 130
60 95 130
59 93 129
59 94 135
59 94 131
60 94 135
59 93 134
58 92 130
58 92 128
60 94 122
60 94 139
59 93 124
60 94 134
58 93 131
58 92 120
57 91 126
59 93 129
59 94 133
59 94 128
58 92 121
58 93 120
60 95 126
57 92 128
62 97 147
59 93 130
59 94 130
59 94 126
60 95 135
59 93 126
58 92 126
61 95 139
58 92 120
57 92 115
59 93 122
60 95 136
59 93 133
60 94 133
59 93 131
60 95 131
60 95 138
58 92 120
58 93 125
58 92 128
60 95 134
60 95 131
59 93 122
60 95 136
58 92 119
59 94 129
58 92 117
59 93 124
59 93 130
60 94 125
59 94 135
59 93 131
58 92 121
58 91 117
60 94 129
57 91 122
60 94 137
61 95 139
57 90 120
58 92 118
59 93 128
58 92 128
58 92 126
59 93 121
58 92 113
59 93 128
59 92 121
58 92 118
56 89 103
59 93 128
59 93 117
57 90 115
57 91 114
58 91 113
58 92 117
57 90 114
58 92 130
55 87 97
57 90 110
57 90 114
62 91 84
80 103 74
97 114 40
116 131 25
101 115 0
107 123 0
110 124 0
110 127 0
116 129 0
121 136 0
115 128 0
113 128 0
119 135 0
119 133 0
114 130 0
122 139 0
118 134 0
133 150 0
118 132 0
127 142 0
131 147 0
120 135 0
127 145 0
123 138 0
133 149 0
134 151 0
125 142 0
125 140 0
126 143 0
126 141 0
131 147 0
133 149 0
136 152 0
135 152 0
127 143 0
129 147 0
140 158 0
133 147 0
122 137 0
130 145 0
131 148 0
139 154 0
124 140 0
136 153 0
140 157 0
136 154 0
131 147 0
138 155 0
142 158 0
142 160 0
138 156 0
141 157 0
137 154 0
148 162 0
141 155 0
144 160 0
145 162 0
141 159 0
140 156 0
139 156 0
141 154 0
139 154 0
144 160 0
140 155 0
142 160 0
137 152 0
147 165 0
138 154 0
144 161 0
149 165 0
147 163 0
150 167 0
142 158 0
138 152 0
145 161 0
142 155 0
146 161 0
147 163 0
144 161 0
150 167 0
145 161 0
143 157 0
142 158 0
144 158 0
143 156 0
154 172 0
152 167 0
150 166 0
150 166 0
139 153 0
156 173 0
156 172 0
145 160 0
151 164 0
151 169 0
148 164 0
145 157 0
151 167 0
149 164 0
153 170 0
152 168 0
154 170 0
151 167 0
156 170 0
149 163 0
153 171 0
151 166 0
155 172 0
151 167 0
151 167 0
155 172 0
150 166 0
156 171 0
162 179 0
154 170 0
156 172 0
159 177 0
153 168 0
152 169 0
158 176 0
153 170 0
158 175 0
159 176 0
153 169 0
162 180 0
162 177 0
153 168 0
155 172 0
148 163 0
158 176 0
162 179 0
151 167 0
157 171 0
159 175 0
162 178 0
159 175 0
166 183 0
155 172 0
163 179 0
156 175 0
161 180 0
162 180 0
160 179 0
164 183 0
162 180 0
159 177 0
159 180 0
158 178 0
166 185 0
163 183 0
162 177 0
160 179 0
165 183 0
160 180 0
163 181 0
164 182 0
166 186 0
162 182 0
162 183 0
162 181 0
161 178 0
166 186 0
164 184 0
169 192 62
172 196 88
171 195 76
170 194 72
173 198 84
170 193 76
170 194 72
170 195 76
172 197 95
172 196 84
172 195 51
170 193 62
172 196 62
170 194 80
171 195 80
170 195 88
170 194 72
171 196 72
170 194 72
171 195 72
171 195 72
167 190 72
172 196 76
165 189 62
170 195 76
170 194 72
173 198 80
166 189 57
167 190 72
165 190 80
166 191 67
163 187 62
162 186 72
166 190 57
169 193 67
164 187 72
164 187 72
169 192 67
165 189 84
164 189 84
165 189 76
165 189 80
166 189 51
169 193 67
168 191 72
166 191 67
170 193 51
164 188 72
168 192 84
165 188 57
160 183 36
165 189 72
157 181 44
166 190 62
165 189 76
159 183 80
162 185 67
162 187 92
160 184 57
162 186 62
157 180 62
171 195 80
166 188 80
166 189 72
161 184 57
152 175 36
159 182 62
163 187 72
157 180 67
160 183 76
156 178 80
163 186 80
156 179 60
163 187 76
158 181 74
161 185 76
151 174 57
157 180 88
156 180 62
158 181 72
155 177 80
159 182 92
153 175 67
156 179 84
149 172 72
149 171 72
142 164 62
112 135 81
99 125 118
82 109 119
92 119 138
92 119 129
99 124 131
90 118 119
87 114 122
83 111 125
90 117 137
94 120 142
93 120 143
93 120 141
74 103 135
95 121 145
94 120 135
105 130 159
91 118 137
94 120 145
88 114 142
84 111 141
91 118 142
91 117 131
106 130 141
94 121 125
100 126 134
93 119 141
86 113 140
90 116 143
76 107 155
82 111 158
71 104 152
85 114 151
73 103 147
72 103 155
76 106 153
76 104 148
80 106 133
69 100 145
63 97 142
63 97 144
61 95 138
62 96 138
62 96 136
60 95 139
65 98 135
60 95 131
60 94 126
62 95 113
65 96 126
62 94 122
71 103 126
65 98 133
72 103 124
74 103 115
61 95 136
65 97 115
59 91 112
59 93 137
59 93 124
59 94 125
57 90 114
59 93 126
58 92 122
59 94 143
58 92 131
60 95 140
58 91 127
58 91 124
60 94 126
57 91 125
59 94 131
60 95 134
60 94 131
59 93 120
59 93 128
58 93 127
60 95 135
59 93 124
59 94 128
60 94 129
60 94 128
59 93 131
59 93 126
59 94 131
60 95 139
60 94 137
59 93 126
58 92 125
59 93 128
58 93 124
59 93 125
59 93 122
58 93 122
59 93 133
57 91 126
59 93 129
60 95 128
60 95 139
58 93 122
60 95 139
59 93 133
60 95 128
60 95 128
60 95 134
59 94 128
58 92 126
58 93 126
58 92 124
60 95 130
60 94 129
59 93 129
58 92 124
59 93 124
57 91 115
60 95 133
59 93 122
59 93 130
59 93 120
59 93 125
58 92 108
58 92 120
58 92 114
59 93 124
60 94 130
59 93 114
59 93 121
59 93 125
58 92 118
60 95 129
58 92 125
58 92 117
59 93 118
58 91 115
59 92 117
58 92 122
58 91 113
58 91 118
59 93 128
57 89 111
58 92 117
58 91 115
56 89 115
58 92 117
58 92 120
58 91 115
57 90 118
56 89 108
55 86 92
66 96 105
75 98 76
96 113 51
107 122 0
104 119 18
120 135 0
120 135 0
122 137 0
107 122 0
108 122 0
115 130 0
111 126 0
117 132 0
122 136 0
133 148 0
123 137 0
131 146 0
122 138 0
116 132 0
117 131 0
129 145 0
131 147 0
115 129 0
116 131 0
131 148 0
125 141 0
125 140 0
128 146 0
121 134 0
132 148 0
123 140 0
117 132 0
128 143 0
128 143 0
126 142 0
135 151 0
138 153 0
139 154 0
128 145 0
129 145 0
133 150 0
143 157 0
139 156 0
137 154 0
140 157 0
144 160 0
126 143 0
140 158 0
135 152 0
134 150 0
130 145 0
141 158 0
138 153 0
136 150 0
136 153 0
143 157 0
148 163 0
136 153 0
133 149 0
138 151 0
139 155 0
143 157 0
134 148 0
145 161 0
142 158 0
145 163 0
145 160 0
142 157 0
149 164 0
150 169 0
134 148 0
142 158 0
141 154 0
142 158 0
148 164 0
149 165 0
148 163 0
140 154 0
147 165 0
148 164 0
146 163 0
146 162 0
150 168 0
156 173 0
139 152 0
148 164 0
134 149 0
146 163 0
146 162 0
144 158 0
146 163 0
150 165 0
153 169 0
152 165 0
149 163 0
149 165 0
151 168 0
151 165 0
145 161 0
138 154 0
157 175 0
155 172 0
154 170 0
146 163 0
149 166 0
154 169 0
154 168 0
156 171 0
157 174 0
159 175 0
154 169 0
152 169 0
152 168 0
152 170 0
147 163 0
152 169 0
161 180 0
154 169 0
161 178 0
157 174 0
152 167 0
153 169 0
158 175 0
156 170 0
160 176 0
157 174 0
164 183 0
156 175 0
153 169 0
153 169 0
162 179 0
161 180 0
160 179 0
156 174 0
161 178 0
158 174 0
153 169 0
159 175 0
160 180 0
162 181 0
164 184 0
161 180 0
159 179 0
159 179 0
162 180 0
164 184 0
164 184 0
166 186 0
163 181 0
161 181 0
164 182 0
163 181 0
159 178 0
169 189 0
160 179 0
159 177 0
164 183 0
167 187 0
160 179 0
161 178 0
164 183 0
163 182 0
158 175 0
167 187 0
174 197 67
172 196 72
169 192 67
171 195 62
169 193 72
168 192 51
174 197 67
171 195 57
169 192 62
170 193 62
168 192 76
169 193 80
171 195 62
170 194 62
170 194 67
168 192 72
166 191 80
165 190 80
169 193 57
166 191 88
165 189 62
171 194 67
166 190 72
165 190 72
168 192 57
169 194 108
166 191 72
165 189 62
164 189 57
167 191 62
165 188 67
166 190 44
168 192 72
170 194 92
169 193 72
165 189 76
169 192 62
167 192 88
163 187 62
169 193 84
165 190 67
163 186 62
165 189 76
166 190 76
164 189 92
161 185 57
167 191 80
164 189 76
162 186 72
171 195 80
160 183 51
163 186 67
165 190 84
160 183 62
164 188 88
161 186 67
164 188 62
166 189 62
159 183 67
166 190 95
161 183 67
159 182 57
158 181 80
154 178 67
157 181 62
157 180 76
155 178 76
160 184 95
160 184 88
154 178 80
160 183 92
160 183 84
160 183 72
158 180 72
154 177 72
158 182 76
155 178 62
155 179 76
153 175 62
153 175 57
147 170 76
155 178 80
149 172 44
153 176 80
155 177 62
150 172 86
145 167 51
142 164 70
103 128 101
101 127 136
94 120 122
94 120 129
101 127 129
88 115 128
90 118 133
99 124 136
92 118 120
85 113 124
98 124 144
94 120 126
90 117 124
92 119 129
98 124 139
90 116 136
91 118 138
101 126 142
102 126 142
97 123 137
83 111 131
96 121 131
91 117 131
93 119 135
95 121 137
83 111 136
82 112 140
87 115 149
74 105 142
80 109 147
81 110 151
69 102 149
81 110 155
81 109 156
74 105 159
72 103 147
73 101 139
66 98 139
67 98 137
60 95 145
63 97 145
71 101 140
61 96 147
58 93 139
62 95 145
58 92 130
61 94 126
60 94 127
59 93 137
66 99 129
68 100 117
59 92 123
69 100 124
66 98 118
58 92 129
69 100 118
65 96 108
61 93 122
57 90 128
57 90 124
57 91 118
57 91 125
59 94 131
61 96 143
57 91 124
58 93 123
58 92 118
60 94 131
58 92 125
60 94 131
57 92 129
59 93 131
56 90 117
60 94 131
57 90 121
58 92 121
59 94 128
58 93 135
58 93 122
59 93 133
60 94 137
59 93 122
59 93 129
59 93 121
59 93 126
59 94 125
60 94 131
57 91 116
60 94 137
59 93 124
60 94 122
58 92 118
58 92 114
59 94 129
59 94 126
60 94 128
59 94 133
58 92 122
60 94 130
59 94 134
58 92 129
59 93 131
60 95 136
59 93 125
57 91 118
59 94 128
59 94 131
58 92 130
60 94 134
59 94 129
58 92 125
59 92 129
59 93 124
59 93 124
60 95 139
60 94 142
58 93 114
59 94 126
59 93 133
59 94 129
60 94 133
58 92 114
58 91 118
57 91 129
60 94 129
56 90 107
57 91 128
59 94 129
59 93 134
57 90 118
58 91 108
60 94 128
59 93 128
58 92 118
58 91 114
58 92 121
57 90 108
58 92 121
57 89 107
56 88 110
57 90 115
58 91 110
56 88 111
58 91 129
57 91 111
55 88 97
55 87 103
58 88 86
87 109 92
82 101 62
101 117 25
111 125 0
113 128 0
107 122 0
114 128 0
117 132 0
125 140 0
115 128 0
110 127 0
110 126 0
107 121 0
119 135 0
122 136 0
128 145 0
126 143 0
116 133 0
117 132 0
122 137 0
113 126 0
114 129 0
132 147 0
123 137 0
130 145 0
123 139 0
127 142 0
107 123 0
134 150 0
125 143 0
115 130 0
131 147 0
124 141 0
129 145 0
131 147 0
129 146 0
133 150 0
134 149 0
131 147 0
137 153 0
140 156 0
138 154 0
129 146 0
131 148 0
129 144 0
133 147 0
138 155 0
134 152 0
127 142 0
133 151 0
142 157 0
140 156 0
138 154 0
140 156 0
140 157 0
134 152 0
138 154 0
142 156 0
147 163 0
146 161 0
144 160 0
139 157 0
138 155 0
143 161 0
134 148 0
142 159 0
143 158 0
142 156 0
140 157 0
149 166 0
138 154 0
144 160 0
142 156 0
146 163 0
143 157 0
147 163 0
149 165 0
149 166 0
149 164 0
146 162 0
146 158 0
149 165 0
146 161 0
152 167 0
143 156 0
145 158 0
147 164 0
155 171 0
152 168 0
154 170 0
144 157 0
143 158 0
150 169 0
153 169 0
150 167 0
148 163 0
154 170 0
153 169 0
160 176 0
148 165 0
145 160 0
151 167 0
152 167 0
152 168 0
149 164 0
151 168 0
149 165 0
156 174 0
156 172 0
157 176 0
152 171 0
157 175 0
153 168 0
154 173 0
158 175 0
151 167 0
149 165 0
159 176 0
156 173 0
154 171 0
161 178 0
154 169 0
161 179 0
161 177 0
157 175 0
161 178 0
157 178 0
162 180 0
155 174 0
165 183 0
159 176 0
160 179 0
161 179 0
161 179 0
159 176 0
157 174 0
162 181 0
163 182 0
159 177 0
164 184 0
163 183 0
156 173 0
163 182 0
161 180 0
162 181 0
166 186 0
161 180 0
162 179 0
155 174 0
156 176 0
163 182 0
164 184 0
164 183 0
166 186 0
166 186 0
167 188 0
164 182 0
164 184 0
162 181 0
163 182 0
164 183 0
164 183 0
166 185 0
164 183 0
173 197 76
172 195 51
172 197 72
168 192 76
171 194 57
167 191 62
171 195 57
169 193 67
171 194 67
173 197 80
166 190 76
167 192 62
167 191 67
169 194 72
168 193 72
168 192 62
170 195 95
167 191 67
171 194 72
168 192 72
172 197 99
169 193 84
166 191 84
169 192 57
171 195 62
174 198 57
166 190 88
165 189 67
167 191 80
168 192 72
162 185 51
165 189 62
163 187 62
168 193 80
167 191 67
169 193 72
165 189 67
171 196 95
164 188 72
167 192 88
162 187 72
171 195 80
162 186 62
166 190 57
169 193 95
160 183 62
160 184 57
167 192 72
157 181 57
166 189 62
162 186 72
167 190 44
165 189 51
163 186 57
165 189 76
162 186 57
166 190 62
162 187 99
160 185 84
164 188 72
160 183 57
157 180 76
159 182 44
159 183 67
160 184 76
161 184 84
156 180 80
159 183 80
165 188 76
164 188 76
160 183 72
158 181 76
163 186 80
161 185 95
157 180 72
153 176 72
150 173 62
147 169 76
162 186 88
155 178 92
147 170 62
151 173 62
149 171 88
155 176 80
155 177 80
148 170 62
153 176 76
150 171 80
141 163 76
114 138 112
87 113 122
83 110 128
101 127 133
98 124 125
98 123 131
81 109 125
91 119 144
97 123 140
85 113 121
94 120 124
97 122 130
92 118 133
88 115 126
99 124 135
97 122 133
101 126 130
90 115 129
106 129 131
94 119 118
90 117 137
86 113 123
85 113 118
103 127 133
91 118 128
99 125 137
94 121 137
88 115 139
91 117 139
79 108 144
81 110 155
80 110 159
67 100 147
63 97 148
72 104 166
69 101 155
68 99 140
67 100 150
63 96 149
65 98 149
69 101 155
65 96 142
61 94 131
58 92 127
60 94 138
63 96 141
58 92 133
60 93 122
63 95 123
67 99 121
70 100 122
78 107 115
58 91 120
58 92 128
61 93 118
61 93 117
59 92 122
62 95 124
58 92 123
58 92 118
58 92 125
58 92 124
59 93 126
59 93 115
57 91 115
59 93 128
58 92 121
59 93 121
58 93 123
60 95 134
60 95 141
58 92 124
59 93 135
59 94 133
58 91 131
58 92 107
59 93 129
58 92 118
60 94 140
58 92 132
59 93 125
58 92 121
57 91 120
58 91 111
59 93 133
58 92 122
59 93 126
60 94 128
58 92 119
58 92 128
58 92 126
59 93 125
59 94 130
58 93 111
58 92 122
59 93 130
59 93 122
58 92 122
58 92 118
59 93 130
59 93 122
59 93 134
59 94 125
59 94 131
59 94 135
59 92 131
58 92 134
59 93 118
57 90 118
61 95 134
59 93 124
60 94 121
58 92 121
60 94 129
60 94 134
60 95 141
59 93 125
58 92 118
58 92 129
59 94 120
59 93 121
60 94 129
59 93 126
60 94 129
59 94 129
59 92 120
59 93 126
58 91 113
57 91 124
59 93 128
57 91 111
58 92 108
58 92 121
56 89 105
59 93 118
59 93 126
57 90 111
57 91 120
58 91 121
57 90 111
55 88 107
56 89 108
56 88 102
55 87 100
56 88 107
67 96 95
75 96 80
98 113 36
109 125 0
110 122 0
106 119 0
108 124 0
108 124 0
110 125 0
107 124 0
116 130 0
115 129 0
103 118 0
118 133 0
121 137 0
121 140 0
124 139 0
109 124 0
126 141 0
125 140 0
129 145 0
120 134 0
119 135 0
130 147 0
119 136 0
125 140 0
126 142 0
132 149 0
114 129 0
127 142 0
132 150 0
124 142 0
128 144 0
131 148 0
134 152 0
133 148 0
136 154 0
129 146 0
138 154 0
135 152 0
130 147 0
126 141 0
127 144 0
139 157 0
137 152 0
133 149 0
131 148 0
139 157 0
146 164 0
139 155 0
130 147 0
128 144 0
137 150 0
140 159 0
138 155 0
136 153 0
138 152 0
139 157 0
138 154 0
137 154 0
144 161 0
137 154 0
143 161 0
142 157 0
148 163 0
145 161 0
147 165 0
143 160 0
139 156 0
140 155 0
144 159 0
144 162 0
149 166 0
147 165 0
139 154 0
145 160 0
142 159 0
139 154 0
152 172 0
146 162 0
151 168 0
148 163 0
147 163 0
147 164 0
148 164 0
154 170 0
144 158 0
145 159 0
155 169 0
150 166 0
148 164 0
152 168 0
151 168 0
157 176 0
149 164 0
145 162 0
147 163 0
148 164 0
146 161 0
151 167 0
152 168 0
154 170 0
149 165 0
152 169 0
156 171 0
152 170 0
161 177 0
157 173 0
155 171 0
148 163 0
153 168 0
156 173 0
159 177 0
153 169 0
156 176 0
152 168 0
155 171 0
157 176 0
150 167 0
158 176 0
160 179 0
154 173 0
158 176 0
157 176 0
158 175 0
162 181 0
161 177 0
165 184 0
159 178 0
157 175 0
158 176 0
163 182 0
158 175 0
160 176 0
158 176 0
156 175 0
159 178 0
158 175 0
159 177 0
154 174 0
159 178 0
167 186 0
158 175 0
163 181 0
161 180 0
162 181 0
159 178 0
162 180 0
163 182 0
162 181 0
168 188 0
162 183 0
161 180 0
167 185 0
163 184 0
164 184 0
160 179 0
163 182 0
164 183 0
163 183 0
167 187 0
161 182 0
161 179 0
160 178 0
165 184 0
164 184 0
170 193 57
173 197 62
168 193 67
171 195 84
172 197 99
173 197 92
169 194 95
171 196 88
166 190 62
170 194 62
167 190 62
168 192 67
171 195 76
169 193 57
164 188 72
167 191 57
173 198 80
162 187 67
168 192 44
165 190 88
169 193 80
165 189 51
168 191 72
171 196 76
167 192 51
171 194 57
163 188 76
166 190 80
168 193 67
168 192 51
167 191 80
169 193 72
164 188 72
167 191 80
170 195 72
169 194 80
168 192 72
169 193 72
166 191 80
161 185 72
170 194 80
166 191 99
160 183 62
164 188 62
168 192 67
164 188 88
168 191 57
166 190 67
166 191 67
160 185 72
162 186 51
163 186 76
163 187 88
165 190 95
163 187 67
162 185 44
163 187 67
169 193 88
161 185 51
164 187 88
166 190 84
159 182 67
157 180 67
161 183 67
164 189 76
159 182 76
161 184 80
159 183 80
159 181 76
162 186 72
150 174 57
157 181 84
154 177 76
154 177 67
155 178 92
153 177 80
147 169 54
161 183 82
154 176 72
158 179 44
149 172 72
149 171 67
151 173 84
150 172 51
144 165 62
154 176 67
157 179 80
144 165 62
143 164 80
137 159 90
110 134 115
84 111 113
97 123 130
90 116 122
94 120 120
98 124 136
89 116 124
90 117 136
92 119 137
91 117 113
89 115 124
95 120 143
98 123 120
93 118 130
104 128 143
101 126 142
95 120 139
102 126 132
94 120 137
92 118 139
99 124 135
99 124 130
92 118 125
93 118 126
94 121 144
108 133 148
92 119 142
91 119 158
81 110 145
72 103 147
76 105 141
81 109 146
66 99 148
75 105 147
71 104 157
62 97 146
71 102 151
64 98 151
68 100 145
62 95 141
66 97 144
62 95 140
58 92 124
62 96 129
61 95 133
60 93 115
60 93 124
60 94 129
67 97 115
72 103 119
65 97 127
68 99 111
66 99 129
64 95 112
57 89 115
64 96 121
60 92 122
57 91 120
58 91 113
60 94 134
57 90 117
58 93 129
57 91 115
60 95 134
59 94 132
59 94 131
56 89 113
58 93 126
59 93 130
58 91 125
56 89 111
58 91 120
57 90 113
58 92 120
60 94 131
58 91 120
59 94 130
59 93 128
57 90 125
59 94 131
58 92 120
57 91 125
58 92 125
59 93 126
58 92 125
58 92 122
58 92 120
57 91 118
60 95 135
60 95 134
59 94 131
59 93 128
60 93 124
59 93 122
61 96 133
58 92 125
59 93 125
61 95 136
59 94 130
59 94 130
61 96 139
59 93 125
58 93 118
59 94 128
59 94 125
59 93 122
57 90 110
57 91 120
59 92 124
58 92 120
60 94 124
58 92 110
59 93 133
59 93 122
58 91 117
59 93 129
59 93 110
59 93 130
59 93 124
59 93 124
59 93 121
58 91 122
57 91 117
58 92 124
59 93 122
58 92 125
57 90 111
57 91 110
58 92 124
56 89 103
58 92 111
56 88 102
57 90 105
55 88 97
59 93 126
56 88 115
58 91 115
58 91 115
57 89 100
55 87 105
55 88 97
56 88 110
58 90 111
62 88 74
82 105 78
101 119 44
111 127 25
100 117 0
108 121 0
112 126 0
109 125 0
126 142 0
105 121 0
120 133 0
109 127 0
120 136 0
111 126 0
125 140 0
115 129 0
114 129 0
115 131 0
122 137 0
125 140 0
120 135 0
124 140 0
128 147 0
117 134 0
126 145 0
134 150 0
127 141 0
131 148 0
130 144 0
133 149 0
132 148 0
128 146 0
130 147 0
123 138 0
124 139 0
136 151 0
137 155 0
138 156 0
135 152 0
133 148 0
128 143 0
125 143 0
127 143 0
138 154 0
137 154 0
137 153 0
142 160 0
130 146 0
136 154 0
132 149 0
138 155 0
139 156 0
144 160 0
139 155 0
140 156 0
142 160 0
139 156 0
131 147 0
144 160 0
137 154 0
138 153 0
133 149 0
149 165 0
136 153 0
138 154 0
139 156 0
147 166 0
139 156 0
145 162 0
142 158 0
137 153 0
136 151 0
141 158 0
147 163 0
149 168 0
145 162 0
151 167 0
146 162 0
148 163 0
143 158 0
150 168 0
140 154 0
148 163 0
152 167 0
145 161 0
149 166 0
154 171 0
148 166 0
153 170 0
140 155 0
153 172 0
153 171 0
153 168 0
151 169 0
153 169 0
151 168 0
158 174 0
152 169 0
160 177 0
146 160 0
156 172 0
149 167 0
151 167 0
157 175 0
152 169 0
154 171 0
156 174 0
156 169 0
155 171 0
156 173 0
143 159 0
160 177 0
159 178 0
145 160 0
158 176 0
153 171 0
159 178 0
154 172 0
151 167 0
156 172 0
153 169 0
156 175 0
150 164 0
163 182 0
156 174 0
157 174 0
159 176 0
154 173 0
159 176 0
164 183 0
154 171 0
156 175 0
156 175 0
159 177 0
161 181 0
156 173 0
163 183 0
164 183 0
155 172 0
159 178 0
159 176 0
164 184 0
162 182 0
157 175 0
158 175 0
162 180 0
167 186 0
162 180 0
165 186 0
162 180 0
167 185 0
152 170 0
161 179 0
164 183 0
161 180 0
163 181 0
157 176 0
166 186 0
164 183 0
162 180 0
163 182 0
162 181 0
158 179 0
163 183 0
164 185 0
163 182 0
165 184 0
172 196 80
173 196 72
167 191 57
166 190 62
167 191 57
171 195 76
170 194 76
171 195 67
170 195 62
167 191 36
169 193 84
170 195 76
169 194 72
167 191 88
168 194 99
167 191 72
168 193 88
168 192 72
170 194 51
167 191 62
170 195 62
170 194 76
167 190 62
168 192 76
173 197 95
167 191 62
163 187 57
167 192 80
166 189 76
169 193 72
164 188 80
169 193 84
168 192 72
168 193 72
167 191 57
163 188 67
168 191 62
168 192 67
169 194 72
166 190 72
163 188 72
165 190 80
163 188 80
165 188 62
164 189 67
171 194 76
163 188 67
163 188 67
161 185 57
162 188 88
166 190 76
163 187 72
163 188 84
158 182 62
164 188 67
161 186 88
167 191 84
167 191 76
161 184 84
162 186 76
165 188 67
162 187 84
161 185 84
158 182 80
158 181 76
160 183 62
162 186 80
162 186 80
155 178 80
160 183 72
160 184 72
163 185 51
154 177 57
158 181 72
159 182 51
156 180 72
153 176 76
147 170 72
158 180 44
152 175 88
158 181 76
152 174 57
149 171 76
160 182 84
148 169 80
144 166 51
137 159 44
144 166 76
130 152 67
146 166 76
123 146 99
82 108 94
99 125 141
77 106 114
91 116 122
91 116 121
82 110 115
92 118 125
89 114 122
97 122 119
90 117 136
89 116 115
99 124 135
95 121 138
90 117 142
100 125 137
90 115 126
103 126 134
91 118 134
110 134 137
99 125 129
102 127 134
94 120 139
98 123 121
99 123 131
99 125 149
106 131 145
89 117 142
94 121 152
86 113 144
92 118 152
83 110 154
87 113 162
75 104 148
81 110 153
69 100 142
70 102 153
62 96 144
70 100 137
64 96 140
65 97 136
68 100 139
65 96 125
60 95 137
65 97 130
61 94 129
60 94 141
59 92 125
62 93 108
64 96 118
67 99 124
69 99 124
65 96 114
60 92 111
64 95 115
64 97 113
61 94 118
57 90 109
57 91 119
57 90 102
58 91 117
57 91 121
60 94 129
58 93 118
57 91 126
60 94 134
58 92 123
56 89 115
58 91 117
59 92 124
59 93 118
60 94 136
60 94 126
58 93 125
57 91 126
59 93 128
59 94 131
58 92 125
57 90 116
58 91 115
58 91 118
60 95 129
59 93 129
59 93 129
58 92 125
58 92 122
57 90 111
59 94 126
58 92 124
58 92 125
60 94 133
60 95 135
58 92 129
59 93 121
57 91 117
57 91 115
57 90 108
57 91 118
60 94 128
61 95 136
58 92 132
59 93 124
58 92 121
59 94 124
58 92 125
59 93 124
57 91 121
57 91 117
58 92 115
60 94 125
60 94 125
59 93 121
59 93 130
57 90 113
58 91 117
59 93 124
58 92 117
60 95 133
57 90 113
58 92 121
57 90 118
56 89 100
58 91 118
59 94 118
58 92 124
59 93 126
58 92 118
57 90 111
57 90 113
58 91 117
57 90 118
56 89 113
57 90 114
56 89 111
58 91 111
58 91 115
57 90 114
57 90 117
59 92 113
59 92 121
56 89 104
57 89 99
79 103 99
76 98 62
94 110 47
111 124 0
103 117 0
100 116 0
110 124 0
108 122 0
111 126 0
107 123 0
105 120 0
127 142 0
116 132 0
116 134 0
121 135 0
131 147 0
130 147 0
108 121 0
121 136 0
132 150 0
126 142 0
126 141 0
124 141 0
119 135 0
129 146 0
133 149 0
134 151 0
122 137 0
120 136 0
133 149 0
133 148 0
134 152 0
127 144 0
123 139 0
126 142 0
130 145 0
132 150 0
137 155 0
125 142 0
137 154 0
138 157 0
138 157 0
131 147 0
133 149 0
140 157 0
134 151 0
145 164 0
128 143 0
135 153 0
144 160 0
144 160 0
143 160 0
137 154 0
134 150 0
144 162 0
130 147 0
142 159 0
141 157 0
144 161 0
138 153 0
143 160 0
142 158 0
141 158 0
138 154 0
144 161 0
140 155 0
138 155 0
141 157 0
139 155 0
141 157 0
140 157 0
145 160 0
155 173 0
154 171 0
145 160 0
137 153 0
148 166 0
145 160 0
145 162 0
143 160 0
160 176 0
146 160 0
144 162 0
148 162 0
142 156 0
151 167 0
151 168 0
146 164 0
143 157 0
144 160 0
155 172 0
142 157 0
155 172 0
152 169 0
142 158 0
147 163 0
155 173 0
150 168 0
154 171 0
153 170 0
154 172 0
143 158 0
144 162 0
151 167 0
155 172 0
156 173 0
150 168 0
156 174 0
156 175 0
152 167 0
158 176 0
151 167 0
152 168 0
155 173 0
156 170 0
156 174 0
154 174 0
159 178 0
161 179 0
156 174 0
158 177 0
155 171 0
158 178 0
158 178 0
153 171 0
161 180 0
158 175 0
154 171 0
161 179 0
156 173 0
157 174 0
155 173 0
158 176 0
158 176 0
156 174 0
160 179 0
159 177 0
162 179 0
163 180 0
163 180 0
156 173 0
160 178 0
159 179 0
166 183 0
169 189 0
163 181 0
157 175 0
158 178 0
164 183 0
161 179 0
163 182 0
160 179 0
158 178 0
168 187 0
160 178 0
161 180 0
160 180 0
160 179 0
163 182 0
167 186 0
167 185 0
164 184 0
162 182 0
164 180 0
157 177 0
165 187 0
167 187 0
167 189 0
169 194 67
170 195 76
169 194 84
173 197 72
174 198 76
172 196 95
169 193 62
167 191 80
165 190 88
166 190 57
170 193 62
170 194 57
171 196 88
170 193 80
167 191 88
166 191 67
168 191 62
172 195 51
172 197 84
169 194 76
172 196 88
166 190 51
166 191 72
166 191 76
164 188 72
169 194 62
166 190 62
166 190 80
166 190 44
173 198 95
172 196 62
167 192 62
171 196 92
166 190 67
165 189 80
163 187 67
167 190 51
171 194 57
163 187 57
163 187 44
161 185 84
163 187 72
164 189 99
166 190 62
165 189 62
162 185 76
168 193 80
163 187 67
167 192 80
160 185 67
164 189 67
167 192 84
162 186 92
167 191 72
161 184 67
161 186 67
164 189 95
161 186 88
160 184 62
166 190 88
160 183 72
161 186 67
162 186 57
158 181 72
158 181 51
159 182 72
162 185 57
155 177 36
158 181 67
154 176 44
161 185 76
156 179 84
158 180 72
159 181 88
154 176 72
160 183 84
148 172 84
148 171 76
155 178 84
160 182 80
150 173 72
151 173 88
146 169 72
154 176 62
153 175 80
152 174 57
149 172 62
140 161 51
147 168 84
141 162 72
153 173 80
112 136 74
105 130 124
76 103 115
98 124 124
85 112 115
95 120 130
81 108 113
93 119 129
91 118 136
95 121 124
98 123 144
101 126 139
102 127 137
95 122 147
90 116 133
98 123 144
100 124 137
93 118 139
102 127 123
102 126 127
91 117 131
96 121 136
105 130 132
81 109 125
85 112 129
85 112 121
85 114 136
91 117 147
83 109 135
76 106 143
72 104 156
68 100 149
68 101 155
73 103 146
64 97 146
73 102 141
73 102 142
67 98 139
64 97 139
65 98 142
64 97 140
60 94 137
60 94 136
60 92 136
60 95 137
59 93 128
63 95 116
62 94 120
66 99 121
69 99 111
61 93 120
65 96 116
74 104 114
58 92 126
60 93 118
60 93 118
57 91 122
57 90 114
58 91 110
58 92 120
56 90 121
59 93 127
59 93 122
55 89 122
56 89 117
58 92 121
57 90 110
58 92 131
59 94 134
58 92 118
57 91 120
57 91 111
57 91 115
56 90 113
58 91 124
59 94 134
58 92 124
57 91 117
59 93 130
58 92 121
59 93 121
58 92 119
59 94 130
58 92 125
58 92 113
59 93 118
59 93 128
58 92 127
58 91 121
58 92 118
57 91 103
59 93 122
59 92 126
59 93 125
59 93 126
59 93 124
57 90 111
58 92 115
58 91 122
59 93 126
58 91 114
57 90 113
58 92 110
59 93 120
60 94 126
57 90 117
60 95 130
60 94 131
58 91 122
58 92 119
59 94 125
59 94 126
59 92 122
57 91 102
61 95 135
57 91 110
58 92 117
58 91 113
58 92 118
58 92 117
57 90 108
56 89 110
60 94 129
58 91 124
56 90 102
58 91 113
57 91 122
58 91 115
55 88 105
56 89 114
58 91 117
56 88 107
56 89 108
58 92 120
57 90 107
57 89 108
57 90 105
54 86 92
55 87 97
62 91 100
72 96 72
76 97 70
98 114 51
107 122 18
105 120 0
117 134 0
112 128 0
113 129 0
107 123 0
112 126 0
99 114 0
115 128 0
116 133 0
113 129 0
117 132 0
123 140 0
123 138 0
119 136 0
119 134 0
122 136 0
118 134 0
127 143 0
127 144 0
120 135 0
134 152 0
121 137 0
124 140 0
121 137 0
126 142 0
142 160 0
126 140 0
127 145 0
134 152 0
128 145 0
128 144 0
130 149 0
139 158 0
136 153 0
139 157 0
133 150 0
120 136 0
139 155 0
131 148 0
140 156 0
137 153 0
131 145 0
136 155 0
131 148 0
138 154 0
130 145 0
132 148 0
139 155 0
140 155 0
148 166 0
135 152 0
138 157 0
134 150 0
139 156 0
144 162 0
145 160 0
134 149 0
136 151 0
139 157 0
137 154 0
147 165 0
141 157 0
141 158 0
152 170 0
143 159 0
146 163 0
144 159 0
146 165 0
141 157 0
146 164 0
142 159 0
146 164 0
150 166 0
143 162 0
150 168 0
145 163 0
148 165 0
148 165 0
139 152 0
154 173 0
143 160 0
160 177 0
146 163 0
151 168 0
143 158 0
146 161 0
162 182 0
151 167 0
150 167 0
142 158 0
150 167 0
151 169 0
154 171 0
146 164 0
150 168 0
154 172 0
153 171 0
153 170 0
161 179 0
151 167 0
150 166 0
159 178 0
157 175 0
157 175 0
156 171 0
154 173 0
164 183 0
156 174 0
154 170 0
151 169 0
155 172 0
158 176 0
156 173 0
153 169 0
153 171 0
156 175 0
154 172 0
146 164 0
161 179 0
158 175 0
154 173 0
158 177 0
161 181 0
160 177 0
158 177 0
158 175 0
156 174 0
157 175 0
158 176 0
158 177 0
157 176 0
164 184 0
160 178 0
155 174 0
163 184 0
161 180 0
163 184 0
161 180 0
159 177 0
162 181 0
158 174 0
158 177 0
161 180 0
162 181 0
156 176 0
159 178 0
162 181 0
167 185 0
156 173 0
158 176 0
164 185 0
164 184 0
161 181 0
162 180 0
163 184 0
166 185 0
161 181 0
165 186 0
164 183 0
159 178 0
163 182 0
166 184 0
164 185 0
157 176 0
166 187 0
171 195 67
169 193 62
170 195 84
167 192 67
169 193 80
171 195 88
174 198 84
165 190 72
171 194 84
166 189 51
172 196 72
170 196 88
168 192 44
170 195 80
171 196 80
173 197 76
166 190 72
168 192 51
169 192 62
166 190 72
171 196 92
165 189 67
168 193 84
165 189 67
171 195 80
164 188 62
167 192 72
162 186 67
166 191 84
167 191 62
168 192 88
164 189 72
167 192 67
169 192 57
169 193 84
159 183 57
165 188 57
167 191 67
162 185 72
170 194 67
174 197 67
162 187 80
161 185 76
167 192 88
163 186 99
164 189 92
164 189 102
167 191 62
162 186 88
165 188 88
162 185 80
163 187 84
165 189 84
166 191 67
162 186 57
161 185 92
166 190 80
160 184 67
156 180 76
160 185 72
157 181 72
168 190 57
155 180 62
158 181 80
157 180 57
165 189 72
164 188 76
166 190 67
157 181 80
154 177 80
159 181 80
162 185 92
163 187 84
157 180 95
158 180 62
150 172 72
154 177 67
158 181 72
148 172 57
154 177 72
153 175 72
148 169 70
149 171 76
153 175 80
145 168 92
148 169 62
144 166 57
146 168 65
154 176 88
150 171 80
150 172 62
143 165 72
125 147 93
97 122 120
83 110 109
77 104 97
89 115 111
79 106 126
92 118 124
88 115 124
96 121 120
96 121 127
107 132 144
83 110 121
94 120 124
94 119 133
101 125 128
97 123 134
103 128 139
98 121 137
91 117 122
107 130 136
100 125 134
98 123 140
86 113 127
85 112 127
96 121 136
89 115 117
82 110 129
90 116 152
78 108 140
83 112 151
74 105 150
78 107 148
69 100 150
77 105 141
73 103 148
65 99 144
72 102 142
63 95 134
63 95 133
61 96 147
64 95 134
64 96 131
61 94 133
60 92 123
63 96 131
60 94 135
60 94 124
63 97 129
63 95 116
63 94 108
68 99 113
71 102 121
73 103 112
66 98 117
64 95 109
57 91 108
59 93 137
58 91 118
57 91 115
56 90 102
56 89 108
59 93 130
57 91 112
60 94 128
58 92 121
59 93 122
58 92 121
58 92 114
56 90 112
57 91 117
58 91 124
60 94 134
57 91 122
59 93 133
59 93 120
58 91 122
59 93 128
59 93 121
58 92 120
59 93 124
58 92 122
58 92 121
57 91 120
60 94 130
58 92 126
58 91 120
58 92 117
61 96 133
58 92 120
59 94 125
59 93 122
60 94 125
57 91 113
58 93 118
56 90 100
58 92 121
59 93 121
57 91 111
58 92 120
59 93 124
58 92 126
57 90 113
58 92 121
59 93 122
58 91 119
59 93 111
59 92 118
58 92 118
60 94 130
58 92 113
59 94 128
59 92 121
56 89 115
57 91 113
59 92 114
58 92 117
55 88 105
58 91 118
58 91 118
56 88 105
57 91 110
58 91 110
59 92 118
56 89 103
57 90 105
54 86 94
58 91 111
57 90 105
55 87 103
56 89 113
56 90 114
55 87 90
56 89 111
56 88 100
57 90 113
55 87 107
53 85 94
63 88 67
80 104 76
92 111 51
104 121 18
99 113 0
102 118 0
106 120 0
118 133 0
115 131 0
111 125 0
121 137 0
112 129 0
110 127 0
113 126 0
110 125 0
120 137 0
123 137 0
115 129 0
120 136 0
123 141 0
118 133 0
120 137 0
121 138 0
127 144 0
129 145 0
131 146 0
129 145 0
127 143 0
121 138 0
125 140 0
136 152 0
127 145 0
123 139 0
133 151 0
130 146 0
125 142 0
132 148 0
143 162 0
133 150 0
131 145 0
124 142 0
132 148 0
139 156 0
141 158 0
141 158 0
133 147 0
132 149 0
125 140 0
139 157 0
127 143 0
141 160 0
134 152 0
143 161 0
138 154 0
144 161 0
140 158 0
142 158 0
144 162 0
136 152 0
145 162 0
139 157 0
144 161 0
148 165 0
137 153 0
142 157 0
142 161 0
140 155 0
140 156 0
144 164 0
141 158 0
148 164 0
142 159 0
143 161 0
148 164 0
144 161 0
144 160 0
137 155 0
151 167 0
154 173 0
145 162 0
156 175 0
150 166 0
147 165 0
152 170 0
153 171 0
153 170 0
148 164 0
154 172 0
149 166 0
150 169 0
147 162 0
151 167 0
148 164 0
144 160 0
148 163 0
148 163 0
153 172 0
157 174 0
160 178 0
153 170 0
151 167 0
151 168 0
157 176 0
152 170 0
150 166 0
154 171 0
153 170 0
159 174 0
149 167 0
151 170 0
159 178 0
158 176 0
152 171 0
154 170 0
146 164 0
156 173 0
157 177 0
154 172 0
149 167 0
154 173 0
153 169 0
159 178 0
153 171 0
156 173 0
155 174 0
156 176 0
160 176 0
159 176 0
161 180 0
158 177 0
161 179 0
162 183 0
159 177 0
154 171 0
160 179 0
161 179 0
162 180 0
162 182 0
161 179 0
159 180 0
162 181 0
163 180 0
161 179 0
161 181 0
159 177 0
161 180 0
154 174 0
159 178 0
164 184 0
158 176 0
165 184 0
164 185 0
159 178 0
163 183 0
165 185 0
166 185 0
162 183 0
163 183 0
167 188 0
160 178 0
159 178 0
161 181 0
164 182 0
164 183 0
166 185 0
167 187 0
164 185 0
167 186 0
168 188 0
164 185 0
163 182 0
172 196 62
170 193 72
163 187 72
173 197 76
171 196 92
167 191 62
166 191 76
166 190 62
167 191 67
170 193 80
170 195 62
166 191 72
170 194 51
167 191 62
166 190 67
171 195 67
170 195 92
170 195 76
168 192 57
169 193 80
166 191 88
170 195 76
170 194 84
166 190 76
172 196 72
169 193 51
162 186 72
168 192 51
168 192 62
173 197 57
163 189 88
169 194 80
169 193 80
171 194 57
166 190 80
166 190 76
164 189 80
169 192 92
169 194 67
166 190 72
166 190 72
172 196 84
162 186 62
158 181 57
167 190 72
159 182 72
168 191 76
171 195 84
166 189 88
158 183 72
162 186 84
169 194 76
164 188 88
161 185 76
167 189 76
163 186 95
163 187 84
165 189 95
163 186 84
166 190 84
154 177 67
153 176 72
161 184 67
158 181 44
162 185 84
165 187 80
163 186 67
160 183 80
162 185 67
159 183 92
160 184 88
161 184 57
153 175 80
154 177 80
163 187 105
151 175 84
159 183 84
159 182 70
154 177 76
150 173 92
149 171 99
157 180 80
140 162 51
147 168 76
152 175 72
147 169 67
150 172 76
155 177 88
151 172 88
136 157 67
139 161 84
140 161 72
136 157 65
113 135 103
99 123 137
96 122 129
93 118 118
93 118 126
87 114 124
96 122 126
102 126 141
88 114 123
94 117 126
106 131 142
99 124 135
98 123 120
87 114 127
92 118 137
100 124 140
97 122 129
101 124 109
81 109 131
86 112 129
104 129 126
92 118 126
114 136 147
91 116 127
94 120 122
76 105 136
91 118 134
83 111 134
76 107 147
78 108 148
80 108 152
71 101 138
61 96 140
62 96 135
74 104 140
65 97 141
77 106 144
75 102 143
69 98 131
61 94 129
62 93 121
62 95 131
63 96 124
63 96 125
65 98 126
65 97 117
72 102 117
66 98 120
65 97 120
72 102 112
72 101 113
68 98 109
78 107 111
58 91 122
67 98 108
57 91 113
56 89 111
57 90 118
57 91 112
60 94 125
60 94 133
57 90 126
58 91 117
60 94 129
57 90 111
59 93 125
59 94 133
57 91 118
58 91 118
59 93 120
59 93 122
59 93 121
56 90 110
58 92 125
56 90 111
57 90 113
58 91 120
59 93 128
57 90 114
58 92 118
58 92 118
59 93 122
58 92 117
57 90 117
59 92 125
59 93 126
59 93 122
58 92 115
60 94 126
58 92 120
59 93 125
59 92 128
56 90 105
59 93 120
59 92 124
58 92 114
58 91 113
59 93 120
59 93 126
60 94 125
59 92 114
59 93 126
57 90 110
57 90 122
59 93 114
58 92 117
58 91 122
57 91 108
58 92 114
57 90 122
59 92 118
55 88 110
57 91 113
59 93 121
57 90 117
57 90 108
58 91 122
57 90 113
58 91 118
57 91 117
57 90 114
56 89 108
57 90 113
57 91 115
55 88 103
57 90 120
57 90 115
55 87 95
57 90 117
56 89 114
57 90 115
56 89 103
57 89 108
57 90 114
56 87 88
73 99 94
78 101 67
82 100 51
106 123 31
100 114 0
101 114 0
105 120 0
111 126 0
111 128 0
115 131 0
117 133 0
124 140 0
122 137 0
114 129 0
105 121 0
113 129 0
111 127 0
122 136 0
115 131 0
132 149 0
98 114 0
126 143 0
124 140 0
114 131 0
129 144 0
122 139 0
122 137 0
122 139 0
122 139 0
119 137 0
115 128 0
127 145 0
125 143 0
123 140 0
131 146 0
123 138 0
128 143 0
121 137 0
137 153 0
136 153 0
137 156 0
131 149 0
136 153 0
132 147 0
130 148 0
134 151 0
133 149 0
135 153 0
128 146 0
134 151 0
139 156 0
141 159 0
134 151 0
139 158 0
135 151 0
138 154 0
144 162 0
136 152 0
138 153 0
145 162 0
144 162 0
139 157 0
139 155 0
144 164 0
141 158 0
139 154 0
140 158 0
143 160 0
143 161 0
144 161 0
142 159 0
139 155 0
143 159 0
146 162 0
147 165 0
141 159 0
145 162 0
148 164 0
145 162 0
147 165 0
152 168 0
146 161 0
149 165 0
152 170 0
151 167 0
151 168 0
145 162 0
152 168 0
149 166 0
151 169 0
151 167 0
148 165 0
149 165 0
159 177 0
156 174 0
150 168 0
151 168 0
154 172 0
141 156 0
153 170 0
145 159 0
153 170 0
152 172 0
154 171 0
151 169 0
150 167 0
155 173 0
152 169 0
151 169 0
156 173 0
149 165 0
157 175 0
152 171 0
156 175 0
151 168 0
154 171 0
158 176 0
153 171 0
159 176 0
150 165 0
158 176 0
153 173 0
158 176 0
155 172 0
156 175 0
161 181 0
153 171 0
156 175 0
163 182 0
161 180 0
159 181 0
158 176 0
158 176 0
157 175 0
152 171 0
158 177 0
162 181 0
159 178 0
155 174 0
157 175 0
161 182 0
158 178 0
161 180 0
155 172 0
166 185 0
161 180 0
159 180 0
159 178 0
159 179 0
159 178 0
158 177 0
162 182 0
164 183 0
158 176 0
161 181 0
157 176 0
165 185 0
162 182 0
168 185 0
165 185 0
164 185 0
164 182 0
164 185 0
165 186 0
162 181 0
162 181 0
163 182 0
165 186 0
166 185 0
166 186 0
163 183 0
162 182 0
167 191 67
174 197 57
168 192 80
168 192 62
170 195 76
172 196 76
167 192 62
167 192 67
172 195 84
165 190 72
168 192 84
167 191 62
170 194 76
169 194 57
167 191 76
169 193 72
168 192 72
170 194 57
165 190 84
172 196 57
168 192 62
167 191 57
165 189 57
167 191 51
164 188 62
169 192 62
168 192 80
164 189 57
167 192 57
167 191 88
162 186 72
169 194 95
164 188 76
165 189 67
167 191 84
166 190 80
165 190 80
168 191 80
165 189 76
170 194 72
165 189 51
169 194 80
168 192 72
160 183 84
169 193 88
166 189 72
164 188 67
162 187 80
170 193 72
169 193 92
168 192 84
162 186 84
167 191 88
158 182 67
163 187 76
156 179 80
161 184 76
161 185 80
162 186 76
165 188 80
156 180 67
155 178 67
156 180 62
164 188 76
160 183 80
161 184 84
160 183 84
155 178 72
156 178 76
162 185 92
161 183 76
160 183 72
158 180 76
157 180 62
154 177 76
149 171 95
159 182 67
156 178 72
160 184 76
156 178 57
157 179 80
150 173 67
147 170 62
151 172 88
147 169 57
151 173 80
142 164 92
139 161 76
153 175 92
137 158 67
147 169 57
142 162 51
145 166 62
126 147 78
109 133 115
107 131 134
94 119 125
84 111 115
85 111 110
88 115 115
79 107 112
88 114 136
96 120 138
84 112 124
86 113 127
90 116 133
96 122 148
87 113 131
96 120 133
99 123 135
92 119 133
94 119 111
97 122 126
100 124 136
87 115 120
96 121 126
83 111 128
93 119 134
90 115 141
92 117 128
83 111 138
77 108 143
76 105 140
75 104 141
71 102 148
75 105 155
78 106 143
66 97 141
69 100 140
65 97 144
65 96 125
67 97 128
62 96 139
68 97 131
66 98 131
63 94 122
62 95 129
61 94 130
61 95 135
60 94 138
70 102 117
68 97 113
74 104 112
69 99 122
63 94 103
61 93 108
69 98 110
62 93 112
58 91 116
59 91 109
56 89 112
58 92 112
58 92 126
58 92 124
59 94 125
57 90 110
58 92 116
57 90 118
58 91 121
57 90 111
58 91 124
57 91 115
58 92 130
58 92 124
59 93 125
58 92 124
57 91 114
60 94 131
58 92 113
58 91 120
57 91 115
57 90 117
57 91 111
60 94 126
59 93 128
59 94 122
58 92 132
57 91 115
58 92 126
57 90 114
59 94 126
58 92 111
59 93 120
57 91 110
58 92 124
59 93 121
58 91 114
59 94 128
58 92 122
58 92 124
58 92 120
58 91 115
56 90 99
61 95 131
59 92 117
57 90 113
57 90 125
59 94 117
58 92 121
58 91 120
58 92 111
57 89 108
56 88 113
57 91 105
56 89 115
57 91 122
56 89 108
58 92 118
57 90 117
58 91 115
57 91 108
56 88 111
58 92 121
57 91 111
58 91 120
58 91 113
57 90 107
57 89 111
57 90 107
58 91 120
55 88 99
57 90 111
54 86 100
56 88 110
53 84 99
52 83 95
58 89 95
64 91 92
84 101 67
104 120 31
108 123 18
119 135 0
97 112 0
109 123 0
111 125 0
103 116 0
108 123 0
108 125 0
125 141 0
117 133 0
122 139 0
119 135 0
121 137 0
113 129 0
99 115 0
135 151 0
118 134 0
120 136 0
113 127 0
119 136 0
127 146 0
131 150 0
123 137 0
122 138 0
137 153 0
120 134 0
134 152 0
121 136 0
127 143 0
130 147 0
132 148 0
128 144 0
136 154 0
132 148 0
133 151 0
135 152 0
133 149 0
128 144 0
130 146 0
133 151 0
131 150 0
136 152 0
138 156 0
135 152 0
141 159 0
137 153 0
147 165 0
141 158 0
133 148 0
146 163 0
136 154 0
143 161 0
136 153 0
136 154 0
143 163 0
145 163 0
132 151 0
145 164 0
143 160 0
136 154 0
137 155 0
145 163 0
144 162 0
148 166 0
147 165 0
145 161 0
142 160 0
141 160 0
146 162 0
142 161 0
144 161 0
146 164 0
144 162 0
148 166 0
144 162 0
145 162 0
152 169 0
147 163 0
147 163 0
146 162 0
143 159 0
142 158 0
147 166 0
153 171 0
147 165 0
151 169 0
139 157 0
153 170 0
139 155 0
152 166 0
150 166 0
143 160 0
155 175 0
148 166 0
155 173 0
155 173 0
147 162 0
151 170 0
150 169 0
151 168 0
153 172 0
159 177 0
146 163 0
143 160 0
156 175 0
153 169 0
157 174 0
158 177 0
156 175 0
161 179 0
156 175 0
152 169 0
156 174 0
160 178 0
156 172 0
157 175 0
160 178 0
157 177 0
154 173 0
156 174 0
157 176 0
153 170 0
160 177 0
154 173 0
152 170 0
158 177 0
159 178 0
157 176 0
159 178 0
158 175 0
155 174 0
158 175 0
154 172 0
160 177 0
156 174 0
158 175 0
162 183 0
160 178 0
163 184 0
158 176 0
162 182 0
163 182 0
165 185 0
157 177 0
161 182 0
161 180 0
158 178 0
162 182 0
161 180 0
164 184 0
165 186 0
164 185 0
163 184 0
161 182 0
160 180 0
165 184 0
162 182 0
164 184 0
159 179 0
165 183 0
168 190 0
168 188 0
163 182 0
165 188 0
162 181 0
165 184 0
166 186 0
166 186 0
163 184 0
169 190 0
173 197 76
170 195 72
167 191 67
173 197 67
168 193 57
166 189 76
170 194 57
166 190 72
167 192 67
169 193 57
170 195 99
169 194 72
169 194 88
169 193 67
168 193 76
168 193 76
167 191 57
164 188 36
167 192 80
166 191 67
167 191 80
167 190 62
160 185 57
167 192 57
168 192 57
169 193 76
166 190 67
169 194 99
164 189 84
164 188 76
169 193 80
165 190 80
167 191 72
160 184 72
164 188 62
167 191 67
168 192 72
165 190 80
167 191 92
168 193 88
170 193 88
166 190 67
169 192 92
166 190 102
167 191 95
165 188 72
169 192 80
164 188 105
170 193 72
163 187 84
163 186 80
166 190 92
166 190 102
169 192 72
164 187 80
168 192 102
164 187 84
163 187 72
159 182 80
161 183 92
165 188 92
157 179 80
164 187 80
159 182 92
156 179 92
163 186 92
162 184 92
158 180 67
155 179 62
160 183 76
166 189 92
161 184 84
159 182 95
153 175 62
149 171 84
143 166 72
152 175 76
161 184 88
156 178 72
155 178 62
154 176 62
154 176 84
143 165 72
152 173 57
147 169 62
147 170 72
150 171 72
146 169 62
153 175 57
141 162 57
145 167 88
143 164 76
139 161 76
148 170 72
130 151 92
102 127 110
79 106 92
96 120 126
93 119 129
90 116 117
92 117 133
98 123 125
93 118 114
84 111 122
94 120 129
108 132 137
92 118 131
84 111 128
89 115 133
94 118 133
106 131 134
88 115 131
98 122 134
101 125 135
92 118 127
103 127 135
101 126 132
100 124 122
94 119 136
101 125 131
77 105 131
104 128 141
79 108 143
72 103 152
76 105 140
67 98 133
72 103 147
76 106 152
79 107 140
73 102 137
73 104 144
68 98 126
69 99 131
58 91 130
61 95 139
61 95 133
63 97 133
65 98 131
60 94 130
63 96 122
66 98 118
65 96 111
75 105 122
81 109 105
74 102 108
69 99 112
72 101 102
57 89 100
58 92 128
57 90 111
58 91 123
58 92 107
56 90 107
57 89 111
57 90 111
58 91 115
58 92 115
58 92 118
57 91 115
58 92 118
58 92 118
58 92 113
57 91 116
58 92 117
59 93 121
59 93 125
58 91 129
57 90 107
59 93 118
57 90 118
60 95 128
58 92 115
57 91 120
59 92 131
57 90 114
59 92 125
58 92 121
59 94 126
58 92 108
58 92 122
59 94 126
58 92 125
57 91 110
60 94 126
57 91 114
58 91 122
58 92 122
57 91 103
58 91 114
57 91 102
57 90 115
58 91 120
59 93 118
58 92 115
58 91 121
59 93 123
57 90 107
57 91 111
57 91 115
54 86 95
55 88 102
57 90 111
58 92 117
56 88 111
57 91 115
58 92 117
57 91 103
57 90 110
58 91 114
55 88 102
56 89 103
57 90 108
59 92 114
56 88 108
57 90 97
56 89 113
55 87 105
55 86 95
56 89 103
56 89 102
55 87 99
56 88 114
56 89 100
53 84 94
56 88 103
62 88 76
77 99 74
100 118 47
95 110 40
108 123 18
101 116 0
113 128 0
114 131 0
127 141 0
115 131 0
97 113 0
122 139 0
105 119 0
112 128 0
118 134 0
103 119 0
114 130 0
115 131 0
111 126 0
131 148 0
113 128 0
121 138 0
113 130 0
121 138 0
132 149 0
133 151 0
117 134 0
114 129 0
122 137 0
130 147 0
130 145 0
125 142 0
120 138 0
122 138 0
132 152 0
130 146 0
132 149 0
124 140 0
129 147 0
141 159 0
132 149 0
136 155 0
140 157 0
121 137 0
133 151 0
131 146 0
133 150 0
133 151 0
133 149 0
134 151 0
134 152 0
135 150 0
130 149 0
142 161 0
138 156 0
142 160 0
138 153 0
135 152 0
160 177 0
137 155 0
146 164 0
142 160 0
139 156 0
142 159 0
131 150 0
145 163 0
144 160 0
144 162 0
144 161 0
142 161 0
141 160 0
147 163 0
147 166 0
139 156 0
151 169 0
138 154 0
143 163 0
145 159 0
145 162 0
145 163 0
143 161 0
150 169 0
151 169 0
146 164 0
150 169 0
150 170 0
143 160 0
154 171 0
148 164 0
153 171 0
143 161 0
156 173 0
152 171 0
153 171 0
155 171 0
149 166 0
157 173 0
153 172 0
155 172 0
147 164 0
151 168 0
149 166 0
154 173 0
155 171 0
154 173 0
156 173 0
152 170 0
159 178 0
157 175 0
152 169 0
155 173 0
151 167 0
157 175 0
150 167 0
156 174 0
159 180 0
153 173 0
159 176 0
157 174 0
158 176 0
157 175 0
161 181 0
150 168 0
157 177 0
161 180 0
154 173 0
161 181 0
156 175 0
152 169 0
154 172 0
154 172 0
162 180 0
158 177 0
155 174 0
159 179 0
159 178 0
148 164 0
163 181 0
159 176 0
162 180 0
165 185 0
159 179 0
157 175 0
161 181 0
157 174 0
158 175 0
167 186 0
165 183 0
160 178 0
163 182 0
161 179 0
166 185 0
160 177 0
163 183 0
161 179 0
164 184 0
163 181 0
165 185 0
166 185 0
161 183 0
166 187 0
165 184 0
162 181 0
161 180 0
162 182 0
165 186 0
163 184 0
164 185 0
167 188 0
162 182 0
163 183 0
162 183 0
162 181 0
167 187 0
164 186 0
169 193 76
171 194 51
167 191 72
172 196 67
169 193 62
169 193 51
171 195 76
173 196 76
170 194 57
170 194 57
169 193 76
170 194 84
168 192 84
164 188 62
172 196 67
173 197 57
165 190 76
166 190 67
167 192 88
170 194 57
168 193 76
165 189 72
169 194 72
170 194 76
166 190 84
169 193 57
170 194 76
165 189 80
170 195 99
167 192 80
167 191 84
168 193 105
168 192 62
169 193 88
166 190 80
163 187 80
161 184 51
165 188 84
167 191 80
168 193 92
169 193 92
165 190 76
169 194 102
163 186 67
169 193 84
167 191 92
163 187 80
164 188 92
164 187 88
160 184 95
168 190 84
163 187 105
163 186 62
166 190 67
166 190 99
168 191 67
167 190 95
162 185 80
163 186 84
165 188 88
163 185 76
163 186 80
164 187 88
162 185 84
158 181 84
155 178 80
162 185 80
162 185 76
160 184 67
156 179 99
168 190 92
159 181 72
162 184 88
155 177 88
152 175 67
155 178 80
154 176 99
153 176 92
147 170 76
154 177 72
159 180 80
145 167 44
148 172 92
148 169 44
153 176 80
145 167 76
151 173 76
146 169 65
143 164 67
140 161 57
142 163 62
131 152 62
142 162 67
140 161 57
145 165 80
131 153 105
106 130 102
86 112 102
80 108 99
94 119 120
98 122 124
83 110 111
84 111 121
93 119 120
92 117 124
80 108 111
75 104 116
103 127 122
98 122 122
93 117 130
117 138 145
90 116 126
82 110 126
86 112 131
94 119 133
112 135 138
99 123 124
106 129 128
91 116 133
102 128 127
106 132 142
82 110 143
91 117 137
78 108 146
74 105 145
72 102 135
90 115 139
71 100 140
68 98 137
70 99 139
68 98 138
74 102 138
68 98 129
67 98 130
65 96 130
61 94 124
58 92 129
63 93 118
60 92 125
60 93 114
67 98 123
72 102 114
71 100 97
73 103 120
68 99 113
72 101 105
68 99 105
67 98 113
58 92 108
55 87 107
57 91 109
56 89 105
56 88 114
57 90 105
55 87 103
56 89 102
56 88 100
57 91 110
56 89 117
57 91 113
57 91 112
56 89 107
58 92 111
58 92 123
59 93 125
59 93 128
57 90 114
58 91 117
59 93 122
58 92 121
58 92 108
57 91 107
56 88 108
57 90 118
58 92 115
58 92 110
59 93 115
56 89 100
57 90 117
59 93 120
58 92 117
57 91 108
59 93 121
59 93 115
59 93 122
59 92 118
58 92 110
58 92 111
59 93 118
56 89 115
58 91 114
59 92 124
56 89 105
58 92 110
59 93 124
55 88 107
58 92 111
58 91 122
54 87 92
57 90 107
58 91 113
58 92 111
59 93 122
57 91 113
57 91 108
58 92 114
59 93 120
56 89 103
57 91 113
56 89 107
58 92 117
57 90 105
56 90 111
57 91 110
58 91 105
56 89 103
55 88 90
56 89 117
56 88 105
57 90 115
57 90 108
56 89 113
55 87 97
62 91 102
66 92 88
78 99 65
81 100 47
92 107 18
89 103 18
112 126 0
112 126 0
106 121 0
105 121 0
105 120 0
113 128 0
118 135 0
109 122 0
113 129 0
125 141 0
123 139 0
116 133 0
109 126 0
112 129 0
121 135 0
113 130 0
117 133 0
113 129 0
117 132 0
117 133 0
110 126 0
121 136 0
135 152 0
118 134 0
131 149 0
125 141 0
123 137 0
124 142 0
140 156 0
131 149 0
132 150 0
138 158 0
136 153 0
127 144 0
137 156 0
133 150 0
129 147 0
135 151 0
130 147 0
132 149 0
135 152 0
142 160 0
134 151 0
129 146 0
137 153 0
137 157 0
134 151 0
124 142 0
138 154 0
138 156 0
135 153 0
141 155 0
130 148 0
137 154 0
143 160 0
146 165 0
141 159 0
151 172 0
134 153 0
139 155 0
149 165 0
139 156 0
149 166 0
146 163 0
143 161 0
147 165 0
135 152 0
146 163 0
147 165 0
143 160 0
145 161 0
149 167 0
151 168 0
144 162 0
151 168 0
144 161 0
146 164 0
149 166 0
148 167 0
149 169 0
145 163 0
151 170 0
144 163 0
150 171 0
149 169 0
148 165 0
155 175 0
150 168 0
155 173 0
147 162 0
150 168 0
147 164 0
144 162 0
153 174 0
147 165 0
158 177 0
149 168 0
156 174 0
148 166 0
150 167 0
149 167 0
157 174 0
153 173 0
151 169 0
158 177 0
160 178 0
150 167 0
160 178 0
152 169 0
154 173 0
156 173 0
156 174 0
156 172 0
163 183 0
160 181 0
157 177 0
149 166 0
157 172 0
159 177 0
162 182 0
146 163 0
151 168 0
157 174 0
160 180 0
161 179 0
156 175 0
155 172 0
157 176 0
157 177 0
155 173 0
158 177 0
162 181 0
164 184 0
159 179 0
157 175 0
160 180 0
159 177 0
157 175 0
157 175 0
162 182 0
163 181 0
158 176 0
167 187 0
158 177 0
161 180 0
163 182 0
164 184 0
163 182 0
162 181 0
165 187 0
159 178 0
169 189 0
160 180 0
160 179 0
160 181 0
162 181 0
162 181 0
162 181 0
162 182 0
165 183 0
163 183 0
163 183 0
163 183 0
158 178 0
163 181 0
160 179 0
166 188 0
165 184 0
160 179 0
164 184 0
166 188 0
167 191 57
172 196 84
165 190 36
173 197 95
170 194 80
172 196 72
171 195 57
171 195 80
169 193 72
164 190 80
171 195 44
167 192 62
164 188 72
168 192 76
170 194 67
167 191 51
169 193 67
169 193 84
169 193 76
172 196 76
175 198 76
169 194 67
167 191 80
168 191 51
169 195 92
163 189 84
169 193 92
167 191 76
163 186 67
165 189 80
169 194 105
166 190 67
173 197 80
165 189 84
166 190 84
166 190 72
170 193 80
167 190 67
163 185 62
163 186 72
163 185 72
164 189 95
167 191 92
172 195 111
171 194 84
170 192 105
173 196 99
162 186 72
162 185 92
163 188 80
172 195 114
162 185 92
164 186 102
168 192 80
164 188 80
167 190 102
169 192 105
162 185 92
165 189 102
167 191 108
166 190 95
163 186 84
158 181 76
162 185 76
161 182 92
154 177 88
158 181 92
157 180 95
164 187 92
161 183 95
165 188 88
151 173 72
165 187 99
153 175 67
164 185 102
147 169 95
150 173 88
160 182 88
154 176 88
147 169 92
156 177 80
148 170 67
147 169 92
151 173 67
150 174 88
153 175 82
149 171 76
148 171 84
147 169 76
152 174 80
141 163 67
137 158 84
143 164 62
143 164 84
142 162 72
127 147 44
119 141 78
90 114 114
92 117 118
94 119 114
101 126 130
102 127 121
104 128 114
94 120 120
102 127 129
100 123 125
92 119 126
97 122 115
93 120 133
88 113 131
88 114 128
84 110 131
98 123 126
83 109 118
100 125 122
98 124 132
94 119 120
92 118 124
101 125 127
96 122 118
84 112 136
89 116 137
84 112 134
93 118 152
90 118 157
74 103 138
82 110 147
65 96 131
77 106 144
69 100 136
72 101 139
70 100 135
75 102 126
61 94 125
64 95 127
61 95 125
69 100 133
70 100 116
63 95 114
58 92 121
64 96 120
64 96 125
74 103 119
63 95 115
64 93 92
73 101 101
64 95 103
60 93 115
62 94 118
56 89 115
56 89 107
58 91 113
58 91 116
57 91 108
57 91 116
57 91 110
55 88 109
57 90 103
57 90 109
58 92 122
59 92 124
57 91 101
54 87 103
58 92 111
60 95 126
57 91 113
58 92 120
58 92 122
58 92 110
58 92 115
57 90 110
57 90 121
57 91 118
59 93 122
57 90 108
55 87 111
57 90 113
59 92 128
57 90 120
58 92 120
58 92 114
57 90 103
59 93 121
56 89 113
57 91 108
60 94 126
57 91 118
59 94 122
58 92 115
56 89 105
57 91 115
54 86 102
58 92 114
57 91 120
56 89 110
59 93 120
57 90 114
56 89 97
56 89 100
58 92 111
57 91 107
57 90 111
58 92 124
57 90 115
56 89 102
58 92 118
58 91 120
56 88 110
58 92 124
58 92 117
56 89 110
54 86 97
56 88 111
58 91 111
57 90 107
54 86 92
56 88 107
57 90 107
55 87 86
55 87 97
55 88 97
53 84 97
62 89 82
72 95 78
87 105 44
89 106 44
91 106 18
103 117 0
102 119 0
103 120 0
106 121 0
101 116 0
107 121 0
116 134 0
96 112 0
121 137 0
116 131 0
110 125 0
110 125 0
111 128 0
114 130 0
124 141 0
120 135 0
113 127 0
112 129 0
107 121 0
117 132 0
122 139 0
114 132 0
122 139 0
135 152 0
134 153 0
124 142 0
127 145 0
136 153 0
130 146 0
125 141 0
127 145 0
127 145 0
123 140 0
129 146 0
136 155 0
129 147 0
130 146 0
137 155 0
127 146 0
132 150 0
124 140 0
128 144 0
138 157 0
133 150 0
143 161 0
139 157 0
137 155 0
130 146 0
138 155 0
139 155 0
138 156 0
133 151 0
145 163 0
143 161 0
141 160 0
148 166 0
141 160 0
142 160 0
130 147 0
135 152 0
140 156 0
144 164 0
141 159 0
139 158 0
142 157 0
141 159 0
148 166 0
133 149 0
141 159 0
154 174 0
146 164 0
151 167 0
140 158 0
146 165 0
148 165 0
145 163 0
144 162 0
144 162 0
149 166 0
146 163 0
150 168 0
146 163 0
150 168 0
149 168 0
145 161 0
149 166 0
148 166 0
144 162 0
154 170 0
153 171 0
154 173 0
152 170 0
158 175 0
148 165 0
152 170 0
152 170 0
146 165 0
152 171 0
154 174 0
158 177 0
148 167 0
151 171 0
148 164 0
157 174 0
149 165 0
156 174 0
153 168 0
153 171 0
152 171 0
156 174 0
153 170 0
155 175 0
154 173 0
154 173 0
155 174 0
151 168 0
158 176 0
155 175 0
154 172 0
158 177 0
163 180 0
155 173 0
165 186 0
152 171 0
161 181 0
157 177 0
157 177 0
162 182 0
156 174 0
163 182 0
152 167 0
163 181 0
159 179 0
163 180 0
165 184 0
159 178 0
164 182 0
160 178 0
159 176 0
159 179 0
163 182 0
163 182 0
158 177 0
160 177 0
159 177 0
158 178 0
158 176 0
155 173 0
159 178 0
163 182 0
159 175 0
161 179 0
162 181 0
150 167 0
161 180 0
167 184 0
164 185 0
155 174 0
163 184 0
165 183 0
164 184 0
161 182 0
163 184 0
162 182 0
169 190 0
164 185 0
168 188 0
167 188 0
165 184 0
160 180 0
168 188 0
162 183 0
165 185 0
168 193 62
169 194 57
172 195 62
170 194 80
169 193 80
171 195 67
169 193 80
170 194 67
169 193 76
167 193 80
171 195 76
172 195 67
169 193 72
172 195 76
169 193 76
170 194 62
170 194 88
168 191 44
168 192 88
167 191 67
164 189 76
169 194 80
165 190 72
167 192 76
170 195 88
166 190 76
166 190 84
163 187 72
173 197 84
168 192 99
171 195 99
174 197 111
167 190 84
171 194 76
163 187 80
166 190 88
170 193 72
168 192 111
170 193 92
162 185 72
170 193 88
169 193 80
170 194 102
170 193 92
161 185 88
170 194 114
171 195 102
171 193 92
170 193 102
166 189 102
165 189 88
164 187 88
163 186 92
162 186 76
163 187 92
166 190 95
163 185 84
162 185 99
166 189 95
164 188 99
161 184 72
163 185 99
162 185 84
163 187 92
161 184 102
165 188 99
166 189 102
163 186 108
147 169 72
160 183 84
158 181 76
156 179 92
157 180 105
159 181 62
146 168 62
149 171 88
154 176 84
158 180 76
154 176 76
159 181 99
155 177 84
145 167 67
152 175 80
148 169 95
153 175 88
158 180 57
151 173 57
144 165 62
151 172 72
145 165 57
145 166 62
139 160 72
145 166 76
146 167 72
144 163 88
156 177 102
138 158 76
118 141 86
98 122 110
91 116 120
87 111 107
88 113 105
86 113 123
96 120 122
83 109 117
87 114 124
99 124 120
88 114 113
86 112 120
94 121 143
93 117 136
90 115 110
96 122 132
103 127 126
105 129 126
95 119 115
98 123 120
102 126 134
95 120 131
103 127 128
106 130 138
92 117 132
92 119 132
78 107 131
75 105 140
78 107 146
69 99 134
91 116 154
79 107 145
64 97 144
79 106 140
69 100 131
67 100 147
67 98 139
71 101 121
64 95 118
64 94 125
64 96 120
65 97 122
59 92 118
60 94 125
71 101 110
75 106 124
78 105 105
67 97 103
78 107 108
72 101 106
65 95 114
57 89 107
59 91 110
55 88 98
55 87 99
56 89 100
57 90 112
55 88 111
57 91 113
58 92 111
56 89 92
58 92 117
58 91 120
55 88 104
55 87 105
56 89 105
56 88 106
54 86 97
57 90 110
58 91 124
55 88 99
57 90 105
57 90 111
57 90 102
59 93 117
60 94 126
57 90 121
59 93 121
57 90 113
56 89 110
58 92 111
56 89 99
56 88 108
58 91 113
56 89 103
57 91 111
57 91 118
58 92 118
59 92 115
59 93 118
56 89 105
57 91 108
57 90 114
57 91 126
58 91 110
60 94 125
58 92 114
57 90 105
56 88 103
57 90 114
58 91 120
55 88 103
55 87 100
55 87 107
55 88 94
57 90 110
59 92 108
54 86 97
58 91 115
57 90 114
57 90 115
59 93 118
54 85 103
57 90 108
55 87 107
57 90 105
55 87 108
54 86 86
56 88 105
54 86 95
54 86 94
55 88 94
53 84 95
57 87 94
73 98 82
93 113 70
84 103 51
99 114 18
94 107 0
111 126 0
105 121 0
103 119 0
99 115 0
100 116 0
101 117 0
107 124 0
114 130 0
113 129 0
113 129 0
108 122 0
119 136 0
112 127 0
115 132 0
113 130 0
113 129 0
117 133 0
117 132 0
122 139 0
122 137 0
127 145 0
121 138 0
131 149 0
126 141 0
128 145 0
115 132 0
130 146 0
121 139 0
118 135 0
130 147 0
124 141 0
119 136 0
131 148 0
127 144 0
135 153 0
127 144 0
130 145 0
133 152 0
138 156 0
139 156 0
124 139 0
141 158 0
138 155 0
136 152 0
133 150 0
130 148 0
138 156 0
136 154 0
136 156 0
142 159 0
138 155 0
142 161 0
137 156 0
137 155 0
141 158 0
139 157 0
138 157 0
142 161 0
144 162 0
147 164 0
144 164 0
135 152 0
138 153 0
143 158 0
149 166 0
143 159 0
142 162 0
139 157 0
143 160 0
146 164 0
143 160 0
149 166 0
141 159 0
141 160 0
140 157 0
145 164 0
152 169 0
140 157 0
142 160 0
145 164 0
137 154 0
140 158 0
154 173 0
149 166 0
146 165 0
142 161 0
154 172 0
148 167 0
147 166 0
156 174 0
149 167 0
151 168 0
148 169 0
154 173 0
151 168 0
150 169 0
154 173 0
157 177 0
149 166 0
152 171 0
145 164 0
147 165 0
159 176 0
150 169 0
152 170 0
153 173 0
160 180 0
152 171 0
159 177 0
150 167 0
154 172 0
160 179 0
154 171 0
153 170 0
157 177 0
156 173 0
156 173 0
159 177 0
149 167 0
158 176 0
155 173 0
157 174 0
157 173 0
160 179 0
155 172 0
156 175 0
154 173 0
153 171 0
150 169 0
160 180 0
153 173 0
160 178 0
159 179 0
156 173 0
163 182 0
156 174 0
162 182 0
161 181 0
150 168 0
165 187 0
161 181 0
169 189 0
165 186 0
155 174 0
157 177 0
160 180 0
157 175 0
159 179 0
162 183 0
160 179 0
163 184 0
163 183 0
164 184 0
161 179 0
165 185 0
162 181 0
162 182 0
163 183 0
161 180 0
161 180 0
165 187 0
160 179 0
165 185 0
161 181 0
164 184 0
163 185 0
164 182 0
167 190 0
163 183 0
169 189 0
167 187 0
162 182 0
169 191 0
162 182 0
170 195 80
171 196 84
170 194 80
173 197 72
172 197 84
173 198 92
167 192 72
173 197 80
169 192 62
172 197 84
167 192 88
162 187 80
170 194 76
169 193 84
173 197 76
169 194 80
165 189 80
169 193 76
170 194 51
166 191 57
170 192 76
166 190 76
170 194 76
169 193 92
170 194 92
167 191 76
166 190 57
168 192 95
169 194 92
169 193 88
166 189 95
169 194 95
164 188 88
164 188 99
170 193 99
170 193 84
166 189 88
167 191 80
166 189 67
169 193 88
168 192 99
172 194 102
162 185 76
166 190 99
160 183 92
171 194 105
165 189 108
167 191 111
172 194 111
166 190 114
168 190 88
161 184 88
162 185 62
164 187 111
162 185 95
165 188 111
166 190 92
165 188 105
167 189 95
164 188 102
165 188 114
166 190 105
166 189 92
159 181 99
160 183 80
162 184 67
158 180 76
165 187 120
163 185 88
164 187 80
160 182 92
161 183 99
166 188 111
155 177 88
159 181 99
160 181 92
157 179 88
150 172 72
157 179 72
153 176 84
150 172 80
159 180 88
160 182 105
154 176 80
152 174 67
140 161 57
155 176 67
147 168 72
150 172 80
140 161 84
142 163 80
143 163 67
134 155 67
136 156 62
137 158 65
137 156 84
145 165 88
151 172 99
121 143 96
95 119 113
88 114 100
80 108 107
93 118 120
85 111 105
91 117 126
80 107 108
90 115 126
100 124 128
80 107 114
116 138 135
93 118 124
97 122 118
105 129 121
97 120 121
89 114 122
111 132 132
99 125 124
105 127 127
103 127 127
85 109 98
90 116 121
92 117 120
92 118 129
85 112 131
94 120 133
76 106 145
68 99 136
73 103 134
78 107 133
75 105 137
66 97 127
75 103 123
67 99 132
73 100 122
68 97 125
67 96 114
63 94 128
64 96 128
63 93 117
57 91 124
61 95 117
58 90 113
72 101 102
75 102 103
77 105 99
75 104 108
66 96 100
67 97 105
70 99 114
58 89 80
57 91 114
56 90 104
56 88 107
57 90 105
57 90 103
57 90 107
57 90 115
58 92 124
55 88 102
54 86 105
58 91 121
57 90 113
55 88 102
57 90 113
56 89 97
57 89 108
58 91 117
55 88 100
57 91 110
57 91 114
55 88 111
57 90 115
58 91 118
57 91 113
56 89 113
57 91 114
57 90 115
56 89 107
56 89 110
57 90 113
55 87 102
56 89 107
56 90 110
55 88 103
57 90 114
56 90 99
58 91 102
57 90 117
56 88 115
57 90 110
56 89 108
58 92 121
58 92 117
55 88 99
55 87 92
58 91 120
57 91 113
55 88 97
56 90 113
55 87 103
58 91 118
57 90 118
56 88 107
57 91 115
57 90 118
56 89 111
56 89 103
56 90 99
56 89 90
55 88 95
57 89 103
57 90 113
56 88 102
55 88 100
54 86 102
53 85 92
53 85 94
51 81 90
59 88 94
68 92 72
61 83 74
85 104 57
96 112 25
100 112 0
104 117 0
105 122 0
116 131 0
101 116 0
98 113 0
96 111 0
112 128 0
104 118 0
107 123 0
117 135 0
107 124 0
119 137 0
111 126 0
101 117 0
114 131 0
108 123 0
117 133 0
117 135 0
122 139 0
113 130 0
116 132 0
125 142 0
126 143 0
128 146 0
133 151 0
119 137 0
120 139 0
118 133 0
129 148 0
130 147 0
127 143 0
132 150 0
129 147 0
126 144 0
129 147 0
133 151 0
132 149 0
144 163 0
126 143 0
127 144 0
131 147 0
139 158 0
139 157 0
135 154 0
136 154 0
139 157 0
135 152 0
138 155 0
147 165 0
153 171 0
134 153 0
144 162 0
125 141 0
134 149 0
142 161 0
142 160 0
137 155 0
143 162 0
137 154 0
135 153 0
150 169 0
138 155 0
139 156 0
138 155 0
141 162 0
143 161 0
148 166 0
147 166 0
142 159 0
137 155 0
148 167 0
134 152 0
148 167 0
149 168 0
144 163 0
140 160 0
144 162 0
147 166 0
151 168 0
150 169 0
150 169 0
145 162 0
149 167 0
142 159 0
155 175 0
149 167 0
149 166 0
153 169 0
150 167 0
155 173 0
151 166 0
144 162 0
149 167 0
143 161 0
143 161 0
150 168 0
153 171 0
152 170 0
145 165 0
152 169 0
148 168 0
155 173 0
149 167 0
159 178 0
156 173 0
152 170 0
149 166 0
158 176 0
153 171 0
158 176 0
156 175 0
151 170 0
148 166 0
159 176 0
157 175 0
157 176 0
151 170 0
156 175 0
149 166 0
154 171 0
151 171 0
155 173 0
153 172 0
161 179 0
158 177 0
156 176 0
154 173 0
158 178 0
162 183 0
159 178 0
152 169 0
159 178 0
156 176 0
163 183 0
163 183 0
159 178 0
160 177 0
158 178 0
160 177 0
161 180 0
155 174 0
162 181 0
162 183 0
167 188 0
163 182 0
157 176 0
162 182 0
158 177 0
162 182 0
157 176 0
164 182 0
160 180 0
161 181 0
163 182 0
161 181 0
162 182 0
165 185 0
161 180 0
164 183 0
167 187 0
163 182 0
165 185 0
160 178 0
161 180 0
162 183 0
164 184 0
165 186 0
163 183 0
163 185 0
162 183 0
164 184 0
162 180 0
167 187 0
168 189 0
165 184 0
168 188 0
174 198 84
173 197 62
171 194 76
171 195 80
170 194 62
168 192 88
170 193 76
166 190 57
169 193 67
172 195 51
168 193 88
170 194 72
167 191 76
164 187 62
171 195 88
165 190 84
169 193 80
169 194 88
171 196 72
169 194 95
164 188 80
167 191 76
165 190 80
169 194 88
171 194 72
170 195 105
165 189 88
169 193 95
171 193 108
169 191 76
167 191 76
168 192 95
171 194 95
167 192 84
164 188 88
166 189 102
169 193 92
163 187 99
175 198 111
166 189 76
167 191 84
169 191 88
168 190 99
167 189 88
168 191 92
172 195 105
167 190 111
167 190 105
169 192 99
171 194 120
166 189 92
160 183 108
169 192 117
163 185 95
166 190 95
162 185 76
165 187 95
160 182 88
169 190 105
168 191 84
162 186 111
161 184 114
171 193 117
169 190 102
165 187 80
159 181 95
160 183 88
167 190 102
159 181 92
160 183 102
163 187 117
157 179 92
156 178 88
156 178 84
154 176 95
164 186 99
157 179 105
156 178 95
153 175 76
147 168 84
150 172 88
144 165 92
146 168 92
151 173 95
150 171 72
151 173 88
149 169 80
147 168 99
135 157 72
141 162 36
139 160 76
145 167 95
145 166 84
136 156 76
137 157 62
135 155 72
134 153 80
150 170 88
132 152 62
122 143 103
90 114 99
90 116 120
94 118 126
92 116 105
102 126 126
97 121 124
93 117 111
103 126 121
88 113 124
94 120 130
83 110 106
94 118 123
96 120 128
83 110 115
96 121 129
99 122 130
94 119 124
95 120 120
100 123 113
84 111 116
91 116 122
82 110 121
88 114 125
91 118 130
79 108 143
75 105 147
83 110 132
80 106 134
74 103 134
77 106 134
64 96 138
62 96 125
66 99 131
62 95 128
78 105 134
61 93 131
71 99 130
66 98 138
60 91 103
57 89 108
57 91 120
67 98 105
80 108 108
83 111 111
77 105 99
78 106 97
72 101 84
68 97 99
79 106 98
60 92 101
56 88 94
58 91 115
56 89 98
56 89 108
58 91 120
56 90 100
58 92 113
56 89 96
57 90 108
58 91 113
54 87 111
58 91 100
57 90 112
57 89 115
56 88 103
57 91 110
57 90 100
56 89 103
57 90 111
58 91 118
56 89 110
56 89 110
58 91 118
58 91 120
58 93 122
56 90 110
57 90 110
56 89 97
59 93 122
57 90 105
58 92 121
56 89 111
57 90 114
58 92 122
56 90 100
56 89 104
57 91 111
58 91 120
57 90 113
56 89 113
57 90 115
56 89 107
57 90 110
57 91 107
56 90 103
56 89 113
58 91 120
57 90 103
57 89 107
57 90 114
55 87 94
58 91 114
55 88 99
56 89 107
58 91 110
55 87 102
56 89 95
54 86 97
55 88 105
55 86 107
54 86 107
54 86 95
55 88 105
56 89 102
52 83 84
54 86 94
54 84 82
58 86 82
69 92 74
78 98 70
95 110 40
97 110 25
90 107 0
86 102 0
97 112 0
108 123 0
94 108 0
96 113 0
107 122 0
105 120 0
112 127 0
102 116 0
102 118 0
119 135 0
125 142 0
113 131 0
104 119 0
104 122 0
116 133 0
115 133 0
122 138 0
127 143 0
112 129 0
123 141 0
122 139 0
130 146 0
119 136 0
114 129 0
111 128 0
123 142 0
129 147 0
131 149 0
120 138 0
128 145 0
133 152 0
130 149 0
134 149 0
128 146 0
128 146 0
133 151 0
129 146 0
132 150 0
132 150 0
130 149 0
134 152 0
136 153 0
127 145 0
139 156 0
136 156 0
136 153 0
138 158 0
134 152 0
139 156 0
132 148 0
135 153 0
141 160 0
136 154 0
138 156 0
137 156 0
141 158 0
140 157 0
139 159 0
145 163 0
137 155 0
134 152 0
139 157 0
144 162 0
145 163 0
146 164 0
138 157 0
139 156 0
144 163 0
143 162 0
142 161 0
144 165 0
139 157 0
147 165 0
148 166 0
146 164 0
145 163 0
148 167 0
144 165 0
149 168 0
148 166 0
156 175 0
149 167 0
151 171 0
150 170 0
149 168 0
146 163 0
146 164 0
151 170 0
149 168 0
145 162 0
156 174 0
149 167 0
151 169 0
141 158 0
154 171 0
153 174 0
153 170 0
151 170 0
156 176 0
153 173 0
155 175 0
159 178 0
154 173 0
159 177 0
149 167 0
143 161 0
158 178 0
156 176 0
150 169 0
149 166 0
160 180 0
154 172 0
161 180 0
151 169 0
154 173 0
160 179 0
158 177 0
161 179 0
157 177 0
161 180 0
157 175 0
161 179 0
160 178 0
158 177 0
157 176 0
161 178 0
160 179 0
157 175 0
162 182 0
158 175 0
162 183 0
166 183 0
157 177 0
153 172 0
159 179 0
154 174 0
159 179 0
157 173 0
158 176 0
161 179 0
160 179 0
162 181 0
164 183 0
158 177 0
164 184 0
163 183 0
161 180 0
162 182 0
164 185 0
161 182 0
163 181 0
161 180 0
158 178 0
158 178 0
165 185 0
157 176 0
161 182 0
166 188 0
162 181 0
162 181 0
161 183 0
166 186 0
164 184 0
162 183 0
159 179 0
164 185 0
163 183 0
163 183 0
166 187 0
166 186 0
166 187 0
163 183 0
161 181 0
164 184 0
166 186 0
166 185 0
173 197 67
169 193 76
172 197 92
168 191 76
171 196 84
171 195 72
169 193 72
167 190 51
171 195 80
165 189 67
170 193 44
167 191 72
171 195 67
163 187 76
172 195 76
170 193 92
168 193 72
172 196 105
173 197 80
165 189 84
173 197 84
167 190 62
169 194 80
172 195 92
172 196 80
170 194 102
170 194 67
169 193 111
171 194 99
169 193 84
171 195 80
167 190 80
170 194 105
171 195 95
173 196 128
163 187 95
169 192 111
169 193 95
171 194 102
167 190 99
168 191 92
164 188 102
171 194 99
164 187 84
162 186 84
168 191 72
164 186 84
170 192 102
171 195 92
166 189 84
164 187 105
156 178 88
166 188 80
164 186 95
160 183 72
165 188 88
164 187 105
169 192 117
157 180 108
163 185 105
166 189 102
164 186 88
165 188 102
158 180 72
160 183 102
159 182 95
166 188 120
165 188 105
162 184 105
155 178 99
156 179 92
167 189 99
158 180 99
162 184 114
162 185 92
157 179 105
160 181 111
157 179 72
159 181 92
143 164 67
160 181 105
151 173 80
154 176 99
145 167 80
154 175 102
152 173 102
147 169 80
141 163 80
143 164 76
153 174 84
147 167 62
142 163 65
143 164 72
140 160 92
143 164 80
144 163 72
133 153 57
131 151 62
137 157 57
130 149 92
110 130 74
90 115 103
90 113 100
93 117 114
101 124 122
83 108 106
96 121 113
94 118 121
94 119 113
101 126 135
103 126 126
99 123 124
103 126 131
95 121 122
101 124 122
98 122 138
103 128 121
106 130 134
97 122 118
100 124 118
106 129 119
89 116 121
90 114 104
82 110 133
89 116 134
77 106 136
73 103 134
74 103 118
84 109 121
67 97 125
83 110 125
65 96 128
77 105 123
66 98 135
67 97 113
67 96 126
69 98 113
68 97 116
63 92 119
63 94 118
60 92 113
68 97 104
76 105 105
75 103 95
80 106 103
70 100 99
70 98 88
65 95 86
66 94 94
70 99 92
57 89 110
57 91 117
58 91 110
56 89 105
53 85 88
57 90 92
57 90 105
57 90 113
56 88 103
57 90 109
55 88 94
56 89 103
56 88 99
56 89 105
54 86 104
57 90 106
59 92 122
56 89 108
56 89 107
56 88 94
58 92 114
57 90 99
56 89 105
56 89 103
57 90 103
56 88 114
58 92 108
58 91 111
57 90 107
57 90 117
57 91 108
57 90 103
57 89 113
57 90 107
57 90 110
55 87 100
57 90 111
56 89 115
57 90 115
56 88 99
57 90 110
56 88 107
56 90 110
55 87 102
56 89 108
56 89 103
56 89 113
55 88 95
58 91 120
55 88 102
56 89 113
56 88 107
57 89 107
56 90 95
56 89 99
57 90 108
57 89 114
56 89 111
56 89 102
55 87 92
56 88 100
55 87 102
54 87 82
53 84 82
56 87 92
63 90 80
80 104 76
86 107 54
82 99 31
93 107 25
93 110 0
100 116 0
112 127 0
99 113 0
108 123 0
106 121 0
105 119 0
110 126 0
104 119 0
112 129 0
100 116 0
114 130 0
111 128 0
102 117 0
114 129 0
113 130 0
107 124 0
122 140 0
114 130 0
121 137 0
113 129 0
116 132 0
120 136 0
127 143 0
120 136 0
127 144 0
119 134 0
120 134 0
124 144 0
124 142 0
129 146 0
121 139 0
119 136 0
128 146 0
124 141 0
128 145 0
131 150 0
127 145 0
128 144 0
135 154 0
138 154 0
133 151 0
124 142 0
130 146 0
138 156 0
133 148 0
142 161 0
137 155 0
138 155 0
134 153 0
136 151 0
136 153 0
144 162 0
134 152 0
131 149 0
137 155 0
137 156 0
147 166 0
141 159 0
138 154 0
139 157 0
142 161 0
137 155 0
150 170 0
144 164 0
146 164 0
145 163 0
154 171 0
134 152 0
145 163 0
153 171 0
145 163 0
137 153 0
150 169 0
146 164 0
144 159 0
144 162 0
144 162 0
149 166 0
144 163 0
142 162 0
152 170 0
153 172 0
145 163 0
151 171 0
149 168 0
147 167 0
150 167 0
152 169 0
143 162 0
156 175 0
148 166 0
150 169 0
146 163 0
158 178 0
156 175 0
152 172 0
149 168 0
148 165 0
149 168 0
150 169 0
150 169 0
151 170 0
148 166 0
153 172 0
155 176 0
161 181 0
154 172 0
154 172 0
158 177 0
154 173 0
154 173 0
156 174 0
154 173 0
156 176 0
159 176 0
156 176 0
152 171 0
152 171 0
153 170 0
152 170 0
148 167 0
158 176 0
158 178 0
156 174 0
160 179 0
156 174 0
158 177 0
163 183 0
158 175 0
154 172 0
163 183 0
155 173 0
159 178 0
160 179 0
164 184 0
165 185 0
165 185 0
157 174 0
157 176 0
161 179 0
153 174 0
163 183 0
156 177 0
159 178 0
159 178 0
160 178 0
160 179 0
164 183 0
160 179 0
161 178 0
165 184 0
163 182 0
167 186 0
165 185 0
165 185 0
162 181 0
165 185 0
165 184 0
163 182 0
159 180 0
158 177 0
161 180 0
166 188 0
165 187 0
165 183 0
163 183 0
164 185 0
166 186 0
169 189 0
168 187 0
165 185 0
164 184 0
164 185 0
164 186 0
163 183 0
165 184 0
160 180 0
163 183 0
167 189 0
172 196 92
171 195 51
169 194 57
168 192 80
169 193 76
167 192 84
171 195 84
167 191 44
166 190 80
167 191 76
171 196 95
174 197 80
172 197 72
170 193 88
170 194 76
171 195 88
166 191 84
167 190 76
170 194 80
168 192 72
167 190 72
166 191 102
169 191 84
170 192 88
167 190 80
175 199 111
168 192 105
168 192 120
172 196 128
171 194 108
173 197 114
164 188 111
177 200 128
170 193 95
167 190 108
167 191 108
171 195 111
171 194 80
169 193 117
167 190 92
172 195 95
161 185 92
172 196 120
168 191 111
167 191 92
166 190 99
169 193 95
167 189 80
168 190 102
166 189 102
163 186 99
168 192 102
164 187 88
168 192 111
165 188 88
163 187 72
166 188 95
163 186 84
161 184 88
162 185 102
167 190 102
167 191 122
163 187 102
162 185 84
155 179 76
161 184 92
162 185 102
158 181 88
164 186 120
164 185 99
161 184 76
163 186 95
164 186 102
159 181 72
164 186 95
155 177 108
161 183 95
160 182 111
141 162 80
153 175 80
159 180 105
154 175 102
157 179 84
143 164 72
156 177 110
153 174 76
140 161 72
161 183 111
148 169 80
143 164 72
151 172 105
151 172 88
147 167 72
145 165 105
132 152 80
136 156 88
143 163 72
131 150 51
132 151 67
134 153 51
139 159 102
109 130 94
98 122 107
95 119 102
95 118 113
87 111 113
97 120 128
99 122 117
95 119 111
93 116 124
88 113 110
99 124 123
79 106 118
104 128 131
104 128 116
96 120 113
101 124 123
92 118 124
89 115 112
105 129 142
88 113 129
102 124 112
102 127 120
106 129 137
95 120 140
87 113 131
92 118 137
89 116 148
77 103 121
72 101 125
72 101 134
74 102 121
67 97 127
69 100 135
64 95 128
64 95 122
65 96 125
70 100 115
64 93 114
67 98 120
61 92 113
73 101 105
72 99 96
75 103 105
77 103 94
75 102 89
66 94 91
68 96 90
63 93 90
71 99 101
60 91 99
55 87 96
55 87 99
56 88 92
55 88 98
55 87 97
55 88 107
55 88 102
57 90 107
55 87 99
55 87 95
55 88 106
57 91 103
58 91 118
57 91 111
57 90 107
57 90 102
56 89 113
55 88 91
54 87 100
57 89 118
56 89 108
55 87 99
56 90 106
57 90 107
57 90 110
57 90 105
57 91 111
56 89 103
57 90 110
56 89 102
57 91 105
56 89 107
56 89 100
58 92 102
56 89 98
59 92 118
56 88 99
55 88 102
55 87 99
56 88 100
57 90 110
53 85 90
55 88 105
56 88 97
55 87 92
56 88 102
56 88 100
57 90 108
53 85 102
56 89 107
54 85 100
57 90 95
55 87 94
54 86 102
55 87 102
56 89 105
55 87 97
55 87 97
53 84 88
54 86 102
56 89 102
53 82 86
63 89 74
70 95 84
82 101 44
87 103 47
106 121 18
82 98 18
95 109 0
101 116 0
93 108 0
111 125 0
109 124 0
101 115 0
104 117 0
110 126 0
108 125 0
109 125 0
107 123 0
114 130 0
108 123 0
116 133 0
110 126 0
110 126 0
116 133 0
121 137 0
113 130 0
118 134 0
110 126 0
121 139 0
131 147 0
116 133 0
123 140 0
132 150 0
125 144 0
129 147 0
121 138 0
134 151 0
128 147 0
122 138 0
121 138 0
123 142 0
128 146 0
124 144 0
132 150 0
126 144 0
128 146 0
135 154 0
135 154 0
141 161 0
134 154 0
132 149 0
138 157 0
133 152 0
139 158 0
137 156 0
139 157 0
139 156 0
133 149 0
140 158 0
133 152 0
139 157 0
134 152 0
141 158 0
140 159 0
139 157 0
137 157 0
136 157 0
142 160 0
133 151 0
140 158 0
145 164 0
139 157 0
139 157 0
142 162 0
150 169 0
140 157 0
145 162 0
145 164 0
141 160 0
141 160 0
146 163 0
142 160 0
144 163 0
148 166 0
140 155 0
147 166 0
146 164 0
146 165 0
139 157 0
147 164 0
152 171 0
148 167 0
149 167 0
148 167 0
152 172 0
146 164 0
145 164 0
144 161 0
158 179 0
154 173 0
157 176 0
155 174 0
150 168 0
150 170 0
154 172 0
152 169 0
148 166 0
155 174 0
150 165 0
155 173 0
151 172 0
152 171 0
150 169 0
157 175 0
156 174 0
156 174 0
151 169 0
150 168 0
150 168 0
154 170 0
159 179 0
155 171 0
157 175 0
156 173 0
158 178 0
155 175 0
158 178 0
157 177 0
152 171 0
154 172 0
157 177 0
155 174 0
157 176 0
154 172 0
158 177 0
152 169 0
159 178 0
161 181 0
160 180 0
154 175 0
160 179 0
160 180 0
156 175 0
160 178 0
162 180 0
161 180 0
162 180 0
158 177 0
158 176 0
164 184 0
159 179 0
163 183 0
157 177 0
157 176 0
163 181 0
163 183 0
165 185 0
156 176 0
164 183 0
155 175 0
163 184 0
162 181 0
164 184 0
161 181 0
163 183 0
163 182 0
163 181 0
164 184 0
163 183 0
164 185 0
165 185 0
165 185 0
161 181 0
159 180 0
165 185 0
161 181 0
166 187 0
163 184 0
165 186 0
169 191 0
164 184 0
163 182 0
166 186 0
163 184 0
161 182 0
165 184 0
167 188 0
167 186 0
168 192 80
169 192 57
171 195 62
172 196 72
173 198 88
172 196 72
168 193 84
165 189 72
169 192 72
170 194 92
168 193 67
169 193 80
170 193 80
168 191 76
164 188 62
170 195 99
168 193 99
172 195 76
169 192 80
172 195 95
175 198 99
169 192 84
173 196 88
171 195 102
171 194 92
170 193 88
164 188 67
169 193 108
169 192 88
172 196 111
173 196 95
173 197 108
170 194 105
167 190 80
165 188 92
170 193 88
168 190 95
168 190 84
168 192 99
169 192 102
165 189 88
164 187 99
166 189 88
169 192 108
168 191 92
168 190 76
169 192 92
165 188 102
166 190 114
160 183 80
162 186 108
170 193 108
159 182 72
160 184 80
161 184 102
168 192 120
168 191 102
159 183 95
165 187 84
167 189 88
160 183 120
161 183 88
163 186 114
170 193 95
170 192 117
167 190 88
161 184 105
163 186 102
163 187 111
159 182 76
161 183 95
154 175 88
161 185 84
167 190 102
151 173 84
164 185 120
152 174 108
149 170 72
158 180 99
155 177 99
150 172 84
163 185 92
154 175 88
150 171 102
153 175 99
143 166 76
153 174 99
135 155 80
155 175 102
143 165 51
146 167 92
150 171 80
142 162 67
141 161 92
140 160 72
145 164 92
135 154 67
131 151 62
144 162 84
145 164 95
128 146 62
139 157 84
121 140 105
91 114 94
89 114 115
90 115 105
92 117 108
98 122 125
105 128 129
90 114 120
102 124 126
109 131 132
94 119 107
99 122 125
108 130 132
99 124 122
103 126 125
89 115 129
100 124 117
99 123 107
104 128 127
97 121 113
86 112 113
92 117 129
88 114 117
97 122 130
93 116 129
90 114 135
80 108 130
74 103 131
79 106 125
68 99 128
84 111 121
73 101 103
74 101 106
68 97 114
74 101 112
63 95 115
63 94 113
63 93 107
68 97 108
71 100 102
78 104 102
78 105 97
78 105 88
66 94 94
70 98 79
76 103 92
65 95 102
65 94 90
55 88 95
55 88 89
56 88 103
53 85 90
54 87 89
53 85 86
54 86 100
57 90 111
56 88 114
57 90 114
56 88 110
55 87 102
53 84 107
56 89 100
54 86 92
58 92 111
58 91 107
55 88 107
56 89 101
56 90 103
56 89 110
57 89 107
55 88 99
56 89 96
57 90 102
57 90 103
55 88 100
56 89 104
57 90 114
56 89 108
56 88 102
54 86 99
55 88 103
57 90 115
56 89 114
55 88 110
56 88 99
56 90 110
57 90 103
57 90 108
57 90 105
54 87 102
56 89 92
56 88 110
57 90 110
55 88 90
57 90 110
56 89 100
55 88 97
52 84 80
54 86 95
55 88 107
54 87 103
54 86 92
55 88 103
55 87 92
56 88 110
56 89 102
55 87 95
51 81 86
58 86 84
66 95 97
79 100 62
85 105 57
101 117 25
80 95 0
106 121 18
111 124 0
99 113 0
109 124 0
95 109 0
109 126 0
116 132 0
105 119 0
98 112 0
104 120 0
111 128 0
118 135 0
109 125 0
121 137 0
113 129 0
116 133 0
115 132 0
118 134 0
114 132 0
111 129 0
112 128 0
113 130 0
120 137 0
123 140 0
114 130 0
111 128 0
131 149 0
121 137 0
125 143 0
112 129 0
127 144 0
125 143 0
120 138 0
118 135 0
128 146 0
131 149 0
134 153 0
123 141 0
128 146 0
138 155 0
130 149 0
127 144 0
130 147 0
133 152 0
136 156 0
134 151 0
128 148 0
137 154 0
134 153 0
128 142 0
128 147 0
128 147 0
135 152 0
135 153 0
138 156 0
140 158 0
136 155 0
132 149 0
144 163 0
147 165 0
137 155 0
146 166 0
140 157 0
130 149 0
139 158 0
143 161 0
146 166 0
142 160 0
139 159 0
146 165 0
142 163 0
142 161 0
136 154 0
137 158 0
148 168 0
150 170 0
148 167 0
154 174 0
154 172 0
142 161 0
144 161 0
154 174 0
143 161 0
146 165 0
148 166 0
149 167 0
153 172 0
148 167 0
151 170 0
152 170 0
151 169 0
146 165 0
142 159 0
147 166 0
156 175 0
144 163 0
152 171 0
161 181 0
145 162 0
149 169 0
153 171 0
146 165 0
152 171 0
153 173 0
151 169 0
150 169 0
149 169 0
159 178 0
152 171 0
153 172 0
153 171 0
158 178 0
152 170 0
151 171 0
159 177 0
149 169 0
150 168 0
158 176 0
158 177 0
158 178 0
159 180 0
155 175 0
150 168 0
155 175 0
159 179 0
160 178 0
153 173 0
157 174 0
147 166 0
156 174 0
158 176 0
162 180 0
160 178 0
162 183 0
153 170 0
161 181 0
161 180 0
155 174 0
152 171 0
160 180 0
161 182 0
157 176 0
162 180 0
161 181 0
158 180 0
152 171 0
157 177 0
161 181 0
160 179 0
165 186 0
160 180 0
161 180 0
159 179 0
162 182 0
162 182 0
158 175 0
154 173 0
163 184 0
157 178 0
160 178 0
168 188 0
169 188 0
167 188 0
164 182 0
165 185 0
165 184 0
163 183 0
165 185 0
168 189 0
165 186 0
158 179 0
164 186 0
168 188 0
161 182 0
166 185 0
165 186 0
164 184 0
167 188 0
164 186 0
163 185 0
163 184 0
167 189 0
162 181 0
165 185 0
173 196 67
164 188 44
171 195 95
173 197 67
170 194 80
168 193 76
169 193 72
168 192 72
170 195 80
170 194 88
166 190 76
171 195 111
163 186 72
166 189 67
166 190 67
168 192 95
171 194 67
171 195 105
172 195 105
168 192 105
164 188 88
170 194 92
168 192 84
166 188 88
171 194 92
169 193 88
174 196 108
172 195 92
168 191 102
169 193 76
173 197 108
170 194 57
170 193 95
167 192 102
170 193 102
166 190 84
169 192 88
169 192 102
166 191 88
168 191 105
170 194 95
170 194 105
170 193 105
164 187 99
164 188 88
162 183 99
169 192 92
170 192 114
169 193 111
162 185 99
166 189 102
164 186 84
159 181 80
159 182 76
162 185 78
171 194 99
161 184 84
159 182 97
165 187 92
163 186 105
160 182 99
162 184 95
158 181 72
164 186 92
163 185 95
166 188 99
156 180 102
163 185 117
170 192 125
158 181 122
163 185 95
160 181 114
162 184 95
160 181 99
160 182 80
155 176 84
169 190 130
154 174 72
157 180 92
157 179 80
150 172 95
158 179 92
145 166 67
160 182 111
146 166 114
150 171 88
147 168 67
156 177 84
144 165 76
154 175 84
152 174 84
144 165 80
143 164 88
151 171 105
144 163 80
133 152 76
141 161 84
146 166 67
128 146 88
140 160 57
126 144 76
137 157 72
135 155 78
114 135 95
90 113 95
85 109 85
88 111 105
96 119 114
94 118 122
89 115 107
86 111 105
89 114 111
105 127 130
92 117 103
78 105 117
109 132 122
85 111 113
101 125 122
91 118 111
101 125 122
99 124 135
87 112 122
94 119 118
88 114 125
104 127 129
83 109 129
88 110 116
82 106 116
82 107 117
91 116 126
81 108 108
72 101 115
78 106 120
74 104 126
64 94 129
75 100 107
70 96 109
63 94 118
66 95 95
71 100 108
66 95 99
69 99 102
75 101 99
67 96 95
67 96 102
77 103 80
86 112 92
79 105 82
62 91 78
54 86 90
59 91 99
56 87 86
55 88 108
54 86 82
54 87 98
53 85 90
57 91 115
55 88 103
56 88 95
56 89 100
56 89 97
56 89 103
55 88 97
54 85 90
53 85 84
54 86 86
56 88 99
56 88 94
57 90 113
55 88 97
57 90 107
55 88 99
56 88 100
55 87 99
56 89 113
57 90 107
56 89 108
57 90 105
54 87 99
57 90 100
55 87 105
56 89 108
57 90 110
52 84 99
54 85 99
55 87 110
56 89 103
57 91 99
55 88 102
55 87 102
55 87 108
56 88 110
54 86 99
54 86 78
55 87 99
56 89 97
56 89 97
56 89 103
56 89 94
55 88 103
58 91 111
54 86 97
56 89 99
54 86 90
56 88 102
51 82 84
53 84 92
54 84 82
66 94 88
59 84 70
81 100 65
80 101 60
89 107 31
90 105 18
97 112 0
92 105 0
99 115 0
100 117 0
105 119 0
111 128 0
115 131 0
102 116 0
99 115 0
108 123 0
118 133 0
108 123 0
111 127 0
99 116 0
106 121 0
111 127 0
121 136 0
105 121 0
107 125 0
123 141 0
121 138 0
117 134 0
120 136 0
110 127 0
119 136 0
124 140 0
120 136 0
126 142 0
122 139 0
133 150 0
117 135 0
118 135 0
123 142 0
125 143 0
130 149 0
136 154 0
130 149 0
124 141 0
130 146 0
118 137 0
125 142 0
120 139 0
126 144 0
134 152 0
132 151 0
135 152 0
130 149 0
134 151 0
128 146 0
131 150 0
138 156 0
143 162 0
140 158 0
134 153 0
120 139 0
128 145 0
145 163 0
142 162 0
134 152 0
135 151 0
146 164 0
136 154 0
142 160 0
137 154 0
139 157 0
140 156 0
139 156 0
143 163 0
133 153 0
134 153 0
138 155 0
142 160 0
144 163 0
145 164 0
143 162 0
150 169 0
150 169 0
147 166 0
145 164 0
140 158 0
150 168 0
151 170 0
144 164 0
148 167 0
142 159 0
157 176 0
150 169 0
149 167 0
151 171 0
147 165 0
149 167 0
151 171 0
148 169 0
146 165 0
154 172 0
144 162 0
149 170 0
146 163 0
153 173 0
153 173 0
142 158 0
155 173 0
157 177 0
155 173 0
151 170 0
154 174 0
149 167 0
154 172 0
151 170 0
155 174 0
155 173 0
159 177 0
150 169 0
155 174 0
153 173 0
158 178 0
153 170 0
161 181 0
155 175 0
153 172 0
157 177 0
149 167 0
158 179 0
156 175 0
157 177 0
153 172 0
156 175 0
157 178 0
161 180 0
151 170 0
158 178 0
156 175 0
152 170 0
151 168 0
162 182 0
163 182 0
156 176 0
161 182 0
160 179 0
159 180 0
159 179 0
165 185 0
152 171 0
160 179 0
160 178 0
162 183 0
162 181 0
154 174 0
160 182 0
157 175 0
157 176 0
162 182 0
164 184 0
163 184 0
163 183 0
163 184 0
156 176 0
164 183 0
165 184 0
159 179 0
168 190 0
167 187 0
155 172 0
159 180 0
164 184 0
159 180 0
163 183 0
164 185 0
162 182 0
162 181 0
164 183 0
161 181 0
164 185 0
164 187 0
163 183 0
163 183 0
163 186 0
164 184 0
164 183 0
165 185 0
158 178 0
163 184 0
169 189 0
168 189 0
165 187 0
163 183 0
170 194 72
169 193 62
169 193 51
172 196 72
171 195 80
167 191 72
168 193 92
169 193 57
172 196 92
166 190 67
170 194 76
169 192 80
167 190 72
173 197 102
170 194 80
172 196 88
175 198 99
175 197 80
171 195 105
170 194 102
168 192 76
172 195 95
174 198 105
171 193 108
174 197 114
174 197 111
168 192 99
165 187 92
162 186 67
170 193 117
172 195 108
169 191 88
170 194 105
174 197 117
167 190 111
173 197 120
166 191 92
168 191 114
170 192 76
170 193 111
172 194 108
168 192 92
161 184 84
171 194 99
160 184 62
162 186 92
166 188 120
162 184 92
155 178 92
163 186 108
160 183 88
162 184 67
164 186 80
165 188 95
156 179 62
162 186 118
166 190 105
159 182 102
161 184 105
166 188 92
161 184 84
164 187 99
168 190 92
160 182 95
159 181 92
159 182 92
160 181 67
162 185 117
157 180 99
157 180 67
162 184 88
165 187 76
159 180 88
155 178 95
156 179 111
165 188 102
158 179 95
169 192 111
156 178 92
153 175 99
157 178 95
153 174 88
147 168 76
163 184 108
156 178 108
140 162 80
148 170 102
151 172 88
148 170 84
141 162 76
144 164 92
134 155 51
156 177 76
147 168 88
142 161 76
133 152 51
140 160 76
131 151 67
134 154 67
142 162 88
132 151 72
131 150 76
128 146 62
135 153 83
114 135 108
84 109 92
82 107 103
94 118 108
83 108 97
101 124 120
96 121 115
79 104 100
86 111 109
84 109 121
93 118 106
92 117 106
97 121 126
111 134 129
96 121 118
102 125 119
96 120 110
103 127 120
99 123 127
97 122 117
91 116 114
83 109 111
93 115 121
98 117 121
80 105 107
86 112 120
81 107 118
78 106 125
74 103 128
66 97 120
65 97 115
72 102 118
64 94 114
74 103 111
62 92 108
68 97 108
61 93 105
66 96 115
71 100 99
78 104 103
79 106 94
82 108 90
82 109 100
70 98 92
70 98 98
68 96 90
56 87 82
56 87 93
53 84 94
57 89 105
53 84 82
53 85 79
55 87 80
55 87 100
52 83 84
55 87 102
55 87 104
56 88 100
56 89 102
55 88 94
55 88 101
54 87 80
57 90 100
56 89 92
55 87 107
57 90 103
56 89 113
55 86 102
56 89 108
55 88 84
55 87 97
56 89 103
55 88 114
55 88 102
57 90 108
54 86 92
57 90 108
54 86 88
57 90 102
55 88 105
54 86 88
56 89 100
56 89 118
54 86 90
52 84 90
55 88 92
55 88 95
54 86 97
56 89 97
57 90 102
53 85 95
53 86 84
55 87 97
52 83 88
54 85 94
54 86 95
55 88 97
54 86 86
54 86 92
53 84 86
53 84 78
55 85 78
61 89 82
53 81 72
82 102 51
87 106 54
85 100 25
91 106 25
99 114 0
91 106 0
108 125 0
104 117 0
98 114 0
107 122 0
91 107 0
93 110 0
102 117 0
116 132 0
96 111 0
110 126 0
110 127 0
110 126 0
107 123 0
110 126 0
103 119 0
122 139 0
107 123 0
113 131 0
119 136 0
119 138 0
124 141 0
116 132 0
124 142 0
104 122 0
117 133 0
131 148 0
119 135 0
121 140 0
129 147 0
124 142 0
127 148 0
126 145 0
116 133 0
111 128 0
121 137 0
113 131 0
130 148 0
126 144 0
112 131 0
114 130 0
130 149 0
126 143 0
123 139 0
143 162 0
135 152 0
128 146 0
129 149 0
131 149 0
125 143 0
143 162 0
131 150 0
138 156 0
139 158 0
135 152 0
135 155 0
135 153 0
146 166 0
134 153 0
142 160 0
143 163 0
139 158 0
144 163 0
141 160 0
138 156 0
130 148 0
129 146 0
137 154 0
138 159 0
141 162 0
143 163 0
146 164 0
147 167 0
141 158 0
154 171 0
146 166 0
156 175 0
146 164 0
150 169 0
151 169 0
149 169 0
148 167 0
152 171 0
147 167 0
149 169 0
147 165 0
153 171 0
152 172 0
143 163 0
152 170 0
145 164 0
144 163 0
150 169 0
140 159 0
151 170 0
141 160 0
154 173 0
148 169 0
153 170 0
151 171 0
155 174 0
152 170 0
152 171 0
153 174 0
148 167 0
152 170 0
155 173 0
152 172 0
150 170 0
153 174 0
153 172 0
152 172 0
150 170 0
158 177 0
163 183 0
157 175 0
149 166 0
159 180 0
152 171 0
156 175 0
158 178 0
153 173 0
162 182 0
160 180 0
156 175 0
157 176 0
157 175 0
159 179 0
160 180 0
147 165 0
161 180 0
156 175 0
158 175 0
159 178 0
158 176 0
158 177 0
161 180 0
155 174 0
162 181 0
163 184 0
162 181 0
161 181 0
159 179 0
156 177 0
165 187 0
160 181 0
160 179 0
159 179 0
155 175 0
164 182 0
156 176 0
161 181 0
165 185 0
158 177 0
163 182 0
162 182 0
161 184 0
164 184 0
160 180 0
159 178 0
165 185 0
164 184 0
160 180 0
166 186 0
159 179 0
165 185 0
163 185 0
166 187 0
164 184 0
158 174 0
155 174 0
163 183 0
162 181 0
161 182 0
162 182 0
164 184 0
165 187 0
164 183 0
164 183 0
166 188 0
167 186 0
167 187 0
165 187 0
163 185 0
167 187 0
166 188 0
160 179 0
170 194 76
172 196 67
172 196 99
169 192 51
171 195 72
168 192 76
171 194 67
175 199 95
173 197 84
169 193 80
172 197 88
171 195 92
171 196 92
171 195 84
170 194 76
169 192 108
172 197 102
169 192 95
172 195 114
173 197 105
169 192 88
164 188 80
170 194 111
173 196 120
165 188 80
171 194 88
170 192 84
173 197 117
172 195 99
173 196 111
167 190 80
164 187 88
166 188 80
168 192 105
169 192 120
169 192 108
160 184 80
166 190 108
168 191 92
170 194 102
168 191 80
170 194 105
168 192 95
169 193 88
169 193 105
167 190 95
167 190 88
165 187 92
168 190 99
167 191 88
161 184 84
172 194 111
163 187 80
163 187 67
169 191 117
162 185 114
173 195 108
159 181 92
174 197 128
160 184 84
164 186 100
160 183 88
166 188 108
159 181 76
162 186 84
162 184 108
157 181 92
164 186 92
163 186 92
166 188 92
163 185 117
162 185 108
159 181 92
159 181 105
161 182 111
157 179 99
156 177 88
155 177 92
153 173 108
155 178 99
158 179 102
155 178 102
151 172 92
154 176 84
151 172 88
161 182 99
157 178 108
151 171 95
156 177 95
150 170 108
150 171 67
151 171 80
151 172 92
153 174 84
136 155 80
129 148 62
137 157 51
141 160 88
134 154 72
131 152 67
143 163 84
136 156 67
123 141 76
112 130 44
130 148 82
129 148 118
102 124 113
94 118 102
94 118 102
86 111 115
91 115 118
86 110 113
92 116 121
103 127 121
99 122 121
104 127 129
95 120 129
105 128 126
101 125 124
93 120 110
96 120 108
90 117 120
105 129 126
92 116 113
86 111 117
95 117 115
90 112 113
100 122 113
104 124 94
80 105 113
91 114 113
91 116 99
80 106 113
71 102 114
71 100 110
69 98 111
72 99 103
75 104 120
65 94 100
64 96 117
65 94 96
72 100 102
68 95 114
84 108 84
82 108 95
72 98 90
80 105 78
74 100 88
76 102 80
68 97 84
55 86 86
52 84 90
53 84 94
51 82 82
54 85 80
55 87 95
53 85 93
55 86 100
54 86 102
55 88 95
56 89 97
55 87 90
53 85 103
56 89 103
56 88 107
56 89 97
53 85 89
52 83 86
55 86 99
56 88 97
55 88 99
55 88 103
53 85 100
57 91 103
55 87 95
53 84 90
54 86 93
56 88 90
56 88 111
54 86 95
55 87 102
54 85 92
54 86 99
54 86 93
53 85 92
56 88 107
54 86 86
55 87 99
55 88 92
55 88 105
53 85 92
53 84 95
54 86 90
54 86 97
53 85 82
52 83 90
56 88 97
52 83 94
55 86 99
52 83 78
51 81 84
55 87 94
52 82 82
60 88 78
71 94 70
76 97 60
84 104 47
86 102 25
84 99 0
95 111 18
86 100 0
106 121 0
90 103 0
94 108 0
100 115 0
98 114 0
102 118 0
92 109 0
105 121 0
114 132 0
99 117 0
103 120 0
106 122 0
102 118 0
115 131 0
108 125 0
104 118 0
113 130 0
118 134 0
109 126 0
121 139 0
121 140 0
113 129 0
115 132 0
121 139 0
123 137 0
122 137 0
119 137 0
118 134 0
131 148 0
121 137 0
124 142 0
122 140 0
126 144 0
130 149 0
124 142 0
111 130 0
114 131 0
128 145 0
125 143 0
132 150 0
136 155 0
124 141 0
132 150 0
119 137 0
127 146 0
127 146 0
125 145 0
134 154 0
130 150 0
134 153 0
123 141 0
138 157 0
135 152 0
141 159 0
131 149 0
139 159 0
139 159 0
137 155 0
144 163 0
143 162 0
137 155 0
138 157 0
143 162 0
141 159 0
141 160 0
137 154 0
146 166 0
139 158 0
127 145 0
144 163 0
137 157 0
136 154 0
147 166 0
145 166 0
148 166 0
147 167 0
149 167 0
140 159 0
147 168 0
137 153 0
149 168 0
141 159 0
153 172 0
142 161 0
145 164 0
150 170 0
152 172 0
144 164 0
150 169 0
148 166 0
146 166 0
143 160 0
152 172 0
149 169 0
148 167 0
150 169 0
151 171 0
145 163 0
148 167 0
157 176 0
159 178 0
154 173 0
151 172 0
153 173 0
150 169 0
157 175 0
154 171 0
154 171 0
151 170 0
152 171 0
151 168 0
149 167 0
150 167 0
147 165 0
150 168 0
154 174 0
162 183 0
152 171 0
157 177 0
150 170 0
158 177 0
159 179 0
158 178 0
151 169 0
159 179 0
160 178 0
157 176 0
161 181 0
156 177 0
161 181 0
157 178 0
158 177 0
159 178 0
155 175 0
155 174 0
156 176 0
160 179 0
160 179 0
161 182 0
164 184 0
158 179 0
158 179 0
160 179 0
156 176 0
162 182 0
161 182 0
164 185 0
164 184 0
164 185 0
162 181 0
165 184 0
161 181 0
158 177 0
163 184 0
160 181 0
165 183 0
166 187 0
155 174 0
159 179 0
165 184 0
163 184 0
165 186 0
165 187 0
164 185 0
168 186 0
161 183 0
167 187 0
162 182 0
159 178 0
168 188 0
160 180 0
166 187 0
170 191 0
164 183 0
163 185 0
165 187 0
169 190 0
161 182 0
164 186 0
169 190 0
165 187 0
166 188 0
168 188 0
163 183 0
166 186 0
166 187 0
168 189 0
163 185 0
165 186 0
174 197 72
173 197 99
172 196 80
172 196 88
170 194 67
173 197 80
173 196 80
170 195 51
170 194 92
167 190 67
171 194 84
169 193 67
168 192 76
166 189 95
172 196 92
171 194 102
174 198 88
170 193 84
173 196 105
175 198 99
170 193 105
170 194 102
177 200 122
171 193 102
169 193 99
174 198 105
174 197 84
166 188 88
166 190 84
175 198 128
173 196 108
170 194 117
170 194 108
173 196 105
169 192 84
166 189 99
168 192 84
170 193 102
170 193 111
167 190 108
162 185 67
168 191 80
172 196 108
170 194 84
163 185 92
165 189 76
171 194 99
174 196 95
168 190 103
169 192 117
163 187 88
164 186 95
168 190 111
160 183 62
165 188 99
167 189 99
167 190 111
163 186 95
156 179 84
166 189 122
171 194 114
168 190 108
163 187 88
165 187 102
167 189 99
163 185 102
166 188 108
160 182 105
157 179 92
162 183 76
163 186 95
163 184 111
154 175 84
160 183 108
158 180 88
168 190 99
154 175 92
154 176 99
157 179 95
152 173 84
160 181 105
158 180 88
163 184 108
152 174 102
156 178 76
154 175 99
156 177 122
157 178 95
152 173 92
144 165 62
149 170 84
140 161 62
137 158 76
147 166 95
151 171 84
144 163 92
146 166 88
145 165 92
134 153 72
133 151 76
151 170 88
124 142 105
133 152 76
129 148 57
117 136 62
118 137 51
99 118 84
102 123 102
94 118 102
93 116 103
84 108 103
91 115 102
99 122 115
92 117 125
98 122 119
104 127 117
104 127 130
95 121 123
90 115 107
110 134 121
94 119 115
98 122 108
108 132 114
97 122 99
98 122 103
106 127 110
94 115 105
107 127 101
101 123 97
101 119 92
90 114 99
96 119 111
76 106 120
80 108 106
77 104 114
76 102 110
74 103 116
76 104 110
72 101 115
72 100 95
65 93 95
70 97 102
64 91 92
78 104 92
71 97 78
78 103 80
72 97 74
77 100 65
72 97 67
70 96 80
66 94 70
57 87 80
52 83 78
53 84 82
53 84 94
53 84 90
52 83 82
51 81 80
56 88 100
55 88 102
52 84 74
52 83 80
54 86 94
55 87 94
55 87 99
56 89 99
53 84 92
53 84 95
54 86 103
54 87 95
54 86 88
55 87 92
53 85 90
54 85 90
55 88 95
54 86 92
54 87 88
54 86 90
54 85 94
54 86 99
54 86 94
54 86 102
53 84 84
53 85 88
54 86 78
53 84 80
53 85 84
55 87 90
56 89 100
53 84 88
53 85 94
54 86 94
54 86 95
53 84 95
52 84 84
52 83 80
53 84 88
51 82 92
53 84 82
54 85 90
56 84 74
73 96 82
66 87 51
76 94 40
74 91 40
73 90 18
90 105 0
88 103 0
108 123 0
112 128 0
88 104 0
104 120 0
97 112 0
107 123 0
112 126 0
103 119 0
111 126 0
105 122 0
106 122 0
103 119 0
112 129 0
96 111 0
113 130 0
105 122 0
112 128 0
109 128 0
105 122 0
114 132 0
124 142 0
116 134 0
116 134 0
125 142 0
112 129 0
117 133 0
111 128 0
118 136 0
130 148 0
107 124 0
124 140 0
112 130 0
134 153 0
123 143 0
129 146 0
126 144 0
128 146 0
127 145 0
132 151 0
126 145 0
130 144 0
120 138 0
130 148 0
121 139 0
132 150 0
129 147 0
129 148 0
135 151 0
134 154 0
129 149 0
133 151 0
134 152 0
124 142 0
129 148 0
135 154 0
138 156 0
137 156 0
133 151 0
138 157 0
144 165 0
135 153 0
142 161 0
147 165 0
143 163 0
141 161 0
141 161 0
146 167 0
139 158 0
139 158 0
136 155 0
139 157 0
145 164 0
137 157 0
139 157 0
142 163 0
149 168 0
148 168 0
153 174 0
153 173 0
141 162 0
145 164 0
140 158 0
151 171 0
148 170 0
148 166 0
144 164 0
153 173 0
149 169 0
150 166 0
147 165 0
151 171 0
148 169 0
147 165 0
154 174 0
148 168 0
146 164 0
150 170 0
151 171 0
153 173 0
153 173 0
153 172 0
151 172 0
145 164 0
156 176 0
147 167 0
152 172 0
150 168 0
155 175 0
153 172 0
149 168 0
149 168 0
156 176 0
157 175 0
152 171 0
161 182 0
148 165 0
160 178 0
152 171 0
161 179 0
156 175 0
155 172 0
160 180 0
158 176 0
154 171 0
159 179 0
154 173 0
156 176 0
158 176 0
151 171 0
161 181 0
156 178 0
158 178 0
152 170 0
154 173 0
153 172 0
163 184 0
154 173 0
154 174 0
159 180 0
155 175 0
161 182 0
166 184 0
161 181 0
162 182 0
159 179 0
160 180 0
158 179 0
159 180 0
163 184 0
161 180 0
160 180 0
160 178 0
165 185 0
161 182 0
159 179 0
156 173 0
163 183 0
158 178 0
160 179 0
164 183 0
163 181 0
160 179 0
161 180 0
168 188 0
166 188 0
164 185 0
160 180 0
162 182 0
164 185 0
159 180 0
164 185 0
165 186 0
159 178 0
156 174 0
166 187 0
161 182 0
163 184 0
163 184 0
165 186 0
168 190 0
165 185 0
162 183 0
161 183 0
167 187 0
165 186 0
166 188 0
163 183 0
168 189 0
161 182 0
168 189 0
167 190 0
171 193 0
172 196 88
170 195 80
169 193 80
173 197 88
175 198 95
172 195 84
172 196 92
173 198 88
172 195 80
175 198 92
170 193 99
172 196 92
172 196 76
168 191 80
173 197 102
168 192 76
171 194 92
171 195 84
172 197 72
168 192 99
169 193 102
173 197 108
169 192 92
171 194 99
172 196 84
172 195 84
169 192 95
170 193 99
172 195 95
173 196 105
173 196 88
170 193 84
170 193 102
170 194 99
167 190 92
170 193 108
172 195 108
169 193 99
165 188 95
164 188 92
165 189 67
163 187 95
171 193 120
172 195 102
165 188 105
168 191 95
165 189 80
168 192 125
167 190 80
167 189 80
165 189 99
161 184 84
165 188 117
162 185 90
166 189 97
164 188 102
157 180 88
165 188 105
161 184 76
159 181 99
158 182 114
167 189 97
160 183 95
160 183 72
160 184 99
166 189 105
161 185 102
158 181 111
164 186 105
160 183 105
165 187 102
164 186 114
158 180 84
160 182 95
157 180 80
160 182 92
155 177 80
154 176 105
156 178 108
162 185 84
152 173 92
156 177 99
155 177 92
156 177 88
157 178 95
145 167 88
149 169 88
142 163 105
154 174 92
152 173 72
147 168 84
138 159 57
151 172 92
150 169 95
135 154 84
149 169 88
141 161 72
137 156 76
129 148 72
139 158 80
136 155 80
133 152 72
129 147 88
118 137 62
129 145 84
126 144 62
108 124 78
107 127 88
100 122 110
96 119 97
101 124 113
94 117 105
94 117 90
96 120 115
89 114 104
104 127 118
100 125 114
99 122 118
97 122 109
105 129 118
99 124 110
92 117 110
92 117 111
101 125 97
104 125 90
107 128 97
99 121 99
105 125 94
109 128 104
103 124 101
101 121 102
104 123 88
76 102 105
70 100 117
72 102 108
74 101 107
70 101 110
88 113 87
71 101 117
69 97 107
62 90 90
71 100 100
74 100 80
80 105 76
79 104 80
73 98 84
95 117 70
89 112 67
99 118 36
89 110 57
72 93 57
66 90 57
55 85 88
55 85 90
52 83 76
53 84 78
51 81 65
54 86 86
55 88 84
54 86 95
53 84 99
52 84 76
54 86 88
54 86 91
53 85 82
52 83 86
53 84 84
55 87 97
54 86 86
54 85 92
55 87 97
53 85 86
53 85 97
55 87 102
54 87 95
53 84 88
56 89 100
53 84 92
55 87 97
55 86 102
56 89 97
55 87 94
54 85 94
54 86 97
53 84 84
53 84 80
52 84 86
52 83 90
55 86 97
51 81 86
50 80 80
53 84 92
52 83 80
52 83 90
54 86 90
50 79 67
57 85 74
56 82 70
63 88 54
61 83 60
83 101 54
90 106 36
87 103 31
88 104 18
87 102 0
78 92 0
90 105 0
103 118 0
87 102 0
97 113 0
91 106 0
106 122 0
98 113 0
110 125 0
103 119 0
109 125 0
96 112 0
95 111 0
111 127 0
113 129 0
114 130 0
114 130 0
104 119 0
105 121 0
120 137 0
106 122 0
114 129 0
97 113 0
115 132 0
124 142 0
113 129 0
105 123 0
114 131 0
111 128 0
126 143 0
116 133 0
113 131 0
125 143 0
125 143 0
129 147 0
130 148 0
131 149 0
130 149 0
117 133 0
122 139 0
123 141 0
131 148 0
126 142 0
124 144 0
131 152 0
134 154 0
133 152 0
130 149 0
134 153 0
133 152 0
134 153 0
139 158 0
133 152 0
135 153 0
129 148 0
140 159 0
130 147 0
138 157 0
138 158 0
127 145 0
138 157 0
139 159 0
141 162 0
131 149 0
136 154 0
140 160 0
135 154 0
142 159 0
129 147 0
136 157 0
153 171 0
134 154 0
145 165 0
142 162 0
152 171 0
137 156 0
137 157 0
140 157 0
140 159 0
140 159 0
144 163 0
144 164 0
142 160 0
144 164 0
147 167 0
143 162 0
151 173 0
149 168 0
150 171 0
151 169 0
150 169 0
143 163 0
153 172 0
146 167 0
147 166 0
149 170 0
145 164 0
153 172 0
149 170 0
159 180 0
157 177 0
154 174 0
152 173 0
149 168 0
156 177 0
155 174 0
153 171 0
155 176 0
152 172 0
154 173 0
153 172 0
157 177 0
151 170 0
163 184 0
161 181 0
147 165 0
155 173 0
153 172 0
154 173 0
154 173 0
151 169 0
154 172 0
151 171 0
158 177 0
155 176 0
162 183 0
158 179 0
163 182 0
164 186 0
155 173 0
158 176 0
155 175 0
156 175 0
154 173 0
163 183 0
163 182 0
166 186 0
155 174 0
159 179 0
162 182 0
156 174 0
154 175 0
156 175 0
160 182 0
159 179 0
155 174 0
159 178 0
160 178 0
160 181 0
160 181 0
151 172 0
157 178 0
164 184 0
157 177 0
159 180 0
161 181 0
157 176 0
163 184 0
162 181 0
161 180 0
158 178 0
160 180 0
165 185 0
160 181 0
157 177 0
162 183 0
164 185 0
161 181 0
161 180 0
166 189 0
162 182 0
166 188 0
165 187 0
165 186 0
166 187 0
161 181 0
163 184 0
163 185 0
163 181 0
160 181 0
164 187 0
162 183 0
166 187 0
159 179 0
170 192 0
166 187 0
167 188 0
169 192 0
167 188 0
166 187 0
161 181 0
161 181 0
167 189 0
163 185 0
167 188 0
171 195 76
172 197 84
169 194 92
173 197 92
167 191 80
170 193 62
175 198 84
171 195 95
172 196 88
171 195 84
169 193 88
172 195 102
173 197 95
173 195 99
173 197 105
170 194 95
174 197 114
174 197 99
171 194 95
170 194 117
167 190 62
170 194 76
173 196 92
172 197 114
167 191 92
171 195 102
165 189 76
168 192 99
169 193 108
174 197 108
163 188 114
165 188 92
172 194 80
170 194 105
171 195 102
167 191 88
166 190 99
170 195 92
165 189 99
169 192 102
170 193 102
172 196 84
165 188 99
164 187 80
171 195 108
164 187 84
175 198 122
165 188 84
161 185 102
163 186 102
167 190 107
159 183 94
169 193 102
172 194 105
160 183 95
163 187 80
162 186 88
164 187 92
159 183 95
165 188 92
158 181 84
162 185 92
167 189 99
158 181 80
162 185 99
163 185 105
162 184 117
155 178 72
165 188 92
162 185 102
163 186 95
158 180 111
153 175 84
153 175 108
153 175 88
155 176 95
154 176 95
158 179 105
160 182 114
154 176 102
162 183 117
150 172 76
160 181 99
153 174 80
149 171 95
151 171 88
155 176 105
155 175 108
149 171 88
153 173 84
148 169 92
147 166 92
144 164 84
153 173 84
151 171 88
139 159 80
145 165 80
151 171 102
136 155 72
138 158 72
135 154 88
142 161 88
140 159 92
123 141 44
131 149 92
126 143 72
144 162 92
119 134 84
98 117 76
95 116 100
89 112 102
97 120 113
100 123 117
83 108 94
100 122 115
80 106 104
97 122 105
84 111 99
91 116 107
116 138 132
100 124 113
99 123 108
99 124 88
97 121 103
106 126 115
111 130 92
113 133 88
115 134 100
108 126 94
115 135 88
111 128 97
96 117 99
87 111 97
77 102 100
79 108 115
72 99 102
74 101 103
70 98 111
73 101 103
70 97 101
73 100 90
67 94 92
71 100 86
85 110 74
80 103 72
88 111 70
92 114 60
96 116 47
90 110 57
111 130 51
97 113 18
91 108 25
84 102 36
89 110 40
70 92 57
59 84 57
61 90 78
55 87 74
51 82 70
51 82 80
49 78 77
50 80 78
53 85 90
53 84 82
51 82 76
52 82 84
54 86 92
53 85 94
53 85 80
54 85 100
55 87 84
53 84 90
54 86 94
53 84 90
52 83 86
53 84 90
53 84 88
52 84 76
54 86 97
54 85 80
51 81 78
54 86 97
54 85 90
52 82 90
53 84 84
52 83 88
55 88 99
53 84 90
52 83 81
54 86 94
54 84 80
53 83 82
49 79 84
45 72 57
64 89 74
76 97 60
72 93 60
96 112 25
98 115 31
93 106 0
89 105 0
82 98 0
97 113 0
89 105 0
92 106 0
93 107 0
93 108 0
104 118 0
102 117 0
102 117 0
104 119 0
102 119 0
94 110 0
107 123 0
110 127 0
97 113 0
107 122 0
106 122 0
115 131 0
105 121 0
107 124 0
115 132 0
121 139 0
115 132 0
103 120 0
100 115 0
103 120 0
109 126 0
123 139 0
109 126 0
115 132 0
114 131 0
116 133 0
112 130 0
124 142 0
122 140 0
123 140 0
124 142 0
122 141 0
125 142 0
127 145 0
122 138 0
122 141 0
114 133 0
132 149 0
127 146 0
131 149 0
132 152 0
127 145 0
125 144 0
134 150 0
136 155 0
141 159 0
132 149 0
132 151 0
136 155 0
138 156 0
130 150 0
137 158 0
129 147 0
138 156 0
134 153 0
144 164 0
135 156 0
134 152 0
143 163 0
131 150 0
131 149 0
144 163 0
140 157 0
142 161 0
140 159 0
148 168 0
140 159 0
139 159 0
148 167 0
144 164 0
142 162 0
137 156 0
145 164 0
133 154 0
142 160 0
144 164 0
136 156 0
152 172 0
151 172 0
142 160 0
149 169 0
144 163 0
144 164 0
147 167 0
148 168 0
146 167 0
146 165 0
157 176 0
153 171 0
149 168 0
151 171 0
147 165 0
155 173 0
152 171 0
150 170 0
153 173 0
149 168 0
149 167 0
152 171 0
148 165 0
154 174 0
150 169 0
156 174 0
150 171 0
147 167 0
149 168 0
151 171 0
153 173 0
152 173 0
159 180 0
149 166 0
146 164 0
146 166 0
158 178 0
159 180 0
151 171 0
155 175 0
159 178 0
152 172 0
155 176 0
159 178 0
155 175 0
163 184 0
162 180 0
156 175 0
155 173 0
158 177 0
160 179 0
152 172 0
160 181 0
157 177 0
157 178 0
153 173 0
155 174 0
161 184 0
159 179 0
159 179 0
156 175 0
158 177 0
158 178 0
158 177 0
161 181 0
154 175 0
162 183 0
160 179 0
160 180 0
159 178 0
157 177 0
161 179 0
154 173 0
157 177 0
159 180 0
158 178 0
166 187 0
164 182 0
162 183 0
161 181 0
164 184 0
164 186 0
164 185 0
163 183 0
165 186 0
165 184 0
162 182 0
163 185 0
162 182 0
165 187 0
165 186 0
166 187 0
157 177 0
158 180 0
165 187 0
166 187 0
164 184 0
163 183 0
166 187 0
164 185 0
168 189 0
165 187 0
163 184 0
167 188 0
164 186 0
167 191 0
165 183 0
162 182 0
163 185 0
164 185 0
168 188 0
169 189 0
167 188 0
161 180 0
171 193 0
169 189 0
171 195 80
174 198 76
172 196 67
170 194 88
169 193 95
168 192 67
169 194 92
172 196 88
172 197 111
174 197 102
172 194 92
170 194 84
174 197 108
171 194 92
169 192 108
170 194 84
166 189 76
174 198 108
166 190 80
170 192 95
173 197 102
171 195 99
171 195 84
169 193 99
162 184 80
173 197 114
171 194 99
168 192 111
166 190 88
170 194 99
171 195 88
171 194 122
162 185 84
171 193 117
171 194 84
170 192 108
169 193 102
169 192 92
166 190 102
167 190 102
169 192 108
169 192 102
170 193 102
166 189 72
168 192 108
169 193 105
172 195 88
162 185 80
164 187 102
166 189 108
165 188 82
168 191 105
161 185 86
158 181 80
167 191 107
164 186 82
168 190 121
159 182 95
161 184 102
163 185 103
169 192 107
170 192 108
164 187 76
158 180 102
161 184 108
156 179 95
157 180 84
166 188 99
159 182 80
149 171 80
158 181 62
152 174 92
164 186 108
162 184 108
159 181 88
162 184 117
150 173 84
165 188 102
163 185 108
159 180 105
153 175 84
151 172 99
153 175 99
165 186 117
151 173 72
152 173 92
145 165 88
155 175 92
152 173 80
150 171 92
149 169 111
152 172 102
146 167 99
155 176 92
149 168 111
146 166 117
131 151 72
141 160 92
135 154 84
136 156 76
129 146 84
129 148 72
134 152 92
134 152 72
132 151 67
134 152 80
137 155 84
134 152 76
126 143 76
98 116 74
91 112 92
99 119 97
94 117 102
96 120 110
83 109 102
89 114 90
95 118 113
94 118 110
99 123 107
95 119 113
103 127 94
102 126 99
105 129 90
103 127 126
110 131 101
107 126 92
112 130 78
117 134 95
110 128 72
112 131 88
121 136 80
108 127 88
94 118 103
88 113 102
82 103 97
73 102 110
69 98 105
71 98 95
65 95 107
79 107 100
71 99 95
75 101 90
72 99 93
85 110 86
86 111 80
70 95 74
96 117 67
92 112 47
101 121 54
95 115 36
106 125 36
82 99 25
101 117 0
96 112 0
88 103 0
92 107 18
93 109 31
80 97 31
75 94 40
70 92 57
70 94 65
57 83 61
57 85 72
52 81 68
53 82 78
51 82 81
52 83 94
50 80 80
53 85 88
52 82 75
52 83 84
52 82 80
53 84 78
53 84 74
52 83 86
51 81 70
51 82 65
52 83 86
53 85 82
51 82 67
54 85 88
56 86 90
52 83 80
51 82 84
52 83 76
53 82 70
47 76 72
66 90 62
54 79 70
68 90 72
64 87 57
70 90 44
80 98 40
70 87 31
87 104 0
94 107 0
85 98 0
89 104 0
70 84 0
90 106 0
83 98 0
95 110 0
105 119 0
101 117 0
101 116 0
109 124 0
99 115 0
101 117 0
97 113 0
108 125 0
95 109 0
96 113 0
110 127 0
114 129 0
110 126 0
113 130 0
89 105 0
107 125 0
104 121 0
112 129 0
117 134 0
103 119 0
117 133 0
117 136 0
108 125 0
92 108 0
116 131 0
113 131 0
116 130 0
121 139 0
128 146 0
128 146 0
121 137 0
118 135 0
125 142 0
111 128 0
116 133 0
125 143 0
127 145 0
131 149 0
113 132 0
129 149 0
116 134 0
131 152 0
129 147 0
125 144 0
128 147 0
125 143 0
132 150 0
130 147 0
136 153 0
130 148 0
125 143 0
136 154 0
130 150 0
137 156 0
130 150 0
131 150 0
131 149 0
132 151 0
131 148 0
136 156 0
143 162 0
141 160 0
134 152 0
143 161 0
137 155 0
136 155 0
136 156 0
146 166 0
150 170 0
146 166 0
137 157 0
137 155 0
137 157 0
138 160 0
138 156 0
139 158 0
145 165 0
138 158 0
150 169 0
151 169 0
151 172 0
142 164 0
137 157 0
143 162 0
145 164 0
149 168 0
144 164 0
148 170 0
148 169 0
131 148 0
149 168 0
151 171 0
148 167 0
153 175 0
143 163 0
141 160 0
151 171 0
145 165 0
149 170 0
147 168 0
155 176 0
149 169 0
154 173 0
151 170 0
149 168 0
156 175 0
156 176 0
155 176 0
147 165 0
150 169 0
148 167 0
150 170 0
149 167 0
145 165 0
157 176 0
151 171 0
144 162 0
147 167 0
150 168 0
156 176 0
157 177 0
155 173 0
151 170 0
155 175 0
153 174 0
156 177 0
156 175 0
154 172 0
157 178 0
160 180 0
154 172 0
154 174 0
158 178 0
155 175 0
158 177 0
159 179 0
165 186 0
158 177 0
154 174 0
162 182 0
156 177 0
157 177 0
154 175 0
158 177 0
159 180 0
155 173 0
163 181 0
160 181 0
158 179 0
160 180 0
164 186 0
153 174 0
160 180 0
160 180 0
159 180 0
157 178 0
161 183 0
163 182 0
162 181 0
160 180 0
162 184 0
161 181 0
162 181 0
162 182 0
157 178 0
164 184 0
164 185 0
162 183 0
162 184 0
162 185 0
164 186 0
161 181 0
164 185 0
163 185 0
164 184 0
160 179 0
159 179 0
155 176 0
166 187 0
167 188 0
164 185 0
166 186 0
165 186 0
163 185 0
164 184 0
166 188 0
165 187 0
166 188 0
164 184 0
166 187 0
162 183 0
166 187 0
160 181 0
168 189 0
163 184 0
167 188 0
164 186 0
167 188 0
169 192 95
171 194 92
169 194 88
173 196 84
168 192 72
173 197 92
171 193 95
172 196 99
169 192 95
173 197 102
170 193 72
171 194 95
174 197 92
171 194 84
176 198 125
170 193 92
168 191 99
167 190 84
172 196 99
173 197 102
173 196 102
170 194 95
169 193 92
173 196 95
171 195 105
172 196 95
173 195 95
169 193 105
170 193 105
167 190 99
172 197 117
172 195 84
173 196 105
167 190 111
171 195 88
170 192 114
172 195 95
158 181 84
164 188 88
162 185 88
168 191 84
167 190 88
163 186 95
165 189 95
170 193 95
164 188 102
166 189 110
163 187 88
171 194 114
164 189 103
169 192 102
165 188 84
159 182 94
168 191 99
160 184 94
168 190 107
170 192 82
171 194 105
163 187 99
165 187 88
171 194 114
159 182 103
167 190 99
159 182 97
164 187 120
167 190 100
159 181 84
166 189 95
161 183 114
154 176 80
156 178 118
167 189 105
158 180 80
151 173 84
164 186 95
160 182 88
163 185 122
157 180 88
158 180 88
157 179 95
154 176 92
163 184 92
155 177 105
160 182 99
151 170 95
155 175 102
151 172 80
150 171 99
154 174 102
149 170 105
159 179 111
142 163 67
141 161 80
155 176 114
149 169 76
145 164 92
148 167 99
143 163 99
147 167 88
140 159 88
133 151 80
130 150 67
140 159 80
126 144 67
125 143 51
129 147 84
131 148 99
114 131 62
120 138 62
126 142 84
113 130 78
99 121 78
89 112 80
103 126 117
91 113 113
97 120 107
96 121 98
95 118 103
100 125 105
104 127 100
110 133 107
108 130 123
92 117 106
92 117 107
103 125 109
107 126 84
119 138 65
117 135 82
111 127 86
122 134 62
126 144 72
107 124 76
113 133 76
103 125 88
90 114 97
85 110 94
89 113 98
71 100 97
55 86 78
70 99 99
83 108 95
69 93 80
82 106 90
81 105 84
74 100 78
90 112 65
82 106 80
92 113 62
113 132 31
86 104 25
104 122 40
92 109 25
102 118 18
104 120 0
94 110 0
91 107 0
97 114 0
93 107 0
86 99 0
90 104 0
102 117 0
87 103 0
79 97 40
72 90 44
74 95 54
72 92 57
65 87 40
71 93 60
72 94 47
66 90 60
58 83 62
61 86 57
62 87 74
62 87 67
58 85 44
64 89 74
65 89 80
63 88 74
66 90 67
61 86 62
61 85 67
67 89 54
62 85 65
77 97 54
73 92 51
60 81 47
101 119 40
69 87 40
66 81 18
75 92 25
78 92 25
85 100 18
86 101 18
90 104 0
88 102 0
73 88 0
84 97 0
89 103 0
94 109 0
95 110 0
95 110 0
92 104 0
87 102 0
94 109 0
94 109 0
96 111 0
112 127 0
113 129 0
107 121 0
116 132 0
94 110 0
104 120 0
110 127 0
104 120 0
96 112 0
114 130 0
112 129 0
104 120 0
101 119 0
113 130 0
110 126 0
122 139 0
114 130 0
108 123 0
112 128 0
112 130 0
106 123 0
117 136 0
127 145 0
121 138 0
114 129 0
118 136 0
110 128 0
123 141 0
117 135 0
140 159 0
123 140 0
120 137 0
129 146 0
128 146 0
127 147 0
126 143 0
124 142 0
122 141 0
138 156 0
124 144 0
121 139 0
139 157 0
120 138 0
123 142 0
132 149 0
117 135 0
133 150 0
137 157 0
128 147 0
137 156 0
129 149 0
139 158 0
131 150 0
146 167 0
140 159 0
148 166 0
130 147 0
134 153 0
132 151 0
129 146 0
135 154 0
141 160 0
131 148 0
138 156 0
140 160 0
139 159 0
144 162 0
141 162 0
142 159 0
146 165 0
144 162 0
148 168 0
142 161 0
144 164 0
144 163 0
136 157 0
152 172 0
149 167 0
149 168 0
149 169 0
142 162 0
145 164 0
140 158 0
143 162 0
147 167 0
146 167 0
146 166 0
151 170 0
148 166 0
139 158 0
147 164 0
157 175 0
145 165 0
148 166 0
150 169 0
143 161 0
147 167 0
163 183 0
154 173 0
145 165 0
151 171 0
147 167 0
148 165 0
155 174 0
150 169 0
150 171 0
150 171 0
149 169 0
155 174 0
153 170 0
155 176 0
153 174 0
154 173 0
152 171 0
154 175 0
156 175 0
161 180 0
154 174 0
158 179 0
162 182 0
157 178 0
157 177 0
155 174 0
156 175 0
151 170 0
161 180 0
152 171 0
158 177 0
154 173 0
159 178 0
157 177 0
156 174 0
159 180 0
157 177 0
159 180 0
155 174 0
155 176 0
161 182 0
155 175 0
154 174 0
151 170 0
161 180 0
163 184 0
161 182 0
158 177 0
162 183 0
159 179 0
162 183 0
159 179 0
161 181 0
161 183 0
156 175 0
161 183 0
165 186 0
159 179 0
163 182 0
159 179 0
161 182 0
164 184 0
160 179 0
161 180 0
163 185 0
161 181 0
163 184 0
164 185 0
160 180 0
166 187 0
159 180 0
160 181 0
165 184 0
165 186 0
164 183 0
158 179 0
166 187 0
166 187 0
169 189 0
163 185 0
164 186 0
168 189 0
160 181 0
162 183 0
163 184 0
165 187 0
162 182 0
164 183 0
163 184 0
168 189 0
165 184 0
165 187 0
158 179 0
163 184 0
167 188 0
164 185 0
162 184 0
171 194 88
168 193 72
172 196 84
172 196 92
171 196 95
176 200 102
174 197 102
171 196 84
168 191 62
176 198 99
171 195 84
172 195 88
172 195 108
171 195 76
178 200 111
168 192 102
172 196 95
170 193 80
170 193 80
173 197 111
170 193 114
173 196 99
168 192 95
164 187 80
163 187 76
169 192 99
173 197 105
170 194 99
164 188 84
172 194 102
169 193 108
168 192 111
168 191 99
162 186 76
164 188 102
168 192 84
163 185 84
173 196 114
171 194 92
169 192 105
169 192 95
167 190 80
175 198 99
164 187 88
166 189 102
160 184 97
167 189 111
165 188 80
160 182 100
164 187 51
164 187 95
161 184 92
163 187 99
160 183 97
166 189 102
166 188 107
164 187 105
160 184 100
162 184 84
158 181 84
161 184 82
159 181 84
158 181 90
165 189 76
153 176 92
162 184 95
152 174 65
159 181 102
158 181 102
156 178 84
167 189 122
158 180 80
162 185 92
157 179 102
159 181 99
160 182 122
162 184 84
158 180 105
158 180 95
159 182 76
158 179 88
160 182 92
156 177 117
158 179 95
148 169 92
158 179 111
156 176 92
146 167 111
144 165 99
140 158 92
154 174 111
153 172 111
152 172 120
142 161 92
141 160 99
155 174 102
149 169 92
152 171 84
136 155 88
141 160 80
145 164 72
134 152 95
138 156 76
128 146 62
139 158 84
130 147 84
137 155 80
131 149 76
129 145 92
115 130 72
117 133 82
105 122 78
99 118 92
98 119 103
100 122 102
93 118 97
93 116 105
101 124 113
102 125 99
91 116 103
93 117 103
95 120 88
101 124 95
108 131 95
96 119 86
112 134 88
132 147 76
119 137 67
124 140 60
122 137 60
128 143 47
129 145 70
114 136 94
108 128 76
104 125 94
91 112 84
89 114 92
67 96 99
94 117 95
72 101 110
78 104 84
73 100 97
73 101 88
81 103 72
85 108 72
83 104 65
90 112 65
106 126 65
93 112 44
99 117 36
95 113 44
110 127 18
96 111 0
93 110 0
89 105 0
103 119 0
103 120 0
89 104 0
90 105 0
98 112 0
91 106 0
100 116 0
98 114 0
90 105 0
104 118 0
91 105 0
96 111 0
83 98 0
94 110 31
83 99 12
78 93 0
90 107 18
83 99 25
92 107 31
74 90 18
93 109 25
81 97 25
90 107 25
72 86 36
84 101 36
80 95 18
87 103 31
83 98 0
85 100 18
100 115 0
94 109 0
87 101 0
79 93 0
81 97 0
79 94 0
104 118 0
92 106 0
87 102 0
80 96 0
97 113 0
87 102 0
99 114 0
97 111 0
83 95 0
84 99 0
97 113 0
105 120 0
96 112 0
96 111 0
95 111 0
88 103 0
106 122 0
97 113 0
104 119 0
107 123 0
108 126 0
101 119 0
99 113 0
118 133 0
99 116 0
102 118 0
118 134 0
107 124 0
110 128 0
113 131 0
113 131 0
123 141 0
122 140 0
124 143 0
112 129 0
114 132 0
125 142 0
122 140 0
117 136 0
123 142 0
131 149 0
123 139 0
122 139 0
124 143 0
123 140 0
118 135 0
127 143 0
117 135 0
131 149 0
120 138 0
124 143 0
126 145 0
134 154 0
128 148 0
128 147 0
138 156 0
137 156 0
131 150 0
126 144 0
137 153 0
133 152 0
126 144 0
133 151 0
134 154 0
133 149 0
138 156 0
128 147 0
138 158 0
136 157 0
142 161 0
129 148 0
130 149 0
134 153 0
146 166 0
142 160 0
143 163 0
138 157 0
137 157 0
138 158 0
143 162 0
139 157 0
147 168 0
143 162 0
140 160 0
137 156 0
137 157 0
150 169 0
138 157 0
143 162 0
149 168 0
144 163 0
144 163 0
152 170 0
149 170 0
147 165 0
140 159 0
147 166 0
147 166 0
154 174 0
140 158 0
149 170 0
154 174 0
152 171 0
151 171 0
142 162 0
148 168 0
149 169 0
149 169 0
145 163 0
141 161 0
152 174 0
155 175 0
157 178 0
147 168 0
154 173 0
145 163 0
155 176 0
152 174 0
155 176 0
154 176 0
148 169 0
154 173 0
155 174 0
150 169 0
150 169 0
150 170 0
154 175 0
151 171 0
152 172 0
155 175 0
153 175 0
164 184 0
157 178 0
157 173 0
156 175 0
158 179 0
155 175 0
159 179 0
158 176 0
153 173 0
156 176 0
161 180 0
153 173 0
160 179 0
160 181 0
157 177 0
153 172 0
158 178 0
153 173 0
163 182 0
155 175 0
156 175 0
158 178 0
157 178 0
160 181 0
162 181 0
158 180 0
158 179 0
152 171 0
158 179 0
157 178 0
163 185 0
162 182 0
161 182 0
155 175 0
159 179 0
162 182 0
163 185 0
167 188 0
161 181 0
160 182 0
163 184 0
161 183 0
163 183 0
165 185 0
164 183 0
162 182 0
163 182 0
164 183 0
161 181 0
158 178 0
162 181 0
157 177 0
166 187 0
162 182 0
157 177 0
165 186 0
167 188 0
159 178 0
163 183 0
166 185 0
157 177 0
171 192 0
165 185 0
162 183 0
162 183 0
167 187 0
168 190 0
166 185 0
162 184 0
166 186 0
170 192 0
165 186 0
167 188 0
165 186 0
164 186 0
165 185 0
170 192 0
166 186 0
169 190 0
170 195 95
170 193 80
167 190 62
168 193 88
174 197 102
172 194 67
172 195 92
174 198 102
174 197 88
168 191 62
170 194 108
176 200 120
170 193 105
170 194 95
173 195 105
169 193 102
176 199 95
173 197 102
173 198 111
172 195 99
172 196 114
173 196 92
166 190 84
169 191 95
174 197 108
168 192 108
166 190 92
170 193 99
169 192 95
172 195 95
171 194 88
170 194 95
168 191 105
172 195 108
171 193 111
168 190 102
173 196 114
168 192 80
171 195 120
169 192 105
168 192 95
166 189 102
167 190 88
168 192 92
166 188 99
166 189 99
170 193 88
160 184 90
165 187 92
165 188 88
162 185 103
168 192 105
167 190 117
161 184 103
159 183 72
159 181 90
157 180 84
159 182 94
162 185 76
158 181 88
157 180 88
162 185 103
169 192 105
163 186 110
157 180 110
156 179 97
164 187 114
162 185 88
161 183 95
153 176 72
162 185 95
147 168 72
164 187 105
155 177 80
166 189 111
155 177 72
155 177 92
158 181 105
156 178 99
160 182 111
157 178 95
146 167 72
146 167 92
157 178 122
160 181 102
155 176 102
153 173 107
156 177 105
160 181 108
154 174 111
149 170 95
147 168 84
151 171 99
132 153 84
143 163 84
145 165 92
152 172 108
136 155 76
143 164 72
131 150 72
132 150 84
141 160 95
138 156 92
137 156 72
139 158 88
134 151 80
132 150 80
138 156 92
126 144 76
126 143 67
132 148 51
119 135 67
113 129 67
105 123 74
80 103 92
84 107 99
88 111 102
83 107 92
106 130 105
105 128 100
92 117 97
96 119 102
96 121 100
105 129 78
100 124 92
109 129 89
104 122 76
122 138 78
142 157 36
128 145 47
122 139 65
128 143 44
115 132 66
113 132 78
90 112 94
97 120 95
86 109 74
79 103 95
85 106 82
81 108 97
74 99 100
85 110 100
80 104 82
84 108 72
91 113 72
98 120 62
102 121 44
95 115 36
102 122 40
105 123 54
97 117 40
104 122 18
94 111 18
104 121 0
99 116 0
107 124 0
103 118 0
108 123 0
104 119 0
88 104 0
102 117 0
102 117 0
85 99 0
105 120 0
95 110 0
84 98 0
92 106 0
102 118 0
90 105 0
95 110 0
104 118 0
104 118 0
83 98 0
98 111 0
96 111 0
87 103 0
85 99 0
90 105 0
94 109 0
94 108 0
90 105 0
71 85 0
88 101 0
79 94 0
88 103 0
93 107 0
98 112 0
83 99 0
90 104 0
89 104 0
99 113 0
94 108 0
103 117 0
97 112 0
81 95 0
97 112 0
89 103 0
103 117 0
102 118 0
103 120 0
101 118 0
100 117 0
103 119 0
103 119 0
100 117 0
90 105 0
106 123 0
101 116 0
104 121 0
102 116 0
107 125 0
104 121 0
111 128 0
112 130 0
119 137 0
105 122 0
126 144 0
108 126 0
111 128 0
106 122 0
121 137 0
116 135 0
118 136 0
117 134 0
125 142 0
124 143 0
115 132 0
119 137 0
116 133 0
117 132 0
124 142 0
115 134 0
112 130 0
122 140 0
120 139 0
130 149 0
123 142 0
136 154 0
128 145 0
127 146 0
129 149 0
122 140 0
132 150 0
132 151 0
127 146 0
127 144 0
131 150 0
131 150 0
132 151 0
139 158 0
141 159 0
122 142 0
142 160 0
134 154 0
137 157 0
136 156 0
140 159 0
134 154 0
144 165 0
133 153 0
138 158 0
130 149 0
139 158 0
135 154 0
136 154 0
144 163 0
147 167 0
143 163 0
141 160 0
140 159 0
143 163 0
146 166 0
153 174 0
141 161 0
143 163 0
148 168 0
144 164 0
148 167 0
144 163 0
150 170 0
143 163 0
148 168 0
151 172 0
147 167 0
149 169 0
149 168 0
149 169 0
142 163 0
144 164 0
147 167 0
140 159 0
147 167 0
153 175 0
153 172 0
139 158 0
147 168 0
153 174 0
148 166 0
150 171 0
144 163 0
154 174 0
151 170 0
153 172 0
152 172 0
151 170 0
150 170 0
158 177 0
155 175 0
153 174 0
146 166 0
151 171 0
158 178 0
151 170 0
155 176 0
156 177 0
157 177 0
158 178 0
160 180 0
155 175 0
154 174 0
158 178 0
161 182 0
150 170 0
157 176 0
152 172 0
160 178 0
156 176 0
162 182 0
155 175 0
160 180 0
153 172 0
156 177 0
155 175 0
163 183 0
156 175 0
153 173 0
164 184 0
159 177 0
162 182 0
156 176 0
156 177 0
156 177 0
157 177 0
162 182 0
154 174 0
159 179 0
164 186 0
156 174 0
161 181 0
167 187 0
156 176 0
156 177 0
166 188 0
156 176 0
162 183 0
160 178 0
166 187 0
163 184 0
160 181 0
163 184 0
166 187 0
163 184 0
158 178 0
164 185 0
160 178 0
163 184 0
162 183 0
161 181 0
160 181 0
162 183 0
162 185 0
160 179 0
168 190 0
163 183 0
159 179 0
161 182 0
166 188 0
167 188 0
162 182 0
163 185 0
164 186 0
166 187 0
166 187 0
160 180 0
160 182 0
167 187 0
163 183 0
163 185 0
167 188 0
168 190 0
167 188 0
161 181 0
169 190 0
164 185 0
166 186 0
169 191 0
164 186 0
163 185 0
169 189 0
164 184 0
169 193 80
168 191 80
178 202 122
170 193 72
172 196 88
173 196 108
173 196 67
173 196 102
172 196 111
171 193 105
172 195 76
176 199 125
174 197 88
173 196 95
170 193 111
171 195 108
170 194 102
168 192 88
170 193 114
169 193 92
165 189 95
174 197 105
172 196 88
174 196 105
170 194 95
174 198 102
171 195 117
173 196 92
173 196 92
172 196 88
163 188 95
169 193 92
168 192 76
170 194 102
168 192 99
169 193 105
165 188 84
165 189 84
165 189 105
163 186 92
171 195 111
165 189 80
167 190 114
169 192 102
175 198 114
162 185 57
164 187 102
163 186 84
161 185 80
162 185 88
165 189 100
171 194 102
165 188 99
164 187 99
158 181 72
168 191 102
160 184 108
166 189 100
167 189 76
156 179 80
165 187 92
163 187 95
161 183 67
161 183 99
167 190 95
160 183 99
161 184 103
164 187 102
159 180 103
160 183 76
161 183 99
157 179 88
156 178 95
156 178 84
161 182 114
158 180 84
153 174 105
154 175 105
158 180 95
153 175 67
161 183 95
148 171 95
158 179 102
147 167 92
170 191 120
159 180 111
159 180 111
160 181 105
142 163 72
147 167 72
159 180 108
157 178 88
147 167 88
142 161 80
152 172 108
152 172 84
152 172 95
146 167 76
145 164 95
146 166 88
146 164 105
143 162 76
129 148 80
139 157 80
136 154 80
120 138 57
121 138 76
137 154 84
134 152 92
132 148 102
140 157 76
117 134 67
111 127 62
118 135 94
108 125 89
100 119 92
86 108 92
89 113 103
83 109 108
85 111 102
79 105 90
98 121 103
86 112 102
100 124 110
110 132 95
111 133 102
115 134 70
131 148 74
133 152 65
136 154 31
128 145 47
134 151 47
124 143 57
116 131 62
112 132 72
99 118 67
92 113 78
96 119 88
76 101 88
78 101 92
88 110 76
71 97 82
80 102 67
91 113 78
100 121 62
98 118 67
106 125 47
90 109 44
112 130 25
112 130 31
109 128 47
114 133 31
101 118 0
121 138 0
115 132 0
102 118 0
106 122 0
105 121 0
100 116 0
99 115 0
90 105 0
104 121 0
107 123 0
110 126 0
97 113 0
98 112 0
95 111 0
95 111 0
98 114 0
93 107 0
82 98 0
98 114 0
101 116 0
104 120 0
98 113 0
101 117 0
89 104 0
85 100 0
103 118 0
97 113 0
91 106 0
89 103 0
93 107 0
96 111 0
99 114 0
106 122 0
105 119 0
100 115 0
100 115 0
84 99 0
105 119 0
94 109 0
91 105 0
91 106 0
109 124 0
113 129 0
105 121 0
104 119 0
91 108 0
101 117 0
104 120 0
99 116 0
109 125 0
117 133 0
108 126 0
108 124 0
106 122 0
121 136 0
88 105 0
114 131 0
106 124 0
109 127 0
110 126 0
112 128 0
105 121 0
117 135 0
119 136 0
106 122 0
102 119 0
113 132 0
106 123 0
115 133 0
120 137 0
114 132 0
123 141 0
123 139 0
124 143 0
119 137 0
122 141 0
126 146 0
126 145 0
123 140 0
119 136 0
125 144 0
130 149 0
127 146 0
128 146 0
130 149 0
130 149 0
126 144 0
130 149 0
135 153 0
129 148 0
130 147 0
120 137 0
130 149 0
132 151 0
130 149 0
139 159 0
133 152 0
138 156 0
137 154 0
125 143 0
135 156 0
142 161 0
140 158 0
138 158 0
138 158 0
138 155 0
137 154 0
135 153 0
144 164 0
141 161 0
146 166 0
133 152 0
142 161 0
140 161 0
140 160 0
142 160 0
142 162 0
137 158 0
146 166 0
139 159 0
149 171 0
144 164 0
145 165 0
141 161 0
144 165 0
147 167 0
139 158 0
146 166 0
135 154 0
147 168 0
146 167 0
143 164 0
142 162 0
145 164 0
145 165 0
150 169 0
145 164 0
156 177 0
150 171 0
153 173 0
147 168 0
154 174 0
155 177 0
146 168 0
150 170 0
154 175 0
151 172 0
151 170 0
142 160 0
149 168 0
153 173 0
148 168 0
150 170 0
154 174 0
156 176 0
158 178 0
150 169 0
154 173 0
151 170 0
158 180 0
156 176 0
160 179 0
151 170 0
160 180 0
147 167 0
156 177 0
154 173 0
156 175 0
162 180 0
149 168 0
159 180 0
155 176 0
159 178 0
157 177 0
159 178 0
159 180 0
156 176 0
157 178 0
149 167 0
155 176 0
155 175 0
155 175 0
160 179 0
155 175 0
163 184 0
148 167 0
158 180 0
158 178 0
161 184 0
160 180 0
165 185 0
157 177 0
161 180 0
156 175 0
159 179 0
168 191 0
162 182 0
157 176 0
157 178 0
163 184 0
164 184 0
152 173 0
157 179 0
162 185 0
163 182 0
166 188 0
163 183 0
158 179 0
157 176 0
158 180 0
162 182 0
163 183 0
168 189 0
165 183 0
164 183 0
161 181 0
162 182 0
157 177 0
161 183 0
160 182 0
166 187 0
160 181 0
168 190 0
162 182 0
166 187 0
163 183 0
163 182 0
165 186 0
164 185 0
167 186 0
163 183 0
166 186 0
165 185 0
165 187 0
165 185 0
166 189 0
168 188 0
168 190 0
166 186 0
161 182 0
163 185 0
164 186 0
162 184 0
167 190 0
164 185 0
170 192 0
167 188 0
176 199 99
172 197 92
169 193 95
170 193 95
169 193 92
174 197 80
173 195 92
173 196 88
163 187 67
172 195 92
168 192 95
173 197 88
172 196 105
171 195 88
169 193 95
171 195 108
171 194 84
174 198 84
165 190 95
173 196 95
175 198 102
174 197 108
171 195 92
165 188 95
171 195 108
164 186 76
170 193 99
171 195 114
171 194 105
170 193 105
170 194 92
171 195 84
168 192 80
160 184 84
167 191 92
161 184 88
166 190 99
165 188 84
167 190 84
163 187 92
162 185 76
170 192 111
166 190 105
168 192 92
168 193 105
165 189 92
169 192 117
155 177 99
163 187 97
167 190 82
168 191 100
161 184 105
168 192 102
159 182 80
165 189 92
171 193 99
169 192 110
158 181 100
159 182 97
159 181 99
154 177 92
162 184 100
161 184 92
164 188 110
159 182 115
160 183 100
160 182 97
160 182 102
159 181 86
165 188 111
167 190 108
156 177 99
161 183 92
154 176 84
166 189 92
157 179 92
161 183 108
157 178 105
153 175 80
157 178 88
150 172 76
154 175 111
156 178 92
160 183 99
157 178 99
148 168 88
159 179 114
145 166 99
158 178 99
152 173 88
150 170 92
148 169 62
156 175 117
152 172 100
150 170 84
145 164 111
131 151 76
142 162 72
143 162 92
145 164 88
144 164 62
127 144 76
125 144 80
126 145 76
142 161 72
129 148 67
138 156 88
139 156 62
112 130 44
132 150 72
116 134 67
127 143 72
112 128 80
128 144 76
120 136 62
124 141 90
92 111 72
102 122 90
94 117 86
93 116 90
91 115 94
94 118 88
98 122 84
110 132 99
113 134 97
103 125 84
110 129 65
131 149 70
131 149 60
142 158 40
139 158 25
129 143 25
127 145 44
121 138 51
115 134 44
116 137 76
109 129 62
91 113 76
90 114 74
85 108 82
82 104 72
84 106 74
88 111 70
96 117 67
87 107 62
85 106 44
108 127 47
102 121 44
94 113 31
109 126 31
90 108 18
116 134 18
106 123 0
99 114 0
108 126 0
105 122 0
111 127 0
96 114 0
103 118 0
99 116 0
114 130 0
97 112 0
109 125 0
92 107 0
103 119 0
98 114 0
108 124 0
87 103 0
89 106 0
87 103 0
95 110 0
87 101 0
97 112 0
106 122 0
112 129 0
97 112 0
93 109 0
95 109 0
93 108 0
90 106 0
99 115 0
108 123 0
91 107 0
93 107 0
100 116 0
87 100 0
92 106 0
83 98 0
96 113 0
100 115 0
103 117 0
104 120 0
109 124 0
81 96 0
100 115 0
95 111 0
94 110 0
102 117 0
95 109 0
104 120 0
111 127 0
103 121 0
111 129 0
100 117 0
105 122 0
97 114 0
112 127 0
104 119 0
110 126 0
107 124 0
104 121 0
115 131 0
105 120 0
109 126 0
105 121 0
118 136 0
110 127 0
114 132 0
111 128 0
112 130 0
111 128 0
106 126 0
115 132 0
118 134 0
131 148 0
131 148 0
122 139 0
123 142 0
125 144 0
124 142 0
121 139 0
123 142 0
123 141 0
121 140 0
116 135 0
131 149 0
133 152 0
131 151 0
135 154 0
133 152 0
136 155 0
129 148 0
130 149 0
129 149 0
128 147 0
132 151 0
133 153 0
129 147 0
140 160 0
124 142 0
137 158 0
136 155 0
131 148 0
136 155 0
136 154 0
132 152 0
137 155 0
128 146 0
132 151 0
140 160 0
144 163 0
131 150 0
139 158 0
141 162 0
145 165 0
134 154 0
139 157 0
134 154 0
144 164 0
140 160 0
142 162 0
139 158 0
145 166 0
151 171 0
146 167 0
143 164 0
148 167 0
146 165 0
153 174 0
142 160 0
144 165 0
152 173 0
152 172 0
146 166 0
147 167 0
152 171 0
145 165 0
141 161 0
142 162 0
149 169 0
153 173 0
142 163 0
147 166 0
150 170 0
150 170 0
152 173 0
145 164 0
145 164 0
151 170 0
151 172 0
154 175 0
147 168 0
141 160 0
155 175 0
147 168 0
150 170 0
154 176 0
155 176 0
159 179 0
158 180 0
153 174 0
149 167 0
146 166 0
157 176 0
158 178 0
152 171 0
157 177 0
155 174 0
152 172 0
160 181 0
158 178 0
160 180 0
156 176 0
155 176 0
151 171 0
158 178 0
150 167 0
156 176 0
157 175 0
158 178 0
153 174 0
158 179 0
157 177 0
156 177 0
158 181 0
156 178 0
161 181 0
162 182 0
158 179 0
152 171 0
159 181 0
165 185 0
157 176 0
157 178 0
156 176 0
163 183 0
157 177 0
157 177 0
159 180 0
163 183 0
162 182 0
163 184 0
163 182 0
160 182 0
161 180 0
160 180 0
159 180 0
166 187 0
161 180 0
161 182 0
160 182 0
163 184 0
155 176 0
158 177 0
163 185 0
159 178 0
159 180 0
161 183 0
165 186 0
161 182 0
162 181 0
163 184 0
167 187 0
163 184 0
164 185 0
162 184 0
157 176 0
166 188 0
162 182 0
166 187 0
164 185 0
159 179 0
164 186 0
164 186 0
169 191 0
161 182 0
164 184 0
166 187 0
165 185 0
164 185 0
168 189 0
167 189 0
166 187 0
165 187 0
164 184 0
167 188 0
164 185 0
164 185 0
167 188 0
166 187 0
175 198 88
173 196 88
175 198 111
173 197 102
175 199 95
176 198 80
174 196 102
171 194 84
175 198 111
173 196 95
173 196 95
170 194 111
171 194 99
167 191 99
176 199 114
170 193 92
167 191 80
174 197 88
172 197 105
167 191 84
171 195 80
168 192 67
168 191 102
161 185 99
170 192 92
165 189 84
164 187 92
166 190 95
167 190 99
171 194 102
166 189 80
165 189 80
171 194 84
174 198 111
165 187 92
160 183 76
172 195 117
164 187 76
170 194 99
166 189 88
167 190 80
169 193 108
167 189 99
169 191 92
167 190 88
163 187 108
163 187 111
159 183 88
170 194 102
164 188 103
163 187 99
168 191 92
166 189 95
165 188 97
168 191 108
161 183 88
164 187 80
160 183 76
167 190 114
162 185 97
165 189 117
160 182 99
161 184 105
159 182 102
160 182 92
167 190 105
160 183 88
162 185 80
157 180 102
160 183 84
158 180 84
154 177 95
164 187 95
158 180 88
165 187 111
158 180 95
154 177 92
159 181 72
156 177 95
162 184 92
158 180 95
151 172 114
157 178 105
161 182 84
156 177 108
152 173 80
146 167 88
148 169 80
147 168 80
151 171 92
144 164 76
158 178 99
144 164 95
158 177 118
147 167 102
141 160 76
148 167 105
145 165 88
148 168 95
134 153 51
139 158 67
133 152 80
140 158 99
139 158 76
134 153 67
138 157 80
126 143 62
135 153 92
129 146 84
127 145 62
126 144 80
132 150 57
118 135 62
129 145 95
115 130 67
113 128 76
100 117 84
101 119 67
108 128 103
97 121 94
96 118 88
106 128 78
101 124 90
94 118 97
103 126 74
113 134 67
113 133 70
118 136 67
137 154 47
141 159 36
132 149 44
139 154 18
133 152 40
127 143 18
122 141 31
122 141 40
99 120 57
105 127 60
102 122 74
86 108 78
94 114 51
100 120 65
94 115 70
101 120 51
94 112 36
104 122 18
109 127 31
100 117 0
112 130 0
110 126 0
109 127 0
110 127 18
121 138 0
102 119 0
115 133 0
108 125 0
106 122 0
97 114 0
106 123 0
109 126 0
108 124 0
92 107 0
98 113 0
105 121 0
93 110 0
96 111 0
103 117 0
100 115 0
104 119 0
97 113 0
93 110 0
104 120 0
87 103 0
87 102 0
97 111 0
93 110 0
100 115 0
104 121 0
89 105 0
103 119 0
93 109 0
104 119 0
103 117 0
84 101 0
111 127 0
107 124 0
95 113 0
97 111 0
98 114 0
113 128 0
106 122 0
97 113 0
93 108 0
102 119 0
89 105 0
92 110 0
109 126 0
105 122 0
103 120 0
110 126 0
110 126 0
109 127 0
99 116 0
108 124 0
115 132 0
96 112 0
119 136 0
105 123 0
114 131 0
112 130 0
123 141 0
112 129 0
95 112 0
113 131 0
102 120 0
103 118 0
104 122 0
112 131 0
109 127 0
118 136 0
128 147 0
110 127 0
115 133 0
115 133 0
125 143 0
110 129 0
123 140 0
118 136 0
117 135 0
118 137 0
133 151 0
126 145 0
118 136 0
125 143 0
133 151 0
133 150 0
122 141 0
121 139 0
122 140 0
124 143 0
123 141 0
136 156 0
123 142 0
133 151 0
138 157 0
127 146 0
132 151 0
130 148 0
126 144 0
133 152 0
142 162 0
134 153 0
132 151 0
140 161 0
130 151 0
138 157 0
128 147 0
136 157 0
141 162 0
139 159 0
141 158 0
135 156 0
140 161 0
141 161 0
138 157 0
134 154 0
142 162 0
132 152 0
141 161 0
145 166 0
140 159 0
151 174 0
139 159 0
146 166 0
149 168 0
144 165 0
145 165 0
148 169 0
147 166 0
150 169 0
147 167 0
149 169 0
148 168 0
152 172 0
141 161 0
150 171 0
152 172 0
146 167 0
153 173 0
144 164 0
154 174 0
140 160 0
151 172 0
150 169 0
146 168 0
146 165 0
150 170 0
149 170 0
156 175 0
151 172 0
155 177 0
142 160 0
150 171 0
151 171 0
147 167 0
151 172 0
157 177 0
147 165 0
152 172 0
157 178 0
155 175 0
150 170 0
147 165 0
154 175 0
156 177 0
157 178 0
155 176 0
155 176 0
155 174 0
156 175 0
152 173 0
149 169 0
157 177 0
151 171 0
157 179 0
155 175 0
152 171 0
154 177 0
158 178 0
154 175 0
159 179 0
160 179 0
163 183 0
150 170 0
152 174 0
164 185 0
158 178 0
161 183 0
157 178 0
162 182 0
157 178 0
157 177 0
159 179 0
162 183 0
157 178 0
161 181 0
160 181 0
162 184 0
158 177 0
166 188 0
157 179 0
159 179 0
151 171 0
159 180 0
159 180 0
160 178 0
168 190 0
166 186 0
162 184 0
161 182 0
166 185 0
160 182 0
161 181 0
160 180 0
164 185 0
159 179 0
162 183 0
167 189 0
158 178 0
163 185 0
161 182 0
163 185 0
166 188 0
162 181 0
165 185 0
160 180 0
166 186 0
165 184 0
169 190 0
166 188 0
165 185 0
165 185 0
165 186 0
160 180 0
166 187 0
168 190 0
170 191 0
162 184 0
164 185 0
168 189 0
166 187 0
166 188 0
164 186 0
166 188 0
167 188 0
166 187 0
167 189 0
166 185 0
165 187 0
167 188 0
175 198 95
173 196 92
172 195 99
178 200 99
170 192 88
172 196 88
171 194 67
178 201 120
168 191 99
174 197 117
174 197 111
170 193 62
174 197 92
170 194 99
174 197 92
172 196 105
166 190 88
166 190 72
173 197 114
175 198 111
169 193 105
170 194 88
169 193 95
169 192 76
170 194 102
172 195 102
170 193 111
163 186 99
169 192 92
172 195 125
167 190 88
161 185 95
168 192 108
170 193 88
168 192 80
167 190 72
168 192 105
164 188 67
167 191 92
162 186 76
167 190 99
165 188 72
166 189 80
169 191 92
164 187 114
166 189 108
164 188 113
162 185 100
162 186 80
162 186 94
166 189 88
166 189 97
169 191 90
165 189 86
163 186 103
161 184 99
166 187 94
155 178 80
163 186 72
163 186 90
161 184 108
160 184 67
164 187 97
165 187 103
169 192 117
158 180 70
162 185 82
164 186 110
159 182 92
160 182 111
159 181 92
163 186 111
156 178 80
155 176 72
163 186 128
159 181 105
161 183 102
160 182 102
161 183 105
150 171 84
159 180 95
162 183 92
156 178 105
149 171 80
162 184 105
157 177 95
160 181 108
159 180 99
156 177 111
157 177 111
163 183 114
158 178 114
156 177 105
146 166 92
159 179 88
140 161 80
151 170 114
152 171 111
152 170 92
150 169 105
144 163 95
139 157 88
135 154 72
139 157 80
134 153 67
138 156 102
142 161 95
137 154 76
129 146 80
132 150 80
131 148 88
137 154 67
129 146 72
123 140 62
122 137 88
112 128 76
115 131 72
109 127 60
103 120 82
107 126 78
97 117 78
93 116 72
99 121 88
98 121 97
98 121 84
114 135 80
121 142 70
114 133 47
137 158 51
134 150 31
141 157 18
142 160 18
132 150 18
132 150 0
132 149 18
113 128 31
111 129 60
108 125 47
108 127 51
100 118 36
95 111 54
107 125 40
94 111 25
108 126 25
121 138 18
116 132 0
110 125 0
115 132 0
116 133 0
113 131 0
105 123 0
112 127 0
125 142 0
107 123 0
109 126 0
100 117 0
117 134 0
98 115 0
123 140 0
116 133 0
103 120 0
109 125 0
101 118 0
95 111 0
99 115 0
98 113 0
100 116 0
106 122 0
99 114 0
89 105 0
101 117 0
99 115 0
113 130 0
108 124 0
91 106 0
96 113 0
115 131 0
108 124 0
97 113 0
107 123 0
95 109 0
104 120 0
113 129 0
101 118 0
94 110 0
101 117 0
103 119 0
101 116 0
100 116 0
92 108 0
103 118 0
103 120 0
108 123 0
104 120 0
96 112 0
112 129 0
107 123 0
89 106 0
103 117 0
106 123 0
98 114 0
102 118 0
107 124 0
106 122 0
119 136 0
98 115 0
114 133 0
119 137 0
106 123 0
107 124 0
95 113 0
104 122 0
112 130 0
120 138 0
124 142 0
114 132 0
114 130 0
123 140 0
120 139 0
115 132 0
116 133 0
124 142 0
123 141 0
118 136 0
119 137 0
130 149 0
119 138 0
129 146 0
128 149 0
110 127 0
125 144 0
131 151 0
127 146 0
132 152 0
128 146 0
136 153 0
128 146 0
124 142 0
126 143 0
128 147 0
114 132 0
136 155 0
126 144 0
130 150 0
132 149 0
136 154 0
140 158 0
131 148 0
136 156 0
136 156 0
131 150 0
144 164 0
146 165 0
138 158 0
131 150 0
134 153 0
141 162 0
135 155 0
128 148 0
146 166 0
143 162 0
134 152 0
130 150 0
137 157 0
138 158 0
144 163 0
134 155 0
144 165 0
140 159 0
145 166 0
147 166 0
148 166 0
143 162 0
133 151 0
155 174 0
145 165 0
147 167 0
147 168 0
147 167 0
141 161 0
144 164 0
144 164 0
150 170 0
150 170 0
139 160 0
151 173 0
151 172 0
150 170 0
137 157 0
155 175 0
146 162 0
155 176 0
150 172 0
151 171 0
149 171 0
144 164 0
145 164 0
149 168 0
159 179 0
149 170 0
152 172 0
154 175 0
158 179 0
148 167 0
154 174 0
150 171 0
149 168 0
157 177 0
143 165 0
155 176 0
154 175 0
158 180 0
157 178 0
152 171 0
150 170 0
152 172 0
154 176 0
152 171 0
159 177 0
148 168 0
157 179 0
154 173 0
154 173 0
162 184 0
159 182 0
154 174 0
155 176 0
153 173 0
166 187 0
157 178 0
162 184 0
161 181 0
158 179 0
155 176 0
163 185 0
158 178 0
155 176 0
167 189 0
164 184 0
163 184 0
161 183 0
154 174 0
160 180 0
157 178 0
160 180 0
161 182 0
157 179 0
157 178 0
161 181 0
161 181 0
159 179 0
157 180 0
165 186 0
164 184 0
155 175 0
161 182 0
156 177 0
156 176 0
159 180 0
164 184 0
163 183 0
162 181 0
160 181 0
159 179 0
160 178 0
159 180 0
163 184 0
164 183 0
157 176 0
162 182 0
161 183 0
160 179 0
161 182 0
162 183 0
164 185 0
163 184 0
162 184 0
166 188 0
165 185 0
166 188 0
159 181 0
167 189 0
163 183 0
170 190 0
165 187 0
165 186 0
163 184 0
164 185 0
167 188 0
167 188 0
164 186 0
168 191 0
168 190 0
164 184 0
163 183 0
165 187 0
163 184 0
163 182 0
163 185 0
164 184 0
170 194 108
172 194 76
171 195 76
179 201 117
169 193 84
176 199 117
169 192 95
170 193 67
172 196 88
172 196 80
171 195 92
174 197 95
176 199 114
175 198 114
170 193 99
165 189 76
171 194 84
173 197 92
168 192 80
167 191 80
168 192 84
169 192 111
168 191 102
169 192 84
167 191 84
170 193 80
170 193 105
174 198 111
165 189 105
171 195 105
171 195 111
168 192 102
171 195 99
171 194 95
160 183 76
161 185 80
167 191 92
165 188 88
170 194 105
164 188 114
162 185 92
166 190 105
167 190 102
164 188 95
167 191 102
165 189 113
166 189 117
169 193 120
164 188 102
161 184 105
166 190 100
166 190 108
160 183 88
163 187 84
159 183 88
171 194 108
159 182 72
162 186 105
160 183 95
170 193 105
165 188 117
160 183 92
169 190 95
153 176 76
157 179 92
159 182 95
157 179 76
162 184 105
164 188 113
161 183 107
162 183 108
164 186 76
161 182 84
156 178 67
153 174 88
160 182 99
152 174 76
149 171 67
162 184 108
162 184 95
156 177 92
156 177 95
154 175 88
150 171 99
158 179 102
154 175 99
162 183 111
154 174 102
159 180 117
148 170 80
154 175 102
147 166 92
147 166 95
153 173 92
161 180 95
149 168 102
145 165 84
146 166 99
145 164 92
137 157 92
143 162 95
146 166 92
143 163 80
133 152 72
129 147 80
147 166 95
134 154 62
144 163 92
129 148 80
133 151 80
133 150 57
125 142 67
133 149 84
133 152 76
127 142 62
114 129 76
123 138 62
114 130 62
110 127 44
121 137 99
94 114 70
106 125 88
112 133 86
86 108 82
97 119 62
115 135 78
122 143 70
125 146 62
133 152 18
138 155 18
137 156 36
141 159 0
137 155 0
131 148 18
132 150 18
135 153 0
121 138 0
119 136 18
110 127 18
114 130 18
107 124 18
97 112 25
97 112 31
108 125 0
99 114 0
110 126 0
109 126 0
104 123 0
105 122 0
113 131 0
120 139 0
116 134 0
113 132 0
108 126 0
106 124 0
112 129 0
108 125 0
118 135 0
104 120 0
94 111 0
112 129 0
110 127 0
101 118 0
112 129 0
105 121 0
109 125 0
101 119 0
96 113 0
105 123 0
93 110 0
105 122 0
99 116 0
91 107 0
89 106 0
105 122 0
108 125 0
108 124 0
89 106 0
102 118 0
98 114 0
107 123 0
99 115 0
104 121 0
101 117 0
100 117 0
100 116 0
103 120 0
108 124 0
111 127 0
100 118 0
109 127 0
109 125 0
116 132 0
112 129 0
114 130 0
110 128 0
108 125 0
101 116 0
101 118 0
112 128 0
124 141 0
109 125 0
126 144 0
111 129 0
118 134 0
103 120 0
121 139 0
118 136 0
114 131 0
116 134 0
121 139 0
119 135 0
115 133 0
113 131 0
119 136 0
117 134 0
123 141 0
109 128 0
104 122 0
120 138 0
121 138 0
121 140 0
116 133 0
117 136 0
122 139 0
122 141 0
130 149 0
127 145 0
123 140 0
123 141 0
126 146 0
130 150 0
131 150 0
124 143 0
129 148 0
126 145 0
130 148 0
133 152 0
135 155 0
134 152 0
139 158 0
134 152 0
125 144 0
126 145 0
139 158 0
130 149 0
143 164 0
136 155 0
136 156 0
132 151 0
130 148 0
137 156 0
133 152 0
134 154 0
139 156 0
133 153 0
139 158 0
139 158 0
136 155 0
140 161 0
134 155 0
144 165 0
139 158 0
145 166 0
140 161 0
140 161 0
151 172 0
146 166 0
142 163 0
147 167 0
139 160 0
151 171 0
153 174 0
147 169 0
140 160 0
136 156 0
146 168 0
142 160 0
141 161 0
137 155 0
152 170 0
147 168 0
153 174 0
155 175 0
152 173 0
138 160 0
148 168 0
146 166 0
140 160 0
149 170 0
147 168 0
152 172 0
147 165 0
152 174 0
150 170 0
160 180 0
149 169 0
159 179 0
142 161 0
147 166 0
145 166 0
159 181 0
147 168 0
150 170 0
153 173 0
158 177 0
158 179 0
150 170 0
157 179 0
150 170 0
150 171 0
155 174 0
154 176 0
159 178 0
152 173 0
150 170 0
156 178 0
154 176 0
154 171 0
160 181 0
159 181 0
155 176 0
162 181 0
152 171 0
156 175 0
163 183 0
155 175 0
158 178 0
162 182 0
161 182 0
154 175 0
158 179 0
153 174 0
159 178 0
158 178 0
161 182 0
157 178 0
160 181 0
161 184 0
155 176 0
161 180 0
161 183 0
159 179 0
158 179 0
156 176 0
156 178 0
162 184 0
161 182 0
158 179 0
159 181 0
161 181 0
165 187 0
161 181 0
162 182 0
158 177 0
165 185 0
160 181 0
162 181 0
164 184 0
163 184 0
163 182 0
164 185 0
159 182 0
159 179 0
161 183 0
164 184 0
166 185 0
160 181 0
164 186 0
164 185 0
161 182 0
162 184 0
163 182 0
165 186 0
165 185 0
166 187 0
168 190 0
165 185 0
162 183 0
168 188 0
160 183 0
162 184 0
166 188 0
164 185 0
167 188 0
162 184 0
165 186 0
166 187 0
162 184 0
166 187 0
165 185 0
161 180 0
167 189 0
162 183 0
168 188 0
164 185 0
166 188 0
166 188 0
166 188 0
166 186 0
170 192 80
170 193 80
172 196 92
173 196 108
173 197 92
173 197 84
177 200 102
171 193 99
171 194 92
171 194 80
172 196 102
171 195 99
166 190 102
172 195 108
173 196 95
167 190 76
172 197 88
174 198 122
174 198 117
169 192 84
166 189 95
169 192 84
170 194 105
171 195 105
170 193 99
168 192 99
174 198 114
172 195 102
169 192 88
168 191 84
169 192 99
172 195 95
165 189 88
167 190 99
161 185 92
166 190 84
165 189 105
170 194 95
171 194 99
163 186 105
167 191 105
168 193 102
167 190 88
163 186 76
164 187 99
168 191 84
166 189 62
168 192 105
163 185 84
162 186 92
164 187 108
162 186 95
165 188 105
161 183 97
170 193 105
160 183 86
163 186 72
163 186 92
165 189 100
161 184 88
162 185 84
157 181 84
147 170 94
157 180 105
162 185 102
166 188 102
157 180 120
154 177 114
165 187 99
159 181 105
159 181 99
156 179 72
155 177 95
163 186 105
162 183 88
162 185 95
149 172 80
161 183 99
157 179 99
159 181 102
153 174 84
154 176 80
147 168 72
159 181 99
146 166 76
156 178 95
158 179 92
162 183 120
160 181 88
155 176 95
156 177 105
146 165 99
157 178 114
149 169 99
156 177 114
153 173 92
145 165 102
149 168 114
147 166 95
142 162 99
154 171 108
152 171 92
152 172 99
145 164 88
146 165 95
139 158 76
141 160 92
130 148 51
126 144 51
123 140 62
122 139 51
130 147 72
133 151 51
123 139 92
116 132 62
118 135 62
114 129 76
117 133 57
113 129 51
119 135 72
103 119 44
111 127 62
108 126 70
112 131 62
114 133 72
120 138 57
118 136 51
121 139 44
136 154 36
146 165 18
135 152 0
142 157 0
148 167 0
135 155 0
136 155 0
135 152 0
113 130 0
123 139 0
124 140 0
115 131 0
118 135 0
116 132 0
104 119 0
116 132 0
111 129 0
116 134 0
119 136 0
107 125 0
126 145 0
118 136 0
111 128 0
117 135 0
115 133 0
114 133 0
115 132 0
106 124 0
108 126 0
105 123 0
110 127 0
103 120 0
104 121 0
102 119 0
100 117 0
93 111 0
99 117 0
111 128 0
107 125 0
97 114 0
112 129 0
111 128 0
97 114 0
101 117 0
106 123 0
94 110 0
99 115 0
102 118 0
109 126 0
100 116 0
104 121 0
103 120 0
101 117 0
97 114 0
95 111 0
106 123 0
101 116 0
107 125 0
104 121 0
108 124 0
107 121 0
98 116 0
106 123 0
97 113 0
116 133 0
109 125 0
101 117 0
94 111 0
103 119 0
97 114 0
93 109 0
107 126 0
101 119 0
97 115 0
104 122 0
120 138 0
119 137 0
116 133 0
114 133 0
130 148 0
119 136 0
130 149 0
113 129 0
114 132 0
114 132 0
119 137 0
108 127 0
109 127 0
128 145 0
121 139 0
119 137 0
122 139 0
127 146 0
117 137 0
119 136 0
121 140 0
113 129 0
124 144 0
119 138 0
121 139 0
123 141 0
133 153 0
120 138 0
131 151 0
125 143 0
127 146 0
129 150 0
134 154 0
133 151 0
127 145 0
136 155 0
132 152 0
120 139 0
127 146 0
140 158 0
133 153 0
132 151 0
136 154 0
127 147 0
129 149 0
135 155 0
135 155 0
142 162 0
135 153 0
138 157 0
144 164 0
135 153 0
148 168 0
137 156 0
144 164 0
140 160 0
145 166 0
138 157 0
142 162 0
136 156 0
144 166 0
155 176 0
128 148 0
144 165 0
142 163 0
145 165 0
147 166 0
145 165 0
138 158 0
137 156 0
137 157 0
144 165 0
142 160 0
151 171 0
158 179 0
144 165 0
148 167 0
147 168 0
136 156 0
149 169 0
143 164 0
152 173 0
147 166 0
153 175 0
153 175 0
147 167 0
144 162 0
150 168 0
150 170 0
152 173 0
147 166 0
146 165 0
153 173 0
147 165 0
149 170 0
150 173 0
144 164 0
156 178 0
152 171 0
157 176 0
159 180 0
153 174 0
149 169 0
151 171 0
158 178 0
151 171 0
151 170 0
162 183 0
156 176 0
157 177 0
156 175 0
164 185 0
156 177 0
156 176 0
149 170 0
149 169 0
159 180 0
153 174 0
159 179 0
149 169 0
149 168 0
153 175 0
150 172 0
156 176 0
153 172 0
158 180 0
157 178 0
165 186 0
156 176 0
159 179 0
159 179 0
151 171 0
162 183 0
156 177 0
162 183 0
155 176 0
156 177 0
159 181 0
156 177 0
161 182 0
159 180 0
157 178 0
159 179 0
160 180 0
156 177 0
164 186 0
158 177 0
160 180 0
163 185 0
164 186 0
155 174 0
161 182 0
166 186 0
156 177 0
165 186 0
163 185 0
155 175 0
160 181 0
160 180 0
156 179 0
162 184 0
162 183 0
162 182 0
159 180 0
163 184 0
159 181 0
161 182 0
164 186 0
162 184 0
160 181 0
165 187 0
161 180 0
160 181 0
156 177 0
162 183 0
164 186 0
163 184 0
163 185 0
165 186 0
166 188 0
165 187 0
166 187 0
166 189 0
165 185 0
168 189 0
160 181 0
159 180 0
164 185 0
161 182 0
168 190 0
167 188 0
163 185 0
166 188 0
167 188 0
161 182 0
163 182 0
168 190 0
173 196 95
169 191 92
169 193 88
173 196 80
174 198 88
174 197 111
174 197 117
165 188 72
176 199 108
168 191 84
176 200 88
172 195 92
171 194 76
169 193 80
174 197 92
170 194 92
174 198 108
162 186 84
170 192 102
170 194 99
163 187 72
173 197 102
169 194 99
170 193 80
169 191 92
174 198 108
174 198 114
173 197 111
169 193 114
167 190 92
173 196 105
166 190 88
166 189 95
167 190 88
167 190 88
168 190 88
168 191 92
169 193 95
169 192 105
166 190 111
163 185 80
168 192 95
166 190 92
163 186 76
165 188 105
169 191 95
165 188 84
168 191 88
168 191 95
168 192 102
168 190 88
160 183 72
162 185 88
165 188 108
164 188 86
161 185 84
159 181 76
160 183 102
160 183 108
163 187 95
159 180 82
167 189 67
168 192 105
165 187 95
161 185 95
166 189 107
161 185 99
164 186 99
164 187 113
159 181 102
166 189 99
166 188 84
156 177 95
157 179 95
162 184 105
154 176 95
159 181 72
160 182 80
154 176 95
153 175 114
158 179 99
154 176 95
151 173 102
155 176 102
153 174 76
153 175 108
155 176 84
161 182 99
155 176 108
153 174 92
156 176 108
153 174 84
146 167 84
152 172 84
157 178 105
150 170 105
151 171 95
140 160 95
147 167 88
148 168 95
148 167 92
148 166 99
139 159 88
138 157 80
139 158 92
139 157 84
137 155 67
148 165 105
134 152 80
141 159 72
135 152 80
136 154 80
137 154 76
127 145 76
116 133 51
113 130 44
125 142 51
121 137 67
124 140 51
115 130 80
115 132 44
121 138 51
115 132 57
117 134 47
129 148 60
115 133 36
122 141 47
132 149 25
125 144 25
135 151 0
137 155 0
147 165 0
143 161 0
140 158 0
138 157 0
129 146 0
127 145 0
118 136 0
113 132 0
122 138 0
120 136 0
109 125 0
106 123 0
110 126 0
115 131 0
112 130 0
112 130 0
118 137 0
119 138 0
111 128 0
116 134 0
122 139 0
111 129 0
115 133 0
104 122 0
117 134 0
120 136 0
110 127 0
101 118 0
119 137 0
99 115 0
96 114 0
105 123 0
108 124 0
99 116 0
113 130 0
101 117 0
101 119 0
114 131 0
97 115 0
123 141 0
106 124 0
109 125 0
107 124 0
104 121 0
110 128 0
104 123 0
98 114 0
108 125 0
95 113 0
92 108 0
106 123 0
107 125 0
106 123 0
98 115 0
103 119 0
114 131 0
115 132 0
104 121 0
114 130 0
103 120 0
102 120 0
102 118 0
101 118 0
117 135 0
106 124 0
105 124 0
102 119 0
111 128 0
108 125 0
115 131 0
95 112 0
110 126 0
106 124 0
115 132 0
132 150 0
117 132 0
122 140 0
114 131 0
114 133 0
114 131 0
112 131 0
119 138 0
122 141 0
124 142 0
122 140 0
122 140 0
129 148 0
127 146 0
125 144 0
117 135 0
116 135 0
126 144 0
120 138 0
129 148 0
123 141 0
129 148 0
125 145 0
118 135 0
123 143 0
132 153 0
123 142 0
114 132 0
117 136 0
122 140 0
140 159 0
135 155 0
130 149 0
135 154 0
140 160 0
135 154 0
132 153 0
131 151 0
128 146 0
124 143 0
135 154 0
139 159 0
133 151 0
133 154 0
133 151 0
131 152 0
130 150 0
138 157 0
140 160 0
146 166 0
137 158 0
139 159 0
144 163 0
135 153 0
137 156 0
148 168 0
141 161 0
142 164 0
143 162 0
138 156 0
137 156 0
131 150 0
139 158 0
137 156 0
151 172 0
146 166 0
150 169 0
144 165 0
143 164 0
142 163 0
146 165 0
147 167 0
150 170 0
146 166 0
150 169 0
150 171 0
144 161 0
153 174 0
151 170 0
147 166 0
153 175 0
150 168 0
147 167 0
149 170 0
155 175 0
149 168 0
152 173 0
154 174 0
155 175 0
148 168 0
149 170 0
145 165 0
155 175 0
152 172 0
149 171 0
152 171 0
152 172 0
156 176 0
152 174 0
155 176 0
159 179 0
150 170 0
146 167 0
156 177 0
151 172 0
149 171 0
151 171 0
164 185 0
145 166 0
159 179 0
152 173 0
148 168 0
156 176 0
147 166 0
154 174 0
152 173 0
153 174 0
162 183 0
155 176 0
159 179 0
163 185 0
154 172 0
159 181 0
161 181 0
159 182 0
156 178 0
157 178 0
158 178 0
163 184 0
154 174 0
158 179 0
160 181 0
159 180 0
164 185 0
161 182 0
162 184 0
157 177 0
165 187 0
162 183 0
157 177 0
159 181 0
158 181 0
162 184 0
160 182 0
164 185 0
161 182 0
165 186 0
164 186 0
159 180 0
158 178 0
166 187 0
165 186 0
158 178 0
164 185 0
158 178 0
165 185 0
162 182 0
160 181 0
165 186 0
164 185 0
165 185 0
159 179 0
165 186 0
162 184 0
161 180 0
162 183 0
164 185 0
158 177 0
164 184 0
166 187 0
168 190 0
167 187 0
164 186 0
164 185 0
165 185 0
163 184 0
167 189 0
160 181 0
161 181 0
160 183 0
166 186 0
162 183 0
162 184 0
167 189 0
163 185 0
166 188 0
167 188 0
164 186 0
164 184 0
161 183 0
163 185 0
165 185 0
162 182 0
167 189 0
171 194 0
171 195 95
176 198 88
168 191 95
172 195 108
175 199 102
170 194 105
175 197 120
173 196 99
174 198 117
169 191 80
173 196 84
173 196 114
174 198 114
174 198 95
173 196 108
170 193 111
174 197 105
173 197 92
175 199 111
166 190 111
163 187 92
174 197 105
173 197 88
173 197 80
168 192 88
164 187 88
166 190 95
169 193 80
169 191 111
169 192 105
166 189 99
173 196 99
167 191 105
167 192 111
168 192 99
169 192 99
168 191 95
166 189 72
165 189 95
162 185 92
165 189 88
166 190 102
166 189 92
162 186 95
162 185 102
169 191 92
166 190 105
162 185 80
162 186 88
162 185 80
165 189 102
164 186 102
158 181 108
158 182 80
168 191 117
162 185 88
165 188 111
160 183 117
160 183 105
167 190 99
161 185 94
165 188 95
165 188 111
163 185 105
164 187 92
167 190 95
159 182 100
168 191 105
154 177 88
158 181 99
161 183 80
170 191 102
150 172 80
161 183 111
157 178 84
151 172 84
160 181 99
159 181 111
158 180 105
158 179 80
154 177 80
155 177 88
157 179 99
164 184 120
150 171 92
162 183 88
157 178 108
156 178 84
156 178 108
156 178 102
158 179 117
153 173 117
153 173 105
154 174 95
148 168 95
152 173 102
145 165 88
153 173 92
143 163 76
156 175 125
149 169 92
145 163 99
137 155 99
143 163 84
132 151 80
131 149 88
135 153 67
139 158 62
124 143 62
121 140 67
129 146 62
129 146 76
123 141 57
119 137 62
117 135 62
130 147 72
132 149 72
131 147 80
123 140 57
108 126 25
98 114 0
117 133 67
118 134 25
113 130 36
122 139 0
124 143 0
132 151 0
128 146 0
128 146 25
139 157 0
148 165 0
150 167 0
138 156 0
145 163 0
134 153 0
137 155 0
119 138 0
134 153 0
130 146 0
110 128 0
109 126 0
118 136 0
109 125 0
112 127 0
107 124 0
116 132 0
115 134 0
111 130 0
113 130 0
114 132 0
111 128 0
104 121 0
105 123 0
111 128 0
105 125 0
108 125 0
112 129 0
112 130 0
113 131 0
111 129 0
120 137 0
114 132 0
104 121 0
108 125 0
115 133 0
115 132 0
113 130 0
106 122 0
99 115 0
114 131 0
99 117 0
103 120 0
113 130 0
111 127 0
104 122 0
115 132 0
110 128 0
105 122 0
102 119 0
124 141 0
108 126 0
115 131 0
107 125 0
106 121 0
115 133 0
115 132 0
98 116 0
106 124 0
107 125 0
107 125 0
108 125 0
119 136 0
103 120 0
105 121 0
116 134 0
109 128 0
114 131 0
99 116 0
111 128 0
119 137 0
110 127 0
114 132 0
111 128 0
119 137 0
112 129 0
112 130 0
116 135 0
121 137 0
115 133 0
123 141 0
128 146 0
117 134 0
108 126 0
119 138 0
128 146 0
125 144 0
131 150 0
116 134 0
133 151 0
119 138 0
117 136 0
136 156 0
124 143 0
128 147 0
130 149 0
128 147 0
136 157 0
130 149 0
131 150 0
126 147 0
128 148 0
124 144 0
121 141 0
130 149 0
122 141 0
133 153 0
124 144 0
140 161 0
133 153 0
142 162 0
137 155 0
145 165 0
132 151 0
125 145 0
139 159 0
140 159 0
138 157 0
137 156 0
137 157 0
131 150 0
124 144 0
136 156 0
144 164 0
134 153 0
147 167 0
140 158 0
142 160 0
133 153 0
143 164 0
139 158 0
141 160 0
139 161 0
141 162 0
148 169 0
141 161 0
144 164 0
138 157 0
142 162 0
147 168 0
143 163 0
142 163 0
152 171 0
149 170 0
142 161 0
141 160 0
145 166 0
145 165 0
147 168 0
157 178 0
151 173 0
157 177 0
149 170 0
146 167 0
147 167 0
138 159 0
156 177 0
147 166 0
142 160 0
156 177 0
150 170 0
152 173 0
140 162 0
154 172 0
152 172 0
147 167 0
160 182 0
150 170 0
147 167 0
147 166 0
148 168 0
150 169 0
147 166 0
159 180 0
158 180 0
156 178 0
152 173 0
152 172 0
159 177 0
157 178 0
157 177 0
152 173 0
158 178 0
158 179 0
155 176 0
158 179 0
158 178 0
158 178 0
155 175 0
155 175 0
156 176 0
157 176 0
162 183 0
157 179 0
167 188 0
158 181 0
157 177 0
163 185 0
157 176 0
154 172 0
161 181 0
153 174 0
162 183 0
155 176 0
154 176 0
162 183 0
160 180 0
163 183 0
158 179 0
153 170 0
158 180 0
156 178 0
160 182 0
166 187 0
161 181 0
161 184 0
159 180 0
158 178 0
160 181 0
159 181 0
161 182 0
163 184 0
162 183 0
161 180 0
159 180 0
162 183 0
162 182 0
160 182 0
164 184 0
158 178 0
162 183 0
163 185 0
163 183 0
162 182 0
164 184 0
164 184 0
164 186 0
165 187 0
164 185 0
169 190 0
166 188 0
164 183 0
161 180 0
164 185 0
162 184 0
164 185 0
163 186 0
160 182 0
161 182 0
160 182 0
165 186 0
162 182 0
167 189 0
166 187 0
160 181 0
166 187 0
163 182 0
166 187 0
164 186 0
165 187 0
164 184 0
170 192 0
164 183 0
165 185 0
162 184 0
164 185 0
169 190 0
165 188 0
163 184 0
168 190 0
165 185 0
171 194 99
173 196 105
175 198 102
176 199 102
175 197 105
175 198 105
170 194 92
175 198 105
168 191 72
171 195 72
170 193 111
172 195 84
165 188 62
175 198 111
169 193 88
168 192 105
170 193 84
172 195 111
169 192 80
170 194 92
169 192 80
170 194 105
169 192 88
168 191 105
174 197 114
173 196 95
169 192 114
173 196 88
166 189 84
171 194 108
167 191 88
169 192 111
163 187 92
166 189 80
174 197 111
169 192 67
167 190 95
171 194 99
165 189 76
169 193 95
165 188 102
171 194 99
168 191 95
152 176 80
165 188 84
168 191 102
163 185 67
165 188 84
166 189 76
159 181 92
158 181 92
168 191 108
165 189 105
167 189 92
161 185 105
164 188 92
160 182 102
165 188 100
161 184 90
167 190 80
163 186 102
157 180 76
160 183 100
160 183 67
158 180 88
155 176 80
163 185 114
166 190 99
151 173 80
155 176 88
164 186 72
159 180 114
164 186 105
158 180 95
163 185 99
155 177 102
157 178 114
156 177 105
151 173 95
164 186 105
166 187 102
156 179 88
159 181 95
163 186 108
160 180 111
156 178 99
159 179 95
158 179 108
155 176 95
143 163 84
145 166 80
153 173 76
158 179 99
160 179 105
148 168 92
162 181 117
148 169 99
138 158 102
152 172 102
142 161 95
147 166 92
152 172 95
144 163 92
145 163 84
148 166 105
137 157 72
141 160 76
137 155 84
126 146 57
134 153 72
140 160 67
136 155 72
126 144 72
135 153 80
122 139 57
119 138 44
125 143 51
111 125 67
114 132 36
121 138 44
119 136 44
105 122 36
112 130 25
118 136 44
119 136 36
127 145 51
128 146 36
133 150 0
135 154 0
137 155 0
139 158 0
151 170 0
140 157 0
143 163 0
136 155 0
113 129 0
129 147 0
126 143 0
122 140 0
127 145 0
118 136 0
120 137 0
114 132 0
114 132 0
102 119 0
109 126 0
109 125 0
129 146 0
118 136 0
127 146 0
126 145 0
121 139 0
112 130 0
113 131 0
114 131 0
116 135 0
121 138 0
114 132 0
121 140 0
109 127 0
124 142 0
117 136 0
105 122 0
108 125 0
106 123 0
111 129 0
111 128 0
112 129 0
115 133 0
108 127 0
108 124 0
108 127 0
108 125 0
99 117 0
104 121 0
106 125 0
109 128 0
107 124 0
110 126 0
110 127 0
100 117 0
112 131 0
97 116 0
115 132 0
89 106 0
123 140 0
115 132 0
116 134 0
104 122 0
114 131 0
108 126 0
108 124 0
110 127 0
107 125 0
116 132 0
106 124 0
116 134 0
109 127 0
117 136 0
113 131 0
115 133 0
109 126 0
127 146 0
109 126 0
119 137 0
116 136 0
116 132 0
109 127 0
122 139 0
122 140 0
120 137 0
120 138 0
109 126 0
126 145 0
113 131 0
115 134 0
115 135 0
123 142 0
127 145 0
115 133 0
131 149 0
123 144 0
129 148 0
131 149 0
128 146 0
135 154 0
132 151 0
129 150 0
130 149 0
125 143 0
135 155 0
137 157 0
124 145 0
133 153 0
141 160 0
123 142 0
124 142 0
132 152 0
130 147 0
134 153 0
135 154 0
138 157 0
128 148 0
128 148 0
134 153 0
126 146 0
121 139 0
133 152 0
141 162 0
135 155 0
130 149 0
149 170 0
135 156 0
138 156 0
142 162 0
136 156 0
145 166 0
148 169 0
140 158 0
140 162 0
139 158 0
142 163 0
137 158 0
152 173 0
142 162 0
144 163 0
141 160 0
138 159 0
147 168 0
147 168 0
146 165 0
140 160 0
148 169 0
141 162 0
145 167 0
148 169 0
140 160 0
149 169 0
144 164 0
149 171 0
152 172 0
149 169 0
145 166 0
147 169 0
148 168 0
150 170 0
145 164 0
151 169 0
157 179 0
151 173 0
151 172 0
145 164 0
149 169 0
152 174 0
150 171 0
152 173 0
145 164 0
149 169 0
153 175 0
153 172 0
150 170 0
157 177 0
152 172 0
149 170 0
150 171 0
150 171 0
160 179 0
151 172 0
161 181 0
155 175 0
157 176 0
157 177 0
155 176 0
149 171 0
152 173 0
159 181 0
160 181 0
155 177 0
160 182 0
163 183 0
156 176 0
155 176 0
161 182 0
156 176 0
155 175 0
159 180 0
163 185 0
161 181 0
162 181 0
163 184 0
153 173 0
157 178 0
151 173 0
161 182 0
164 185 0
154 174 0
157 179 0
163 183 0
156 176 0
157 180 0
164 186 0
165 185 0
160 180 0
158 179 0
159 179 0
162 183 0
156 176 0
158 180 0
156 179 0
163 183 0
158 181 0
162 182 0
157 176 0
162 183 0
159 179 0
163 184 0
162 183 0
162 181 0
162 182 0
164 185 0
162 182 0
164 185 0
165 186 0
162 184 0
156 176 0
164 186 0
161 183 0
162 183 0
158 178 0
162 183 0
161 183 0
164 185 0
166 186 0
166 187 0
165 187 0
165 185 0
163 185 0
163 185 0
167 189 0
163 185 0
166 189 0
165 185 0
166 188 0
161 183 0
163 186 0
165 187 0
160 181 0
163 184 0
166 187 0
165 187 0
161 183 0
164 187 0
165 186 0
167 190 0
167 188 0
169 191 0
167 187 0
167 189 0
165 187 0
160 182 0
171 194 72
176 199 111
174 197 105
168 192 62
171 194 102
169 192 80
172 196 80
169 194 92
173 197 105
169 193 102
174 197 122
170 194 80
179 202 111
173 197 108
166 189 67
171 195 99
175 198 114
176 199 114
169 193 80
173 197 114
169 192 95
169 193 92
169 193 88
174 198 102
170 194 120
173 196 117
172 196 92
168 191 95
170 194 88
166 189 88
166 189 102
168 191 84
168 192 102
168 191 105
169 192 95
173 197 102
161 184 67
165 189 76
160 184 92
172 194 92
172 196 99
169 192 102
170 193 92
164 187 102
163 186 92
160 185 92
163 186 99
159 183 84
168 191 76
160 183 80
165 189 108
162 184 88
166 190 111
163 186 84
163 186 84
162 185 105
167 190 95
161 185 88
160 184 102
162 184 80
160 183 99
161 184 99
158 182 57
162 185 111
158 181 84
163 186 107
168 191 111
161 184 110
160 182 114
162 184 111
157 180 111
155 178 102
152 174 80
163 185 105
161 185 88
154 176 80
156 179 76
160 182 84
163 185 105
158 178 92
156 177 114
151 173 105
160 181 99
151 173 92
143 165 76
160 182 102
161 183 111
153 174 88
149 171 62
154 175 105
154 174 117
155 176 105
149 169 99
146 167 76
146 166 84
160 180 105
155 175 95
147 167 88
145 163 95
151 169 122
154 172 117
144 163 99
134 153 67
140 160 62
148 168 92
139 158 72
144 163 62
136 154 72
131 150 57
137 157 67
134 151 80
133 151 76
142 161 80
131 149 44
135 153 88
123 140 76
137 155 44
118 137 51
136 154 67
139 157 72
125 141 36
116 134 44
114 129 57
127 144 62
122 137 44
127 145 25
129 147 36
132 150 25
134 153 25
143 161 0
140 159 0
139 159 0
145 164 0
144 163 0
143 163 0
149 169 0
130 149 0
131 149 0
125 143 0
117 134 0
129 146 0
113 132 0
117 135 0
119 136 0
119 138 0
121 139 0
116 134 0
122 141 0
115 133 0
118 138 0
124 144 0
114 132 0
118 137 0
109 126 0
120 138 0
127 145 0
116 134 0
118 137 0
112 130 0
119 137 0
109 126 0
117 135 0
107 125 0
117 136 0
111 128 0
115 131 0
112 130 0
117 134 0
108 125 0
95 111 0
112 130 0
109 125 0
104 123 0
111 130 0
111 129 0
117 135 0
106 125 0
106 123 0
109 127 0
110 128 0
116 133 0
108 125 0
116 134 0
105 123 0
115 131 0
119 137 0
119 137 0
116 135 0
118 136 0
115 132 0
107 125 0
113 130 0
110 128 0
113 131 0
113 131 0
118 136 0
112 131 0
103 121 0
107 124 0
125 143 0
118 137 0
116 134 0
130 148 0
116 135 0
109 127 0
123 140 0
119 137 0
107 125 0
128 147 0
128 147 0
120 138 0
123 141 0
111 130 0
128 148 0
133 152 0
130 149 0
124 142 0
130 150 0
117 136 0
124 143 0
131 150 0
132 152 0
130 149 0
123 144 0
126 145 0
125 143 0
126 145 0
122 141 0
135 154 0
132 152 0
127 147 0
123 144 0
133 152 0
135 154 0
140 159 0
133 153 0
127 148 0
142 161 0
132 150 0
134 153 0
128 147 0
135 154 0
134 153 0
135 154 0
133 151 0
149 169 0
139 159 0
136 156 0
129 148 0
132 153 0
140 161 0
134 156 0
130 149 0
128 148 0
141 161 0
137 156 0
142 164 0
138 157 0
142 162 0
131 151 0
146 166 0
133 155 0
143 163 0
142 162 0
141 162 0
143 165 0
145 165 0
146 167 0
148 168 0
153 175 0
143 162 0
144 163 0
148 170 0
142 161 0
146 166 0
150 169 0
143 165 0
155 175 0
156 177 0
148 168 0
151 172 0
152 172 0
148 169 0
144 164 0
139 160 0
151 170 0
154 176 0
154 174 0
153 173 0
145 166 0
147 167 0
154 175 0
155 175 0
148 170 0
144 166 0
152 172 0
151 172 0
152 172 0
153 174 0
155 176 0
148 168 0
154 175 0
155 176 0
158 180 0
162 182 0
161 183 0
152 171 0
149 169 0
156 175 0
149 170 0
153 174 0
154 175 0
151 172 0
155 175 0
153 174 0
157 178 0
155 175 0
155 175 0
156 177 0
156 176 0
154 175 0
158 181 0
160 180 0
157 179 0
154 174 0
154 173 0
154 176 0
155 175 0
159 181 0
157 178 0
158 179 0
160 180 0
164 184 0
160 181 0
160 181 0
161 183 0
162 182 0
161 181 0
162 184 0
165 187 0
162 185 0
163 183 0
156 176 0
159 179 0
163 185 0
158 178 0
160 181 0
158 180 0
155 176 0
163 184 0
164 182 0
165 187 0
158 180 0
164 186 0
166 185 0
166 188 0
167 188 0
161 181 0
163 183 0
159 180 0
162 181 0
161 182 0
165 186 0
167 188 0
164 185 0
162 183 0
164 186 0
166 187 0
161 181 0
162 185 0
166 187 0
164 184 0
165 184 0
163 184 0
163 183 0
162 182 0
162 184 0
167 188 0
164 187 0
163 184 0
162 185 0
168 190 0
165 186 0
167 190 0
168 189 0
161 183 0
165 186 0
162 181 0
161 181 0
164 183 0
168 190 0
168 189 0
168 189 0
169 191 0
162 184 0
163 185 0
166 188 0
168 190 0
162 183 0
167 188 0
167 190 88
175 197 102
168 191 84
170 193 99
175 197 95
173 196 99
168 193 80
168 191 72
172 196 108
164 188 84
170 193 99
168 192 72
169 193 88
170 194 102
169 192 80
170 193 99
170 195 88
174 197 102
171 195 88
166 190 95
171 195 92
170 193 99
170 194 108
172 195 92
174 197 105
171 194 108
165 190 88
171 194 84
163 186 80
162 185 92
162 187 88
162 185 95
169 193 76
168 191 80
162 186 92
169 192 99
166 189 72
164 187 67
167 191 117
160 183 92
169 193 84
167 189 76
168 191 95
166 189 80
165 188 95
157 181 67
168 192 99
166 190 108
167 190 84
166 190 76
165 189 99
159 182 95
167 190 84
158 180 72
167 190 117
164 187 88
161 184 88
158 182 72
162 186 99
157 180 80
161 183 90
168 190 95
165 187 80
155 178 67
165 188 108
172 195 88
164 185 88
153 175 99
164 187 103
165 187 102
157 179 80
157 179 92
160 182 102
151 173 80
150 172 92
156 178 76
157 179 76
156 178 95
160 182 99
162 184 84
159 181 117
155 177 99
161 182 108
165 185 102
155 178 95
156 178 92
151 172 95
155 177 84
156 176 84
157 177 102
155 175 95
157 178 80
159 180 95
151 172 95
147 167 99
148 167 99
151 171 105
151 171 88
142 162 72
156 175 108
142 162 72
151 170 99
144 164 88
147 167 76
155 173 88
139 158 76
136 155 72
135 153 80
140 160 84
146 166 72
134 153 62
137 155 67
129 148 36
126 144 72
131 149 51
137 155 80
124 142 67
123 141 57
135 153 36
127 146 51
127 145 57
110 126 44
127 145 51
122 140 36
124 144 25
125 143 0
136 154 25
128 147 0
146 166 0
139 159 25
146 166 0
145 165 0
143 162 0
148 166 0
130 150 0
133 151 0
134 155 0
129 148 0
122 138 0
132 152 0
116 133 0
113 132 0
120 138 0
116 134 0
124 144 0
116 134 0
132 152 0
135 154 0
116 135 0
110 129 0
117 135 0
124 143 0
114 133 0
116 134 0
113 132 0
112 130 0
133 151 0
113 130 0
119 137 0
114 133 0
121 139 0
119 137 0
121 139 0
117 135 0
115 132 0
109 127 0
127 145 0
101 119 0
114 133 0
111 128 0
117 135 0
105 121 0
109 127 0
113 131 0
106 121 0
106 124 0
103 120 0
114 132 0
113 132 0
109 126 0
99 118 0
115 134 0
116 134 0
116 133 0
109 126 0
109 128 0
115 133 0
110 128 0
111 129 0
117 135 0
115 133 0
106 124 0
108 127 0
104 123 0
123 141 0
115 134 0
102 119 0
103 120 0
122 139 0
112 129 0
126 145 0
124 143 0
123 141 0
117 136 0
118 136 0
116 134 0
122 141 0
122 141 0
123 143 0
121 139 0
121 140 0
122 141 0
118 136 0
121 141 0
130 149 0
121 140 0
124 145 0
134 152 0
129 149 0
124 144 0
125 145 0
111 130 0
118 137 0
122 141 0
116 134 0
125 145 0
128 148 0
125 144 0
129 149 0
123 143 0
138 157 0
128 148 0
122 143 0
131 151 0
137 157 0
128 147 0
131 149 0
132 151 0
136 156 0
139 159 0
129 147 0
126 146 0
133 153 0
134 153 0
144 164 0
136 156 0
138 158 0
137 158 0
135 154 0
135 154 0
146 166 0
136 155 0
140 160 0
142 163 0
136 155 0
134 154 0
129 149 0
149 171 0
152 173 0
145 167 0
142 161 0
141 161 0
147 167 0
142 162 0
142 162 0
150 171 0
137 157 0
142 162 0
146 167 0
150 170 0
152 172 0
142 162 0
144 164 0
148 169 0
142 164 0
151 173 0
143 163 0
149 168 0
148 169 0
151 171 0
154 175 0
155 175 0
145 163 0
145 167 0
155 176 0
148 168 0
140 159 0
147 167 0
149 171 0
151 171 0
155 175 0
152 175 0
152 174 0
154 174 0
149 171 0
155 177 0
145 165 0
151 172 0
155 176 0
159 179 0
148 169 0
157 177 0
151 173 0
151 170 0
152 172 0
153 174 0
156 177 0
153 174 0
152 172 0
158 179 0
158 178 0
158 179 0
159 180 0
150 171 0
160 182 0
158 180 0
161 182 0
155 176 0
158 179 0
159 181 0
157 180 0
159 180 0
159 181 0
160 181 0
164 185 0
157 179 0
160 182 0
158 178 0
162 184 0
155 176 0
158 178 0
158 180 0
159 179 0
154 174 0
156 177 0
153 174 0
160 181 0
157 179 0
158 179 0
159 180 0
162 183 0
158 179 0
159 178 0
156 178 0
161 183 0
162 183 0
166 188 0
155 175 0
161 182 0
165 184 0
160 180 0
163 184 0
155 174 0
162 182 0
164 185 0
161 182 0
164 185 0
163 184 0
164 185 0
162 184 0
162 184 0
166 187 0
162 182 0
165 187 0
163 185 0
166 188 0
169 190 0
159 182 0
169 191 0
165 187 0
160 179 0
165 187 0
163 184 0
166 187 0
162 183 0
162 183 0
164 185 0
165 185 0
163 185 0
163 185 0
165 185 0
168 189 0
167 189 0
159 181 0
164 185 0
163 185 0
167 189 0
165 186 0
166 186 0
170 192 0
168 191 0
167 189 0
162 184 0
161 181 0
167 188 0
165 186 0
165 186 0
163 184 0
165 187 0
166 189 0
174 197 105
175 199 102
169 193 92
173 197 105
170 194 95
176 199 111
167 192 99
168 191 95
170 193 108
170 193 111
170 194 84
173 196 84
173 197 95
163 188 88
168 190 84
173 196 105
171 194 102
167 190 88
171 194 95
167 191 95
167 191 99
169 192 102
168 190 102
166 189 92
172 195 117
170 193 95
168 192 88
169 193 92
171 194 92
169 193 111
167 191 84
171 194 102
166 190 92
165 189 95
165 188 88
166 189 111
170 193 95
164 187 84
161 185 99
161 185 84
161 184 80
168 192 111
170 193 80
163 186 102
169 193 95
158 181 84
170 193 95
160 183 92
163 186 84
167 190 92
163 186 80
168 191 88
162 185 99
159 182 95
161 185 86
168 191 108
155 178 72
168 191 95
165 189 99
154 177 88
164 188 95
169 192 108
155 178 92
161 184 108
154 176 84
161 185 99
161 184 114
170 191 110
165 187 114
169 191 120
161 184 108
156 179 80
154 177 95
157 179 105
164 186 95
150 172 92
160 182 80
158 180 111
161 183 84
162 183 105
159 181 102
155 176 92
165 186 117
165 188 117
159 181 92
156 177 102
159 180 108
154 175 99
149 170 95
157 178 114
150 170 95
138 158 57
153 173 95
151 171 88
154 175 99
147 167 108
156 176 111
146 166 80
143 164 88
148 169 76
153 171 114
149 167 105
156 175 92
133 152 67
148 166 108
152 171 95
148 166 99
150 168 88
133 152 80
144 163 95
143 164 44
133 151 57
141 160 62
148 166 92
132 150 72
120 138 62
125 144 44
131 150 67
118 137 36
132 150 72
135 152 67
125 142 51
123 140 25
118 136 51
132 150 0
119 137 0
125 144 0
136 156 0
132 151 25
139 159 25
139 159 0
144 162 0
142 160 0
149 170 0
138 157 0
141 161 0
127 145 0
139 159 0
127 146 0
128 147 0
111 130 0
122 140 0
119 137 0
97 116 0
116 135 0
124 143 25
116 132 0
130 149 0
113 132 0
122 141 0
127 145 0
121 139 0
115 134 0
114 133 0
125 143 0
128 148 0
126 145 0
113 132 0
122 141 0
118 137 0
120 138 0
124 144 0
120 138 0
121 138 0
117 135 0
124 141 0
118 137 0
119 137 0
114 132 0
121 140 0
93 111 0
108 125 0
119 137 0
101 120 0
107 123 0
103 121 0
112 131 0
104 123 0
96 115 0
120 139 0
119 138 0
113 132 0
103 120 0
104 122 0
122 140 0
116 134 0
110 128 0
119 138 0
106 124 0
121 140 0
121 140 0
120 139 0
112 131 0
117 136 0
119 137 0
123 141 0
116 133 0
115 134 0
112 130 0
129 147 0
124 142 0
121 141 0
117 135 0
116 135 0
115 133 0
117 135 0
115 133 0
113 133 0
127 146 0
119 138 0
129 148 0
123 141 0
115 133 0
131 151 0
134 154 0
123 142 0
123 142 0
126 145 0
119 137 0
126 146 0
128 147 0
122 141 0
140 161 0
127 146 0
123 141 0
133 152 0
131 152 0
135 155 0
134 154 0
129 148 0
128 148 0
137 157 0
148 167 0
122 141 0
138 158 0
142 161 0
126 146 0
134 153 0
138 159 0
135 154 0
140 161 0
138 159 0
133 154 0
137 156 0
134 155 0
136 157 0
132 153 0
143 163 0
141 161 0
137 156 0
142 163 0
141 160 0
146 165 0
136 157 0
140 160 0
138 159 0
147 167 0
138 156 0
139 158 0
141 162 0
142 163 0
148 169 0
152 172 0
143 163 0
135 155 0
147 168 0
141 162 0
149 170 0
140 161 0
152 173 0
151 172 0
143 164 0
152 173 0
144 164 0
148 169 0
137 156 0
154 175 0
147 167 0
143 164 0
148 169 0
153 174 0
152 172 0
149 169 0
154 175 0
146 165 0
151 173 0
153 174 0
153 173 0
156 177 0
156 177 0
154 175 0
148 168 0
149 169 0
151 171 0
149 170 0
150 170 0
153 175 0
158 179 0
147 167 0
156 177 0
155 176 0
153 176 0
153 174 0
148 168 0
146 166 0
152 173 0
155 176 0
155 175 0
151 171 0
160 179 0
162 184 0
153 174 0
157 177 0
164 185 0
154 174 0
149 171 0
151 171 0
157 178 0
153 174 0
154 173 0
161 182 0
162 182 0
156 176 0
156 177 0
159 180 0
154 175 0
156 177 0
159 181 0
156 176 0
152 172 0
160 181 0
159 181 0
161 183 0
159 179 0
157 178 0
158 180 0
161 182 0
158 178 0
161 182 0
161 181 0
158 178 0
158 178 0
163 184 0
157 178 0
163 184 0
158 177 0
161 182 0
164 185 0
154 175 0
164 186 0
163 184 0
157 178 0
160 180 0
158 180 0
165 187 0
163 183 0
163 185 0
162 183 0
157 177 0
158 178 0
162 182 0
163 183 0
162 183 0
163 185 0
161 183 0
169 191 0
158 180 0
166 189 0
162 184 0
166 188 0
161 182 0
162 183 0
165 185 0
165 186 0
164 186 0
161 183 0
163 183 0
162 181 0
166 187 0
160 180 0
165 187 0
164 186 0
160 183 0
164 187 0
167 190 0
162 183 0
163 184 0
167 190 0
169 191 0
166 188 0
165 185 0
164 186 0
170 191 0
166 187 0
167 189 0
162 183 0
162 182 0
167 188 0
159 179 0
165 188 0
176 199 102
173 196 95
176 199 120
169 192 72
170 194 105
171 195 105
168 191 111
172 196 99
169 193 99
173 196 105
173 196 108
175 199 111
170 193 95
170 194 108
169 193 114
170 193 92
171 195 92
172 195 92
170 194 92
170 194 102
172 196 99
170 193 92
173 196 105
167 191 84
165 188 92
165 188 84
166 190 84
166 190 80
166 190 80
168 192 72
168 193 111
168 191 92
164 188 95
161 184 84
163 186 99
162 186 95
166 190 84
162 186 95
167 190 99
168 192 88
167 190 84
166 190 102
167 189 102
165 188 88
165 189 108
165 188 95
165 188 95
163 187 108
170 194 88
169 192 99
167 191 108
166 189 99
164 187 102
167 190 102
162 185 80
164 188 88
165 188 92
158 181 72
163 186 86
165 187 95
154 175 80
165 188 108
160 183 84
163 185 102
159 181 114
167 191 92
155 177 90
159 182 80
164 187 117
161 183 111
163 186 88
158 180 92
168 192 114
163 184 84
159 181 92
160 182 105
162 185 108
162 184 114
161 183 102
161 183 102
161 183 108
154 175 95
160 182 92
158 178 111
149 170 76
159 180 111
148 169 62
157 178 92
152 173 84
158 179 92
147 168 80
152 174 88
150 171 92
162 183 108
157 178 111
144 165 67
144 165 72
160 181 114
159 179 95
145 165 88
148 167 105
141 161 76
149 168 117
155 176 72
140 159 67
128 147 76
141 161 72
141 160 84
140 159 76
147 165 88
135 153 76
134 153 67
133 152 72
131 150 57
130 149 51
128 146 62
140 159 67
132 150 67
121 139 25
145 164 36
129 147 51
127 145 51
119 138 25
125 144 0
118 136 25
128 147 36
127 147 0
139 160 0
140 159 0
141 162 25
149 168 0
149 167 0
149 171 0
154 174 0
141 162 0
130 148 0
146 166 0
125 143 0
135 154 0
128 147 0
124 142 0
119 138 0
126 146 0
111 129 0
123 141 0
120 140 0
114 134 0
123 142 0
126 144 0
121 140 0
124 143 0
124 142 0
119 137 0
114 133 0
127 146 0
129 148 0
118 139 0
112 131 0
120 140 0
122 140 0
107 125 0
120 139 0
120 139 0
119 136 0
114 132 0
117 136 0
112 129 0
118 137 0
116 134 0
125 143 0
111 128 0
109 128 0
118 136 0
115 132 0
111 129 0
118 136 0
110 128 0
124 144 0
111 129 0
115 133 0
113 132 0
110 129 0
133 152 0
121 139 0
129 147 0
113 132 0
116 135 0
118 138 0
114 133 0
124 142 0
111 130 0
118 137 0
119 137 0
113 132 0
104 122 0
116 136 0
110 128 0
123 142 0
123 142 0
127 145 0
121 139 0
130 150 0
118 137 0
112 131 0
119 138 0
122 142 0
116 134 0
115 135 0
121 140 0
125 144 0
130 150 0
131 150 0
119 138 0
120 139 0
121 140 0
129 148 0
124 144 0
129 149 0
132 152 0
132 151 0
130 150 0
121 140 0
135 153 0
136 156 0
144 164 0
135 156 0
135 155 0
136 156 0
129 148 0
133 154 0
134 153 0
140 161 0
135 154 0
127 148 0
131 149 0
136 156 0
131 150 0
140 162 0
134 155 0
143 163 0
136 156 0
143 162 0
134 154 0
136 156 0
143 162 0
133 152 0
144 166 0
137 157 0
137 157 0
144 164 0
144 165 0
151 172 0
140 161 0
139 160 0
148 168 0
138 159 0
139 160 0
139 161 0
143 162 0
145 166 0
137 158 0
138 157 0
149 170 0
149 169 0
140 161 0
140 161 0
140 161 0
149 170 0
148 170 0
146 168 0
150 169 0
144 165 0
149 170 0
154 176 0
149 170 0
148 170 0
149 169 0
152 172 0
155 177 0
153 173 0
137 158 0
156 178 0
155 175 0
148 168 0
151 173 0
147 169 0
148 169 0
149 170 0
154 175 0
153 174 0
152 173 0
150 172 0
156 177 0
150 172 0
150 171 0
159 182 0
154 174 0
157 178 0
161 185 0
155 177 0
158 178 0
146 167 0
163 184 0
152 172 0
146 166 0
157 176 0
151 172 0
151 173 0
154 175 0
156 178 0
163 185 0
151 172 0
152 173 0
160 182 0
158 179 0
152 173 0
152 175 0
161 180 0
157 177 0
153 173 0
157 179 0
163 183 0
162 183 0
157 178 0
161 183 0
155 176 0
164 185 0
157 178 0
161 183 0
161 182 0
158 180 0
160 181 0
156 177 0
157 178 0
158 178 0
160 182 0
156 179 0
158 178 0
157 178 0
151 171 0
157 178 0
160 182 0
162 182 0
160 182 0
160 180 0
159 179 0
161 183 0
166 188 0
156 177 0
164 185 0
161 183 0
170 192 0
158 179 0
160 181 0
159 180 0
161 182 0
162 185 0
160 183 0
164 185 0
162 183 0
163 183 0
165 185 0
157 178 0
165 187 0
169 191 0
167 189 0
163 185 0
161 183 0
168 188 0
162 182 0
162 184 0
162 182 0
164 186 0
165 187 0
161 183 0
165 185 0
166 188 0
162 184 0
166 187 0
167 189 0
168 190 0
165 187 0
161 183 0
162 184 0
160 182 0
171 192 0
164 185 0
166 187 0
164 186 0
169 191 0
167 188 0
165 187 0
167 187 0
164 185 0
164 185 0
164 187 0
164 187 0
168 189 0
168 190 0
170 192 0
175 197 99
173 197 105
171 195 84
179 202 117
170 194 88
173 196 102
172 195 99
170 193 108
166 189 95
169 193 102
168 191 102
169 192 111
167 191 72
169 192 99
173 197 102
172 195 95
168 192 95
164 188 84
168 192 120
167 190 92
161 185 88
172 195 84
169 191 80
174 198 105
168 192 102
170 194 105
167 190 92
165 188 99
169 193 92
170 193 99
171 195 114
166 189 99
167 190 92
169 192 99
166 190 92
163 187 76
165 187 95
166 190 92
165 188 72
163 186 99
165 188 80
165 190 95
173 196 125
169 192 102
165 188 84
163 186 76
163 185 76
166 189 88
162 185 105
167 190 114
163 187 88
161 183 86
160 184 76
170 193 108
162 186 99
161 183 110
166 188 88
158 181 88
163 186 80
166 189 84
157 181 92
160 183 105
160 183 72
166 188 114
161 183 108
167 189 117
166 188 95
161 183 105
153 175 72
161 184 103
160 182 88
161 182 102
161 183 84
158 182 76
165 187 105
161 183 111
162 184 92
161 184 92
155 177 84
160 182 99
162 183 99
161 183 84
154 176 84
160 181 92
165 187 114
156 176 99
158 180 105
152 173 111
153 173 102
163 184 111
152 173 72
156 176 120
163 184 105
159 180 117
146 167 67
159 178 99
155 176 80
161 180 95
156 177 84
149 168 84
157 177 99
157 177 111
148 168 80
138 157 88
152 170 111
151 170 105
147 165 88
148 166 95
141 159 51
148 167 84
127 147 36
143 160 84
141 161 72
141 159 62
142 161 92
122 140 44
127 144 62
126 145 57
126 143 51
143 161 72
131 150 44
131 150 36
129 148 57
124 143 0
134 153 36
132 153 25
137 156 0
136 156 0
144 164 25
144 165 25
140 159 0
149 170 25
139 158 0
148 167 0
136 158 0
133 153 0
129 147 0
140 161 0
119 138 0
123 143 0
130 148 0
115 133 0
126 146 0
111 129 0
124 143 0
122 141 0
127 147 0
119 136 0
135 155 0
125 143 0
127 146 0
128 148 0
116 134 0
129 147 0
115 133 0
125 144 0
118 137 0
125 143 0
113 132 0
114 133 0
124 143 0
127 147 0
117 136 0
129 147 0
120 139 0
110 128 0
114 133 0
124 142 0
123 142 0
111 128 0
129 149 0
106 125 0
117 135 0
115 134 0
129 147 0
117 136 0
120 138 0
117 136 0
120 138 0
118 137 0
120 139 0
121 141 0
115 135 0
106 124 0
118 137 0
108 126 0
123 141 0
113 131 0
125 144 0
114 132 0
120 140 0
120 137 0
128 147 0
108 127 0
122 142 0
125 143 0
124 142 0
121 140 0
128 147 0
125 144 0
119 139 0
117 137 0
119 138 0
119 138 0
121 141 0
128 148 0
130 149 0
125 144 0
135 154 0
117 136 0
127 146 0
119 138 0
121 140 0
124 144 0
129 147 0
123 143 0
123 141 0
116 136 0
126 145 0
130 150 0
129 148 0
120 140 0
143 163 0
129 148 0
141 161 0
129 149 0
133 153 0
129 149 0
137 157 0
136 157 0
139 158 0
132 151 0
127 147 0
130 149 0
133 153 0
124 142 0
130 151 0
133 153 0
136 154 0
141 161 0
140 160 0
136 156 0
152 172 0
135 155 0
139 159 0
135 155 0
134 154 0
130 149 0
135 155 0
130 149 0
139 159 0
139 159 0
134 153 0
146 167 0
139 160 0
143 163 0
152 173 0
145 166 0
140 162 0
141 162 0
148 168 0
146 167 0
147 167 0
139 159 0
145 165 0
140 161 0
137 157 0
152 173 0
143 164 0
143 163 0
152 172 0
150 169 0
151 172 0
144 165 0
151 172 0
144 165 0
152 174 0
144 166 0
146 166 0
153 174 0
152 174 0
151 171 0
142 163 0
152 173 0
151 172 0
154 175 0
149 171 0
153 172 0
154 175 0
154 176 0
150 172 0
155 176 0
150 172 0
148 168 0
154 175 0
151 172 0
158 179 0
158 179 0
159 180 0
155 175 0
156 177 0
153 172 0
160 179 0
157 176 0
156 177 0
160 182 0
151 171 0
158 178 0
157 178 0
157 178 0
155 176 0
161 180 0
157 177 0
154 174 0
149 172 0
154 175 0
161 184 0
151 173 0
154 176 0
152 173 0
162 184 0
162 183 0
158 179 0
155 176 0
156 176 0
159 179 0
162 183 0
155 175 0
164 185 0
162 184 0
161 183 0
158 179 0
160 180 0
161 182 0
161 183 0
163 185 0
164 185 0
162 182 0
163 185 0
165 187 0
162 183 0
160 181 0
162 183 0
161 182 0
158 178 0
163 186 0
167 189 0
160 179 0
164 184 0
164 185 0
163 184 0
165 184 0
160 181 0
165 187 0
164 185 0
158 179 0
160 182 0
158 179 0
164 184 0
163 185 0
165 186 0
156 176 0
165 185 0
161 183 0
164 184 0
160 181 0
159 181 0
159 180 0
164 187 0
160 183 0
162 184 0
161 182 0
166 188 0
162 182 0
167 189 0
168 190 0
163 184 0
168 189 0
164 184 0
166 188 0
167 189 0
162 183 0
169 189 0
167 188 0
167 188 0
161 181 0
165 186 0
166 189 0
167 188 0
159 181 0
164 186 0
164 187 0
165 187 0
162 185 0
163 184 0
162 184 0
166 188 0
166 187 0
163 184 0
169 191 0
177 200 95
174 197 84
170 194 111
165 189 88
176 199 111
172 195 108
171 194 111
168 191 80
167 191 72
170 193 92
172 196 95
172 195 108
175 199 92
162 186 84
171 195 111
166 190 95
168 192 92
167 189 92
161 184 67
171 195 95
166 189 92
172 195 95
167 192 88
174 197 92
172 195 114
167 190 84
176 200 102
172 196 105
172 194 111
168 192 99
170 192 99
162 187 76
164 187 88
169 193 99
166 190 108
166 189 88
166 190 105
167 190 99
165 188 84
162 185 67
163 186 99
163 187 84
167 191 88
162 184 92
162 185 105
165 189 102
166 190 99
169 192 108
162 185 95
164 187 88
161 184 102
165 188 102
169 192 114
167 190 95
166 189 92
166 189 108
161 183 86
156 179 95
162 185 84
164 187 88
161 184 84
172 193 92
163 186 92
159 182 88
154 175 72
157 180 76
161 184 92
166 187 111
162 185 111
161 183 103
162 184 105
157 180 95
154 177 80
160 182 102
158 180 105
161 183 95
158 180 76
168 191 111
167 189 108
161 183 76
161 182 111
167 188 114
153 174 95
160 181 95
162 184 88
147 167 95
162 184 95
162 183 105
160 181 95
149 169 80
150 171 88
158 178 102
158 179 105
152 172 80
154 175 102
153 173 105
143 163 84
152 172 92
150 171 76
155 175 95
147 167 92
154 173 120
155 175 102
148 168 95
164 182 122
154 172 88
151 170 105
153 172 95
145 164 80
141 160 67
145 164 76
146 166 57
133 152 57
137 158 67
148 167 51
132 152 62
145 165 57
144 163 72
128 146 36
136 155 25
129 148 44
127 147 36
139 159 36
127 146 36
132 151 36
127 147 36
134 155 0
143 164 0
139 159 0
136 156 0
153 173 25
141 161 0
147 167 0
140 160 0
140 161 0
146 166 0
139 159 0
132 152 0
126 146 0
135 155 0
125 144 0
124 142 0
120 140 0
138 158 0
130 149 0
124 143 0
125 144 0
130 149 0
121 140 0
125 145 0
124 143 0
129 150 0
123 142 0
133 153 0
126 146 0
122 141 0
125 144 0
122 142 0
131 151 0
130 151 0
122 141 0
120 139 0
123 142 0
130 149 0
120 139 0
126 145 0
113 131 0
118 137 0
124 143 0
125 144 0
117 135 0
108 125 0
128 146 0
121 140 0
113 131 0
128 147 0
115 134 0
107 125 0
120 139 0
114 131 0
111 130 0
119 138 0
119 137 0
110 128 0
107 123 0
107 126 0
122 140 0
116 135 0
116 134 0
129 147 0
119 138 0
131 149 0
116 135 0
114 131 0
123 142 0
109 126 0
128 146 0
125 143 0
118 138 0
132 152 0
114 133 0
119 138 0
122 141 0
122 140 0
124 143 0
133 152 0
115 133 0
116 135 0
117 136 0
120 140 0
131 150 0
122 142 0
130 149 0
131 150 0
132 151 0
124 144 0
125 145 0
124 143 0
134 154 0
125 144 0
139 158 0
130 150 0
129 150 0
118 136 0
137 155 0
127 147 0
127 147 0
127 147 0
131 151 0
133 153 0
128 148 0
140 160 0
134 155 0
125 145 0
122 141 0
135 157 0
126 145 0
135 154 0
138 158 0
133 152 0
139 160 0
141 162 0
148 169 0
144 165 0
138 159 0
143 164 0
139 159 0
147 168 0
135 154 0
145 166 0
141 161 0
140 159 0
140 162 0
141 163 0
130 151 0
141 161 0
140 161 0
140 160 0
143 163 0
137 158 0
135 155 0
143 164 0
140 160 0
146 166 0
148 169 0
142 163 0
141 163 0
142 161 0
148 169 0
145 166 0
154 175 0
148 169 0
151 173 0
148 168 0
147 168 0
146 166 0
150 170 0
155 177 0
149 171 0
153 173 0
152 174 0
147 168 0
151 173 0
151 171 0
155 177 0
152 173 0
151 173 0
148 169 0
155 177 0
148 170 0
153 173 0
156 177 0
152 174 0
148 169 0
151 171 0
149 170 0
152 173 0
158 180 0
157 179 0
154 175 0
153 174 0
154 176 0
158 179 0
157 178 0
153 175 0
158 178 0
156 177 0
157 176 0
155 176 0
155 176 0
161 182 0
163 182 0
157 180 0
161 183 0
159 181 0
161 182 0
155 176 0
158 180 0
159 179 0
158 180 0
157 178 0
155 176 0
157 179 0
160 183 0
154 175 0
162 183 0
162 183 0
162 185 0
151 172 0
159 180 0
160 182 0
155 177 0
162 183 0
159 182 0
163 186 0
162 184 0
163 184 0
161 182 0
166 187 0
161 184 0
160 181 0
158 178 0
164 186 0
163 186 0
161 182 0
159 180 0
154 174 0
162 185 0
164 186 0
165 186 0
166 186 0
162 183 0
164 185 0
165 187 0
162 182 0
160 181 0
160 182 0
169 190 0
164 185 0
159 180 0
161 183 0
157 179 0
164 186 0
165 186 0
160 180 0
164 187 0
164 187 0
163 185 0
163 186 0
167 188 0
162 184 0
159 181 0
164 185 0
167 188 0
164 186 0
163 185 0
160 182 0
167 186 0
165 187 0
166 187 0
161 183 0
165 187 0
165 186 0
166 188 0
164 187 0
164 186 0
163 182 0
161 181 0
166 187 0
162 184 0
167 189 0
160 182 0
167 188 0
167 189 0
164 186 0
165 186 0
165 185 0
166 188 0
168 190 0
166 187 0
173 196 80
172 195 108
173 196 95
169 192 84
172 196 95
173 196 102
168 191 95
174 198 99
174 198 111
173 197 102
167 191 84
168 191 105
175 198 111
176 199 108
174 197 125
166 189 80
171 194 88
166 190 84
168 192 80
167 191 95
167 190 102
169 193 105
175 198 125
168 191 84
173 197 105
172 196 108
170 193 102
171 195 105
167 190 95
165 188 88
169 192 95
167 190 111
170 193 95
166 189 72
161 184 95
164 189 102
163 186 92
168 192 84
170 193 92
161 185 102
168 191 88
166 190 95
161 184 99
160 184 80
160 183 76
163 186 80
161 184 88
169 192 88
167 191 114
163 187 95
165 187 105
161 184 76
165 188 99
157 181 95
163 186 80
164 187 105
160 182 84
162 186 84
169 191 108
167 189 105
167 189 99
163 186 88
166 190 99
160 182 105
163 185 99
153 176 99
161 183 105
166 188 102
161 184 99
165 188 114
163 186 92
164 187 105
155 178 76
159 181 84
156 178 92
168 190 120
165 187 108
156 178 114
164 185 102
161 183 102
163 184 120
163 183 111
159 181 84
162 184 95
165 186 102
162 183 102
162 184 95
153 173 62
162 183 102
147 168 88
154 174 111
149 170 72
152 172 111
157 177 114
145 165 80
157 177 105
151 171 80
148 168 108
149 170 72
159 179 99
158 178 102
150 170 99
150 168 102
155 174 117
157 176 108
147 166 76
157 176 102
140 159 76
147 166 84
131 151 57
141 161 72
139 159 67
139 158 57
149 168 62
151 170 67
143 163 80
137 157 57
134 153 25
134 152 72
130 150 44
138 157 51
134 155 0
137 156 25
132 151 57
121 141 0
140 159 25
131 151 0
142 161 0
136 157 0
145 165 0
152 172 0
148 169 0
142 162 0
147 167 0
144 163 0
131 149 0
133 153 0
131 152 0
127 146 0
126 145 0
134 154 0
129 148 0
132 151 0
113 131 0
122 142 0
125 144 0
121 141 0
127 146 0
123 141 0
117 138 0
121 140 0
121 142 0
128 147 0
127 146 0
129 148 0
126 145 0
117 136 0
117 138 0
134 153 0
128 147 0
122 141 0
120 139 0
117 135 0
126 145 0
122 141 0
106 124 0
123 142 0
122 142 0
129 148 0
123 141 0
121 140 0
132 150 0
115 133 0
121 139 0
118 137 0
119 137 0
125 144 0
115 134 0
120 138 0
118 136 0
122 140 0
132 152 0
115 134 0
129 148 0
136 156 0
114 132 0
126 145 0
119 137 0
116 136 0
120 139 0
111 130 0
112 130 0
117 135 0
125 144 0
130 151 0
121 140 0
132 152 0
124 143 0
127 145 0
130 150 0
128 147 0
123 140 0
129 148 0
121 139 0
117 135 0
135 155 0
117 136 0
128 147 0
126 145 0
129 147 0
124 143 0
127 146 0
124 144 0
134 153 0
128 147 0
126 145 0
125 146 0
137 157 0
127 146 0
129 149 0
138 158 0
136 157 0
128 148 0
138 159 0
126 147 0
138 157 0
128 149 0
136 155 0
137 159 0
138 157 0
129 149 0
130 149 0
134 153 0
127 146 0
137 157 0
129 148 0
144 165 0
144 163 0
145 166 0
140 160 0
143 164 0
140 161 0
140 159 0
134 154 0
138 158 0
136 157 0
143 164 0
140 159 0
141 162 0
141 161 0
145 165 0
145 166 0
135 155 0
133 153 0
153 174 0
144 166 0
146 167 0
139 159 0
149 169 0
146 167 0
138 158 0
140 160 0
145 167 0
145 166 0
149 168 0
140 160 0
152 173 0
149 170 0
146 166 0
150 169 0
143 165 0
158 179 0
148 165 0
145 164 0
161 182 0
151 172 0
147 168 0
146 168 0
153 174 0
147 169 0
145 166 0
147 166 0
157 177 0
145 166 0
147 169 0
157 178 0
163 184 0
152 173 0
154 176 0
156 177 0
152 173 0
155 176 0
154 177 0
155 175 0
155 175 0
153 175 0
154 176 0
158 178 0
150 171 0
154 175 0
153 176 0
154 176 0
160 181 0
156 178 0
158 179 0
157 178 0
154 175 0
158 179 0
152 173 0
159 180 0
159 181 0
153 174 0
151 172 0
164 186 0
161 183 0
157 178 0
159 180 0
162 183 0
156 177 0
149 169 0
158 180 0
155 178 0
158 180 0
154 174 0
154 175 0
158 179 0
161 182 0
157 178 0
163 184 0
164 186 0
160 182 0
161 183 0
157 179 0
159 181 0
160 180 0
158 181 0
165 187 0
155 174 0
159 180 0
161 185 0
167 189 0
158 179 0
166 186 0
163 185 0
159 180 0
164 185 0
159 180 0
167 189 0
157 177 0
164 186 0
161 183 0
164 185 0
158 180 0
163 185 0
164 185 0
156 176 0
163 184 0
161 183 0
160 181 0
160 181 0
165 187 0
160 181 0
157 178 0
162 182 0
159 180 0
165 187 0
165 187 0
165 187 0
160 181 0
165 184 0
161 183 0
157 179 0
164 186 0
166 188 0
158 178 0
165 187 0
165 186 0
162 185 0
167 188 0
163 186 0
165 187 0
166 188 0
169 193 0
167 190 0
160 182 0
167 189 0
168 191 0
160 180 0
166 188 0
167 189 0
164 185 0
165 187 0
167 189 0
165 187 0
164 186 0
165 187 0
162 183 0
165 187 0
167 189 0
165 187 0
172 196 111
176 199 117
174 197 95
174 198 105
173 196 88
175 198 111
170 192 95
170 193 95
170 193 102
173 196 102
165 188 72
173 196 95
163 186 67
169 192 84
172 195 95
169 192 99
168 191 84
168 192 95
170 193 88
173 196 114
169 192 92
173 196 95
166 189 108
173 198 108
166 191 105
172 196 105
170 194 102
172 196 105
168 191 111
167 190 88
169 193 99
171 194 108
166 190 95
167 190 99
165 189 84
159 183 84
168 192 120
167 190 95
163 187 92
162 185 84
167 190 102
168 192 105
171 194 111
166 189 88
165 189 84
165 187 84
165 188 84
166 189 102
165 188 80
159 183 88
161 184 88
169 192 99
162 185 95
163 187 99
162 185 102
160 183 99
166 188 88
166 189 95
167 190 105
164 187 95
163 187 105
169 192 108
159 181 108
164 186 105
169 192 125
164 187 99
160 182 80
163 186 72
160 182 92
163 184 108
163 185 95
157 179 80
163 184 102
158 181 108
157 179 80
156 178 84
160 183 84
162 184 95
158 180 125
160 182 105
160 182 92
162 183 99
164 185 108
151 172 95
161 182 88
159 181 95
155 177 102
160 181 114
159 180 102
160 181 111
149 169 80
148 168 92
166 187 108
150 171 99
152 173 92
150 171 88
160 180 99
152 171 111
152 172 76
154 173 99
156 175 111
139 159 84
157 176 67
159 178 102
156 176 99
151 170 92
150 170 84
148 168 72
151 170 99
153 173 67
145 165 67
134 154 44
145 164 67
148 168 80
144 164 57
142 162 44
134 155 25
133 153 57
140 160 36
139 158 36
126 147 0
139 159 36
130 149 36
124 144 0
137 156 25
138 157 0
137 158 0
143 163 36
136 155 0
151 172 0
138 158 0
151 173 0
145 165 0
143 162 0
147 167 0
150 170 0
136 156 0
133 151 0
131 150 0
131 152 0
124 143 0
128 148 0
137 156 0
125 144 0
121 141 0
127 146 0
124 143 25
135 154 0
127 147 0
127 146 0
125 144 0
136 157 0
124 143 0
118 138 0
120 139 0
113 133 0
121 141 0
120 138 0
119 139 0
121 141 0
136 155 0
111 131 0
135 154 0
127 147 0
115 135 0
113 132 0
118 137 0
128 147 0
116 135 0
116 135 0
115 134 0
115 134 0
113 131 0
102 121 0
124 143 0
110 130 0
123 141 0
114 132 0
127 147 0
118 137 0
117 136 0
130 149 0
128 147 0
129 148 0
111 129 0
119 138 0
123 143 0
129 148 0
118 138 0
127 146 0
127 147 0
130 150 0
129 148 0
117 136 0
132 152 0
128 147 0
128 147 0
127 147 0
123 142 0
120 140 0
125 146 0
128 149 0
119 137 0
114 132 0
113 133 0
125 144 0
140 160 0
138 158 0
127 146 0
126 146 0
123 143 0
135 155 0
127 145 0
129 148 0
125 145 0
117 137 0
132 153 0
133 153 0
135 155 0
124 143 0
132 152 0
136 157 0
130 150 0
123 142 0
138 157 0
134 154 0
135 154 0
132 152 0
139 158 0
141 161 0
134 153 0
143 164 0
140 160 0
139 159 0
135 156 0
140 160 0
148 167 0
127 147 0
145 166 0
144 164 0
136 156 0
144 164 0
139 158 0
129 149 0
139 160 0
150 171 0
133 152 0
152 174 0
143 164 0
131 151 0
143 165 0
146 167 0
147 168 0
142 164 0
145 164 0
143 163 0
154 175 0
140 161 0
145 167 0
146 166 0
142 162 0
144 166 0
127 146 0
145 165 0
149 169 0
147 169 0
143 164 0
145 166 0
147 167 0
136 156 0
153 173 0
146 167 0
147 170 0
147 168 0
149 171 0
150 170 0
158 177 0
148 168 0
149 171 0
147 167 0
155 177 0
148 170 0
145 165 0
151 174 0
148 170 0
157 178 0
150 172 0
154 176 0
156 177 0
157 179 0
153 173 0
157 178 0
149 170 0
148 169 0
159 180 0
155 176 0
153 176 0
155 174 0
154 174 0
150 171 0
150 171 0
153 175 0
157 177 0
154 173 0
156 177 0
154 174 0
156 178 0
156 177 0
158 178 0
154 174 0
161 182 0
159 181 0
153 172 0
161 181 0
153 173 0
158 178 0
156 177 0
154 176 0
163 185 0
153 174 0
154 174 0
162 184 0
152 173 0
163 183 0
157 179 0
156 178 0
159 180 0
162 183 0
162 185 0
163 185 0
166 187 0
164 185 0
162 182 0
162 184 0
163 184 0
160 182 0
162 184 0
163 184 0
162 182 0
155 176 0
154 176 0
161 183 0
156 178 0
166 187 0
162 183 0
161 183 0
163 184 0
161 180 0
159 178 0
158 179 0
165 186 0
164 185 0
156 178 0
163 185 0
156 176 0
164 185 0
163 185 0
163 185 0
165 185 0
168 189 0
164 185 0
161 182 0
163 185 0
169 192 0
163 183 0
164 186 0
165 187 0
163 184 0
162 184 0
162 184 0
163 184 0
167 188 0
161 182 0
168 190 0
161 183 0
166 186 0
162 184 0
164 185 0
166 188 0
167 189 0
165 187 0
164 186 0
165 187 0
170 191 0
162 183 0
163 183 0
165 187 0
168 189 0
160 181 0
167 190 0
166 188 0
170 192 0
167 188 0
168 190 0
162 184 0
160 180 0
164 188 0
162 183 0
163 184 0
167 189 0
170 194 105
172 195 105
175 198 92
173 196 99
172 194 102
170 193 88
169 192 92
171 195 88
169 192 76
172 195 92
168 193 80
169 192 88
170 194 88
169 192 102
174 197 95
168 191 76
168 192 99
172 195 80
170 193 95
165 189 88
168 192 84
169 192 105
166 190 92
175 199 120
165 188 99
170 194 95
167 190 92
171 195 117
167 191 95
169 193 95
162 185 88
168 191 80
166 189 99
168 192 84
168 192 92
167 190 88
162 186 99
172 196 102
169 192 105
166 189 95
167 190 80
164 187 95
160 184 80
163 187 80
165 189 80
154 178 88
165 188 99
160 183 72
160 183 84
171 194 80
165 189 95
162 186 105
164 187 95
163 185 80
166 190 88
169 192 105
165 188 95
165 188 84
165 188 102
169 191 99
167 190 108
161 184 105
165 188 95
161 183 108
157 179 88
166 188 99
163 186 108
160 183 102
157 179 84
162 185 88
162 185 88
160 183 92
160 183 95
155 177 99
158 181 102
167 188 99
156 177 84
160 183 108
160 181 88
149 171 72
151 173 92
157 179 72
155 177 102
158 180 84
160 182 102
164 185 95
160 180 105
171 191 122
157 178 84
151 173 95
160 181 102
160 181 108
145 166 67
164 184 128
152 171 99
147 168 102
154 173 102
154 175 88
145 166 84
140 160 88
157 176 111
155 175 95
161 180 120
151 170 92
157 177 80
154 175 84
148 166 92
138 158 57
145 165 80
150 170 92
138 158 62
146 167 44
140 160 25
141 160 44
149 169 62
131 151 25
137 157 44
135 155 25
136 156 62
154 174 57
138 158 36
131 150 44
143 162 44
137 157 44
141 161 36
136 155 0
132 152 0
152 173 0
146 167 25
148 168 0
153 173 0
144 166 0
144 163 0
143 165 0
143 162 0
137 159 0
143 162 0
136 156 0
140 160 0
134 153 0
140 160 0
136 156 0
143 163 0
130 149 0
123 141 0
128 147 0
133 153 0
127 146 0
126 146 0
126 146 0
128 147 0
125 146 0
137 158 0
137 156 0
120 140 0
127 147 0
120 139 0
127 147 0
118 138 0
130 149 0
127 146 0
124 143 0
132 151 0
121 139 0
110 129 0
119 139 0
113 130 0
120 139 0
119 138 0
116 136 0
117 137 0
117 137 0
120 139 0
132 152 0
115 134 0
127 146 0
114 132 0
114 132 0
116 135 0
111 130 0
113 132 0
116 136 0
126 145 0
123 143 0
116 135 0
124 143 0
121 140 0
111 130 0
130 149 0
131 149 0
125 145 0
130 149 0
127 147 0
128 147 0
121 140 0
127 147 0
133 153 0
124 143 0
126 145 0
125 145 0
119 139 0
126 145 0
113 132 0
133 153 0
124 144 0
126 145 0
121 140 0
134 154 0
128 147 0
138 158 0
130 150 0
136 156 0
131 150 0
134 154 0
131 150 0
128 149 0
125 146 0
128 148 0
121 142 0
130 151 0
125 145 0
130 151 0
144 165 0
124 144 0
126 146 0
133 153 0
136 156 0
131 150 0
138 158 0
128 148 0
147 167 0
137 156 0
136 157 0
131 152 0
132 152 0
134 155 0
145 166 0
140 162 0
142 164 0
142 160 0
148 169 0
138 158 0
140 160 0
135 155 0
128 149 0
140 160 0
145 165 0
140 162 0
144 164 0
138 159 0
131 152 0
151 173 0
138 157 0
138 159 0
141 162 0
152 172 0
150 170 0
139 161 0
143 164 0
147 168 0
143 165 0
147 167 0
143 164 0
148 168 0
145 165 0
145 166 0
146 166 0
152 173 0
149 171 0
144 166 0
152 174 0
146 167 0
163 184 0
152 172 0
155 176 0
144 165 0
145 167 0
145 166 0
139 159 0
144 164 0
146 168 0
153 174 0
153 173 0
147 167 0
153 174 0
147 169 0
156 177 0
154 174 0
152 174 0
154 174 0
149 170 0
154 175 0
148 166 0
150 170 0
152 172 0
147 169 0
158 181 0
155 175 0
159 180 0
156 178 0
160 182 0
156 177 0
147 167 0
154 176 0
149 170 0
155 176 0
157 179 0
157 178 0
158 180 0
162 182 0
157 179 0
155 175 0
154 175 0
154 175 0
153 173 0
157 178 0
155 178 0
154 175 0
160 179 0
156 178 0
159 181 0
156 177 0
153 174 0
161 182 0
162 184 0
155 175 0
160 180 0
159 180 0
162 185 0
162 184 0
154 175 0
157 179 0
164 187 0
160 180 0
157 178 0
159 180 0
164 186 0
162 183 0
161 183 0
164 186 0
165 186 0
164 186 0
159 180 0
161 182 0
161 183 0
154 175 0
161 182 0
166 188 0
167 190 0
162 183 0
159 179 0
158 181 0
166 188 0
162 184 0
168 190 0
162 185 0
161 183 0
167 189 0
163 185 0
163 184 0
164 185 0
163 183 0
161 183 0
157 177 0
164 185 0
165 187 0
168 191 0
166 188 0
164 186 0
163 184 0
163 184 0
159 179 0
161 183 0
165 188 0
165 188 0
168 191 0
166 190 0
168 190 0
164 187 0
166 188 0
166 189 0
164 186 0
166 189 0
167 190 0
165 187 0
160 182 0
166 187 0
164 185 0
166 185 0
165 186 0
167 188 0
168 190 0
167 190 0
163 182 0
164 186 0
167 189 0
162 184 0
163 185 0
164 184 0
166 187 0
173 196 76
173 196 99
175 198 92
168 191 108
173 196 76
170 193 95
169 192 92
168 192 102
172 195 92
170 193 72
170 192 92
172 195 88
170 193 105
170 193 105
171 195 108
172 196 108
167 191 76
166 189 84
166 189 80
173 196 99
167 190 95
165 189 84
168 191 76
167 190 92
168 191 102
162 185 105
168 190 88
166 190 95
169 192 95
169 192 99
171 194 92
169 192 88
165 189 108
172 194 105
171 194 88
168 192 114
173 196 88
167 191 102
166 189 88
168 191 92
167 191 92
166 189 102
168 192 95
161 185 102
164 187 99
166 190 102
163 186 111
160 184 99
166 189 95
163 186 99
165 189 88
156 180 102
157 179 80
166 189 95
168 191 108
164 187 105
163 186 92
156 179 102
162 185 95
163 186 76
161 184 72
160 183 88
163 185 105
159 182 92
166 189 80
167 189 102
160 183 95
166 188 92
153 175 92
166 188 111
155 178 84
155 178 88
157 179 80
152 174 84
154 176 88
161 182 105
164 185 102
163 185 92
159 180 99
152 173 80
153 174 84
159 181 95
162 183 99
158 179 111
149 171 88
163 184 111
156 178 102
148 170 84
164 186 95
172 193 135
165 186 102
143 164 84
156 176 111
159 181 88
155 175 95
151 171 88
163 183 108
163 183 105
154 175 92
154 173 105
157 177 108
149 168 88
151 170 99
151 170 102
154 174 84
146 166 67
148 167 92
149 169 57
153 172 88
151 171 92
138 158 57
141 160 76
142 162 57
141 161 62
139 160 44
139 159 36
132 152 51
150 171 62
135 155 25
132 150 51
141 162 25
138 159 25
140 160 36
130 150 0
134 154 25
130 150 0
146 166 36
139 158 0
145 167 0
140 160 0
142 162 0
147 168 0
153 174 0
153 175 0
147 168 0
136 156 0
149 170 0
145 166 0
136 157 0
131 151 0
132 152 0
136 155 0
123 142 0
131 151 0
130 150 0
139 159 0
143 163 0
132 153 0
126 146 0
134 154 0
133 153 0
131 151 0
130 150 0
129 149 0
126 145 0
128 148 0
129 150 0
125 145 0
140 160 0
135 155 0
122 143 0
110 129 0
132 151 0
123 142 0
131 150 0
127 147 0
116 136 0
128 148 0
120 140 0
117 136 0
125 145 0
122 141 0
122 141 0
128 147 0
127 147 0
123 142 0
117 136 0
132 151 0
127 147 0
123 143 0
128 147 0
119 138 0
129 149 0
132 151 0
123 143 0
117 136 0
125 145 0
132 151 0
131 149 0
122 141 0
132 151 0
129 149 0
135 155 0
125 145 0
121 141 0
123 141 0
136 156 0
133 152 0
130 149 0
121 141 0
128 147 0
119 140 0
129 147 0
128 148 0
126 146 0
136 156 0
129 150 0
122 141 0
130 151 0
140 161 0
132 151 0
138 158 0
138 159 0
136 155 0
134 154 0
136 156 0
127 147 0
119 139 0
135 156 0
133 153 0
140 160 0
127 147 0
121 141 0
135 155 0
135 156 0
140 160 0
129 150 0
130 149 0
134 154 0
138 159 0
144 165 0
128 147 0
145 166 0
141 161 0
137 158 0
125 145 0
133 153 0
137 156 0
142 163 0
136 156 0
137 158 0
143 164 0
134 154 0
142 162 0
141 162 0
142 164 0
145 165 0
134 156 0
146 166 0
144 164 0
148 170 0
142 163 0
146 167 0
144 167 0
150 170 0
144 165 0
142 163 0
145 164 0
141 162 0
149 170 0
151 172 0
145 165 0
144 166 0
146 166 0
149 169 0
151 172 0
143 163 0
144 167 0
140 162 0
149 170 0
147 168 0
151 171 0
152 172 0
149 169 0
141 163 0
148 171 0
150 172 0
151 172 0
144 166 0
149 171 0
156 176 0
158 178 0
144 166 0
145 168 0
149 169 0
154 174 0
154 175 0
154 176 0
158 180 0
143 165 0
151 173 0
151 172 0
153 173 0
151 172 0
154 175 0
152 174 0
154 175 0
160 182 0
152 173 0
150 170 0
161 183 0
151 171 0
153 175 0
158 179 0
161 181 0
158 180 0
154 174 0
153 174 0
161 183 0
159 180 0
153 174 0
155 175 0
158 179 0
157 178 0
159 180 0
157 179 0
165 187 0
156 177 0
158 179 0
160 183 0
160 181 0
158 178 0
151 172 0
158 180 0
163 185 0
159 180 0
154 176 0
161 184 0
160 182 0
163 185 0
154 176 0
160 181 0
156 178 0
161 184 0
160 182 0
160 181 0
161 181 0
162 183 0
147 167 0
163 184 0
163 185 0
157 179 0
162 183 0
167 189 0
163 185 0
160 180 0
159 180 0
159 180 0
161 183 0
165 187 0
160 182 0
163 185 0
162 184 0
166 188 0
158 179 0
157 178 0
160 182 0
164 186 0
161 182 0
166 188 0
165 187 0
164 185 0
163 185 0
160 180 0
165 187 0
168 189 0
167 190 0
159 179 0
165 187 0
162 184 0
165 188 0
162 185 0
164 185 0
160 182 0
167 188 0
164 186 0
166 189 0
161 183 0
165 188 0
164 185 0
161 182 0
170 192 0
164 185 0
163 184 0
160 180 0
166 186 0
166 188 0
169 191 0
170 192 0
162 184 0
162 184 0
165 188 0
168 188 0
163 187 0
164 185 0
170 193 0
169 192 0
169 191 0
167 189 0
167 188 0
172 195 80
171 194 102
176 199 108
172 194 80
175 198 117
174 198 105
171 194 95
169 192 99
173 196 95
170 193 99
168 191 95
175 198 105
169 192 105
169 192 99
165 188 95
173 196 95
174 197 76
171 195 108
172 196 111
171 195 84
175 199 105
166 189 88
172 195 92
166 190 84
166 190 95
165 189 99
170 193 102
168 192 105
161 184 67
171 194 88
166 190 88
170 193 84
170 193 108
171 195 102
170 193 76
166 189 88
169 193 105
164 187 102
163 185 80
161 185 95
161 185 84
168 192 95
165 189 95
163 185 99
165 189 108
164 186 80
167 191 92
168 190 108
161 184 99
166 189 99
164 188 95
165 187 88
160 183 88
164 187 108
161 184 92
162 184 76
163 186 57
163 185 84
161 183 92
164 187 99
160 183 95
158 181 88
162 185 84
163 185 108
163 186 117
155 177 88
160 183 95
164 188 95
161 184 99
161 183 88
161 184 114
155 178 95
157 179 76
171 192 105
161 184 92
153 175 99
158 180 76
159 181 95
163 185 114
156 177 88
158 180 111
161 182 88
159 181 80
160 181 102
168 190 128
158 178 95
148 170 102
163 183 95
169 191 105
146 168 72
162 184 105
161 182 105
160 181 95
156 177 95
153 175 80
166 186 114
160 180 111
156 175 108
155 175 105
159 179 99
163 183 111
146 167 67
147 166 76
158 177 102
147 167 76
148 167 88
148 168 99
155 174 92
142 162 72
139 159 57
149 168 72
146 164 80
149 169 51
145 165 67
141 162 44
149 170 36
135 155 36
137 157 44
142 162 57
139 160 62
126 146 36
148 168 51
132 153 0
127 148 0
141 162 0
142 162 25
142 162 25
145 166 25
155 175 25
149 172 0
149 170 25
146 169 0
151 173 0
147 168 0
143 164 0
138 160 0
137 159 0
139 160 0
139 160 0
132 154 0
136 156 0
133 153 0
130 150 0
132 152 0
136 155 0
131 151 0
130 149 0
125 145 0
136 156 0
140 160 0
138 157 0
123 142 0
125 145 0
132 154 0
134 154 0
124 145 0
136 156 0
130 150 0
130 150 0
126 146 0
139 158 0
122 140 0
124 143 0
122 142 0
131 151 0
136 155 0
129 148 0
118 136 0
124 145 0
124 144 0
127 146 0
119 140 0
122 142 0
120 140 0
135 155 0
132 151 0
127 146 0
130 150 0
126 147 0
134 153 0
114 133 0
124 145 0
143 162 0
138 158 0
130 149 0
121 141 0
114 134 0
131 150 0
129 149 0
127 146 0
138 158 0
122 140 0
127 146 0
121 141 0
130 150 0
134 154 0
133 153 0
131 150 0
132 152 0
123 143 0
129 149 0
129 150 0
134 154 0
131 151 0
124 144 0
128 148 0
130 150 0
135 154 0
135 155 0
132 152 0
143 164 0
143 164 0
134 154 0
129 150 0
134 153 0
125 144 0
132 151 0
130 151 0
127 147 0
124 144 0
140 161 0
130 149 0
120 140 0
134 155 0
133 152 0
126 147 0
134 154 0
138 159 0
139 159 0
137 157 0
135 156 0
143 163 0
146 167 0
138 158 0
135 156 0
141 162 0
135 155 0
148 169 0
143 164 0
144 164 0
138 159 0
130 150 0
150 171 0
141 162 0
134 155 0
144 165 0
139 159 0
139 160 0
139 161 0
147 169 0
147 167 0
142 163 0
148 168 0
140 159 0
148 167 0
151 171 0
146 166 0
147 167 0
147 168 0
146 166 0
152 173 0
140 162 0
151 172 0
153 175 0
153 175 0
149 171 0
153 173 0
154 176 0
150 171 0
143 164 0
142 161 0
144 166 0
146 167 0
147 168 0
151 173 0
153 175 0
151 172 0
154 175 0
155 176 0
144 165 0
144 165 0
154 175 0
154 174 0
143 165 0
159 181 0
145 167 0
146 166 0
153 174 0
154 175 0
155 177 0
152 172 0
150 172 0
154 175 0
157 179 0
156 178 0
160 181 0
150 171 0
149 170 0
150 170 0
156 178 0
149 171 0
159 182 0
159 180 0
155 175 0
157 178 0
155 177 0
155 176 0
153 175 0
157 178 0
154 176 0
164 186 0
157 179 0
155 177 0
156 177 0
156 177 0
160 181 0
157 179 0
156 178 0
158 179 0
163 185 0
162 184 0
163 184 0
157 177 0
163 186 0
160 180 0
156 178 0
160 182 0
161 182 0
160 181 0
165 185 0
165 187 0
164 186 0
159 181 0
163 185 0
160 183 0
165 186 0
162 183 0
163 184 0
167 189 0
161 182 0
163 186 0
164 185 0
163 185 0
162 184 0
165 188 0
166 187 0
156 177 0
163 185 0
165 187 0
162 185 0
160 183 0
159 179 0
165 186 0
162 184 0
163 183 0
161 183 0
159 182 0
168 189 0
167 189 0
162 185 0
167 187 0
164 182 0
164 184 0
162 184 0
166 187 0
164 184 0
158 179 0
168 191 0
161 182 0
166 189 0
162 182 0
165 188 0
158 180 0
166 188 0
163 184 0
169 190 0
167 190 0
167 188 0
163 185 0
169 191 0
166 187 0
166 188 0
166 188 0
167 189 0
165 188 0
165 187 0
161 183 0
167 189 0
164 188 0
166 187 0
167 188 0
168 190 0
169 191 0
164 185 0
167 189 0
170 192 0
165 186 0
165 187 0
167 190 0
165 185 0
174 197 95
174 197 92
174 197 105
169 192 88
176 199 122
168 192 72
171 195 99
169 193 95
172 195 95
176 200 111
173 196 95
170 194 99
171 194 105
169 193 102
169 193 111
177 201 120
170 194 95
169 193 92
175 199 108
170 194 102
168 191 92
169 193 95
167 191 92
173 196 88
174 197 105
172 197 108
168 190 72
169 192 99
171 195 105
162 185 95
171 194 88
169 192 92
163 186 84
161 185 95
163 186 88
169 193 117
174 197 111
163 185 67
158 181 72
170 194 95
168 191 95
168 191 92
164 187 80
165 187 80
162 185 102
165 188 99
171 194 95
166 190 108
162 185 76
165 188 99
163 186 105
168 191 92
162 185 95
164 187 99
168 191 99
163 186 92
172 194 108
165 188 105
158 181 84
157 180 84
156 179 105
162 185 99
160 183 84
160 183 117
160 183 99
156 178 72
158 181 95
164 187 108
168 191 95
157 178 88
163 186 122
166 188 88
157 178 92
154 176 80
159 180 102
161 183 95
152 174 92
167 189 111
162 184 99
156 177 117
164 187 120
166 188 111
161 182 102
162 184 95
161 182 99
162 183 92
161 182 92
164 184 120
163 184 111
161 181 111
161 181 114
154 176 102
165 186 99
151 172 76
157 178 105
157 177 84
154 174 99
150 169 95
156 176 95
157 178 84
154 173 92
150 171 92
151 171 102
150 171 72
139 160 76
161 180 88
152 171 108
141 161 72
150 170 76
139 158 57
146 166 62
145 164 57
147 167 62
137 156 62
146 166 57
134 154 44
136 156 57
145 165 51
150 170 57
137 156 57
146 167 67
146 166 72
135 155 0
141 162 25
144 164 25
144 164 25
143 163 0
151 172 0
144 164 0
153 174 0
150 172 0
150 171 0
147 169 0
155 177 0
148 168 0
153 175 0
140 161 0
140 160 0
142 162 0
136 156 0
132 151 0
140 162 0
132 152 0
131 150 0
129 149 0
137 157 0
129 147 0
129 150 0
121 142 0
128 148 0
138 159 0
132 151 0
127 147 0
133 154 0
116 136 0
133 152 0
137 156 0
122 142 0
126 145 0
124 144 0
122 140 0
125 145 0
136 156 0
126 146 0
134 153 0
130 150 0
127 148 0
128 146 0
136 157 0
126 145 0
124 144 0
130 151 0
127 147 0
126 146 0
133 153 0
127 146 0
123 142 0
127 147 0
134 153 0
136 156 0
126 146 0
120 141 0
139 159 0
133 153 0
134 153 0
120 141 0
129 149 0
119 138 0
124 143 0
133 152 0
130 152 0
136 157 0
135 155 0
127 147 0
138 158 0
129 149 0
132 152 0
132 152 0
140 160 0
136 156 0
131 151 0
140 160 0
138 159 0
133 154 0
133 153 0
133 153 0
130 150 0
139 160 0
139 160 0
128 147 0
136 157 0
141 162 0
130 151 0
133 153 0
129 149 0
131 150 0
131 151 0
131 151 0
139 159 0
128 147 0
135 155 0
130 150 0
131 150 0
132 152 0
134 154 0
138 158 0
144 165 0
132 151 0
134 154 0
131 152 0
143 164 0
140 158 0
143 164 0
147 168 0
148 170 0
144 165 0
140 160 0
142 163 0
149 170 0
139 159 0
140 161 0
152 173 0
138 159 0
132 153 0
134 154 0
143 163 0
145 165 0
145 166 0
145 166 0
148 169 0
141 162 0
146 167 0
148 169 0
147 167 0
155 177 0
147 167 0
141 162 0
148 167 0
150 170 0
139 160 0
137 158 0
140 162 0
147 167 0
152 173 0
152 173 0
147 167 0
145 165 0
144 165 0
150 171 0
147 168 0
143 163 0
150 171 0
145 166 0
154 175 0
152 172 0
153 173 0
155 176 0
148 169 0
156 176 0
152 174 0
149 170 0
153 175 0
154 176 0
159 181 0
156 177 0
157 180 0
153 176 0
152 174 0
160 181 0
157 179 0
157 177 0
152 173 0
151 173 0
155 177 0
152 173 0
153 175 0
154 175 0
152 173 0
150 172 0
158 179 0
159 181 0
157 176 0
155 177 0
158 180 0
154 176 0
154 175 0
157 176 0
156 176 0
159 181 0
155 175 0
164 186 0
151 171 0
162 185 0
157 179 0
162 183 0
162 184 0
157 179 0
157 178 0
164 185 0
161 182 0
155 176 0
164 185 0
161 182 0
166 188 0
163 184 0
158 179 0
154 174 0
155 178 0
155 177 0
153 173 0
159 181 0
152 173 0
165 187 0
160 181 0
160 182 0
159 181 0
163 185 0
163 184 0
165 187 0
161 181 0
161 183 0
164 186 0
163 184 0
160 181 0
164 185 0
166 186 0
159 180 0
166 188 0
162 183 0
161 182 0
156 178 0
159 181 0
163 183 0
162 184 0
155 176 0
164 185 0
163 184 0
166 187 0
164 185 0
165 187 0
163 185 0
163 185 0
161 181 0
165 186 0
165 187 0
162 184 0
163 184 0
161 182 0
157 178 0
161 183 0
165 188 0
166 187 0
167 190 0
165 187 0
167 189 0
170 190 0
168 191 0
163 184 0
163 185 0
164 186 0
167 189 0
169 192 0
161 182 0
164 187 0
167 189 0
169 191 0
168 189 0
165 185 0
165 187 0
166 188 0
170 194 0
165 186 0
169 191 0
170 192 0
168 190 0
164 186 0
164 186 0
159 181 0
163 184 0
162 183 0
168 191 76
174 196 102
169 193 80
172 195 99
173 197 102
169 192 76
172 195 99
169 192 102
175 198 105
174 197 114
167 191 76
166 189 88
169 192 84
176 200 117
170 193 88
166 189 84
173 195 102
171 194 99
168 191 76
174 197 114
165 188 80
168 192 88
167 190 84
168 191 105
176 200 114
170 194 114
170 194 102
167 191 105
169 191 84
167 191 99
172 195 105
169 192 88
165 188 84
168 191 111
173 197 108
167 191 80
164 186 67
167 190 92
170 193 105
168 191 102
168 191 111
165 188 92
164 187 84
171 194 111
161 184 67
164 187 102
167 190 95
163 186 102
164 188 105
166 189 108
162 185 99
161 185 95
165 188 102
166 188 88
167 190 102
165 188 120
157 180 88
154 177 76
163 185 99
159 181 72
157 180 88
164 187 99
169 191 92
161 184 88
167 190 95
155 178 72
162 184 76
163 186 88
162 185 108
157 179 92
157 179 67
164 187 105
158 181 88
164 186 88
160 182 92
157 179 99
161 184 102
163 186 102
164 186 108
161 181 84
155 176 80
164 185 99
166 188 108
164 185 111
156 177 92
149 170 102
158 178 99
158 179 105
156 177 88
160 181 102
152 173 92
157 178 92
155 175 105
151 172 95
160 181 108
157 178 99
158 177 117
159 178 105
160 180 102
162 181 108
159 178 114
149 168 95
156 176 102
160 179 92
156 176 99
154 173 88
156 175 95
148 168 88
150 170 72
157 177 95
144 164 67
143 164 62
150 169 67
152 172 67
140 159 51
154 173 67
144 165 25
141 162 36
141 161 0
138 158 36
146 166 44
141 161 36
129 149 44
144 165 44
145 165 44
153 173 36
146 167 0
140 161 0
142 162 0
147 167 25
145 166 0
150 172 0
142 162 0
138 159 0
139 161 0
142 163 0
145 166 0
135 155 0
135 157 0
128 149 0
142 162 0
127 148 0
132 152 0
137 158 0
139 160 0
133 153 0
126 145 0
129 149 0
132 153 0
128 148 0
136 156 0
131 151 0
127 147 0
136 156 0
133 153 0
130 150 0
126 145 0
131 152 0
128 148 0
123 142 0
130 150 0
137 158 0
137 158 0
129 149 0
127 146 0
130 149 0
121 140 0
132 151 0
123 144 0
132 151 0
130 149 0
125 145 0
124 144 0
124 144 0
131 152 0
122 143 0
130 149 0
128 148 0
128 149 0
131 152 0
131 151 0
125 144 0
131 152 0
121 141 0
134 155 0
126 146 0
125 145 0
130 151 0
138 158 0
141 162 0
136 156 0
127 147 0
141 162 0
132 153 0
130 149 0
129 148 0
131 151 0
136 156 0
131 150 0
123 142 0
137 157 0
124 144 0
133 154 0
140 161 0
129 150 0
137 157 0
140 160 0
138 159 0
134 154 0
124 144 0
131 152 0
129 148 0
128 149 0
128 149 0
138 159 0
136 158 0
136 156 0
136 156 0
121 141 0
135 155 0
139 158 0
133 154 0
128 149 0
136 157 0
141 163 0
145 166 0
143 163 0
137 158 0
137 158 0
149 170 0
133 153 0
144 165 0
142 162 0
145 167 0
139 161 0
135 156 0
147 168 0
143 165 0
149 171 0
145 165 0
140 162 0
140 161 0
147 168 0
146 167 0
145 165 0
149 170 0
146 168 0
149 169 0
149 170 0
148 170 0
147 168 0
151 173 0
146 169 0
148 169 0
145 166 0
147 166 0
143 163 0
147 167 0
152 171 0
152 174 0
154 176 0
145 165 0
151 172 0
145 165 0
148 171 0
151 171 0
155 177 0
143 163 0
151 172 0
147 168 0
151 171 0
153 175 0
150 171 0
150 172 0
150 173 0
153 175 0
152 173 0
149 171 0
154 174 0
158 180 0
160 181 0
156 177 0
155 177 0
158 179 0
156 177 0
151 171 0
156 180 0
155 176 0
152 175 0
151 174 0
152 174 0
147 168 0
157 179 0
159 180 0
156 178 0
155 176 0
149 171 0
156 176 0
159 180 0
158 181 0
152 173 0
160 179 0
163 184 0
156 177 0
148 168 0
155 177 0
162 181 0
158 178 0
154 175 0
158 181 0
156 177 0
158 179 0
159 180 0
161 183 0
155 176 0
163 186 0
158 181 0
156 176 0
160 181 0
156 178 0
156 178 0
158 179 0
160 182 0
157 178 0
161 184 0
155 177 0
164 186 0
159 180 0
160 183 0
154 176 0
164 187 0
156 178 0
160 182 0
157 178 0
158 180 0
159 180 0
163 185 0
159 181 0
156 177 0
157 180 0
156 178 0
159 180 0
165 186 0
159 179 0
160 181 0
161 182 0
158 178 0
164 184 0
161 183 0
166 187 0
162 183 0
158 179 0
165 187 0
163 184 0
162 183 0
165 186 0
164 185 0
159 181 0
161 184 0
161 181 0
168 190 0
165 189 0
164 185 0
165 188 0
161 182 0
159 181 0
163 185 0
156 177 0
165 186 0
156 176 0
163 185 0
166 187 0
164 186 0
164 186 0
167 188 0
163 186 0
165 187 0
163 185 0
159 179 0
170 191 0
162 183 0
167 189 0
164 187 0
167 188 0
163 184 0
167 189 0
164 185 0
168 189 0
168 191 0
160 182 0
167 189 0
166 188 0
164 187 0
168 190 0
165 186 0
166 187 0
162 183 0
162 184 0
164 185 0
164 186 0
175 197 99
173 196 108
173 196 99
174 198 108
177 200 102
171 194 108
172 196 88
174 197 95
173 196 105
173 196 99
178 201 105
171 195 95
169 192 102
170 194 114
171 195 95
170 193 95
169 191 84
168 191 95
171 194 84
172 195 105
172 195 102
169 192 105
173 196 99
171 194 99
167 191 92
172 195 99
170 193 102
168 191 76
170 192 72
167 190 102
169 192 84
169 193 80
172 195 111
169 193 76
166 189 95
170 193 80
165 188 92
168 191 108
168 192 99
168 192 105
162 185 99
169 193 117
166 190 108
165 187 88
165 189 111
163 187 92
167 190 105
161 185 57
164 186 102
166 190 102
156 180 80
166 189 105
168 191 88
166 189 102
165 188 117
159 181 88
168 191 95
161 185 95
162 184 95
158 180 84
161 184 105
163 186 102
161 184 99
162 185 102
160 183 105
159 181 102
163 186 92
149 171 72
171 193 122
149 171 92
160 183 105
166 189 108
164 186 84
160 181 105
167 188 105
156 178 92
159 181 80
157 179 105
169 190 111
162 184 95
159 180 108
159 180 95
159 181 105
162 184 92
163 184 80
165 186 122
160 181 114
161 182 108
165 187 105
161 182 99
157 178 88
156 177 95
165 185 88
157 177 108
149 170 84
161 181 105
163 184 95
150 170 88
164 183 111
160 181 95
152 172 88
150 170 95
159 179 95
157 178 72
147 167 84
154 174 95
155 175 88
152 171 99
150 169 88
142 163 44
150 170 67
138 158 36
152 173 57
138 159 57
149 168 80
143 165 44
146 166 44
143 164 25
143 165 36
145 166 51
143 164 25
146 167 36
141 162 44
143 163 0
142 163 0
140 162 25
146 167 0
145 166 0
143 165 0
150 171 0
150 172 0
157 177 0
156 178 0
146 166 0
143 164 0
150 171 0
152 175 0
139 159 0
132 152 0
134 155 0
133 154 0
142 162 0
134 155 0
142 162 0
139 161 0
134 155 0
132 152 0
135 156 0
126 146 0
125 146 0
138 159 0
139 159 0
133 153 0
127 148 0
141 162 0
133 152 0
125 146 0
128 148 0
137 157 0
136 156 0
126 147 0
138 159 0
136 155 0
126 146 0
125 144 0
130 149 0
123 142 0
132 151 0
127 146 0
124 145 0
128 148 0
131 150 0
130 150 0
131 151 0
132 152 0
134 153 0
129 149 0
118 139 0
128 147 0
123 144 0
130 149 0
130 151 0
134 155 0
129 148 0
124 144 0
122 141 0
128 148 0
121 140 0
123 142 0
127 148 0
140 161 0
128 148 0
129 149 0
142 163 0
128 146 0
133 154 0
135 155 0
141 162 0
130 151 0
129 149 0
131 151 0
128 148 0
138 160 0
139 159 0
134 153 0
132 152 0
137 157 0
136 156 0
131 152 0
135 156 0
136 157 0
130 151 0
128 147 0
135 156 0
134 154 0
131 150 0
128 148 0
128 149 0
131 151 0
137 158 0
140 162 0
131 150 0
144 163 0
142 164 0
138 159 0
138 158 0
138 159 0
139 160 0
142 162 0
145 164 0
142 163 0
136 157 0
143 163 0
139 160 0
148 168 0
142 163 0
140 160 0
144 165 0
136 157 0
140 160 0
147 167 0
149 169 0
142 163 0
134 155 0
146 168 0
149 170 0
145 166 0
141 161 0
155 176 0
141 162 0
147 166 0
142 163 0
148 170 0
147 166 0
147 168 0
147 169 0
145 167 0
145 167 0
150 171 0
147 168 0
153 174 0
145 166 0
152 174 0
147 169 0
151 172 0
153 175 0
150 171 0
148 170 0
143 163 0
140 162 0
151 172 0
148 169 0
148 168 0
151 173 0
144 165 0
150 172 0
141 162 0
151 172 0
158 178 0
147 168 0
147 169 0
149 170 0
144 165 0
151 173 0
145 165 0
155 178 0
155 177 0
155 177 0
158 179 0
159 179 0
153 174 0
153 174 0
155 176 0
149 170 0
153 174 0
155 177 0
156 176 0
156 179 0
158 181 0
155 177 0
161 182 0
159 182 0
151 173 0
161 183 0
153 175 0
156 179 0
154 176 0
160 181 0
152 174 0
156 177 0
156 178 0
165 186 0
162 183 0
160 182 0
159 182 0
161 183 0
154 176 0
162 184 0
164 186 0
161 180 0
160 182 0
158 179 0
161 182 0
161 182 0
162 184 0
160 182 0
160 181 0
150 170 0
165 188 0
158 179 0
156 176 0
162 184 0
160 181 0
159 180 0
158 180 0
160 181 0
164 184 0
159 181 0
162 182 0
160 182 0
161 181 0
161 183 0
166 188 0
164 186 0
161 183 0
161 182 0
160 181 0
167 189 0
166 186 0
160 183 0
166 187 0
160 183 0
158 179 0
166 189 0
163 183 0
162 185 0
166 187 0
166 189 0
165 187 0
166 188 0
166 187 0
167 189 0
164 186 0
161 183 0
159 181 0
162 184 0
164 187 0
165 186 0
166 188 0
166 188 0
165 187 0
158 180 0
166 188 0
164 185 0
166 188 0
167 189 0
162 184 0
165 187 0
164 186 0
167 188 0
170 191 0
168 190 0
162 183 0
169 191 0
165 187 0
165 187 0
170 191 0
166 190 0
167 190 0
164 187 0
166 188 0
167 190 0
170 192 0
163 184 0
167 188 0
168 191 0
169 189 0
165 188 0
165 187 0
165 187 0
168 192 80
170 193 88
174 197 114
172 196 122
175 198 102
172 195 80
173 196 95
167 190 99
171 195 133
172 195 88
170 193 92
164 187 84
172 196 108
166 190 88
172 195 99
174 197 111
171 194 92
173 196 111
171 194 122
171 195 99
170 194 99
168 192 99
173 197 114
176 199 108
168 191 95
168 191 95
166 190 76
172 196 111
170 193 99
164 188 99
164 187 105
168 191 88
172 195 95
170 194 105
171 194 117
165 188 88
163 186 99
165 188 88
171 195 102
167 191 114
167 191 88
165 188 102
165 188 111
163 186 80
166 190 95
163 186 99
163 187 108
166 189 111
165 188 102
158 180 80
165 188 114
154 177 72
163 187 95
168 191 95
166 189 92
173 196 108
166 189 108
156 179 76
160 183 111
164 186 76
164 186 84
162 183 76
155 177 80
161 184 99
161 183 122
173 196 130
168 190 99
165 187 80
159 181 92
166 188 111
166 188 105
156 180 99
159 182 102
167 189 102
154 176 88
161 184 99
158 180 88
157 178 80
164 185 111
163 184 84
156 177 99
162 183 95
156 177 95
156 178 102
168 189 102
165 186 102
158 179 122
162 183 88
158 178 62
153 174 88
162 184 95
151 172 80
163 185 95
160 181 92
159 179 99
166 186 102
163 182 99
155 176 84
151 171 102
158 177 108
160 181 88
157 177 95
153 172 88
159 179 92
156 177 92
158 178 105
155 175 80
150 170 72
154 173 88
153 173 95
146 167 57
148 169 44
155 177 44
153 174 67
151 171 57
143 165 25
140 161 0
141 162 62
142 163 36
141 161 36
151 171 51
130 150 0
146 168 36
146 167 25
139 159 36
146 167 25
147 167 25
143 163 36
132 154 0
146 167 0
151 173 0
139 160 0
143 163 0
147 169 0
149 170 0
153 174 0
145 166 0
145 165 0
141 163 0
139 160 0
137 158 0
145 167 0
134 154 0
135 155 0
139 160 0
144 165 0
136 157 0
136 157 0
130 151 0
130 150 0
139 158 0
141 161 0
127 145 0
137 158 0
132 152 0
125 147 0
128 148 0
137 157 0
131 152 0
136 156 0
132 152 0
134 155 0
117 137 0
133 152 0
132 152 0
131 152 0
128 148 0
123 144 0
127 146 0
123 143 0
137 157 0
122 142 0
120 140 0
136 156 0
122 141 0
133 153 0
128 148 0
132 152 0
134 154 0
128 148 0
132 150 0
131 150 0
134 153 0
122 142 0
126 146 0
133 154 0
124 144 0
129 150 0
138 158 0
132 153 0
128 147 0
128 147 0
130 150 0
130 150 0
129 149 0
136 156 0
129 148 0
132 153 0
131 151 0
139 159 0
134 154 0
141 162 0
129 149 0
141 160 0
139 158 0
127 148 0
129 149 0
129 148 0
122 143 0
130 152 0
134 155 0
131 150 0
136 157 0
133 153 0
136 157 0
137 157 0
130 151 0
148 168 0
132 152 0
137 157 0
143 164 0
132 153 0
133 154 0
140 161 0
138 158 0
136 155 0
136 157 0
136 154 0
136 157 0
140 161 0
142 163 0
143 164 0
131 154 0
142 163 0
148 169 0
139 158 0
139 162 0
147 168 0
140 161 0
138 160 0
146 165 0
149 171 0
139 160 0
142 162 0
143 165 0
148 168 0
144 165 0
150 172 0
144 165 0
146 167 0
147 168 0
145 165 0
138 159 0
147 168 0
148 170 0
150 170 0
150 171 0
149 170 0
143 164 0
152 172 0
150 172 0
143 164 0
151 173 0
151 173 0
149 171 0
153 174 0
150 171 0
143 165 0
145 166 0
150 173 0
157 178 0
150 170 0
146 167 0
145 165 0
152 174 0
155 176 0
155 175 0
152 174 0
154 175 0
157 179 0
153 174 0
152 173 0
158 180 0
152 174 0
149 171 0
152 172 0
156 177 0
159 180 0
153 172 0
152 172 0
146 167 0
155 176 0
155 177 0
150 172 0
147 169 0
159 179 0
154 177 0
149 171 0
157 180 0
154 176 0
161 184 0
156 179 0
157 179 0
161 184 0
158 178 0
154 175 0
162 183 0
151 171 0
157 178 0
157 179 0
152 172 0
161 183 0
156 177 0
159 181 0
155 176 0
159 181 0
158 179 0
162 183 0
151 171 0
162 186 0
160 181 0
157 178 0
158 179 0
159 181 0
155 175 0
161 182 0
162 184 0
157 178 0
163 186 0
157 178 0
156 177 0
160 182 0
159 182 0
162 184 0
156 177 0
158 179 0
159 180 0
161 182 0
161 183 0
160 181 0
160 180 0
161 183 0
163 185 0
162 184 0
162 182 0
162 184 0
163 182 0
164 186 0
160 181 0
164 186 0
161 184 0
165 188 0
160 183 0
160 181 0
163 184 0
160 182 0
163 185 0
160 179 0
166 188 0
160 182 0
167 187 0
165 185 0
163 184 0
163 184 0
164 185 0
162 183 0
160 181 0
168 190 0
166 187 0
165 187 0
160 180 0
162 184 0
166 188 0
164 186 0
162 184 0
168 191 0
162 183 0
162 183 0
168 190 0
164 185 0
167 190 0
160 183 0
168 192 0
161 181 0
167 190 0
164 185 0
165 185 0
167 188 0
170 192 0
168 190 0
169 193 0
174 194 0
168 189 0
164 187 0
167 189 0
162 185 0
170 192 0
166 188 0
168 191 0
166 189 0
176 199 117
177 200 95
173 196 88
172 196 92
169 193 102
169 193 80
171 195 88
171 195 76
176 198 105
172 196 105
169 193 105
169 191 67
166 190 88
170 194 102
171 194 102
166 190 84
173 196 128
171 194 95
169 192 95
175 198 105
170 193 102
167 190 95
173 196 117
168 191 92
167 189 99
172 195 105
160 183 84
170 194 105
168 192 102
169 192 67
171 195 108
166 189 99
166 190 92
172 194 105
166 189 95
166 188 92
165 188 88
168 192 105
169 192 95
168 191 84
167 190 105
162 185 102
160 183 108
167 190 99
164 187 84
159 182 80
171 194 105
165 188 88
163 186 99
170 193 111
159 182 72
168 191 99
161 183 84
166 189 105
168 191 99
170 192 92
163 186 76
171 193 117
153 175 88
164 186 92
169 192 117
160 183 92
165 187 92
165 187 105
160 182 88
157 179 80
164 186 108
160 182 92
154 176 88
159 180 80
165 187 108
159 181 67
151 173 72
161 183 88
157 178 92
167 189 111
159 180 84
162 184 125
165 187 111
159 181 117
154 176 92
157 178 92
155 176 92
162 184 99
150 172 108
159 179 76
159 179 111
161 183 92
156 177 105
162 183 102
158 179 84
155 176 80
155 175 92
158 178 108
153 174 105
160 180 108
161 182 99
161 181 111
155 174 88
156 176 108
162 182 76
159 179 95
169 188 111
155 174 99
142 162 62
153 174 76
151 170 84
153 173 95
148 169 67
155 177 57
146 166 44
132 152 57
145 164 51
145 165 51
142 163 36
145 166 44
152 173 51
146 166 44
148 168 44
146 166 44
142 163 36
148 169 0
140 161 36
147 167 25
144 166 36
146 168 0
134 155 0
144 165 25
153 174 0
140 161 0
146 166 0
148 170 0
155 176 0
150 172 0
152 173 0
147 168 0
144 163 0
136 157 0
137 157 0
140 160 0
137 158 0
149 169 0
138 158 0
142 163 0
142 163 0
136 157 0
138 159 0
137 159 0
129 149 0
136 157 0
131 152 0
125 145 0
135 156 0
132 151 0
131 152 0
142 162 0
115 136 0
141 162 0
138 159 0
121 142 0
140 161 0
137 156 0
132 152 0
124 144 0
137 158 0
138 159 0
128 149 0
119 139 0
131 151 0
130 150 0
128 148 0
131 151 0
129 150 0
141 162 0
125 145 0
130 151 0
131 151 0
134 155 0
138 158 0
125 145 0
134 154 0
133 152 0
129 148 0
136 157 0
135 157 0
137 156 0
138 157 0
142 163 0
133 153 0
127 147 0
132 152 0
143 164 0
132 152 0
129 149 0
128 148 0
139 160 0
136 157 0
128 149 0
134 154 0
127 148 0
127 149 0
130 150 0
142 162 0
129 150 0
124 144 0
137 157 0
138 159 0
126 147 0
138 158 0
132 153 0
128 149 0
145 165 0
137 156 0
128 149 0
140 161 0
143 164 0
132 152 0
127 149 0
130 152 0
143 166 0
137 157 0
133 154 0
125 146 0
141 162 0
147 168 0
138 159 0
139 160 0
144 165 0
137 158 0
138 160 0
139 160 0
140 160 0
141 162 0
146 167 0
145 166 0
147 166 0
146 167 0
144 164 0
145 166 0
142 163 0
149 170 0
145 167 0
140 161 0
150 171 0
148 170 0
148 169 0
140 161 0
151 172 0
149 170 0
142 163 0
145 166 0
143 163 0
148 169 0
147 168 0
144 164 0
156 177 0
152 174 0
151 174 0
154 175 0
151 173 0
151 173 0
148 169 0
147 168 0
148 167 0
154 176 0
149 171 0
152 173 0
157 179 0
154 175 0
152 173 0
153 175 0
147 169 0
151 172 0
152 172 0
148 171 0
152 174 0
155 177 0
152 174 0
154 177 0
153 174 0
153 177 0
154 176 0
150 171 0
158 180 0
146 168 0
155 177 0
159 181 0
153 176 0
148 168 0
152 173 0
157 177 0
156 178 0
159 181 0
159 180 0
157 178 0
154 177 0
157 179 0
150 171 0
158 180 0
157 177 0
156 178 0
160 181 0
160 182 0
161 182 0
154 176 0
157 179 0
151 173 0
156 177 0
156 177 0
156 178 0
160 182 0
151 174 0
152 175 0
161 184 0
157 178 0
159 182 0
160 182 0
158 179 0
152 172 0
160 182 0
160 182 0
159 180 0
162 184 0
159 181 0
160 182 0
155 177 0
159 181 0
164 186 0
162 185 0
166 187 0
165 187 0
160 181 0
161 182 0
158 179 0
159 182 0
163 185 0
162 185 0
161 183 0
164 185 0
162 184 0
164 186 0
164 184 0
159 180 0
163 186 0
161 182 0
165 187 0
159 181 0
159 180 0
158 180 0
166 187 0
164 186 0
165 187 0
165 188 0
162 183 0
161 183 0
158 179 0
166 190 0
157 179 0
163 184 0
167 189 0
162 183 0
167 188 0
164 185 0
164 186 0
167 188 0
163 185 0
164 185 0
161 183 0
161 183 0
170 192 0
164 186 0
161 183 0
165 187 0
164 186 0
162 184 0
160 182 0
164 186 0
164 186 0
164 187 0
157 179 0
160 182 0
166 188 0
163 184 0
166 188 0
168 190 0
164 186 0
166 189 0
161 183 0
161 183 0
165 188 0
167 188 0
159 180 0
168 189 0
168 190 0
159 181 0
163 185 0
169 191 0
169 191 0
164 185 0
168 190 0
174 196 92
170 193 88
171 194 95
170 194 95
171 194 99
172 196 102
172 195 76
173 196 105
172 196 95
174 197 117
173 196 114
169 192 92
175 198 128
171 194 105
173 197 102
169 192 102
172 195 105
169 193 92
169 193 102
168 192 80
167 190 80
165 189 95
168 192 99
171 195 102
170 194 92
169 192 102
168 191 76
170 194 111
174 197 99
169 193 99
169 192 102
168 190 92
165 188 88
166 188 84
165 188 102
173 198 105
170 193 108
171 194 114
173 197 99
169 192 76
166 189 108
166 189 92
162 186 84
165 188 76
166 189 114
153 177 62
164 188 95
161 184 92
168 191 111
167 190 105
167 190 88
166 188 99
166 189 80
165 188 88
159 182 108
162 184 105
164 186 84
165 188 95
165 188 108
170 194 125
164 187 99
157 180 84
157 179 92
164 186 95
159 180 88
162 183 95
159 180 99
163 186 117
158 181 62
167 188 108
171 193 111
165 187 99
164 186 108
160 182 99
159 181 95
161 182 92
164 186 88
160 183 102
156 178 84
161 182 88
163 184 111
159 180 99
164 186 92
155 176 105
155 176 84
158 178 95
159 180 88
159 180 84
159 180 114
159 180 99
159 180 102
164 185 108
152 172 99
162 182 99
155 176 92
157 177 111
156 176 102
163 183 114
158 179 92
157 178 99
159 179 105
155 175 92
162 182 88
159 178 80
155 174 102
155 174 95
151 172 84
149 169 76
156 176 88
155 176 88
153 173 80
148 167 57
144 166 36
154 174 44
147 167 51
146 167 44
152 173 25
138 158 25
147 167 36
152 174 0
143 165 44
152 173 0
147 169 25
145 166 25
147 169 36
146 168 36
151 173 25
143 165 0
151 172 0
155 178 25
155 176 25
151 171 0
146 167 0
153 176 0
147 169 0
146 167 0
147 169 0
146 166 0
142 164 0
145 165 0
134 156 0
141 162 0
134 155 0
133 152 0
147 168 0
141 161 0
143 163 0
134 155 0
140 160 0
138 160 0
130 150 0
132 153 0
131 151 0
144 163 0
133 154 0
132 152 0
141 162 0
142 162 0
142 162 0
124 143 0
140 161 0
133 153 0
128 149 0
130 150 0
131 151 0
143 164 0
129 150 0
138 159 0
128 147 0
132 154 0
131 152 0
135 156 0
134 153 0
120 141 0
138 159 0
139 159 0
131 151 0
141 162 0
135 155 0
122 143 0
136 156 0
128 147 0
140 160 0
130 151 0
131 151 0
129 150 0
137 158 0
137 157 0
132 152 0
131 151 0
134 155 0
137 157 0
134 153 0
128 148 0
137 157 0
132 152 0
127 148 0
118 139 0
133 154 0
133 153 0
136 157 0
133 153 0
136 155 0
136 156 0
137 157 0
136 157 0
131 152 0
139 158 0
141 162 0
128 149 0
146 167 0
144 165 0
134 154 0
147 167 0
132 152 0
143 164 0
137 157 0
141 161 0
126 145 0
137 159 0
136 157 0
137 158 0
130 151 0
143 162 0
141 161 0
134 155 0
135 157 0
136 157 0
141 162 0
134 155 0
130 150 0
141 163 0
145 167 0
131 153 0
148 170 0
148 170 0
145 166 0
143 163 0
138 159 0
143 163 0
148 171 0
149 170 0
141 162 0
143 164 0
140 160 0
138 159 0
146 167 0
143 164 0
143 164 0
138 159 0
147 168 0
146 168 0
145 167 0
143 164 0
146 168 0
153 174 0
150 172 0
149 170 0
140 161 0
146 169 0
147 168 0
152 174 0
156 177 0
150 171 0
142 162 0
148 169 0
142 162 0
152 172 0
143 164 0
146 168 0
150 170 0
152 174 0
155 176 0
147 168 0
153 175 0
156 176 0
161 183 0
157 178 0
154 177 0
154 175 0
154 176 0
153 175 0
147 167 0
155 176 0
152 173 0
155 177 0
155 176 0
154 175 0
148 169 0
152 173 0
154 175 0
160 181 0
160 182 0
154 177 0
154 174 0
152 175 0
154 174 0
161 183 0
158 179 0
159 181 0
154 177 0
150 170 0
153 174 0
155 177 0
161 183 0
153 175 0
153 174 0
157 179 0
159 182 0
153 176 0
157 179 0
155 177 0
161 183 0
160 182 0
159 180 0
165 186 0
157 179 0
161 183 0
162 185 0
161 183 0
160 183 0
165 187 0
158 180 0
154 176 0
155 177 0
160 181 0
165 186 0
157 177 0
167 189 0
158 180 0
160 180 0
162 185 0
162 183 0
166 188 0
163 185 0
161 182 0
162 186 0
161 183 0
164 184 0
162 183 0
159 181 0
164 187 0
160 181 0
163 185 0
159 180 0
164 186 0
157 178 0
167 188 0
166 188 0
164 186 0
162 184 0
161 183 0
163 186 0
165 186 0
169 192 0
165 188 0
165 188 0
165 186 0
164 187 0
163 184 0
164 186 0
165 187 0
167 188 0
164 187 0
159 182 0
166 188 0
169 191 0
164 186 0
165 186 0
164 186 0
165 186 0
165 186 0
164 186 0
168 189 0
160 182 0
165 186 0
165 188 0
164 186 0
166 187 0
167 190 0
165 188 0
168 189 0
163 185 0
166 188 0
165 187 0
163 185 0
164 187 0
164 185 0
168 191 0
173 194 0
171 193 0
163 183 0
165 186 0
170 192 0
168 191 0
165 188 0
168 189 0
163 184 0
170 193 0
166 189 0
176 198 105
177 199 114
169 192 84
171 194 99
173 196 99
171 194 122
172 196 111
172 195 76
173 196 72
167 190 102
171 194 105
173 197 102
168 191 88
172 197 111
168 191 99
174 197 133
169 193 92
169 192 84
177 200 108
170 194 102
166 190 84
171 194 95
169 193 114
167 191 72
167 191 95
166 189 84
166 190 102
165 189 95
167 191 99
171 195 105
172 195 114
173 196 105
157 181 80
171 195 92
164 187 84
165 187 88
168 192 102
164 186 80
166 189 80
166 189 92
164 187 92
165 189 105
165 189 84
166 190 105
161 185 92
164 187 80
162 184 88
165 187 88
162 185 76
159 182 62
169 191 102
160 183 99
160 183 102
164 187 105
164 187 99
161 183 102
163 186 80
161 184 102
165 187 95
162 185 99
164 187 84
164 187 99
165 188 92
160 184 102
156 178 92
162 184 95
166 189 111
164 185 72
165 187 99
160 183 92
156 177 76
167 188 102
159 181 76
166 188 117
165 187 92
167 188 111
159 181 95
156 177 84
158 179 120
154 176 84
159 180 102
163 184 111
160 181 95
160 180 88
155 177 80
160 181 108
157 178 72
157 178 88
156 177 105
162 183 95
154 175 95
162 183 88
162 183 102
155 175 102
157 178 88
156 177 72
158 178 72
158 178 88
165 185 111
158 178 80
163 182 102
151 172 88
158 178 105
156 176 92
161 181 105
157 177 99
154 174 80
157 177 84
152 172 67
150 171 62
142 162 57
157 177 67
140 162 25
159 180 67
144 165 51
149 170 44
150 172 36
144 164 25
143 164 36
147 169 36
148 169 25
148 169 36
151 173 25
146 168 0
144 164 44
153 175 0
149 171 0
147 169 0
151 173 25
149 170 25
154 175 25
154 176 0
150 173 0
155 177 0
150 172 0
147 168 0
127 148 0
149 170 0
137 158 0
133 155 0
143 163 0
139 161 0
135 157 0
137 158 0
125 146 0
143 164 0
129 151 0
128 148 0
141 161 0
135 156 0
140 161 0
134 155 0
138 158 0
132 152 0
126 146 0
134 155 0
131 151 0
133 153 0
145 166 0
129 149 0
131 152 0
131 150 0
135 155 0
135 155 0
139 159 0
140 161 0
130 150 0
136 156 0
126 146 0
132 151 0
139 159 0
134 154 0
124 144 0
130 149 0
129 150 0
125 145 0
141 162 0
135 156 0
139 159 0
134 154 0
139 160 0
125 145 0
135 156 0
131 151 0
134 154 0
128 148 0
126 146 0
144 165 0
139 160 0
139 159 0
138 160 0
133 153 0
136 157 0
146 165 0
126 146 0
130 150 0
133 154 0
130 150 0
136 157 0
137 156 0
128 148 0
140 161 0
137 157 0
145 166 0
133 153 0
140 159 0
138 158 0
139 160 0
131 151 0
137 157 0
141 162 0
129 151 0
139 159 0
130 151 0
139 160 0
132 152 0
147 168 0
137 159 0
134 155 0
141 161 0
145 166 0
143 164 0
139 160 0
140 161 0
142 163 0
133 153 0
138 158 0
143 164 0
142 163 0
144 165 0
141 161 0
142 163 0
148 169 0
150 170 0
148 168 0
147 169 0
147 169 0
148 169 0
142 164 0
142 164 0
150 171 0
148 171 0
148 171 0
152 174 0
137 157 0
149 171 0
141 162 0
141 164 0
145 167 0
150 172 0
151 172 0
152 173 0
151 171 0
146 167 0
143 165 0
145 167 0
150 171 0
150 171 0
149 171 0
153 174 0
153 174 0
148 168 0
149 172 0
152 173 0
149 171 0
156 178 0
145 167 0
149 171 0
153 175 0
145 167 0
148 169 0
149 171 0
146 166 0
143 164 0
157 180 0
151 173 0
153 174 0
150 171 0
153 175 0
148 169 0
153 175 0
156 175 0
154 175 0
145 166 0
154 176 0
156 178 0
155 175 0
157 179 0
146 168 0
155 175 0
152 174 0
155 177 0
153 173 0
151 174 0
156 178 0
157 179 0
150 171 0
154 176 0
157 179 0
155 177 0
159 181 0
158 180 0
158 181 0
159 181 0
157 180 0
158 179 0
160 182 0
159 180 0
159 182 0
156 175 0
158 180 0
154 176 0
164 187 0
163 185 0
161 183 0
161 183 0
156 177 0
158 178 0
158 180 0
157 180 0
153 174 0
165 188 0
160 183 0
158 180 0
155 176 0
158 177 0
161 182 0
162 183 0
158 179 0
163 184 0
162 183 0
159 180 0
160 182 0
160 182 0
162 183 0
161 183 0
161 182 0
164 185 0
164 186 0
160 181 0
165 187 0
163 186 0
160 181 0
160 182 0
164 187 0
159 182 0
167 190 0
161 183 0
161 183 0
164 186 0
165 186 0
166 188 0
167 190 0
162 184 0
167 189 0
164 186 0
163 184 0
161 183 0
167 191 0
165 187 0
167 188 0
162 185 0
163 185 0
162 183 0
166 188 0
168 190 0
161 182 0
167 189 0
166 188 0
166 188 0
163 184 0
164 185 0
160 181 0
163 186 0
167 188 0
163 186 0
166 188 0
164 186 0
162 183 0
162 184 0
166 188 0
168 189 0
164 186 0
167 190 0
163 185 0
168 190 0
168 190 0
166 188 0
167 188 0
163 185 0
167 190 0
168 189 0
167 189 0
166 188 0
167 190 0
164 185 0
166 189 0
163 183 0
167 188 0
165 188 0
174 197 111
174 197 95
172 196 76
172 195 111
171 194 108
170 194 92
170 193 105
170 194 95
174 196 111
173 196 95
174 197 117
167 191 80
172 196 88
173 196 102
171 195 99
164 187 88
172 195 95
175 198 80
167 191 95
171 194 92
173 197 117
169 191 92
176 199 114
172 195 102
169 192 92
171 194 92
166 189 67
161 184 92
164 188 102
174 198 102
168 191 80
166 190 92
171 194 102
163 185 92
160 183 88
167 190 99
171 194 105
173 196 95
167 189 88
168 191 92
168 190 80
161 184 102
162 185 88
172 195 102
164 187 88
169 192 102
161 184 84
163 186 84
169 191 92
166 189 88
165 188 102
170 193 95
168 191 105
168 191 95
165 188 99
159 182 88
159 182 105
163 187 111
167 189 95
165 186 88
156 179 99
159 181 62
170 192 95
164 186 120
163 185 102
160 182 92
158 180 76
163 186 92
161 182 80
158 180 117
164 186 111
161 183 105
159 181 114
166 190 99
154 177 67
157 178 95
153 175 88
163 185 105
158 180 84
152 173 92
159 181 88
157 178 105
156 177 84
161 182 108
155 176 95
164 185 117
154 175 76
164 185 114
154 174 102
153 173 102
158 179 99
152 171 88
158 179 111
154 175 88
160 180 95
162 183 111
168 189 125
155 175 105
158 179 80
172 192 108
156 177 80
146 168 51
161 181 92
153 174 92
159 180 88
151 171 67
152 173 76
153 174 72
158 178 92
154 174 76
152 173 36
159 179 67
143 165 51
153 174 72
152 172 51
145 167 44
142 163 25
148 168 44
139 160 25
142 164 0
143 164 0
146 167 36
153 175 25
150 172 36
140 161 0
150 171 0
149 170 0
155 177 36
157 178 36
147 169 0
154 177 0
152 174 0
141 163 0
147 169 0
146 167 0
144 166 0
144 166 0
144 166 0
143 164 0
136 159 0
135 155 0
140 162 0
145 165 0
133 152 0
141 162 0
134 155 0
140 161 0
141 161 0
138 159 0
139 159 0
145 163 0
138 159 0
135 157 0
130 151 0
127 148 0
144 164 0
138 159 0
140 161 0
145 167 0
138 159 0
135 156 0
135 155 0
121 141 0
136 157 0
136 157 0
137 158 0
139 160 0
135 155 0
140 160 0
136 157 0
130 150 0
135 157 0
135 156 0
137 157 0
120 140 0
142 162 0
133 154 0
137 158 0
126 147 0
131 152 0
136 156 0
140 160 0
133 153 0
132 152 0
135 155 0
131 151 0
144 165 0
140 162 0
137 158 0
128 149 0
134 153 0
142 161 0
139 159 0
138 159 0
137 157 0
133 153 0
141 161 0
138 158 0
139 160 0
137 159 0
124 144 0
134 154 0
142 162 0
125 145 0
130 152 0
141 161 0
132 151 0
139 160 0
140 161 0
135 156 0
136 159 0
146 167 0
144 164 0
129 151 0
133 155 0
136 157 0
144 165 0
133 154 0
134 155 0
140 162 0
146 166 0
145 164 0
141 162 0
132 154 0
146 166 0
146 168 0
146 168 0
140 160 0
148 169 0
141 161 0
141 163 0
138 160 0
138 159 0
144 166 0
147 169 0
148 169 0
149 171 0
144 165 0
144 164 0
139 160 0
147 169 0
138 160 0
142 164 0
144 165 0
151 174 0
141 162 0
136 159 0
146 166 0
151 171 0
152 174 0
155 176 0
151 172 0
148 169 0
148 169 0
147 168 0
147 169 0
151 173 0
151 173 0
148 170 0
153 175 0
145 167 0
145 168 0
150 172 0
146 167 0
151 173 0
148 170 0
153 174 0
143 165 0
153 175 0
154 175 0
146 168 0
147 169 0
141 162 0
153 175 0
154 175 0
153 174 0
155 178 0
152 174 0
151 173 0
154 175 0
156 177 0
157 178 0
152 175 0
157 179 0
157 179 0
152 173 0
153 174 0
156 179 0
160 181 0
154 176 0
159 180 0
154 176 0
152 174 0
163 185 0
158 179 0
154 176 0
154 177 0
162 185 0
153 176 0
158 180 0
157 180 0
154 175 0
156 177 0
153 175 0
159 180 0
163 184 0
157 178 0
158 180 0
152 173 0
155 177 0
153 174 0
161 182 0
162 183 0
164 187 0
152 173 0
159 181 0
154 174 0
152 173 0
154 176 0
162 184 0
159 181 0
160 181 0
159 182 0
160 181 0
160 182 0
158 179 0
157 178 0
158 180 0
164 187 0
162 184 0
154 175 0
162 184 0
162 184 0
163 186 0
164 186 0
164 187 0
164 186 0
161 183 0
157 178 0
160 182 0
163 184 0
160 182 0
162 184 0
163 185 0
161 182 0
160 182 0
162 183 0
159 180 0
165 187 0
156 177 0
153 175 0
166 188 0
161 183 0
163 185 0
160 180 0
158 178 0
163 185 0
163 184 0
165 186 0
165 187 0
165 186 0
162 184 0
160 182 0
165 187 0
169 191 0
166 188 0
167 190 0
168 191 0
167 189 0
160 182 0
160 182 0
166 189 0
166 187 0
165 185 0
164 186 0
166 186 0
168 191 0
167 189 0
165 188 0
165 186 0
163 185 0
164 186 0
163 186 0
161 183 0
167 189 0
164 185 0
166 187 0
165 187 0
167 191 0
166 188 0
169 191 0
169 192 0
164 186 0
165 186 0
167 189 0
168 191 0
163 183 0
166 188 0
166 186 0
166 187 0
176 199 99
172 195 95
170 194 102
170 193 102
173 196 99
175 198 105
167 190 88
175 198 114
173 196 105
175 197 105
174 197 105
172 195 92
169 192 92
170 193 95
175 198 102
173 196 111
173 195 80
171 195 102
167 191 117
174 197 111
166 190 76
169 193 84
167 190 99
174 197 92
170 193 102
172 195 80
170 194 105
161 185 95
169 192 105
165 188 72
174 197 80
162 185 92
164 187 95
168 192 88
170 193 92
167 190 84
159 182 95
170 193 99
171 194 102
166 189 88
166 188 92
158 181 99
173 196 105
168 191 84
159 183 84
161 183 88
158 181 92
167 190 95
168 190 102
162 185 105
158 180 95
159 181 67
158 181 92
160 183 92
163 186 92
162 184 76
168 189 88
166 190 105
163 185 105
168 191 111
164 186 88
169 192 99
162 184 80
165 187 95
163 185 84
161 182 92
160 182 84
164 186 108
160 182 88
159 181 105
161 184 76
164 186 102
168 190 105
166 188 105
161 183 99
163 185 111
169 191 135
157 179 95
153 175 84
167 189 125
156 177 84
159 181 105
157 178 92
169 190 120
164 185 95
164 185 105
167 189 105
154 175 76
160 180 92
151 171 84
169 190 102
172 192 120
150 170 105
161 182 108
168 189 108
154 175 76
161 182 99
162 182 95
156 177 92
165 187 92
163 184 111
161 181 114
166 186 111
161 182 80
161 181 95
152 172 76
155 175 92
153 174 62
157 177 72
152 173 67
148 169 44
156 179 36
145 166 51
160 182 62
153 174 62
149 170 25
146 168 36
143 165 36
145 166 0
136 158 36
147 168 25
135 157 25
144 167 0
148 169 25
150 171 0
150 170 0
137 158 36
151 173 0
160 182 0
152 174 0
151 173 0
152 175 0
156 178 0
153 176 0
153 175 0
146 168 0
147 168 0
152 174 0
151 173 0
143 164 0
149 172 0
141 162 0
133 155 0
134 155 0
143 164 0
143 164 0
141 161 0
143 164 0
131 152 25
146 168 0
135 155 0
135 157 0
135 155 0
138 159 0
141 161 0
138 158 0
139 158 0
142 163 0
137 158 0
135 156 0
141 162 0
132 153 0
139 158 0
138 158 0
123 142 0
139 159 0
128 147 0
125 145 0
140 161 0
135 156 0
136 158 0
132 153 0
137 158 0
135 156 0
129 149 0
140 161 0
137 158 0
136 157 0
138 159 0
142 163 0
128 149 0
137 159 0
129 150 0
141 162 0
145 167 0
132 152 0
131 152 0
137 158 0
134 156 0
120 140 0
142 162 0
128 149 0
129 150 0
129 150 0
139 159 0
139 160 0
133 152 0
129 149 0
135 155 0
139 160 0
137 156 0
125 146 0
139 160 0
138 159 0
145 164 0
135 157 0
139 160 0
137 158 0
145 167 0
138 158 0
136 157 0
131 152 0
137 158 0
140 160 0
139 160 0
133 154 0
140 161 0
141 162 0
144 164 0
137 158 0
135 155 0
147 169 0
139 161 0
139 160 0
145 166 0
147 168 0
147 169 0
139 160 0
142 163 0
142 163 0
141 163 0
140 161 0
137 158 0
142 162 0
145 167 0
149 171 0
131 152 0
143 165 0
149 170 0
150 172 0
151 172 0
141 162 0
148 170 0
141 162 0
143 163 0
148 169 0
141 163 0
153 175 0
159 181 0
149 171 0
148 170 0
149 170 0
153 174 0
144 166 0
146 167 0
146 167 0
147 167 0
145 167 0
157 179 0
145 167 0
152 174 0
144 165 0
161 183 0
152 174 0
153 173 0
158 179 0
147 168 0
155 176 0
153 175 0
150 173 0
148 169 0
147 169 0
152 172 0
156 178 0
153 176 0
150 172 0
153 174 0
154 175 0
154 175 0
152 173 0
148 170 0
155 176 0
156 178 0
160 181 0
152 173 0
160 182 0
149 171 0
158 181 0
154 177 0
150 171 0
160 183 0
158 179 0
157 180 0
157 179 0
158 180 0
154 174 0
160 182 0
156 178 0
154 175 0
156 178 0
161 182 0
157 179 0
155 175 0
158 180 0
157 179 0
161 183 0
159 181 0
157 178 0
155 178 0
160 180 0
163 185 0
167 189 0
160 183 0
156 176 0
159 181 0
157 177 0
158 180 0
159 183 0
158 180 0
155 178 0
155 177 0
161 182 0
155 177 0
162 184 0
160 182 0
155 178 0
158 180 0
158 179 0
164 187 0
156 178 0
158 180 0
161 183 0
164 187 0
160 182 0
162 184 0
157 178 0
162 183 0
162 185 0
159 180 0
165 188 0
159 181 0
158 180 0
167 189 0
162 183 0
166 188 0
161 183 0
164 186 0
157 178 0
164 185 0
161 183 0
165 187 0
162 184 0
163 185 0
164 186 0
164 184 0
160 181 0
162 183 0
161 183 0
166 189 0
163 186 0
166 189 0
167 189 0
165 187 0
164 185 0
166 188 0
166 188 0
160 182 0
164 184 0
166 189 0
166 188 0
167 189 0
167 189 0
162 183 0
165 187 0
162 184 0
166 188 0
167 190 0
168 189 0
168 190 0
161 183 0
165 187 0
168 190 0
164 185 0
163 184 0
167 189 0
168 189 0
165 187 0
165 188 0
164 186 0
170 193 0
167 189 0
166 188 0
166 188 0
169 192 0
166 187 0
162 183 0
168 190 0
168 189 0
168 190 0
167 189 0
169 192 92
171 194 84
173 196 111
171 194 76
170 194 88
176 199 105
169 192 80
169 192 88
176 199 99
171 195 99
169 192 92
170 194 95
169 193 95
174 197 95
168 190 102
172 195 95
172 195 92
173 197 95
171 194 92
171 194 108
170 193 92
169 192 80
175 198 125
174 197 114
171 195 108
167 190 99
173 196 99
166 189 67
164 187 80
166 190 84
163 185 76
169 192 105
169 192 108
169 192 92
169 192 99
171 195 95
169 193 114
166 189 92
173 196 108
164 187 102
167 190 99
173 196 108
162 185 88
174 197 108
171 194 108
165 188 108
161 184 80
169 192 102
169 193 120
167 190 108
159 181 102
166 188 76
163 187 99
165 188 105
161 184 88
169 191 125
160 182 88
167 190 95
163 185 88
160 182 102
158 180 92
158 180 102
165 187 99
161 184 84
161 184 95
160 182 99
161 184 88
164 186 92
158 179 92
166 189 80
165 187 102
162 184 108
159 180 76
165 187 95
154 176 95
161 184 102
150 171 80
169 191 84
164 186 84
161 182 72
160 181 99
168 189 102
171 192 117
160 181 80
158 179 105
159 180 92
161 182 92
157 178 88
162 182 108
164 185 102
165 186 105
149 170 92
155 176 84
166 186 99
161 181 99
156 176 108
158 179 84
161 182 99
165 186 99
156 176 80
154 174 88
150 171 72
152 173 80
156 176 72
153 174 67
157 177 95
162 182 102
156 177 76
153 174 57
156 176 80
145 167 51
154 176 57
163 185 51
156 176 67
145 166 36
149 171 36
152 174 25
136 157 36
139 161 0
150 171 25
144 166 0
138 160 25
143 165 0
146 168 25
150 172 0
154 176 0
146 167 0
155 178 0
154 175 25
153 174 0
153 174 0
160 182 0
155 176 0
155 178 0
149 171 0
147 169 0
146 169 0
141 162 0
146 167 0
144 166 0
137 159 0
143 164 0
145 167 0
139 160 0
140 161 0
133 155 0
150 171 0
141 161 0
141 162 0
134 154 0
143 163 0
139 160 0
139 160 0
139 160 0
126 146 0
138 159 0
133 154 0
142 163 0
136 156 0
135 157 0
137 158 0
135 156 0
136 156 0
137 158 0
139 160 0
133 154 0
139 159 0
134 156 0
140 161 0
139 160 0
129 149 0
135 155 0
138 158 0
135 156 0
128 148 0
138 158 0
126 146 0
133 153 0
135 155 0
134 155 0
137 158 0
134 154 0
137 157 0
124 145 0
133 153 0
133 153 0
135 155 0
145 165 0
139 161 0
135 156 0
135 156 0
134 155 0
138 159 0
132 153 0
132 151 0
139 160 0
136 158 0
137 157 0
142 163 0
139 160 0
147 169 0
145 166 0
136 156 0
149 171 0
135 157 0
137 158 0
138 159 0
132 152 0
132 152 0
137 158 0
129 152 0
139 160 0
145 167 0
130 151 0
140 161 0
134 155 0
147 168 0
134 156 0
137 158 0
152 173 0
145 165 0
136 156 0
143 162 0
146 167 0
142 163 0
146 165 0
144 167 0
138 159 0
138 158 0
133 154 0
146 167 0
149 170 0
139 160 0
143 164 0
147 168 0
139 160 0
144 164 0
136 157 0
149 171 0
139 159 0
143 165 0
144 164 0
151 173 0
146 166 0
139 161 0
141 163 0
144 165 0
145 167 0
147 166 0
147 168 0
147 169 0
147 168 0
149 171 0
143 164 0
155 176 0
151 173 0
149 171 0
143 163 0
146 167 0
159 181 0
143 165 0
143 165 0
153 175 0
140 162 0
156 179 0
142 164 0
148 169 0
150 173 0
144 165 0
150 172 0
150 173 0
155 177 0
155 176 0
156 177 0
152 174 0
145 167 0
148 171 0
155 176 0
152 173 0
152 174 0
157 180 0
155 177 0
157 179 0
156 177 0
157 179 0
158 181 0
158 179 0
159 180 0
161 182 0
150 171 0
151 172 0
155 175 0
153 174 0
151 172 0
158 179 0
157 177 0
157 178 0
158 180 0
161 183 0
151 173 0
154 176 0
154 175 0
159 181 0
163 184 0
161 182 0
155 178 0
161 184 0
161 183 0
163 185 0
159 179 0
156 177 0
157 179 0
167 189 0
158 180 0
158 179 0
161 182 0
158 179 0
156 178 0
161 183 0
162 183 0
157 178 0
163 185 0
162 186 0
159 179 0
157 179 0
164 185 0
162 184 0
156 176 0
155 179 0
159 181 0
164 187 0
162 184 0
159 181 0
159 180 0
163 185 0
159 180 0
158 179 0
160 183 0
164 186 0
168 190 0
163 186 0
159 181 0
161 184 0
162 183 0
159 181 0
160 182 0
162 183 0
167 187 0
163 184 0
168 191 0
162 184 0
162 183 0
170 192 0
165 188 0
166 188 0
164 186 0
163 185 0
167 189 0
163 184 0
161 183 0
167 189 0
160 183 0
167 188 0
166 189 0
168 190 0
163 184 0
165 187 0
162 185 0
169 191 0
167 189 0
161 183 0
164 186 0
163 186 0
162 185 0
165 186 0
165 186 0
165 188 0
162 183 0
163 187 0
166 188 0
169 190 0
165 185 0
162 183 0
164 186 0
159 179 0
168 192 0
168 190 0
162 184 0
166 187 0
167 191 0
167 190 0
166 187 0
170 191 0
167 189 0
164 187 0
166 188 0
165 186 0
166 187 0
169 191 0
163 186 0
170 193 76
176 198 111
173 196 99
173 196 88
168 191 102
175 198 133
168 191 99
173 196 102
168 191 92
166 188 88
174 196 80
169 192 88
175 197 111
170 193 99
168 192 67
170 194 80
174 197 120
175 198 105
166 189 80
170 193 99
168 191 99
171 194 88
171 194 92
171 195 88
167 190 72
169 193 102
171 195 108
171 194 92
169 192 80
173 197 120
171 194 111
167 191 108
168 191 105
166 189 88
169 193 108
167 190 92
163 185 88
168 191 88
160 183 88
171 194 105
167 191 108
163 186 88
164 187 99
173 195 105
165 189 95
160 183 92
168 190 105
167 189 102
169 192 111
167 190 105
159 181 76
167 189 105
173 196 105
159 181 99
168 190 92
167 189 95
164 186 102
166 189 80
163 186 99
165 188 99
160 182 105
169 191 108
167 189 95
157 179 95
166 188 105
162 184 92
160 184 88
159 181 105
170 192 114
161 183 92
165 187 95
153 174 92
160 182 92
170 192 108
164 186 102
171 193 105
166 189 95
161 183 102
159 180 102
149 170 76
165 187 80
163 184 92
162 183 102
162 183 111
157 178 99
159 180 105
159 181 88
162 183 92
158 179 95
157 179 92
163 183 125
154 174 76
160 181 99
164 184 108
163 184 105
157 178 92
162 182 76
171 191 120
154 174 72
162 183 62
166 185 95
159 180 102
158 179 99
160 180 95
163 184 92
161 182 88
157 178 72
155 176 80
152 171 80
152 174 44
143 164 51
148 170 44
147 168 44
152 173 62
152 172 51
145 166 57
138 160 25
146 168 25
158 179 51
149 171 36
144 165 57
146 168 0
150 172 44
148 169 25
153 174 25
148 169 25
161 183 0
155 177 0
150 172 0
144 167 0
155 177 0
146 167 0
146 167 0
154 176 0
151 173 0
149 171 0
148 169 0
136 157 0
148 170 0
142 164 0
140 160 0
147 168 0
145 166 0
146 167 0
136 156 0
152 173 0
138 159 0
142 163 0
155 176 0
133 153 0
140 161 0
139 160 0
137 158 0
143 164 0
139 160 0
145 167 0
145 165 0
136 156 0
146 167 0
134 155 0
136 158 0
137 158 0
140 161 0
140 161 0
132 152 0
135 157 0
132 154 0
124 144 0
133 153 0
134 155 0
135 155 0
131 151 0
137 157 0
129 150 0
145 165 0
137 157 0
130 151 0
124 143 0
129 151 0
139 160 0
143 163 0
136 158 0
139 160 0
145 167 0
129 149 0
135 157 0
132 152 0
141 162 0
145 165 0
135 155 0
137 158 0
132 153 0
130 151 0
138 159 0
148 169 0
139 160 0
149 169 0
135 155 0
146 167 0
141 162 0
145 166 0
137 157 0
151 173 0
135 157 0
140 161 0
129 151 0
135 155 0
132 153 0
137 159 0
136 158 0
141 163 0
137 157 0
143 165 0
131 151 0
149 172 0
147 170 0
143 162 0
144 166 0
136 158 0
139 160 0
142 163 0
150 172 0
142 162 0
146 168 0
129 150 0
150 171 0
142 164 0
137 158 0
144 164 0
144 166 0
143 164 0
141 163 0
148 170 0
142 164 0
146 168 0
147 168 0
141 162 0
151 173 0
145 164 0
148 170 0
146 166 0
150 171 0
145 167 0
148 168 0
135 156 0
150 172 0
143 164 0
151 173 0
146 167 0
151 173 0
154 175 0
138 160 0
137 159 0
148 171 0
146 169 0
149 170 0
154 175 0
157 180 0
143 166 0
152 174 0
153 174 0
156 178 0
141 162 0
161 182 0
144 165 0
150 172 0
154 176 0
150 172 0
147 169 0
155 178 0
147 168 0
159 181 0
147 169 0
153 176 0
153 175 0
154 176 0
155 178 0
160 184 0
159 180 0
155 177 0
151 172 0
152 174 0
158 180 0
149 170 0
155 177 0
159 180 0
155 177 0
159 182 0
163 184 0
155 177 0
151 174 0
164 186 0
161 183 0
149 171 0
150 172 0
155 179 0
160 182 0
157 179 0
161 185 0
153 176 0
162 182 0
152 173 0
155 177 0
157 180 0
152 173 0
159 181 0
157 179 0
155 176 0
153 175 0
161 184 0
157 178 0
159 180 0
157 180 0
159 182 0
157 177 0
160 184 0
158 180 0
153 174 0
156 178 0
154 175 0
162 183 0
162 183 0
160 182 0
158 180 0
157 179 0
157 178 0
164 186 0
160 181 0
158 178 0
157 178 0
163 186 0
160 181 0
158 182 0
159 180 0
160 182 0
164 185 0
160 181 0
161 183 0
165 186 0
166 189 0
166 188 0
162 184 0
156 177 0
161 183 0
166 188 0
165 186 0
162 183 0
165 188 0
162 183 0
158 181 0
165 187 0
162 185 0
160 182 0
164 186 0
166 186 0
167 189 0
166 188 0
165 189 0
166 187 0
161 183 0
164 187 0
166 189 0
165 187 0
163 185 0
164 185 0
166 188 0
166 189 0
168 190 0
169 190 0
170 193 0
167 189 0
169 192 0
168 190 0
169 191 0
166 186 0
167 189 0
167 189 0
166 187 0
165 187 0
166 188 0
162 184 0
166 188 0
165 188 0
163 186 0
166 190 0
167 190 0
168 190 0
165 187 0
168 191 0
168 188 0
165 186 0
166 187 0
167 191 0
167 188 0
163 185 0
166 186 0
167 189 0
164 186 0
171 194 0
169 192 0
173 195 99
174 197 84
174 197 114
177 200 102
177 200 117
176 200 120
171 194 80
172 195 95
172 195 99
172 195 111
171 194 62
169 192 72
170 193 76
175 197 117
174 197 99
164 188 92
167 190 92
167 190 67
170 193 92
171 194 95
167 190 100
171 195 76
169 192 88
164 187 80
169 191 99
171 195 111
171 194 102
169 192 84
169 192 88
170 193 102
172 194 88
168 191 99
163 187 84
168 190 76
167 191 105
169 191 92
166 190 102
163 187 105
165 187 99
174 197 88
170 192 76
162 185 95
166 190 95
167 191 99
165 188 102
162 185 102
167 190 80
164 187 92
170 191 92
166 189 95
164 187 88
166 189 88
159 182 88
162 184 84
165 188 108
165 187 95
167 190 99
173 196 108
164 187 72
161 183 72
166 190 99
165 187 105
163 185 88
161 183 102
165 187 102
164 186 88
164 185 99
161 183 76
165 188 117
162 184 88
161 183 88
167 188 99
175 197 117
151 173 88
161 181 99
165 187 92
164 186 95
161 183 95
152 173 72
157 179 76
161 182 108
153 174 67
156 179 84
172 192 102
157 177 99
158 178 114
168 189 108
160 181 92
162 183 95
159 179 108
162 183 102
164 185 111
151 172 72
169 189 108
162 182 92
161 181 99
162 183 105
163 184 111
157 177 95
160 180 102
158 178 88
169 189 99
158 178 92
159 180 88
142 162 67
161 181 95
156 177 72
150 170 88
155 174 84
151 171 62
152 173 67
155 176 62
154 175 44
160 182 44
150 172 36
152 173 44
158 179 36
158 180 44
156 177 25
149 171 25
146 168 44
145 167 25
147 167 44
153 175 0
157 177 36
150 172 25
154 176 0
152 174 0
150 171 0
158 180 0
147 169 0
155 176 0
158 181 0
153 175 0
152 174 0
150 172 0
152 173 0
149 171 0
141 162 0
148 169 0
146 168 0
148 169 0
147 169 0
143 165 0
144 165 0
139 161 0
149 170 0
140 162 0
141 163 0
137 158 0
148 170 0
140 162 0
134 154 0
137 158 0
147 168 0
131 152 0
145 165 0
144 165 0
135 156 0
135 155 0
139 159 0
141 161 0
135 157 0
142 162 0
138 159 0
138 159 0
142 163 0
134 156 0
136 157 0
143 164 0
143 164 0
128 149 0
128 150 0
136 155 0
143 164 0
134 155 0
150 171 0
145 166 0
135 155 0
144 165 0
137 158 0
141 161 0
140 161 0
144 166 0
136 158 0
142 163 0
130 150 0
137 157 0
133 154 0
137 159 0
140 160 0
143 163 0
135 156 0
137 157 0
135 158 0
143 165 0
142 162 0
140 161 0
144 165 0
146 167 0
132 153 0
130 151 0
150 171 0
138 160 0
141 161 0
150 170 0
141 162 0
153 174 0
145 165 0
137 158 0
148 169 0
140 162 0
140 161 0
143 164 0
134 156 0
151 172 0
146 168 0
140 162 0
149 171 0
143 165 0
148 170 0
148 169 0
142 163 0
141 162 0
149 170 0
145 167 0
138 159 0
148 169 0
149 170 0
140 162 0
140 161 0
133 154 0
141 161 0
150 172 0
143 164 0
145 168 0
138 158 0
139 161 0
147 168 0
144 166 0
146 168 0
140 161 0
148 170 0
142 164 0
152 174 0
146 168 0
152 175 0
148 171 0
156 177 0
145 166 0
154 176 0
152 174 0
145 166 0
143 164 0
143 163 0
143 165 0
152 173 0
153 175 0
150 172 0
145 165 0
148 169 0
161 183 0
156 179 0
152 174 0
152 174 0
152 173 0
159 181 0
144 166 0
155 179 0
148 170 0
155 176 0
153 176 0
161 183 0
157 178 0
159 180 0
159 180 0
154 177 0
152 173 0
151 172 0
158 179 0
148 170 0
151 172 0
154 174 0
153 176 0
158 179 0
167 189 0
156 179 0
157 178 0
156 178 0
154 175 0
156 179 0
160 182 0
161 183 0
160 181 0
161 183 0
160 181 0
151 173 0
157 179 0
155 177 0
155 178 0
165 185 0
156 177 0
154 175 0
157 178 0
152 175 0
155 176 0
157 179 0
157 180 0
157 179 0
161 183 0
160 182 0
155 177 0
158 179 0
158 180 0
161 183 0
162 185 0
156 179 0
160 181 0
159 181 0
162 185 0
157 179 0
168 191 0
165 187 0
164 187 0
166 187 0
164 187 0
162 184 0
156 176 0
162 185 0
156 177 0
156 178 0
158 180 0
161 183 0
160 182 0
157 180 0
162 183 0
163 186 0
161 182 0
162 183 0
164 186 0
160 183 0
164 186 0
160 183 0
160 183 0
162 185 0
162 184 0
166 188 0
164 185 0
159 181 0
163 185 0
155 177 0
163 185 0
156 178 0
157 179 0
168 190 0
166 187 0
167 190 0
167 189 0
163 184 0
165 187 0
156 177 0
161 182 0
165 187 0
166 188 0
165 188 0
166 188 0
166 189 0
166 188 0
159 182 0
170 192 0
166 188 0
164 185 0
161 184 0
168 188 0
161 184 0
165 188 0
167 189 0
169 192 0
164 186 0
171 193 0
168 191 0
168 191 0
167 188 0
167 190 0
163 185 0
166 188 0
163 185 0
166 188 0
162 183 0
165 187 0
169 191 0
168 190 0
164 186 0
164 184 0
166 188 0
166 189 0
163 184 0
162 186 0
169 192 0
164 187 0
174 197 92
174 197 92
173 197 102
172 195 102
170 193 92
171 194 105
168 191 84
176 199 95
171 195 99
171 194 108
170 193 80
173 195 105
174 196 88
174 197 99
170 193 72
168 191 105
173 197 95
166 189 102
168 191 80
166 189 80
167 191 105
167 190 105
172 195 92
161 184 76
166 189 95
172 195 108
168 192 92
163 187 95
167 190 99
173 195 102
167 191 88
169 191 102
166 189 105
171 194 88
167 190 72
171 194 95
165 189 102
165 188 99
169 192 111
166 188 76
171 194 120
164 187 108
168 190 76
166 188 92
166 189 102
165 188 76
173 196 105
161 184 92
168 192 102
160 182 84
163 187 88
161 183 84
160 182 88
166 188 108
166 189 84
164 187 99
166 189 122
160 183 88
162 184 105
162 184 102
168 191 117
166 188 114
168 191 114
162 184 76
167 188 99
162 184 102
164 186 102
164 186 105
162 183 84
155 176 102
169 190 95
160 183 92
156 179 80
157 179 84
168 191 108
160 182 88
169 190 108
163 185 99
148 169 72
160 181 84
162 184 95
155 177 84
157 179 99
165 186 117
159 180 95
160 181 95
154 174 80
164 185 114
167 189 108
154 174 99
166 187 105
162 182 105
158 180 76
155 175 80
161 182 114
165 185 111
151 173 51
168 188 105
151 171 92
162 181 105
166 186 99
156 177 67
157 177 95
160 181 80
165 186 76
156 177 76
155 176 62
150 170 67
149 169 57
154 175 76
153 174 51
160 181 36
149 170 44
159 180 44
161 183 51
157 179 36
150 172 36
149 171 0
155 177 36
145 167 25
146 170 0
154 175 51
156 178 36
158 181 44
159 181 25
152 175 0
150 172 25
150 172 0
145 166 0
152 174 0
159 182 0
159 180 0
148 170 0
155 178 0
150 172 0
155 178 0
143 164 0
153 176 0
154 175 0
146 167 0
149 170 0
151 174 0
139 159 0
138 160 0
142 164 0
152 172 0
146 168 0
134 155 0
146 167 0
136 158 0
144 164 0
140 161 0
143 163 0
135 155 0
141 162 0
144 165 0
133 154 0
138 159 0
137 159 0
138 158 0
133 154 0
134 155 0
141 162 0
144 164 0
143 164 0
144 164 0
133 153 0
137 158 0
137 158 0
141 161 0
135 156 0
128 149 0
139 160 0
137 158 0
133 153 0
128 149 0
136 156 0
144 165 0
139 160 0
138 158 0
134 154 0
130 151 0
135 157 0
144 164 0
139 158 0
148 168 0
148 169 0
143 164 0
129 150 0
136 157 0
134 155 0
132 154 0
139 161 0
130 151 0
148 169 0
141 162 0
135 156 0
141 162 0
146 167 0
129 151 0
144 165 0
144 166 0
144 165 0
143 163 0
140 162 0
134 156 0
152 173 0
139 160 0
143 165 0
135 156 0
135 157 0
149 170 0
140 162 0
146 167 0
145 166 0
140 162 0
139 160 0
141 163 0
144 166 0
145 167 0
142 163 0
142 165 0
141 162 0
133 153 0
141 161 0
145 167 0
143 164 0
147 169 0
141 163 0
147 168 0
142 163 0
154 176 0
138 160 0
142 161 0
145 166 0
142 164 0
141 162 0
141 162 0
148 170 0
151 174 0
151 173 0
145 164 0
146 168 0
148 169 0
147 167 0
151 173 0
152 172 0
149 170 0
148 170 0
153 174 0
152 173 0
154 177 0
151 171 0
151 172 0
149 171 0
144 165 0
151 174 0
152 175 0
151 174 0
150 172 0
150 172 0
153 176 0
148 169 0
144 165 0
156 179 0
149 171 0
151 173 0
155 178 0
144 164 0
150 171 0
148 168 0
152 173 0
156 178 0
143 165 0
153 174 0
161 182 0
149 171 0
154 175 0
161 183 0
156 179 0
148 170 0
153 173 0
153 175 0
149 171 0
160 183 0
150 172 0
152 173 0
159 180 0
159 182 0
158 181 0
161 183 0
158 180 0
156 177 0
157 180 0
160 181 0
157 179 0
157 180 0
156 177 0
152 174 0
156 178 0
154 176 0
159 180 0
157 177 0
156 178 0
158 181 0
155 177 0
158 181 0
162 183 0
157 178 0
157 179 0
158 181 0
155 176 0
161 183 0
157 178 0
161 184 0
158 179 0
163 186 0
158 179 0
163 184 0
164 186 0
164 185 0
162 183 0
162 183 0
164 186 0
164 186 0
159 180 0
159 181 0
154 176 0
164 186 0
165 187 0
164 186 0
165 186 0
158 180 0
162 184 0
164 186 0
162 183 0
164 187 0
164 186 0
164 186 0
166 188 0
162 183 0
163 186 0
166 188 0
164 184 0
163 185 0
162 185 0
164 186 0
159 179 0
162 183 0
159 179 0
166 188 0
162 184 0
163 186 0
162 184 0
164 185 0
166 187 0
163 184 0
166 187 0
166 186 0
168 190 0
164 187 0
161 183 0
164 187 0
162 183 0
167 190 0
165 188 0
161 182 0
170 191 0
167 189 0
163 185 0
164 186 0
165 188 0
165 187 0
164 186 0
165 187 0
162 183 0
167 189 0
171 194 0
167 188 0
164 185 0
167 190 0
167 189 0
164 187 0
169 192 0
168 190 0
167 190 0
166 188 0
170 192 0
167 189 0
165 188 0
159 180 0
165 190 0
163 185 0
167 190 0
167 191 0
166 189 0
170 192 0
167 189 0
165 187 0
166 189 0
177 200 111
175 197 125
172 195 88
173 196 95
173 197 88
173 196 114
170 193 92
172 196 92
176 198 99
172 195 80
173 196 99
169 192 95
169 191 80
173 196 76
171 194 108
165 188 84
175 198 105
166 189 88
170 193 80
169 192 88
171 194 114
171 194 99
173 196 114
170 193 105
164 187 108
170 192 105
171 193 88
168 191 67
169 192 99
167 190 102
169 190 95
167 190 88
168 192 88
169 192 102
166 189 95
163 186 99
170 193 95
171 193 88
166 189 111
164 185 80
164 187 99
168 190 95
168 191 95
171 194 108
170 193 108
166 189 84
163 185 88
168 191 102
166 190 117
167 190 99
170 191 95
160 181 67
161 183 99
165 187 105
166 189 99
173 195 99
168 189 111
171 193 111
162 185 72
165 186 84
164 185 88
165 188 95
162 184 84
166 188 99
165 187 102
162 183 95
166 188 102
162 185 111
164 185 105
167 189 102
165 187 99
168 190 111
167 189 111
169 191 122
167 189 92
157 179 95
157 178 76
170 191 105
160 181 99
163 184 88
165 186 95
162 183 102
153 174 99
162 183 80
155 176 84
158 179 95
159 180 99
169 189 99
160 180 92
154 175 102
168 189 102
158 179 102
156 177 76
155 176 84
160 180 102
159 179 122
159 179 92
166 186 80
153 174 80
161 182 88
166 187 108
152 173 84
152 172 62
159 179 84
162 182 105
158 178 84
161 182 76
158 179 76
149 171 44
159 180 62
156 177 44
154 175 44
157 179 36
151 172 36
158 179 57
146 167 25
149 170 36
148 170 44
154 176 0
163 184 0
154 177 25
153 175 25
145 167 25
150 171 36
151 174 36
150 171 25
151 173 25
143 165 0
152 174 0
157 179 0
152 174 0
155 176 0
156 177 0
152 174 0
150 172 0
149 170 0
147 169 0
148 171 0
148 171 0
147 169 0
154 176 0
145 167 0
139 161 0
152 174 0
148 170 0
142 163 0
144 166 0
137 158 0
141 162 0
137 158 0
146 168 0
131 151 0
132 153 0
136 158 0
137 158 0
140 160 0
152 173 0
134 156 0
148 169 0
137 158 0
138 159 0
144 165 0
142 163 0
140 161 0
136 157 0
141 162 0
146 167 0
142 164 0
148 169 0
139 160 0
135 156 0
133 155 0
152 172 0
146 167 0
133 154 0
143 164 0
144 165 0
139 160 0
140 161 0
146 168 0
143 164 0
137 159 0
141 163 0
136 157 0
142 162 0
140 161 0
147 169 0
134 155 0
144 165 0
141 163 0
144 165 0
137 156 0
136 157 0
144 165 0
142 163 0
141 162 0
147 168 0
136 157 0
141 161 0
132 153 0
140 162 0
144 165 0
126 147 0
142 164 0
140 160 0
142 163 0
144 165 0
138 160 0
140 161 0
139 160 0
144 165 0
144 165 0
149 171 0
137 158 0
141 161 0
147 168 0
143 164 0
148 170 0
144 166 0
143 165 0
140 161 0
141 162 0
143 164 0
141 161 0
145 167 0
149 171 0
134 155 0
149 171 0
142 164 0
144 165 0
150 172 0
136 157 0
144 164 0
148 169 0
140 163 0
152 174 0
150 172 0
145 166 0
149 170 0
143 164 0
147 168 0
138 160 0
153 175 0
152 175 0
151 173 0
140 161 0
147 168 0
151 172 0
157 178 0
147 168 0
142 165 0
150 172 0
152 173 0
154 176 0
153 175 0
146 168 0
149 171 0
147 168 0
155 175 0
151 173 0
147 170 0
151 173 0
149 169 0
153 174 0
148 170 0
150 173 0
151 172 0
157 179 0
152 174 0
155 176 0
154 175 0
155 178 0
149 171 0
147 169 0
148 171 0
153 175 0
161 183 0
159 181 0
157 179 0
154 177 0
152 174 0
160 181 0
158 180 0
154 175 0
149 171 0
146 167 0
152 174 0
161 182 0
161 183 0
155 177 0
158 180 0
160 181 0
157 178 0
157 179 0
155 178 0
152 174 0
162 184 0
152 174 0
154 175 0
156 178 0
156 178 0
162 184 0
163 186 0
154 176 0
156 178 0
156 179 0
158 180 0
159 182 0
154 176 0
160 183 0
159 181 0
157 180 0
160 183 0
158 180 0
162 184 0
156 177 0
168 191 0
158 181 0
163 186 0
154 175 0
156 179 0
160 182 0
160 182 0
167 190 0
164 186 0
151 170 0
161 183 0
160 181 0
159 181 0
163 186 0
163 184 0
161 183 0
166 188 0
157 178 0
157 179 0
163 185 0
165 186 0
159 181 0
163 186 0
162 186 0
162 183 0
165 187 0
164 187 0
168 190 0
163 186 0
166 189 0
162 184 0
164 185 0
167 189 0
165 188 0
167 189 0
161 184 0
164 186 0
167 189 0
165 187 0
164 185 0
160 181 0
161 183 0
164 187 0
168 191 0
167 189 0
164 186 0
160 182 0
160 183 0
166 188 0
167 190 0
164 186 0
167 188 0
169 191 0
162 185 0
168 190 0
166 187 0
161 182 0
166 188 0
167 189 0
164 186 0
166 187 0
168 191 0
167 189 0
166 189 0
166 189 0
167 189 0
169 191 0
169 192 0
166 187 0
166 188 0
160 184 0
167 190 0
171 193 0
165 188 0
167 188 0
163 185 0
165 187 0
166 189 0
165 187 0
167 191 0
172 195 0
165 187 0
169 191 0
170 192 0
176 199 84
170 192 84
171 193 95
171 194 92
175 198 111
171 194 92
174 197 88
171 195 95
171 195 108
171 193 84
166 189 95
176 199 108
177 200 117
172 195 99
167 191 84
172 194 105
168 192 84
169 193 108
171 194 92
164 187 88
166 190 84
170 194 111
168 191 102
167 190 102
171 194 108
162 185 72
166 189 95
167 190 95
172 195 102
160 182 67
167 190 99
168 191 111
165 188 92
167 190 105
172 195 122
169 192 102
173 195 92
169 192 95
165 187 92
172 195 120
173 197 99
171 194 117
169 191 92
164 187 76
169 192 111
167 189 80
163 186 92
166 189 117
168 191 99
167 190 108
163 185 92
167 189 102
170 193 108
165 187 92
162 184 88
162 183 80
166 189 95
164 187 111
170 192 105
165 188 111
169 190 102
173 195 108
164 186 92
163 184 114
158 180 80
168 190 80
160 182 95
165 186 111
160 182 92
162 183 99
163 184 84
160 182 92
165 186 95
164 185 105
170 191 111
167 188 99
163 184 95
161 182 92
172 192 111
157 177 84
165 186 105
163 184 111
158 180 80
164 184 92
160 181 105
168 190 95
164 184 102
158 179 95
165 186 120
165 186 105
168 189 114
164 185 108
164 185 99
151 172 76
163 185 80
163 183 92
160 181 80
158 179 76
152 172 80
165 186 72
156 177 44
157 178 76
157 177 95
154 175 62
155 175 99
155 176 57
162 183 88
159 181 57
153 174 76
163 184 67
156 177 72
156 177 44
150 172 44
148 169 25
160 182 51
149 172 0
155 178 25
153 175 25
149 171 0
149 171 25
147 169 0
157 178 25
156 178 36
150 172 25
158 181 25
150 172 36
156 179 0
153 175 0
161 184 0
161 184 0
162 184 0
156 179 0
157 180 0
156 178 0
144 167 0
159 181 0
146 167 0
150 173 0
149 170 0
141 162 0
155 177 0
141 163 0
144 165 0
147 169 0
151 173 0
142 163 0
139 160 0
141 163 0
143 165 0
145 165 0
141 162 0
143 164 0
142 164 0
139 160 0
145 167 0
138 159 0
147 168 0
142 164 0
145 165 0
146 166 0
133 154 0
151 173 0
140 162 0
138 159 0
142 164 0
144 165 0
135 156 0
146 166 0
142 163 0
136 157 0
142 164 0
143 164 0
149 170 0
135 157 0
138 159 0
136 157 0
144 165 0
140 161 0
132 153 0
135 156 0
145 166 0
143 164 0
140 161 0
140 162 0
144 165 0
140 160 0
140 161 0
131 153 0
139 161 0
144 165 0
144 164 0
145 166 0
137 158 0
131 152 0
143 164 0
147 170 0
136 157 0
142 165 0
145 167 0
137 157 0
149 169 0
148 168 0
141 163 0
136 158 0
138 159 0
140 162 0
143 164 0
143 165 0
155 176 0
144 166 0
141 163 0
132 152 0
149 172 0
140 162 0
136 158 0
151 172 0
139 162 0
151 171 0
144 166 0
133 156 0
146 168 0
141 162 0
152 173 0
155 177 0
149 169 0
151 172 0
149 170 0
150 172 0
143 165 0
152 174 0
149 171 0
144 166 0
143 164 0
145 166 0
145 166 0
148 169 0
157 178 0
148 170 0
155 176 0
144 166 0
147 169 0
146 167 0
154 176 0
149 170 0
147 169 0
151 173 0
140 161 0
153 175 0
146 166 0
149 171 0
144 167 0
146 167 0
150 172 0
156 177 0
155 175 0
155 176 0
151 172 0
150 173 0
153 176 0
155 176 0
152 174 0
159 182 0
152 175 0
155 176 0
153 176 0
155 177 0
152 174 0
155 177 0
152 174 0
158 178 0
162 185 0
158 180 0
158 180 0
154 175 0
153 176 0
150 171 0
161 182 0
154 176 0
148 167 0
156 177 0
151 172 0
158 179 0
154 177 0
153 175 0
151 172 0
158 180 0
156 178 0
161 183 0
158 179 0
159 182 0
160 181 0
162 184 0
159 181 0
164 187 0
158 179 0
163 185 0
156 177 0
155 178 0
161 182 0
161 183 0
151 172 0
163 185 0
162 185 0
158 182 0
155 177 0
159 181 0
154 173 0
151 173 0
161 185 0
159 181 0
158 180 0
159 180 0
158 180 0
156 178 0
159 181 0
164 184 0
159 182 0
162 182 0
161 183 0
168 191 0
157 180 0
163 185 0
158 180 0
163 186 0
166 188 0
159 180 0
154 174 0
159 182 0
163 186 0
162 186 0
160 182 0
162 185 0
170 192 0
163 185 0
161 182 0
163 186 0
159 182 0
163 184 0
166 189 0
158 181 0
158 179 0
165 188 0
159 181 0
165 187 0
163 184 0
160 183 0
160 182 0
163 184 0
159 181 0
163 184 0
158 179 0
166 189 0
163 184 0
164 187 0
160 181 0
166 189 0
163 184 0
165 188 0
161 183 0
169 191 0
161 183 0
167 189 0
169 192 0
170 191 0
162 185 0
159 181 0
168 188 0
167 189 0
165 187 0
162 184 0
166 188 0
166 189 0
166 187 0
165 187 0
167 190 0
166 187 0
167 188 0
161 184 0
165 188 0
164 186 0
170 193 0
162 185 0
166 188 0
165 188 0
165 188 0
165 187 0
167 188 0
166 188 0
164 187 0
170 192 0
165 188 0
168 189 0
169 191 0
167 189 0
165 188 0
165 188 0
167 189 0
170 193 0
170 192 0
165 188 0
174 197 84
172 196 92
173 196 92
172 196 88
171 195 88
172 194 105
172 195 102
174 197 95
169 192 92
167 191 88
171 194 105
172 195 99
179 202 122
171 195 114
172 196 92
169 192 76
171 194 105
172 195 88
171 194 88
172 195 99
169 192 114
168 192 95
166 189 72
172 195 120
165 188 95
170 192 84
169 193 114
162 186 76
166 188 80
167 190 84
176 198 117
168 191 95
172 195 95
170 193 80
171 194 92
170 193 114
162 185 88
167 191 102
170 193 102
167 189 57
171 193 108
170 193 105
167 190 99
165 186 92
170 193 108
170 194 117
170 193 102
163 187 111
165 188 99
170 192 99
166 188 92
163 185 84
170 192 102
166 189 99
172 194 88
162 185 114
170 193 95
167 190 108
170 192 92
160 182 88
169 190 92
154 176 76
163 185 84
162 184 84
164 187 108
164 186 105
161 183 80
166 188 95
165 186 92
164 186 95
161 182 95
159 182 84
168 188 88
165 186 105
157 178 72
167 188 105
159 180 99
166 188 72
158 179 84
164 184 102
154 175 72
158 179 95
161 183 102
167 188 105
158 180 99
159 179 88
158 180 84
168 188 84
155 176 92
154 174 80
156 177 67
160 181 88
154 174 84
155 175 99
164 185 108
153 173 80
167 187 105
154 175 84
159 179 76
157 178 84
167 188 105
159 180 67
158 179 88
156 177 80
152 173 57
161 182 76
153 174 72
157 177 80
154 176 44
147 168 44
155 177 44
155 177 57
146 167 51
145 167 0
146 168 0
154 176 0
157 178 25
154 176 36
146 168 25
151 172 62
147 169 44
151 174 25
155 178 44
149 171 25
155 178 0
158 180 25
149 171 0
157 177 25
149 171 0
153 175 0
155 177 0
153 175 0
154 178 0
153 175 0
152 176 0
153 175 0
146 169 0
144 165 0
149 171 0
143 164 0
152 174 0
143 164 0
150 172 0
151 173 0
146 168 0
145 166 0
153 175 0
137 159 0
149 171 0
139 161 0
146 167 0
149 171 0
146 167 0
142 162 0
144 166 0
143 164 0
145 167 0
141 162 0
149 170 0
128 149 0
129 149 0
149 170 0
142 164 0
151 173 0
144 164 0
133 153 0
145 166 0
135 157 0
136 158 0
145 166 0
142 163 0
146 168 0
137 158 0
142 164 0
138 159 0
139 161 0
145 166 0
142 163 0
142 163 0
137 159 0
151 172 0
144 164 0
144 166 0
128 148 0
141 162 0
154 175 0
135 156 0
140 163 0
138 159 0
143 164 0
141 162 0
135 158 0
147 169 0
142 162 0
139 160 0
141 161 0
148 169 0
136 157 0
144 165 0
148 168 0
137 159 0
133 155 0
143 163 0
149 171 0
144 166 0
147 167 0
136 157 0
141 162 0
137 158 0
149 170 0
148 171 0
147 169 0
145 166 0
155 176 0
138 159 0
138 160 0
145 166 0
147 168 0
150 172 0
146 166 0
142 164 0
152 173 0
143 164 0
148 170 0
157 178 0
148 170 0
140 162 0
143 165 0
157 178 0
147 169 0
148 170 0
146 166 0
155 176 0
154 176 0
149 171 0
151 173 0
142 164 0
143 166 0
151 173 0
149 172 0
152 173 0
148 171 0
146 168 0
146 168 0
150 172 0
149 172 0
138 159 0
147 168 0
150 171 0
151 174 0
160 183 0
155 178 0
155 176 0
152 173 0
161 183 0
149 172 0
156 178 0
144 164 0
146 168 0
154 175 0
157 179 0
154 177 0
157 179 0
151 172 0
152 173 0
157 179 0
156 178 0
149 171 0
156 179 0
160 182 0
150 172 0
152 174 0
154 176 0
155 175 0
146 167 0
159 181 0
156 178 0
149 170 0
157 178 0
162 185 0
159 181 0
155 177 0
154 176 0
167 190 0
158 180 0
159 182 0
161 182 0
153 176 0
159 181 0
156 179 0
156 178 0
165 187 0
165 186 0
157 179 0
155 177 0
158 181 0
157 179 0
159 180 0
147 168 0
156 179 0
160 181 0
157 179 0
158 180 0
160 182 0
158 180 0
163 186 0
162 185 0
158 180 0
160 181 0
163 185 0
161 183 0
157 179 0
166 188 0
162 184 0
161 182 0
158 178 0
162 183 0
165 187 0
160 182 0
157 179 0
156 177 0
158 180 0
160 183 0
155 177 0
159 181 0
161 183 0
159 181 0
158 182 0
157 179 0
161 185 0
166 188 0
167 188 0
167 190 0
165 185 0
165 187 0
163 184 0
155 177 0
162 184 0
162 184 0
159 181 0
163 186 0
161 182 0
164 187 0
164 186 0
162 185 0
164 186 0
167 189 0
163 185 0
161 182 0
162 185 0
166 188 0
166 190 0
167 189 0
165 187 0
168 190 0
161 182 0
165 187 0
163 186 0
156 179 0
166 188 0
167 190 0
164 185 0
165 186 0
162 184 0
166 188 0
164 186 0
165 186 0
166 189 0
168 190 0
168 190 0
162 184 0
167 189 0
162 183 0
169 192 0
166 188 0
164 186 0
165 189 0
162 185 0
166 187 0
163 184 0
164 186 0
162 184 0
165 187 0
166 189 0
167 189 0
167 188 0
163 185 0
168 190 0
160 182 0
165 186 0
165 186 0
163 186 0
157 179 0
162 183 0
166 188 0
168 191 0
167 189 0
164 184 0
168 190 0
169 191 0
190 0
167 190 0
168 189 0
169 191 0
166 189 0
0
163 185 0
168 190 0
168 190 0
168 190 0
169 190 0
167 188 0
168 191 0
