P3
400 225
255
174 197 0
175 198 0
173 196 0
175 198 0
174 198 0
173 196 0
173 197 0
174 197 0
172 196 0
175 198 0
172 196 0
174 197 0
173 197 0
174 197 0
173 197 0
173 197 0
174 197 0
175 198 0
174 198 0
173 196 0
171 195 0
174 196 0
172 196 0
173 197 0
173 197 0
173 197 0
172 197 0
174 198 0
172 196 0
172 196 0
172 196 0
174 196 0
174 198 0
174 197 0
172 195 0
175 198 0
173 196 0
174 197 0
173 197 0
172 197 0
171 196 0
172 195 0
174 197 0
174 198 0
172 195 0
174 198 0
170 194 0
175 198 0
171 195 0
172 196 0
173 197 0
173 197 0
174 197 0
174 198 0
173 197 0
174 197 0
172 196 0
171 194 0
174 197 0
172 196 0
175 197 0
172 196 0
172 196 0
174 197 0
174 197 0
172 196 0
174 198 0
172 197 0
173 196 0
174 198 0
175 198 0
173 196 0
174 196 0
173 196 0
171 195 0
173 197 0
172 196 0
172 196 0
173 197 0
172 196 0
172 194 0
175 198 0
176 198 0
173 197 0
171 194 0
172 196 0
174 197 0
174 197 0
176 198 0
172 196 0
173 197 0
174 197 0
175 198 0
173 196 0
173 196 0
172 195 0
175 198 0
173 197 0
173 197 0
174 198 0
175 198 0
173 196 0
174 197 0
172 195 0
173 197 0
174 197 0
173 196 0
174 197 0
172 195 0
173 197 0
174 197 0
173 196 0
173 197 0
174 196 0
173 196 0
175 198 0
174 197 0
171 194 0
174 197 0
173 197 0
175 198 0
173 197 0
172 196 0
173 197 0
172 195 0
172 195 0
172 195 0
173 197 0
170 194 0
172 195 0
172 196 0
172 195 0
172 195 0
171 194 0
172 195 0
174 197 0
174 196 0
171 194 0
172 196 0
170 193 0
175 198 0
174 197 0
173 197 0
169 193 0
171 196 0
173 195 0
173 197 0
172 196 0
171 195 0
171 195 0
173 197 0
174 197 0
171 195 0
172 196 0
173 196 0
174 197 0
173 196 0
172 196 0
171 194 0
172 196 0
173 196 0
170 192 0
172 194 0
172 195 0
172 195 0
173 196 0
175 198 0
172 195 0
172 195 0
172 195 0
175 197 0
175 197 0
171 194 0
172 195 0
174 197 0
173 196 0
172 195 0
173 196 0
174 197 0
173 196 0
170 193 0
174 196 0
174 197 0
173 197 0
171 196 0
173 196 0
171 195 0
174 196 0
173 196 0
171 194 0
173 196 0
174 197 0
172 195 0
172 195 0
174 197 0
172 195 0
171 194 0
169 193 0
173 197 0
173 196 0
172 196 0
173 196 0
172 195 0
172 196 0
170 193 0
174 197 0
174 197 0
171 195 0
174 196 0
174 197 0
172 195 0
173 196 0
172 196 0
175 198 0
174 196 0
175 197 0
173 195 0
173 196 0
174 197 0
175 197 0
174 197 0
174 197 0
173 196 0
173 196 0
172 196 0
173 194 0
174 197 0
171 194 0
174 197 0
173 196 0
173 196 0
174 197 0
171 195 0
171 194 0
174 196 0
173 197 0
172 194 0
174 196 0
172 195 0
172 195 0
173 196 0
174 196 0
172 194 0
173 196 0
170 192 11
171 193 16
166 186 19
155 171 34
160 175 47
154 167 41
148 156 51
161 165 66
147 149 69
148 147 75
139 137 68
146 142 81
139 134 76
154 147 86
149 143 85
144 139 80
161 154 94
150 144 88
151 145 88
149 144 92
152 147 93
149 145 88
155 150 94
160 154 96
150 146 94
154 150 92
154 150 94
159 154 99
161 157 102
157 154 100
163 158 103
162 158 103
160 155 102
157 153 101
162 157 101
151 148 97
162 157 102
154 151 101
161 158 105
158 155 103
159 156 103
163 160 105
157 154 101
158 155 104
153 150 100
161 158 104
167 163 108
165 161 107
162 159 107
168 163 108
161 158 105
164 161 106
164 162 108
162 159 106
166 163 107
164 162 109
163 160 107
162 159 106
165 162 108
165 162 108
167 164 109
166 163 108
164 162 109
167 166 111
164 161 108
165 163 109
166 163 108
166 164 109
162 160 107
167 164 109
164 161 108
165 163 109
168 165 110
160 158 106
166 164 110
169 166 111
165 163 109
165 163 109
168 165 110
170 167 112
164 162 108
165 163 109
160 157 105
168 165 110
160 158 106
167 165 110
168 165 110
165 164 110
171 168 112
167 165 110
166 163 109
166 163 109
165 163 109
164 161 107
165 162 108
169 166 110
161 158 106
156 153 101
167 164 109
167 164 108
167 164 110
168 164 108
165 161 106
161 159 106
163 160 106
161 157 104
166 162 107
168 164 108
163 159 104
159 155 101
162 157 102
160 157 104
167 162 104
156 152 98
165 161 103
157 154 100
160 155 100
166 160 101
165 159 102
154 149 95
156 150 96
153 148 93
159 154 95
164 159 101
153 148 95
154 150 91
154 148 93
152 147 92
157 151 92
155 150 88
149 143 87
142 138 84
142 137 82
152 145 87
140 134 75
153 147 87
144 139 73
141 136 74
137 136 62
148 152 61
157 165 62
162 176 44
165 182 34
174 195 22
174 197 0
174 196 0
174 197 0
174 196 0
171 195 0
174 197 0
171 194 0
174 197 0
174 197 0
174 197 0
173 195 0
173 196 0
174 197 0
176 199 0
173 197 0
172 196 0
174 197 0
172 196 0
174 198 0
172 195 0
173 196 0
174 197 0
173 196 0
174 197 0
173 197 0
173 197 0
175 198 0
174 197 0
174 197 0
174 198 0
176 198 0
175 198 0
171 195 0
174 198 0
174 197 0
175 198 0
172 195 0
174 197 0
173 197 0
174 197 0
172 196 0
174 197 0
173 196 0
171 195 0
175 198 0
174 198 0
174 197 0
176 198 0
174 197 0
173 196 0
173 197 0
175 198 0
175 198 0
172 196 0
174 197 0
170 194 0
172 197 0
173 196 0
173 197 0
173 196 0
174 198 0
174 198 0
173 197 0
173 196 0
173 197 0
172 196 0
173 197 0
174 198 0
173 196 0
173 197 0
173 196 0
173 197 0
172 194 0
174 198 0
174 197 0
175 197 0
174 197 0
172 195 0
173 196 0
174 197 0
175 198 0
174 198 0
173 196 0
175 198 0
173 196 0
171 195 0
173 196 0
173 196 0
176 198 0
171 195 0
174 197 0
173 196 0
173 197 0
173 197 0
173 196 0
174 196 0
175 198 0
173 197 0
172 196 0
173 197 0
172 195 0
174 197 0
174 197 0
173 197 0
171 194 0
175 198 0
174 197 0
173 197 0
172 196 0
173 196 0
172 196 0
173 197 0
175 197 0
173 197 0
172 196 0
171 195 0
172 196 0
173 197 0
173 196 0
171 195 0
172 196 0
172 195 0
171 195 0
173 197 0
173 195 0
174 198 0
172 195 0
172 196 0
175 198 0
174 197 0
172 195 0
174 197 0
175 198 0
172 195 0
172 196 0
172 196 0
173 196 0
172 196 0
172 196 0
174 197 0
172 195 0
173 196 0
174 197 0
175 198 0
172 196 0
171 195 0
173 196 0
172 196 0
171 195 0
172 195 0
173 197 0
174 198 0
172 195 0
170 193 0
174 198 0
172 195 0
173 196 0
169 193 0
172 195 0
172 195 0
173 195 0
177 199 0
173 197 0
174 197 0
169 191 0
172 196 0
174 197 0
172 194 0
173 197 0
170 194 0
175 198 0
171 195 0
173 196 0
173 196 0
172 195 0
173 196 0
177 199 0
172 196 0
172 196 0
174 198 0
173 196 0
174 198 0
174 197 0
171 194 0
172 195 0
173 196 0
175 198 0
172 196 0
173 196 0
173 197 0
173 196 0
172 196 0
172 195 0
171 195 0
173 196 0
172 195 0
171 194 0
172 196 0
174 197 0
174 198 0
173 196 0
175 198 0
169 193 0
172 195 0
173 196 0
175 197 0
171 194 0
172 195 0
171 195 0
174 197 0
173 196 0
175 198 0
173 196 0
171 195 0
173 196 0
175 197 0
172 196 0
173 196 0
170 193 0
173 195 0
170 193 0
173 195 0
174 196 0
171 195 0
172 195 0
173 195 0
172 195 0
171 194 0
173 196 0
174 197 0
171 196 0
172 195 0
171 194 0
175 197 0
170 193 0
174 197 0
176 198 0
172 196 0
171 195 0
171 195 0
173 197 0
172 194 0
170 193 0
172 195 0
173 196 0
173 195 0
173 196 0
171 194 0
171 193 0
173 197 0
174 197 0
173 195 0
173 196 0
173 197 0
174 198 0
171 194 0
172 195 16
166 186 22
166 180 42
160 177 28
158 172 45
150 161 48
144 147 64
142 144 58
134 136 65
137 136 70
143 140 78
152 147 83
143 137 81
142 137 79
147 142 86
150 145 89
149 144 84
151 146 89
149 144 92
146 141 89
153 148 94
144 141 88
153 148 94
157 152 99
153 148 90
152 148 95
155 150 96
155 150 96
158 154 98
166 161 103
153 149 97
154 151 99
161 157 102
159 156 103
156 153 101
155 152 99
164 159 104
159 155 100
157 154 103
153 150 99
160 156 103
160 157 105
159 155 103
165 161 106
154 151 100
163 160 104
169 165 108
165 161 107
164 161 107
159 157 105
163 159 105
164 162 108
169 165 110
166 162 108
162 159 106
165 163 108
164 160 107
165 162 108
167 165 110
166 163 109
167 165 110
163 160 107
165 163 109
169 167 111
161 159 106
167 164 110
167 165 110
168 166 110
166 164 110
165 163 109
168 165 110
167 164 109
169 166 110
173 170 113
169 166 110
171 168 112
166 164 109
169 167 112
170 167 111
166 164 109
169 166 110
169 166 110
169 166 110
165 162 108
167 164 109
165 163 109
161 158 106
167 164 110
163 161 108
164 161 108
169 165 109
166 163 109
168 165 110
168 165 109
162 159 104
163 160 106
166 163 108
165 162 108
162 159 105
167 163 108
164 161 107
166 163 109
157 154 102
169 165 108
163 160 106
160 158 106
160 156 103
162 158 104
160 155 101
161 157 103
161 158 103
169 164 108
165 161 106
164 159 103
161 157 102
166 161 103
159 155 102
166 160 104
156 152 99
164 159 101
161 156 99
163 159 104
161 156 100
156 152 97
162 157 96
157 153 95
156 150 96
170 163 104
152 147 91
155 150 93
147 142 86
155 147 91
149 144 86
152 146 86
139 133 80
142 137 78
144 138 81
143 139 74
155 154 80
150 149 70
149 154 62
154 167 47
162 176 41
167 185 30
173 196 16
175 197 0
173 197 0
174 198 0
174 197 0
174 197 0
172 195 0
174 197 0
174 197 0
174 198 0
173 197 0
172 195 0
174 197 0
174 197 0
174 197 0
174 198 0
173 197 0
174 198 0
175 198 0
174 196 0
174 197 0
173 196 0
173 197 0
173 196 0
174 197 0
174 197 0
173 196 0
171 195 0
173 196 0
173 197 0
174 197 0
173 197 0
173 196 0
173 197 0
173 197 0
175 198 0
174 197 0
171 195 0
174 198 0
172 195 0
174 198 0
173 197 0
173 197 0
173 197 0
174 197 0
174 197 0
175 198 0
172 196 0
173 197 0
176 199 0
173 196 0
175 198 0
173 197 0
173 196 0
174 197 0
171 195 0
172 196 0
173 197 0
174 197 0
173 197 0
174 198 0
174 197 0
173 196 0
173 197 0
174 197 0
175 198 0
174 197 0
174 197 0
172 196 0
172 196 0
171 195 0
173 195 0
174 197 0
171 195 0
173 195 0
174 197 0
174 196 0
173 197 0
172 196 0
173 196 0
173 197 0
171 195 0
174 197 0
171 196 0
174 197 0
169 193 0
172 195 0
175 197 0
173 197 0
172 196 0
172 196 0
173 196 0
172 196 0
174 197 0
174 197 0
171 195 0
174 197 0
171 195 0
174 196 0
173 197 0
171 194 0
173 196 0
172 195 0
171 195 0
173 195 0
175 198 0
173 196 0
171 195 0
172 196 0
175 198 0
173 197 0
173 196 0
171 195 0
173 196 0
173 196 0
173 197 0
173 197 0
174 197 0
173 197 0
174 197 0
174 197 0
174 197 0
175 197 0
170 193 0
174 197 0
173 197 0
174 197 0
174 196 0
175 198 0
173 197 0
173 197 0
171 195 0
173 195 0
171 194 0
173 197 0
173 196 0
171 194 0
173 196 0
172 196 0
170 194 0
173 196 0
174 197 0
173 196 0
172 196 0
173 196 0
172 195 0
173 196 0
173 197 0
171 195 0
171 194 0
173 196 0
174 197 0
171 195 0
174 197 0
173 197 0
172 196 0
172 194 0
171 194 0
174 197 0
175 197 0
173 197 0
174 197 0
173 196 0
172 195 0
173 196 0
173 196 0
173 196 0
173 197 0
173 196 0
175 198 0
170 193 0
172 196 0
171 195 0
174 197 0
173 196 0
172 195 0
173 196 0
172 195 0
172 195 0
172 196 0
172 196 0
173 195 0
171 195 0
174 197 0
172 195 0
172 195 0
171 194 0
172 195 0
170 194 0
171 194 0
173 196 0
174 197 0
172 195 0
171 195 0
173 196 0
171 195 0
172 195 0
172 195 0
174 197 0
175 197 0
172 195 0
172 195 0
171 195 0
172 196 0
170 194 0
172 196 0
172 195 0
175 197 0
172 195 0
169 192 0
172 195 0
169 194 0
173 196 0
172 196 0
172 195 0
170 193 0
171 194 0
173 197 0
170 194 0
173 197 0
173 196 0
172 195 0
174 197 0
173 196 0
175 198 0
174 197 0
173 196 0
173 196 0
174 196 0
173 197 0
171 195 0
172 195 0
173 197 0
173 196 0
173 195 0
173 196 0
172 195 0
171 194 0
175 198 0
170 193 0
174 197 0
172 196 0
171 195 0
172 195 0
172 195 0
172 195 0
174 198 0
169 192 0
172 194 0
172 196 0
171 194 0
172 196 0
171 194 0
173 196 0
173 196 0
170 193 0
162 183 11
163 184 19
163 179 44
165 179 41
152 161 48
143 152 52
147 150 60
143 147 59
150 148 76
148 143 79
141 137 76
147 141 84
140 135 79
149 144 84
153 148 89
150 145 89
144 140 86
153 148 91
152 147 92
156 152 95
153 149 95
143 138 86
146 141 87
158 152 96
150 146 95
154 150 95
152 148 95
158 154 100
158 154 100
157 152 99
160 156 101
156 153 101
155 150 97
162 158 103
156 152 100
158 155 103
155 152 98
162 158 104
159 156 102
157 152 100
166 163 108
167 163 107
169 165 108
164 161 107
161 158 104
161 158 105
166 163 108
167 163 108
166 162 107
159 156 104
167 163 109
169 165 110
162 159 106
162 160 107
166 163 109
169 166 111
164 161 107
164 161 108
167 165 111
169 166 111
169 165 110
163 161 108
163 161 108
171 168 112
166 163 109
170 168 112
167 164 110
165 162 108
164 161 108
170 167 112
166 164 110
164 161 108
167 165 110
168 165 110
163 160 107
170 167 111
162 160 107
167 165 110
166 163 109
167 164 109
169 166 110
166 163 109
166 164 110
169 167 111
169 166 111
166 164 109
162 160 107
163 161 108
164 161 107
162 159 106
163 161 108
167 164 109
163 160 106
166 163 108
162 160 107
165 162 108
169 166 110
165 162 108
164 161 106
167 164 109
161 157 104
161 158 104
159 155 103
161 158 104
165 162 108
164 161 106
157 154 101
161 158 106
161 157 102
163 159 104
157 153 99
163 159 101
162 158 104
162 157 101
167 163 106
164 159 103
163 158 102
160 155 101
161 156 102
154 149 95
158 153 97
155 151 97
158 152 93
158 153 97
160 155 98
156 151 95
159 154 97
160 155 96
153 147 90
155 149 91
151 144 89
157 152 94
154 149 91
149 144 84
146 140 82
147 141 80
151 144 85
140 134 75
144 140 78
150 147 74
150 153 62
155 160 63
156 170 36
163 179 28
169 188 28
173 196 0
175 198 0
172 195 0
173 195 0
173 196 0
173 197 0
174 198 0
173 197 0
172 196 0
173 196 0
175 197 0
174 197 0
173 197 0
173 197 0
173 197 0
174 198 0
176 199 0
173 196 0
174 198 0
173 197 0
175 198 0
172 196 0
174 197 0
173 196 0
175 198 0
172 196 0
174 198 0
173 197 0
173 197 0
173 197 0
173 196 0
174 197 0
173 196 0
174 198 0
173 197 0
174 197 0
173 197 0
174 198 0
175 198 0
175 198 0
172 196 0
174 197 0
175 197 0
171 195 0
174 197 0
174 197 0
175 197 0
174 197 0
174 197 0
174 197 0
171 194 0
172 196 0
172 195 0
172 196 0
175 198 0
174 197 0
172 195 0
172 196 0
174 197 0
173 197 0
172 196 0
173 196 0
176 198 0
172 195 0
173 197 0
174 198 0
174 198 0
172 196 0
174 198 0
172 196 0
174 197 0
171 195 0
176 198 0
174 197 0
175 198 0
173 197 0
174 197 0
176 198 0
174 197 0
171 195 0
171 195 0
173 195 0
170 194 0
173 197 0
173 196 0
172 196 0
175 197 0
173 197 0
173 197 0
174 197 0
175 197 0
170 194 0
174 197 0
172 195 0
172 196 0
173 197 0
173 196 0
172 195 0
172 196 0
173 196 0
173 196 0
170 193 0
176 199 0
174 197 0
173 196 0
169 192 0
175 197 0
172 195 0
172 195 0
173 197 0
170 192 0
172 196 0
171 195 0
173 197 0
174 197 0
173 196 0
171 195 0
172 196 0
174 198 0
175 198 0
174 197 0
171 195 0
174 197 0
172 195 0
174 198 0
175 198 0
174 197 0
173 196 0
172 195 0
173 197 0
171 194 0
175 198 0
173 197 0
171 196 0
171 194 0
173 197 0
173 197 0
172 195 0
174 197 0
175 198 0
174 197 0
172 196 0
173 196 0
173 196 0
173 196 0
173 196 0
173 196 0
174 197 0
175 198 0
173 196 0
172 196 0
171 195 0
172 195 0
172 196 0
171 195 0
174 197 0
174 197 0
173 197 0
170 193 0
173 197 0
172 195 0
172 196 0
171 195 0
174 197 0
170 194 0
173 196 0
171 194 0
171 195 0
173 197 0
173 196 0
172 196 0
173 197 0
172 195 0
174 197 0
172 196 0
172 196 0
171 194 0
172 195 0
169 192 0
173 196 0
174 197 0
172 195 0
173 196 0
174 197 0
171 194 0
171 195 0
172 195 0
176 199 0
172 195 0
171 194 0
172 195 0
172 196 0
174 197 0
172 196 0
171 195 0
173 196 0
172 195 0
171 194 0
171 194 0
172 196 0
175 198 0
175 198 0
171 194 0
173 195 0
174 197 0
172 195 0
169 192 0
171 194 0
172 195 0
172 195 0
170 194 0
172 194 0
171 195 0
174 198 0
172 196 0
171 195 0
174 197 0
173 196 0
173 196 0
172 195 0
172 195 0
173 197 0
174 197 0
171 194 0
173 196 0
174 196 0
172 195 0
173 196 0
174 196 0
172 195 0
173 196 0
173 195 0
170 193 0
171 194 0
171 194 0
173 196 0
172 195 0
173 196 0
172 195 0
170 193 0
176 198 0
170 193 0
170 194 0
173 195 0
173 197 0
171 193 0
173 196 0
173 195 0
171 194 0
172 195 0
171 194 0
173 196 0
173 196 0
167 190 11
171 194 0
168 187 30
161 179 30
160 173 40
158 172 42
143 154 48
152 159 53
150 152 65
150 147 75
152 146 84
134 130 74
148 142 84
155 149 89
137 133 78
149 143 86
145 140 84
143 139 85
140 135 82
150 145 91
153 147 92
150 145 91
152 148 92
154 149 90
156 151 96
165 159 101
154 150 98
155 150 96
152 148 95
163 158 102
159 155 101
162 158 102
158 153 98
159 155 101
159 156 101
159 155 103
162 157 104
158 156 101
157 154 102
164 160 106
155 152 101
170 166 109
160 156 104
159 156 103
152 149 100
159 156 103
160 158 106
166 163 108
162 160 107
165 162 108
161 158 105
164 161 107
164 161 108
161 158 106
164 160 106
164 161 108
161 158 106
163 159 106
165 162 108
162 159 106
168 165 110
167 164 110
171 167 111
158 155 103
165 162 109
168 165 110
169 166 111
169 166 110
163 160 107
169 166 111
168 165 110
167 164 110
168 165 110
168 166 111
166 164 109
170 167 112
171 169 113
167 164 109
167 165 110
168 165 110
170 168 112
166 163 109
167 165 110
168 166 111
166 164 109
166 165 110
165 163 109
169 166 110
168 165 110
167 163 109
166 163 109
172 169 112
164 161 106
168 165 109
170 167 110
171 167 110
168 165 109
167 164 109
165 162 108
169 165 109
166 163 109
165 162 106
165 162 108
163 160 106
164 160 106
165 162 107
168 164 108
167 163 107
166 162 106
163 159 104
158 153 100
168 164 108
164 159 105
159 155 102
163 159 104
169 163 108
155 151 97
156 151 96
160 155 101
167 163 105
162 158 102
164 158 100
159 154 99
159 155 99
158 154 98
160 156 99
159 153 96
156 150 95
151 146 93
161 154 96
159 152 93
156 149 92
148 143 89
156 150 91
151 144 86
152 146 87
155 149 90
146 140 77
138 134 76
147 140 80
139 134 76
147 143 74
148 146 73
146 148 66
152 161 53
156 171 37
167 186 34
169 192 11
173 196 0
172 195 0
174 197 0
174 197 0
176 198 0
174 196 0
172 195 0
173 197 0
173 197 0
173 196 0
173 197 0
174 197 0
174 198 0
175 198 0
174 198 0
173 197 0
176 199 0
175 198 0
173 196 0
174 198 0
174 198 0
170 193 0
174 197 0
173 197 0
175 198 0
172 196 0
173 197 0
175 198 0
174 197 0
174 197 0
175 198 0
175 198 0
174 197 0
172 195 0
174 197 0
174 197 0
174 198 0
174 197 0
170 195 0
173 196 0
174 197 0
174 197 0
173 196 0
174 197 0
174 198 0
174 198 0
175 198 0
173 196 0
174 197 0
174 198 0
173 197 0
175 198 0
172 195 0
173 197 0
174 197 0
171 194 0
172 196 0
173 197 0
174 197 0
173 196 0
172 196 0
175 197 0
174 198 0
173 197 0
174 197 0
173 197 0
170 194 0
172 196 0
173 197 0
171 196 0
171 195 0
174 198 0
171 195 0
174 198 0
175 198 0
174 197 0
173 196 0
174 197 0
173 197 0
174 197 0
172 196 0
172 196 0
171 194 0
175 198 0
174 197 0
174 197 0
173 196 0
172 195 0
173 197 0
173 196 0
172 196 0
173 196 0
174 197 0
172 196 0
173 196 0
173 196 0
172 195 0
174 198 0
171 195 0
174 198 0
174 197 0
175 197 0
172 195 0
173 197 0
171 193 0
172 196 0
175 198 0
172 196 0
173 197 0
173 197 0
172 195 0
174 197 0
174 196 0
175 198 0
174 197 0
172 196 0
173 196 0
173 196 0
172 196 0
175 198 0
171 195 0
169 193 0
174 198 0
171 195 0
172 195 0
175 197 0
173 196 0
172 195 0
172 195 0
172 195 0
174 197 0
172 195 0
174 197 0
173 197 0
174 197 0
172 194 0
173 196 0
171 195 0
173 196 0
175 197 0
174 197 0
174 196 0
172 195 0
172 196 0
173 196 0
172 195 0
172 196 0
173 196 0
172 196 0
171 194 0
171 195 0
172 196 0
174 198 0
168 192 0
172 195 0
171 195 0
174 198 0
173 196 0
170 193 0
174 198 0
171 194 0
173 197 0
174 196 0
173 196 0
171 194 0
173 197 0
174 198 0
174 197 0
173 196 0
172 195 0
173 196 0
174 197 0
173 196 0
172 196 0
173 196 0
172 195 0
172 196 0
173 196 0
172 196 0
170 194 0
174 197 0
172 196 0
172 196 0
173 196 0
173 197 0
173 196 0
171 195 0
173 197 0
175 198 0
172 196 0
173 197 0
173 195 0
173 196 0
173 195 0
172 195 0
174 196 0
171 194 0
170 194 0
171 194 0
170 194 0
174 198 0
174 197 0
171 195 0
172 195 0
171 194 0
173 196 0
175 198 0
172 195 0
173 196 0
172 195 0
172 195 0
173 196 0
173 197 0
172 196 0
173 196 0
172 196 0
172 195 0
169 192 0
174 198 0
172 196 0
174 197 0
173 196 0
173 196 0
169 194 0
172 195 0
173 196 0
172 195 0
173 197 0
173 196 0
171 193 0
173 195 0
171 195 0
172 195 0
169 192 0
173 196 0
171 193 0
171 195 0
170 194 0
170 194 0
174 197 0
174 197 0
171 195 0
172 195 0
174 198 0
172 195 0
175 197 0
173 196 0
173 196 0
172 195 0
169 193 0
174 197 0
172 195 0
173 193 16
169 191 11
162 182 28
167 185 39
151 162 45
155 165 49
141 145 58
151 154 63
137 136 66
143 141 69
143 139 75
147 142 78
138 133 78
151 144 85
146 140 85
140 134 77
150 144 87
147 142 86
152 146 87
151 146 92
155 150 94
143 138 87
145 140 89
150 146 95
154 150 98
148 144 92
151 147 96
150 145 91
150 146 96
155 149 95
160 156 100
155 150 97
159 155 103
152 149 98
154 151 99
144 141 93
161 157 103
163 159 104
159 155 103
158 155 103
158 155 103
158 154 102
164 160 106
154 152 102
162 159 107
161 158 105
161 158 105
164 161 107
160 158 105
166 163 109
163 160 106
159 157 105
162 159 106
157 155 103
168 164 108
163 160 107
169 166 110
167 165 110
168 165 110
167 165 110
170 167 110
165 162 109
165 162 109
162 160 107
160 158 106
168 165 110
171 168 112
167 165 110
165 163 109
165 163 109
165 163 109
167 166 111
166 164 110
168 165 110
163 161 108
166 163 109
170 168 112
167 165 110
166 163 109
168 165 110
166 163 109
174 171 113
164 162 108
169 166 110
170 167 112
162 160 107
162 159 106
166 164 109
167 163 108
166 164 110
167 164 109
167 164 109
167 164 109
168 165 109
170 166 110
170 167 112
165 162 107
166 163 108
169 166 109
158 156 103
167 165 110
173 168 110
166 162 107
166 163 109
169 166 110
164 161 107
166 162 106
163 159 104
168 163 106
169 165 109
163 159 103
168 164 108
164 160 104
156 152 99
163 158 102
165 160 102
167 161 103
161 156 101
167 164 106
163 158 103
161 157 101
162 157 100
156 151 99
156 150 94
157 150 95
159 154 97
165 158 100
155 149 93
149 144 88
163 157 99
151 146 91
155 149 93
148 141 86
155 149 90
149 145 88
151 145 84
150 144 86
158 151 91
150 144 87
153 146 89
138 132 75
154 148 81
141 138 67
154 157 68
146 150 58
156 166 53
164 181 34
172 192 25
172 196 0
173 197 0
174 197 0
171 195 0
171 194 0
171 195 0
174 197 0
173 196 0
174 197 0
175 198 0
173 196 0
174 197 0
171 195 0
174 197 0
172 195 0
174 197 0
175 198 0
174 198 0
171 195 0
174 197 0
174 197 0
175 198 0
176 198 0
173 196 0
174 197 0
174 197 0
174 198 0
171 194 0
173 197 0
173 197 0
174 198 0
173 197 0
175 198 0
174 198 0
173 197 0
173 197 0
173 197 0
173 196 0
175 198 0
174 198 0
175 198 0
172 196 0
172 196 0
172 195 0
175 198 0
176 199 0
174 198 0
175 198 0
173 197 0
173 196 0
173 196 0
174 197 0
174 197 0
173 197 0
173 196 0
173 197 0
172 195 0
173 196 0
173 197 0
172 196 0
175 197 0
174 197 0
174 197 0
174 198 0
174 197 0
174 197 0
174 197 0
173 197 0
173 197 0
173 197 0
175 198 0
173 196 0
175 198 0
172 196 0
173 196 0
175 198 0
172 195 0
172 196 0
173 197 0
172 195 0
173 196 0
173 196 0
171 194 0
174 198 0
173 197 0
170 195 0
172 196 0
174 198 0
171 193 0
172 196 0
175 198 0
169 193 0
171 194 0
173 197 0
173 197 0
173 197 0
172 195 0
176 198 0
175 198 0
172 196 0
173 197 0
172 195 0
172 195 0
173 196 0
174 197 0
173 197 0
172 195 0
170 194 0
172 196 0
174 197 0
174 197 0
174 197 0
172 195 0
171 194 0
172 196 0
173 197 0
174 196 0
174 197 0
170 193 0
173 196 0
173 197 0
174 198 0
174 197 0
167 192 0
171 196 0
170 193 0
172 195 0
173 197 0
172 196 0
172 195 0
173 197 0
172 196 0
174 197 0
171 195 0
175 198 0
170 193 0
172 195 0
171 195 0
174 197 0
172 195 0
170 193 0
173 197 0
170 194 0
175 198 0
174 197 0
174 197 0
173 196 0
172 195 0
172 195 0
175 198 0
172 195 0
172 196 0
172 195 0
174 197 0
171 194 0
174 196 0
173 195 0
171 195 0
174 198 0
170 193 0
173 197 0
169 192 0
173 195 0
174 197 0
172 196 0
172 195 0
173 196 0
173 196 0
174 197 0
172 196 0
173 197 0
173 196 0
172 196 0
174 198 0
172 194 0
173 197 0
171 195 0
173 197 0
174 196 0
173 196 0
171 194 0
173 196 0
171 194 25
168 191 18
173 196 0
173 195 0
171 194 0
174 197 18
172 196 0
171 195 18
171 194 0
173 196 0
173 197 0
172 195 0
171 194 0
173 195 0
174 197 0
172 196 0
172 195 0
172 196 0
172 195 0
172 195 0
171 194 0
174 197 0
173 196 0
172 195 0
174 197 0
174 198 0
171 194 0
174 197 0
173 196 0
173 196 0
174 197 0
173 196 0
172 195 0
172 195 0
171 195 0
173 196 0
172 195 0
172 195 0
171 194 0
171 193 0
173 196 0
171 194 0
172 195 0
173 196 0
172 196 0
171 195 0
172 195 0
172 194 0
175 197 0
172 196 0
172 196 0
171 195 0
174 197 0
174 196 0
173 196 0
173 195 0
169 192 0
173 196 0
175 197 0
171 194 0
175 198 0
172 195 0
173 196 0
174 197 0
171 193 0
173 197 0
172 194 0
172 196 0
171 194 0
171 195 0
169 190 0
163 183 11
160 175 42
159 175 38
156 168 45
142 148 53
140 144 61
151 153 68
143 142 68
138 134 70
142 137 78
141 136 78
138 134 79
146 140 83
143 138 79
150 146 91
143 137 84
148 143 89
153 148 92
151 146 90
153 148 92
156 150 94
155 149 93
161 156 99
151 147 91
161 156 101
154 150 97
154 150 98
156 152 98
163 157 101
162 158 103
156 152 99
155 151 97
155 152 99
158 155 102
160 156 102
160 156 101
157 154 103
153 150 100
162 158 104
163 160 107
162 159 105
158 155 103
151 149 100
163 159 106
159 156 104
158 155 104
164 161 107
164 161 107
163 160 108
165 161 107
166 163 107
164 161 108
165 163 108
167 164 109
165 162 108
164 162 108
164 160 107
164 162 108
169 166 111
168 166 111
162 160 108
167 164 109
167 165 110
165 163 109
167 165 110
166 163 108
167 166 111
167 165 110
166 163 109
168 165 111
169 167 112
166 163 109
166 163 109
169 167 111
167 164 109
167 164 110
164 162 108
164 162 108
168 165 110
171 167 111
163 161 108
167 165 110
166 163 109
167 164 109
164 160 106
165 162 108
162 160 106
171 167 111
170 168 112
163 160 107
169 166 110
167 163 108
167 164 109
168 164 109
165 162 108
166 163 108
158 157 104
167 164 110
167 164 109
166 162 106
159 155 101
168 164 109
165 162 107
165 162 106
167 164 108
166 162 106
162 158 104
156 153 100
161 157 103
167 162 106
161 157 103
163 159 104
164 159 104
153 148 95
159 156 102
162 157 100
153 149 93
159 155 102
154 150 96
158 154 98
160 156 99
160 155 96
158 153 97
157 152 96
162 156 99
163 157 100
158 153 97
153 148 91
149 143 88
158 152 94
155 149 93
157 152 91
152 146 87
151 146 87
155 149 91
147 141 85
149 144 87
151 144 87
146 140 84
145 140 79
154 148 88
145 143 75
149 149 70
147 149 69
152 162 48
156 168 42
167 186 32
171 192 19
173 196 0
175 197 0
173 196 0
174 196 0
174 196 0
174 198 0
172 196 0
174 198 0
174 197 0
174 196 0
173 197 0
173 197 0
174 197 0
175 198 0
173 196 0
172 196 0
173 196 0
174 197 0
174 197 0
173 197 0
174 198 0
173 197 0
175 198 0
174 197 0
172 196 0
174 198 0
173 196 0
174 197 0
174 197 0
173 196 0
172 195 0
171 195 0
173 197 0
174 196 0
174 197 0
174 197 0
173 197 0
175 198 0
174 198 0
172 196 0
175 198 0
172 195 0
172 196 0
173 196 0
174 196 0
172 196 0
174 197 0
174 197 0
173 196 0
174 197 0
172 196 0
173 197 0
171 195 0
173 197 0
175 198 0
174 197 0
172 195 0
174 197 0
174 197 0
173 196 0
174 197 0
173 197 0
174 198 0
173 196 0
174 197 0
172 196 0
175 198 0
172 196 0
172 196 0
174 198 0
172 196 0
173 196 0
172 196 0
173 196 0
174 197 0
173 196 0
173 197 0
174 197 0
175 198 0
174 198 0
173 197 0
175 198 0
174 198 0
174 198 0
175 198 0
173 197 0
175 198 0
168 192 0
174 197 0
172 196 0
174 197 0
173 196 0
171 195 0
171 195 0
172 196 0
172 195 0
173 196 0
173 197 0
172 195 0
172 196 0
172 196 0
172 195 0
170 194 0
173 196 0
172 195 0
173 196 0
172 195 0
172 196 0
172 196 0
172 195 0
174 197 0
173 197 0
172 195 0
172 195 0
173 196 0
171 196 0
175 198 0
174 198 0
174 198 0
170 194 0
174 197 0
175 198 0
173 196 0
174 196 0
174 198 0
170 193 0
172 195 0
171 195 0
171 195 0
173 195 0
172 195 0
172 196 0
171 195 0
173 196 0
172 196 0
172 196 0
173 196 0
173 197 0
171 194 0
170 193 0
174 197 0
174 197 0
171 195 0
172 195 0
170 193 0
172 196 0
171 195 0
173 197 0
173 196 0
173 197 0
175 198 0
174 197 0
173 197 0
173 196 0
171 195 0
172 196 0
171 195 0
173 196 0
172 194 0
170 194 0
172 196 0
172 196 0
172 195 0
172 196 0
173 196 0
169 192 0
171 194 0
173 196 0
173 197 0
171 195 0
173 196 0
171 195 0
167 190 40
169 192 47
167 191 40
165 189 54
163 187 62
159 182 72
155 179 86
156 180 78
162 186 67
155 178 90
151 175 94
150 174 95
154 177 82
154 179 81
155 179 88
158 182 76
157 181 77
160 184 74
159 183 70
161 185 74
162 187 65
166 189 51
168 190 44
172 195 18
169 192 18
174 197 0
173 196 0
174 197 0
172 195 0
171 194 0
172 196 0
172 194 0
172 196 0
174 197 0
173 197 0
174 197 0
173 195 0
172 195 0
173 197 0
174 197 0
171 194 0
171 194 0
173 197 0
172 196 0
174 196 0
167 190 0
175 198 0
174 196 0
171 195 0
171 194 0
171 195 0
173 196 0
170 193 0
170 192 0
169 192 0
173 196 0
171 195 0
173 196 0
172 195 0
173 196 0
171 194 0
172 195 0
171 194 0
173 196 0
174 197 0
173 196 0
174 197 0
172 196 0
172 195 0
174 196 0
174 197 0
171 193 0
172 195 0
171 192 0
172 195 0
173 196 0
172 195 0
174 197 0
170 192 11
166 187 16
164 181 36
158 174 25
158 170 45
150 161 45
145 154 48
138 143 49
143 143 71
137 137 66
138 135 76
128 124 71
155 148 84
147 141 80
148 142 84
142 137 80
140 134 80
152 146 90
151 146 92
148 143 89
153 148 94
149 146 93
154 150 95
155 150 91
145 139 89
150 146 95
146 143 92
154 150 96
146 142 93
160 154 101
157 153 101
154 150 97
153 150 99
161 157 101
157 154 100
157 154 101
160 156 103
162 159 106
158 153 101
158 154 101
158 155 103
161 158 104
162 158 105
155 152 101
158 155 103
161 159 106
156 153 102
165 161 107
163 160 107
161 158 105
161 159 105
163 161 108
164 161 107
164 161 108
169 166 111
168 165 110
166 164 109
165 162 108
165 163 109
165 162 108
167 165 110
167 164 110
166 164 110
162 159 107
164 162 108
165 163 110
163 159 106
161 160 108
171 169 113
169 166 111
169 167 112
172 169 113
170 167 110
169 167 112
168 165 111
170 167 112
167 165 110
172 169 113
169 166 111
169 166 111
171 167 111
166 163 109
172 169 112
167 164 109
167 164 110
168 165 110
172 169 113
165 162 108
167 165 110
166 163 108
167 164 109
171 168 112
170 167 110
168 165 110
164 161 107
166 163 108
162 159 106
169 165 109
165 162 108
167 164 108
162 159 105
166 162 107
168 164 108
170 166 109
164 162 108
161 157 104
165 161 105
167 164 107
162 158 103
167 163 106
166 162 106
167 163 106
165 161 106
166 162 104
162 158 103
167 163 105
167 164 106
165 161 104
162 157 102
157 153 100
158 154 99
158 153 99
162 158 99
164 158 103
155 151 97
160 155 96
159 155 95
166 161 100
163 158 101
152 147 91
155 150 93
158 151 96
163 156 97
155 149 90
153 147 90
153 148 88
155 149 89
153 147 87
151 145 89
144 140 82
146 140 76
143 137 76
147 140 80
142 137 75
139 134 77
141 141 64
151 158 57
158 170 47
160 172 49
165 185 22
173 196 11
174 197 0
174 197 0
174 197 0
174 197 0
173 195 0
173 196 0
175 198 0
171 194 0
174 198 0
171 195 0
176 198 0
173 197 0
173 197 0
172 196 0
174 198 0
175 198 0
173 196 0
174 197 0
171 195 0
173 197 0
175 198 0
171 195 0
175 198 0
172 196 0
174 196 0
174 197 0
173 197 0
173 197 0
173 196 0
173 196 0
173 197 0
174 197 0
175 198 0
172 196 0
174 197 0
171 196 0
174 197 0
174 197 0
173 197 0
176 198 0
170 194 0
172 196 0
175 198 0
171 195 0
174 197 0
175 198 0
174 197 0
173 197 0
171 195 0
173 197 0
175 197 0
173 197 0
174 197 0
175 197 0
172 195 0
171 195 0
173 197 0
175 198 0
172 196 0
173 197 0
172 195 0
173 196 0
173 196 0
174 197 0
172 196 0
175 198 0
175 198 0
174 197 0
174 198 0
174 198 0
172 196 0
172 196 0
173 197 0
171 195 0
172 196 0
172 196 0
172 195 0
172 196 0
173 197 0
170 194 0
172 195 0
172 195 0
174 197 0
175 198 0
176 198 0
174 196 0
175 198 0
173 197 0
173 196 0
174 197 0
173 197 0
175 198 0
174 197 0
173 196 0
174 197 0
171 195 0
174 197 0
171 194 0
173 196 0
174 197 0
173 197 0
174 198 0
173 197 0
173 196 0
174 197 0
174 197 0
172 195 0
173 196 0
174 197 0
175 197 0
173 195 0
174 197 0
174 198 0
173 196 0
173 196 0
173 197 0
173 197 0
173 196 0
173 196 0
174 197 0
172 196 0
171 195 0
171 194 0
173 196 0
171 194 0
174 196 0
174 197 0
172 196 0
171 194 0
173 197 0
172 195 0
174 197 0
172 196 0
172 195 0
175 198 0
172 196 0
174 197 0
174 196 0
171 195 0
173 196 0
172 195 0
170 194 0
171 195 0
171 195 0
173 197 0
169 192 0
174 197 0
173 196 0
173 196 0
170 193 0
175 197 0
172 195 0
171 194 0
170 194 0
172 195 0
173 197 0
173 196 0
173 197 0
172 195 0
173 195 0
171 194 0
172 195 0
174 197 0
172 195 0
168 192 18
166 189 40
170 193 36
161 185 65
158 182 76
152 176 88
133 159 122
143 168 108
130 155 125
118 145 136
116 143 142
109 136 149
104 133 154
100 128 154
96 126 159
101 130 156
95 124 162
87 118 166
94 124 162
84 116 166
91 122 164
96 125 159
94 124 162
92 122 163
94 124 161
109 137 148
107 134 152
116 143 141
110 138 146
138 163 114
142 167 102
153 177 90
153 178 88
161 185 72
161 184 67
171 194 25
169 192 25
172 194 0
174 197 0
173 196 0
171 194 0
171 194 0
170 194 0
172 195 0
169 193 0
173 196 0
170 193 0
170 193 0
170 193 0
173 196 0
169 192 0
171 195 0
171 194 0
172 195 0
175 196 0
174 197 0
174 197 0
174 196 0
174 197 0
170 193 0
173 197 0
174 197 0
173 196 0
170 193 0
171 194 0
175 197 0
174 197 0
172 195 0
171 194 0
172 196 0
172 196 0
173 196 0
172 195 0
173 196 0
172 195 0
172 195 0
173 195 0
172 196 0
173 195 0
170 194 0
171 194 0
174 197 0
172 195 0
172 195 0
170 193 0
169 189 16
165 184 32
165 180 36
155 171 41
146 158 39
150 155 60
154 159 58
144 145 67
140 138 70
136 134 67
130 126 68
135 131 74
144 139 82
147 142 80
142 137 78
154 148 89
142 138 83
146 140 85
148 144 90
161 154 97
145 141 89
151 146 93
151 145 93
152 147 95
149 144 93
153 148 97
156 151 97
150 147 95
149 146 95
165 159 100
155 150 96
152 149 97
160 156 100
157 154 102
140 138 91
157 153 100
151 149 100
156 154 102
160 157 105
162 158 104
152 148 98
161 157 104
157 153 101
157 155 104
163 161 109
158 156 104
161 158 105
163 160 106
168 164 109
165 163 109
159 156 104
165 162 108
162 159 106
167 165 111
167 164 109
167 164 108
162 160 107
170 167 111
166 164 110
169 165 110
169 166 110
169 166 110
165 162 108
167 165 110
167 164 109
168 164 109
169 166 111
167 165 110
168 165 110
171 169 113
172 169 113
162 159 107
167 164 110
170 168 112
171 168 112
167 165 110
166 164 110
172 169 113
171 169 113
169 167 111
167 164 110
168 166 111
166 164 109
167 164 110
169 167 111
171 169 113
168 165 110
173 170 113
163 160 107
168 166 111
164 161 107
167 165 110
168 165 110
168 165 110
170 166 109
171 167 110
169 165 109
167 163 108
169 166 110
165 162 108
168 164 109
171 167 109
164 162 108
166 163 108
170 166 110
167 163 108
172 167 110
170 166 108
167 163 107
161 158 103
163 160 105
162 159 105
166 161 106
166 162 104
160 156 101
167 162 105
166 160 103
162 158 99
167 162 104
163 158 103
155 151 95
165 160 102
165 160 104
159 154 97
159 154 98
163 158 100
155 149 93
165 159 102
159 153 95
151 145 90
154 148 95
148 143 87
157 151 90
153 148 89
154 149 88
153 147 88
148 142 84
143 138 81
154 148 87
149 142 86
150 144 80
147 142 80
144 138 82
138 132 78
140 136 74
146 145 70
149 154 62
154 163 48
159 173 42
168 185 34
170 191 16
174 197 0
173 196 0
174 197 0
174 197 0
173 196 0
173 197 0
172 195 0
173 196 0
175 198 0
174 198 0
175 197 0
172 196 0
174 197 0
173 197 0
174 197 0
173 197 0
175 198 0
174 197 0
173 196 0
175 198 0
175 198 0
173 196 0
175 198 0
173 197 0
173 196 0
173 195 0
173 196 0
173 196 0
174 197 0
175 197 0
173 196 0
172 195 0
172 196 0
174 197 0
171 195 0
174 196 0
172 196 0
174 197 0
175 198 0
171 195 0
173 196 0
173 196 0
172 195 0
174 197 0
171 195 0
176 199 0
174 196 0
173 197 0
173 197 0
173 197 0
175 198 0
172 196 0
173 196 0
172 195 0
172 196 0
172 196 0
174 196 0
172 196 0
172 196 0
173 196 0
172 196 0
174 197 0
172 195 0
172 196 0
174 198 0
172 196 0
174 198 0
174 197 0
172 197 0
174 196 0
174 197 0
173 195 0
172 195 0
173 197 0
175 198 0
173 197 0
172 195 0
171 195 0
172 195 0
172 196 0
174 198 0
173 197 0
174 197 0
173 197 0
174 197 0
176 198 0
172 196 0
173 196 0
174 197 0
172 196 0
170 194 0
174 198 0
172 196 0
175 198 0
174 197 0
170 194 0
174 197 0
174 197 0
173 197 0
174 197 0
171 195 0
172 196 0
174 198 0
172 196 0
171 194 0
173 196 0
175 197 0
174 197 0
172 195 0
173 197 0
173 196 0
172 195 0
172 196 0
172 195 0
171 194 0
172 195 0
173 195 0
173 197 0
170 194 0
175 198 0
171 194 0
172 196 0
174 197 0
174 197 0
171 195 0
172 196 0
168 190 0
172 195 0
175 197 0
170 194 0
169 193 0
172 196 0
174 197 0
172 196 0
173 196 0
174 196 0
169 192 0
174 198 0
172 196 0
174 197 0
174 197 0
171 195 0
173 197 0
173 196 0
175 198 0
170 194 0
172 195 0
171 195 0
174 198 0
171 195 0
171 195 0
171 194 0
173 196 0
172 195 0
174 197 0
172 195 0
169 192 0
171 195 0
171 195 18
169 193 0
172 195 36
165 188 51
161 185 67
160 184 76
141 166 107
136 161 118
133 158 120
112 139 144
107 135 149
91 122 164
87 119 164
76 109 173
64 101 180
62 99 181
62 99 181
62 99 181
62 99 179
62 99 180
61 98 180
62 99 180
62 99 180
61 99 181
62 99 181
62 99 181
62 99 181
62 99 179
61 99 180
62 99 180
62 99 181
62 99 179
61 98 178
62 99 180
65 101 177
67 103 176
71 105 176
78 111 172
82 114 166
102 131 154
115 141 145
118 144 140
135 160 118
147 172 95
160 183 70
161 184 65
170 193 31
174 197 0
176 199 0
171 195 0
170 194 0
171 194 0
172 196 0
171 195 0
172 196 0
173 196 0
170 193 0
171 194 0
174 197 0
172 195 0
172 195 0
170 193 0
173 196 0
172 195 0
171 194 0
171 194 0
171 195 0
174 196 0
173 196 0
173 196 0
171 194 0
173 196 0
171 194 0
171 195 0
173 195 0
173 196 0
174 197 0
174 197 0
171 194 0
170 192 0
174 196 0
172 195 0
172 195 0
168 192 0
174 197 0
173 196 0
173 196 0
171 194 0
172 195 0
174 196 0
166 187 16
169 191 16
163 179 32
162 179 34
155 169 41
152 163 52
152 156 65
150 150 70
144 145 65
131 128 66
136 131 71
142 135 76
140 134 79
148 143 85
146 140 84
130 127 75
152 147 90
143 140 86
154 150 90
156 151 94
153 147 91
152 147 92
148 143 88
154 149 94
146 142 92
153 149 95
148 143 89
151 147 93
154 150 98
154 150 98
155 151 98
152 149 97
154 151 98
160 155 101
158 155 101
155 151 99
156 152 100
152 150 100
161 157 104
162 158 104
159 156 104
150 147 98
158 156 103
162 158 106
163 160 107
157 155 105
156 154 103
163 160 107
166 163 108
163 160 108
159 156 103
162 159 106
162 160 108
163 160 107
166 163 109
160 158 107
163 161 108
168 164 109
168 165 110
162 160 108
164 162 108
168 165 110
169 166 111
167 164 110
168 165 110
166 164 109
162 160 108
170 167 112
168 164 109
167 165 111
166 164 109
169 166 110
162 160 106
168 166 111
171 168 113
170 167 112
168 165 110
166 164 109
170 168 112
166 163 108
164 162 109
164 162 109
171 168 112
170 167 112
165 163 109
165 163 109
169 166 110
166 164 110
169 166 110
172 168 112
169 167 111
167 165 109
168 165 110
168 165 110
170 167 111
172 168 112
169 166 111
167 164 109
166 163 108
167 165 109
167 163 108
165 162 106
175 170 112
168 164 108
167 163 107
168 164 108
163 159 104
169 164 108
173 169 110
169 165 109
168 163 106
170 165 108
164 161 104
167 162 105
168 165 108
160 156 103
166 161 105
164 159 104
168 162 103
163 159 103
159 155 99
155 151 98
162 157 99
156 151 93
159 153 94
163 158 99
161 156 97
157 151 95
168 162 102
156 151 92
164 158 96
157 151 94
161 154 93
148 144 88
168 162 99
153 147 91
150 145 87
154 148 92
162 155 95
142 136 80
139 133 80
144 139 83
147 141 80
147 141 79
139 134 74
149 143 80
141 137 69
140 142 61
156 164 60
148 156 54
160 178 32
167 183 36
174 196 0
174 197 0
172 195 0
170 194 0
174 196 0
173 197 0
173 196 0
174 197 0
172 196 0
175 198 0
173 196 0
175 198 0
175 198 0
174 197 0
176 199 0
176 199 0
174 198 0
172 196 0
173 197 0
175 198 0
172 196 0
174 197 0
172 196 0
173 196 0
172 195 0
172 196 0
173 197 0
174 197 0
174 197 0
173 196 0
172 196 0
171 195 0
175 198 0
172 195 0
172 196 0
171 193 0
173 196 0
172 196 0
174 197 0
171 195 0
174 197 0
174 196 0
173 197 0
173 196 0
171 194 0
173 196 0
175 198 0
175 198 0
172 195 0
171 195 0
173 196 0
173 197 0
175 197 0
175 198 0
171 195 0
174 197 0
172 196 0
174 197 0
174 197 0
169 193 0
172 196 0
172 196 0
173 197 0
173 196 0
174 197 0
173 196 0
173 197 0
175 198 0
172 194 0
175 198 0
173 196 0
175 198 0
173 196 0
172 196 0
175 198 0
173 197 0
174 197 0
174 197 0
172 196 0
171 195 0
171 195 0
173 197 0
171 195 0
173 196 0
172 197 0
171 194 0
171 195 0
172 196 0
173 197 0
172 195 0
174 197 0
169 193 0
174 197 0
174 197 0
171 196 0
173 196 0
171 194 0
174 197 0
171 196 0
174 197 0
173 196 0
172 196 0
175 198 0
173 197 0
171 195 0
175 198 0
174 198 0
174 197 0
175 198 0
172 195 0
172 196 0
174 197 0
170 194 0
173 197 0
173 197 0
173 196 0
174 197 0
173 196 0
174 197 0
173 196 0
174 197 0
174 197 0
175 198 0
172 196 0
173 196 0
172 196 0
174 197 0
175 197 0
172 196 0
172 194 0
173 196 0
173 196 0
171 195 0
173 196 0
173 197 0
174 197 0
173 196 0
171 194 0
171 194 0
174 197 0
170 194 0
174 197 0
173 196 0
173 196 0
174 197 0
174 197 0
173 196 0
172 195 0
173 196 0
172 195 0
171 195 0
172 195 0
174 197 0
173 197 0
174 197 0
172 196 0
170 192 31
168 191 47
163 187 57
157 180 80
142 167 111
130 156 126
114 141 143
110 138 147
84 115 167
79 111 169
66 101 177
62 99 179
61 99 180
61 98 180
62 99 181
61 99 181
61 99 180
61 99 181
61 98 180
61 98 181
61 99 181
61 99 181
62 99 181
61 99 181
61 99 181
62 99 181
61 98 180
62 99 181
61 98 179
61 98 179
62 99 181
62 99 181
61 98 180
62 99 178
62 99 181
62 99 180
61 98 179
61 99 181
61 99 180
62 99 180
61 99 180
62 99 180
61 98 178
63 100 179
67 102 174
88 118 167
89 119 160
118 144 140
129 154 126
142 165 107
164 186 63
160 184 70
165 188 36
173 196 0
170 192 0
173 196 0
170 194 0
173 197 0
170 194 0
172 196 0
171 194 0
172 196 0
172 196 0
174 197 0
173 196 0
172 194 0
171 195 0
176 198 0
170 193 0
172 195 0
171 194 0
169 192 0
171 194 0
171 195 0
173 196 0
171 194 0
174 197 0
172 195 0
171 194 0
171 193 0
172 195 0
173 196 0
172 194 0
169 193 0
174 197 0
170 193 0
168 190 0
172 195 0
168 191 0
171 194 0
172 195 0
171 194 0
168 188 16
167 188 22
165 181 36
161 176 41
157 165 59
156 163 58
148 151 62
133 134 59
143 141 68
134 132 68
145 140 76
136 131 76
145 140 83
141 136 78
139 134 81
143 139 86
156 150 92
151 145 91
147 142 88
144 139 86
138 135 85
143 138 86
154 150 93
154 149 95
147 143 89
146 141 93
149 146 93
153 149 95
144 141 91
145 142 94
149 146 97
154 150 97
154 150 97
152 150 99
148 145 96
160 157 104
161 156 102
158 154 103
154 151 100
160 157 104
163 159 105
158 156 104
153 150 102
163 159 105
156 154 104
160 157 105
166 163 109
167 163 107
159 156 104
158 156 105
160 158 107
164 160 106
165 161 107
165 162 108
167 164 109
163 160 106
165 162 108
165 162 108
167 164 109
164 161 108
166 164 110
166 164 110
167 164 110
164 161 108
167 164 110
162 160 107
169 167 112
170 167 111
168 166 110
170 166 110
169 167 112
168 166 111
168 165 111
170 167 111
167 165 110
169 166 110
169 166 111
171 167 111
170 168 112
167 164 110
170 168 112
168 165 109
174 170 113
171 167 111
168 167 112
169 166 110
170 167 111
171 168 111
171 168 112
169 166 111
168 164 108
170 166 110
167 164 109
168 165 109
167 164 109
168 165 109
169 166 109
169 166 110
168 164 108
167 163 108
170 167 110
169 165 109
171 166 109
166 163 108
172 166 108
174 169 111
173 169 111
164 161 106
164 160 104
167 163 107
163 159 104
169 165 108
165 160 103
166 162 105
163 158 104
166 162 104
166 162 105
159 155 99
161 156 102
166 161 103
163 159 104
168 163 103
162 157 101
159 154 99
163 158 99
164 158 101
147 143 92
161 155 98
159 153 97
162 156 97
165 160 98
160 155 98
154 148 90
151 146 90
155 149 90
153 147 93
152 148 93
152 146 87
147 142 82
153 147 87
145 140 80
157 151 92
150 144 80
152 146 87
145 139 81
145 138 76
139 135 71
150 146 78
153 157 56
156 166 49
169 183 49
163 180 37
169 191 16
174 197 0
174 196 0
174 197 0
174 197 0
173 197 0
172 195 0
174 197 0
175 198 0
174 198 0
174 198 0
172 196 0
172 196 0
174 198 0
173 197 0
174 197 0
173 197 0
172 197 0
174 197 0
173 197 0
174 197 0
174 196 0
172 196 0
173 196 0
174 197 0
173 197 0
172 196 0
173 197 0
174 197 0
174 197 0
170 194 0
171 194 0
175 198 0
173 197 0
173 196 0
175 198 0
174 197 0
171 195 0
173 197 0
174 197 0
174 197 0
173 196 0
173 197 0
172 196 0
174 197 0
174 197 0
175 198 0
172 196 0
171 193 0
174 198 0
173 197 0
172 195 0
173 196 0
175 198 0
171 195 0
175 198 0
173 196 0
174 198 0
175 198 0
174 197 0
173 196 0
175 197 0
173 196 0
171 195 0
174 197 0
174 198 0
175 198 0
173 196 0
174 198 0
173 197 0
175 198 0
173 196 0
174 197 0
171 195 0
174 197 0
172 196 0
170 194 0
172 195 0
174 196 0
173 196 0
173 197 0
172 196 0
174 197 0
174 197 0
173 197 0
175 197 0
174 197 0
171 195 0
172 195 0
174 198 0
172 195 0
171 194 0
172 196 0
175 198 0
173 197 0
174 197 0
170 194 0
173 197 0
172 196 0
174 196 0
174 196 0
174 197 0
170 194 0
173 197 0
172 195 0
171 195 0
173 196 0
175 197 0
174 197 0
175 198 0
173 196 0
172 195 0
171 194 0
172 196 0
170 194 0
171 195 0
172 196 0
172 196 0
171 194 0
172 195 0
173 196 0
173 197 0
171 195 0
171 195 0
171 194 0
172 196 0
174 197 0
173 197 0
172 195 0
174 197 0
171 194 0
174 197 0
170 193 0
173 196 0
171 194 0
172 195 0
172 195 0
173 197 0
172 196 0
174 198 0
172 196 0
169 193 0
171 194 0
171 195 0
173 196 0
172 196 0
171 195 0
171 194 0
172 195 0
172 195 0
169 193 0
172 196 0
171 194 18
171 195 0
171 194 25
151 175 86
158 181 80
137 162 118
130 155 129
100 129 155
96 125 160
68 103 175
64 100 179
62 99 181
62 99 181
62 99 181
61 99 181
62 99 180
61 99 181
61 99 181
62 99 181
62 99 181
61 99 181
61 99 181
62 99 181
61 99 181
61 99 181
62 99 181
61 99 181
62 99 181
62 99 181
62 99 181
62 99 181
62 99 181
62 99 181
61 98 181
62 99 181
61 99 181
62 99 181
61 98 180
61 98 180
62 99 180
61 98 180
62 99 181
62 99 178
62 99 180
62 99 180
61 98 180
61 98 179
61 98 179
62 99 181
62 99 179
61 98 177
61 98 177
64 101 179
83 115 167
92 122 160
108 134 142
142 167 111
140 165 114
160 183 62
168 191 44
171 195 0
172 195 0
170 194 0
170 192 0
171 194 0
172 195 0
172 196 0
172 195 0
173 196 0
172 194 0
171 194 0
170 194 0
173 195 0
173 196 0
173 197 0
171 194 0
171 193 0
172 195 0
173 196 0
172 195 0
170 194 0
170 192 0
172 196 0
175 198 0
173 195 0
173 195 0
173 196 0
171 194 0
173 196 0
171 194 0
172 195 0
170 193 0
172 195 0
172 195 0
173 196 0
168 188 19
168 190 11
170 188 30
162 177 25
158 172 45
151 163 39
155 159 61
151 153 69
144 143 69
133 132 65
138 133 74
141 135 76
136 131 74
149 143 83
151 146 87
140 134 79
140 136 82
156 150 92
140 137 85
141 137 85
130 127 80
153 147 92
146 143 90
142 139 89
152 148 94
146 143 91
144 141 91
152 149 96
151 147 97
157 152 97
153 149 96
154 149 98
156 153 98
165 160 105
164 159 103
159 155 103
161 156 102
158 155 102
156 153 101
161 157 103
166 162 105
156 153 101
160 157 105
158 154 103
159 156 105
151 150 101
157 154 104
151 149 101
162 159 106
161 157 105
159 157 106
166 163 108
158 156 105
167 165 110
161 159 107
169 164 109
160 158 105
165 162 108
167 164 110
165 162 109
158 156 105
165 162 109
169 167 112
170 167 111
169 166 110
164 161 108
172 168 112
169 166 111
162 160 108
165 164 110
172 169 112
170 167 112
170 167 111
171 169 112
168 165 111
170 167 111
170 168 112
169 166 110
171 168 111
172 169 113
169 165 110
172 168 111
165 162 108
169 165 110
170 166 111
172 169 112
171 168 111
168 165 110
172 169 112
171 167 110
170 167 111
167 165 110
171 168 111
167 164 109
170 167 110
169 166 109
173 170 112
174 170 113
167 165 109
168 165 109
168 165 108
169 165 109
172 167 109
169 165 108
165 163 108
171 166 109
169 165 109
164 161 105
161 158 104
168 163 108
165 160 105
170 165 107
168 164 106
166 162 106
168 164 108
164 160 101
162 158 103
164 160 105
163 159 103
162 158 101
167 162 103
164 159 101
160 156 99
159 155 99
165 160 99
151 147 91
160 155 99
161 156 97
158 153 97
161 155 93
155 150 95
164 158 98
161 156 99
155 150 88
167 161 98
152 147 89
155 150 93
160 154 95
153 148 88
159 153 93
143 138 79
158 151 91
143 138 81
142 136 75
146 140 81
139 133 77
134 128 72
132 128 70
141 138 72
152 154 70
149 153 59
160 174 45
160 176 36
167 188 25
172 195 0
173 197 0
174 196 0
174 197 0
172 196 0
173 196 0
173 197 0
176 199 0
174 197 0
175 197 0
174 197 0
171 194 0
175 198 0
173 197 0
173 196 0
174 198 0
174 197 0
172 195 0
172 196 0
173 196 0
172 195 0
174 197 0
171 195 0
174 197 0
173 196 0
175 197 0
173 197 0
173 197 0
174 198 0
174 197 0
174 197 0
173 196 0
171 195 0
174 197 0
173 197 0
176 198 0
175 197 0
174 197 0
172 196 0
173 197 0
174 197 0
173 196 0
174 197 0
172 196 0
172 195 0
174 198 0
170 194 0
174 198 0
175 198 0
175 198 0
173 196 0
172 196 0
172 196 0
173 196 0
175 198 0
173 197 0
175 198 0
175 198 0
173 196 0
173 197 0
173 196 0
172 196 0
172 196 0
174 198 0
173 196 0
172 195 0
171 195 0
172 195 0
172 196 0
173 197 0
173 197 0
173 197 0
173 197 0
172 196 0
171 195 0
173 196 0
172 195 0
175 198 0
172 196 0
174 197 0
174 197 0
167 192 0
172 196 0
173 196 0
173 197 0
172 197 0
171 195 0
175 198 0
173 197 0
174 198 0
174 198 0
173 196 0
171 195 0
171 194 0
173 196 0
173 196 0
175 198 0
171 195 0
172 196 0
173 197 0
172 196 0
174 197 0
173 196 0
170 193 0
174 197 0
172 195 0
172 195 0
173 196 0
172 196 0
172 197 0
172 196 0
174 197 0
172 195 0
172 196 0
171 195 0
173 196 0
171 195 0
175 198 0
172 195 0
174 197 0
171 196 0
172 196 0
168 192 0
171 194 0
172 196 0
169 194 0
172 196 0
173 195 0
171 195 0
174 197 0
172 195 0
172 196 0
172 195 0
174 198 0
172 196 0
174 197 0
174 197 0
171 194 0
173 196 0
172 195 0
174 196 0
170 194 0
173 197 0
171 195 0
172 195 0
171 194 0
172 195 0
176 199 0
171 194 0
172 195 18
169 192 40
155 179 88
154 178 80
128 154 126
104 132 153
91 121 161
66 102 178
62 99 179
61 99 178
61 99 181
62 99 179
61 99 181
61 98 181
61 99 180
61 98 178
61 98 179
62 99 181
61 99 181
62 99 181
61 98 181
61 98 181
61 99 181
62 99 181
61 99 181
61 99 181
62 99 181
61 98 181
61 99 181
61 98 181
61 99 181
61 99 181
61 99 181
62 99 181
62 99 181
61 98 180
61 99 181
61 98 180
62 99 181
62 99 181
62 99 181
61 99 181
63 100 181
62 99 181
61 99 181
61 98 179
62 99 181
61 99 181
62 99 181
61 98 179
61 98 179
61 99 181
61 98 179
62 99 180
62 99 181
61 98 180
62 98 179
61 98 179
66 102 176
78 111 172
101 129 154
124 149 134
144 168 108
162 186 65
170 192 25
173 197 0
173 196 0
172 194 0
175 197 0
173 196 0
168 191 0
170 194 0
170 192 0
170 194 0
171 194 0
172 195 0
170 193 0
171 194 0
174 196 0
171 194 0
172 195 0
173 196 0
172 196 0
173 196 0
171 194 0
173 197 0
173 197 0
173 196 0
173 195 0
169 192 0
171 195 0
173 196 0
171 194 0
174 197 0
172 195 0
170 193 0
173 195 11
172 195 19
166 186 25
166 183 34
156 168 37
155 165 48
149 154 59
152 155 67
132 132 62
150 146 74
140 137 72
140 136 74
146 140 84
143 138 79
146 140 82
150 144 84
147 142 88
138 133 82
152 146 86
141 137 80
145 140 83
147 143 92
147 143 90
143 140 89
152 147 88
150 146 95
149 146 95
143 140 89
158 153 99
146 143 93
145 143 92
143 141 89
149 146 95
142 140 93
157 153 99
158 154 99
155 152 100
160 157 104
157 154 101
159 155 101
159 155 102
157 154 104
159 155 103
156 153 103
165 160 105
150 148 101
163 158 105
168 164 109
163 161 107
163 159 107
162 159 105
161 157 105
163 161 108
164 161 107
164 161 108
161 160 107
165 162 108
168 165 110
163 161 108
163 161 109
167 164 110
167 165 111
169 166 111
166 163 108
165 161 107
161 159 107
166 163 109
162 160 108
167 164 110
168 165 110
172 169 113
169 165 110
164 162 108
165 163 110
168 166 111
167 165 110
172 169 113
171 168 112
171 168 112
166 164 109
169 166 110
169 165 110
169 166 110
173 169 112
172 170 113
171 168 111
172 169 112
171 167 110
171 168 111
173 169 112
171 168 111
170 166 110
169 166 110
170 166 109
165 163 109
168 165 109
171 167 110
170 167 110
171 167 109
166 162 107
172 167 110
167 165 109
171 167 110
170 166 110
168 164 108
172 168 111
167 164 106
175 170 112
167 163 106
167 163 106
169 166 108
172 168 109
164 161 104
167 163 108
164 161 106
172 167 109
169 163 105
170 165 106
168 164 105
165 160 101
160 156 101
170 164 106
164 158 101
163 159 101
161 156 100
167 161 101
158 154 95
166 161 102
163 157 98
167 162 103
157 151 94
155 151 94
155 151 93
162 156 95
161 155 97
153 147 90
150 144 87
153 147 90
147 142 86
155 150 87
160 154 91
150 145 86
147 142 83
162 155 91
159 152 90
149 143 84
148 141 84
145 139 77
153 147 86
147 143 70
141 140 63
147 149 59
144 155 37
157 170 39
172 190 34
172 195 0
175 198 0
173 197 0
173 197 0
171 193 0
173 196 0
174 196 0
173 197 0
172 196 0
171 194 0
173 197 0
175 198 0
173 197 0
175 198 0
172 195 0
173 197 0
172 196 0
175 198 0
174 197 0
173 196 0
174 198 0
174 198 0
173 197 0
176 198 0
174 197 0
175 198 0
172 196 0
174 197 0
174 198 0
172 195 0
174 196 0
174 197 0
175 198 0
173 196 0
173 196 0
176 199 0
173 197 0
173 196 0
174 197 0
174 198 0
172 196 0
173 197 0
172 196 0
174 197 0
176 198 0
172 196 0
174 197 0
173 196 0
175 198 0
174 197 0
173 196 0
174 197 0
170 194 0
172 195 0
174 197 0
172 196 0
175 198 0
174 198 0
174 197 0
173 196 0
174 197 0
172 196 0
171 194 0
173 196 0
171 194 0
173 196 0
173 196 0
174 196 0
173 196 0
174 197 0
172 196 0
175 198 0
172 196 0
174 198 0
172 195 0
172 196 0
175 198 0
174 197 0
172 196 0
174 197 0
173 197 0
174 198 0
174 197 0
170 193 0
174 197 0
173 196 0
172 196 0
174 197 0
172 195 0
174 197 0
169 193 0
172 195 0
173 196 0
173 197 0
171 195 0
172 196 0
172 196 0
171 196 0
174 197 0
172 195 0
171 194 0
173 197 0
173 197 0
173 197 0
174 197 0
173 196 0
175 198 0
171 194 0
172 194 0
173 197 0
173 196 0
173 197 0
172 195 0
174 197 0
173 196 0
171 195 0
172 196 0
173 196 0
170 193 0
173 196 0
173 196 0
171 195 0
174 198 0
175 197 0
173 196 0
174 197 0
173 197 0
176 198 0
174 197 0
173 197 0
172 195 0
171 194 0
171 194 0
173 197 0
172 195 0
172 195 0
173 196 0
173 197 0
172 195 0
168 192 0
172 196 0
175 197 0
171 195 0
173 196 0
173 197 0
170 193 0
173 197 0
167 190 31
165 187 65
152 176 90
133 158 121
114 141 144
78 111 169
79 112 172
65 101 177
62 99 178
62 99 181
62 99 181
62 99 179
62 99 181
62 99 180
62 99 181
61 99 180
61 98 181
62 99 181
61 98 181
62 99 181
62 99 181
62 99 181
61 99 181
61 98 181
61 98 181
61 99 181
61 98 181
62 99 181
61 98 181
62 99 181
62 99 181
61 98 181
61 99 181
61 99 181
62 99 181
61 99 181
61 99 181
61 98 181
61 99 181
61 99 181
61 98 180
62 99 181
61 99 181
61 99 181
61 99 181
62 99 181
62 99 181
62 99 181
62 99 180
62 99 181
62 99 180
61 98 181
62 99 181
62 98 178
61 98 179
62 99 179
62 99 181
62 99 180
61 98 180
61 98 176
61 99 180
61 98 179
62 98 177
66 100 172
81 113 165
108 136 147
137 163 113
143 167 103
167 191 45
174 197 0
172 196 0
169 194 0
174 197 0
172 195 0
170 193 0
172 195 0
171 194 0
173 196 0
174 197 0
172 195 0
171 195 0
173 196 0
171 194 0
175 197 0
171 194 0
171 194 0
168 192 0
170 192 0
171 194 0
172 195 0
172 194 0
173 196 0
171 194 0
171 194 0
171 193 0
171 194 0
174 197 0
173 196 0
171 194 0
166 188 16
167 186 22
162 177 44
159 172 42
151 159 44
142 150 49
133 136 57
134 133 57
134 132 63
145 139 79
147 141 83
139 133 76
137 133 75
136 131 75
141 136 86
151 145 86
135 131 80
153 147 89
135 132 82
147 143 91
145 141 86
146 141 88
147 143 93
152 147 93
147 143 90
148 144 93
146 143 87
147 144 92
150 147 93
151 146 94
152 149 96
160 156 103
154 152 102
159 155 103
158 154 100
149 147 98
156 153 103
153 150 101
152 148 99
155 150 100
156 153 102
156 153 101
159 155 103
159 156 104
156 153 103
166 162 108
154 152 102
162 159 106
158 155 103
164 161 108
159 157 106
155 152 102
168 165 110
166 164 110
168 165 111
167 164 109
159 157 106
167 164 109
166 164 110
165 162 109
165 162 109
165 162 108
168 164 110
171 167 111
164 162 108
170 167 112
168 165 110
167 163 109
168 165 110
171 168 112
169 166 110
166 164 109
170 167 111
172 170 113
174 170 113
170 166 110
169 166 110
170 166 110
173 170 113
173 170 114
170 167 112
173 170 113
170 167 111
172 169 112
165 162 108
170 167 111
172 169 112
171 168 112
170 166 110
166 163 108
165 162 108
174 170 113
174 171 113
171 168 112
169 165 110
170 166 110
171 168 111
172 168 111
169 166 110
169 165 109
166 163 108
169 164 108
172 169 112
166 162 106
171 167 110
169 166 109
171 167 110
172 168 110
170 165 108
168 164 107
173 168 109
167 162 106
166 162 104
163 159 103
164 159 101
171 166 107
162 158 100
163 159 102
167 163 104
168 164 106
165 159 103
166 162 105
165 161 104
164 159 103
164 159 101
153 148 93
163 159 101
161 157 99
160 154 99
164 160 101
162 155 99
162 157 98
155 149 89
156 152 93
156 151 90
158 153 93
157 152 90
164 158 93
154 148 90
145 140 83
160 153 93
148 143 84
157 151 90
144 138 83
150 144 84
139 134 78
146 140 80
146 140 79
140 135 70
148 146 76
148 147 68
153 155 67
153 166 41
165 181 37
167 188 19
175 197 0
171 196 0
174 197 0
175 198 0
175 197 0
174 197 0
172 195 0
174 197 0
172 196 0
174 197 0
173 196 0
172 196 0
174 198 0
174 198 0
174 198 0
173 197 0
174 198 0
173 197 0
173 196 0
175 198 0
174 196 0
172 196 0
173 196 0
173 196 0
173 196 0
174 198 0
172 196 0
173 196 0
173 196 0
173 196 0
174 198 0
175 198 0
173 196 0
174 197 0
173 197 0
173 196 0
174 197 0
173 197 0
171 194 0
173 196 0
173 197 0
174 197 0
172 196 0
172 196 0
171 195 0
173 197 0
170 194 0
173 197 0
171 195 0
174 197 0
173 195 0
172 196 0
172 196 0
174 197 0
172 196 0
173 196 0
173 196 0
173 196 0
173 197 0
173 197 0
172 196 0
172 195 0
173 197 0
173 197 0
174 197 0
174 198 0
174 198 0
172 195 0
172 195 0
175 198 0
173 197 0
176 198 0
172 196 0
174 197 0
174 197 0
175 198 0
173 197 0
173 196 0
172 196 0
172 197 0
174 197 0
175 198 0
174 198 0
173 197 0
170 194 0
172 196 0
174 198 0
175 197 0
174 197 0
174 197 0
171 194 0
174 197 0
173 196 0
172 195 0
170 194 0
174 197 0
171 195 0
172 195 0
172 195 0
174 196 0
173 196 0
171 196 0
171 195 0
173 197 0
173 196 0
170 193 0
173 197 0
173 196 0
171 194 0
172 196 0
170 194 0
170 193 0
174 197 0
173 197 0
173 196 0
172 195 0
173 196 0
174 197 0
172 195 0
174 197 0
173 195 0
171 193 0
174 197 0
175 198 0
170 194 0
171 195 0
172 195 0
172 195 0
175 198 0
174 198 0
170 193 0
171 195 0
172 195 0
171 194 0
172 195 0
171 195 0
171 194 0
172 196 0
171 194 0
170 194 0
173 196 0
172 195 0
171 194 0
172 196 18
171 194 40
158 182 76
146 170 103
121 147 137
106 134 152
80 112 170
65 101 175
62 99 177
62 99 181
62 99 179
62 99 180
62 99 181
61 99 181
61 99 181
62 99 181
61 99 180
62 99 181
62 99 181
62 99 181
61 99 181
61 99 181
61 99 181
61 99 181
61 98 180
61 98 181
61 99 181
62 99 181
61 99 181
61 98 181
62 99 181
61 98 181
61 99 181
62 99 181
61 99 181
61 98 181
61 98 181
62 99 181
62 99 181
61 98 180
61 99 181
61 99 181
61 98 180
61 99 181
61 98 181
62 99 181
61 98 180
61 99 181
62 99 181
62 99 180
61 99 181
62 99 180
61 98 180
61 99 181
61 99 181
62 99 180
61 98 178
62 99 181
62 99 179
60 98 180
60 98 179
62 99 180
61 98 178
61 98 178
61 98 176
61 98 176
61 98 178
61 97 176
61 98 177
64 99 175
92 121 157
111 138 146
141 165 109
159 182 72
171 193 31
170 194 0
171 196 0
173 196 0
174 197 0
165 187 0
170 192 0
172 193 0
173 196 0
172 194 0
170 193 0
171 193 0
174 197 0
171 193 0
172 195 0
170 193 0
172 195 0
170 193 0
169 192 0
171 192 0
173 195 0
170 193 0
172 195 0
170 194 0
173 195 0
172 195 0
171 193 11
169 191 16
169 191 16
162 181 32
158 171 39
149 160 40
154 164 48
146 151 54
149 152 66
141 141 67
136 133 69
138 134 73
142 137 78
137 132 76
134 130 79
143 138 80
143 138 84
135 131 79
139 135 83
144 138 88
151 146 91
152 147 94
129 125 79
150 146 91
154 149 96
149 145 91
151 147 94
148 145 94
155 151 99
147 144 95
151 147 97
150 146 94
150 147 94
158 154 104
151 148 98
152 149 97
151 149 99
149 146 97
164 160 106
153 151 101
160 156 104
149 146 97
149 147 100
147 145 97
155 152 101
156 153 103
163 160 108
157 155 104
164 161 107
158 156 104
150 149 102
157 154 104
163 161 106
161 159 107
161 158 107
165 162 109
158 156 105
161 159 107
165 163 109
166 162 108
168 164 110
164 161 108
166 162 108
169 166 110
166 164 110
167 165 111
168 164 110
165 162 108
168 164 109
169 165 110
169 166 111
167 164 109
166 164 110
171 168 112
173 169 112
172 168 112
170 167 112
170 167 112
170 167 111
172 169 113
166 164 109
173 170 113
169 167 112
169 166 110
173 169 112
172 167 110
171 168 111
172 169 113
170 167 112
171 167 111
172 169 112
167 164 109
167 164 109
171 168 111
171 167 110
169 165 109
172 169 112
170 167 110
169 165 109
171 167 110
164 161 105
167 163 108
173 169 111
175 170 111
167 162 106
167 164 108
165 162 107
168 164 108
169 164 108
169 164 108
169 165 109
169 164 106
166 162 106
165 160 104
164 161 106
169 164 108
163 158 103
159 154 99
165 160 101
169 164 104
172 166 107
175 169 109
167 163 106
167 162 104
162 157 100
164 158 100
161 156 97
163 158 99
165 160 103
153 149 95
169 163 105
166 161 98
160 155 97
163 158 95
158 152 93
154 149 91
163 157 96
156 151 88
154 148 89
158 152 90
158 151 92
156 149 85
151 145 87
141 136 79
158 152 88
154 148 87
146 140 82
157 150 86
145 140 84
139 132 77
140 134 75
145 140 71
138 137 62
148 151 52
163 175 47
157 173 25
167 186 30
173 196 11
172 195 0
174 197 0
170 193 0
174 197 0
172 196 0
175 198 0
174 198 0
172 196 0
175 198 0
174 197 0
174 197 0
175 198 0
174 197 0
172 195 0
173 196 0
174 198 0
173 197 0
175 198 0
176 198 0
174 198 0
174 197 0
174 197 0
173 197 0
173 196 0
175 198 0
175 198 0
173 196 0
173 197 0
173 196 0
176 198 0
170 194 0
175 197 0
173 197 0
172 196 0
174 197 0
172 196 0
173 197 0
174 197 0
171 195 0
170 194 0
172 196 0
173 196 0
175 198 0
175 198 0
172 195 0
173 197 0
173 196 0
174 197 0
173 197 0
174 197 0
173 197 0
174 197 0
171 195 0
174 197 0
173 196 0
175 198 0
173 197 0
174 197 0
169 193 0
174 197 0
169 193 0
173 196 0
172 196 0
174 197 0
174 197 0
171 194 0
173 197 0
173 197 0
172 195 0
173 197 0
172 196 0
173 196 0
172 196 0
172 196 0
175 198 0
172 195 0
172 195 0
172 196 0
174 197 0
172 196 0
173 197 0
174 198 0
171 195 0
171 194 0
172 196 0
174 198 0
171 194 0
173 195 0
172 195 0
171 195 0
172 196 0
173 197 0
171 194 0
172 196 0
171 195 0
175 198 0
172 196 0
173 197 0
172 196 0
174 197 0
172 195 0
173 196 0
172 195 0
175 197 0
174 197 0
172 195 0
172 196 0
173 197 0
174 197 0
174 196 0
173 196 0
172 195 0
173 197 0
174 197 0
170 194 0
172 195 0
170 193 0
174 197 0
174 198 0
174 197 0
174 197 0
171 195 0
175 197 0
172 195 0
173 197 0
168 192 0
174 197 0
174 198 0
172 196 0
173 196 0
174 197 0
171 194 0
174 197 0
173 196 0
171 194 0
170 193 0
173 196 0
171 194 0
174 196 0
170 194 0
172 196 18
169 192 47
161 184 72
146 169 99
109 137 150
82 114 166
72 106 175
62 99 181
62 99 180
62 99 180
62 99 180
62 99 180
62 99 181
61 99 180
62 99 181
62 99 179
61 98 180
62 99 181
62 99 181
61 99 181
61 98 181
62 99 181
62 99 181
61 99 181
61 99 181
61 99 181
61 99 181
61 99 181
61 99 181
62 99 181
60 98 180
61 99 181
62 99 181
62 99 181
61 98 181
62 99 181
62 99 181
61 98 181
61 99 181
61 98 180
62 99 181
61 99 181
62 99 181
61 99 181
62 99 181
61 99 181
62 99 181
61 98 181
62 99 180
62 99 181
62 99 181
61 98 180
61 99 181
62 99 180
62 99 180
61 98 180
61 98 180
62 99 181
61 98 181
61 98 180
61 98 180
62 99 180
61 98 179
62 99 180
61 98 180
62 99 180
61 98 178
62 98 178
62 99 179
61 98 177
62 99 180
62 98 177
61 98 177
61 98 178
74 108 169
94 123 154
134 159 116
159 183 72
170 192 36
170 193 0
171 193 0
171 195 0
167 191 0
173 195 0
170 194 0
170 193 0
173 195 0
169 192 0
172 195 0
170 193 0
172 195 0
174 197 0
171 193 0
171 194 0
171 194 0
172 195 0
173 196 0
171 195 0
170 194 0
170 192 0
173 194 0
170 193 0
170 194 11
162 182 16
166 187 25
167 182 39
161 172 47
153 162 48
149 155 56
150 153 62
152 147 73
149 143 75
137 133 71
135 131 73
132 127 70
139 134 75
137 132 78
151 144 85
136 132 80
138 134 82
139 135 83
147 143 88
144 140 87
146 143 89
136 132 87
141 137 88
155 150 93
150 147 97
147 144 95
151 146 95
149 145 93
153 149 97
151 147 95
150 146 94
145 142 95
148 146 96
148 144 94
159 155 103
156 152 102
151 148 98
152 149 99
145 143 97
155 152 102
157 154 102
149 148 101
157 154 103
156 154 102
151 148 100
154 150 98
151 149 101
161 158 106
157 155 104
161 157 105
166 163 108
164 161 108
161 158 105
162 159 106
167 163 109
163 161 108
170 166 110
164 162 108
164 162 108
163 161 108
164 161 108
166 163 110
164 162 108
165 161 108
166 163 108
168 165 110
162 160 108
168 164 108
169 166 110
170 167 112
171 167 111
172 168 112
166 163 109
171 167 111
167 164 109
169 166 111
170 166 110
169 166 111
174 170 112
173 168 111
173 169 112
174 170 112
172 168 111
171 167 111
173 169 112
171 168 111
166 163 108
172 168 112
168 166 110
174 170 112
171 167 111
176 171 113
174 170 113
172 168 111
173 169 110
167 163 108
174 171 113
171 168 111
165 162 105
176 171 113
169 165 109
170 167 110
172 168 111
173 168 110
167 163 108
173 169 110
167 163 106
170 166 109
170 166 109
168 163 107
168 165 108
170 166 109
170 166 106
167 163 106
169 164 108
168 163 106
168 163 106
171 166 108
165 162 106
165 160 103
168 163 106
168 163 104
167 162 102
166 161 102
168 162 101
165 160 102
167 161 101
161 156 97
163 157 99
162 157 100
167 160 102
167 162 102
161 155 95
157 152 93
160 154 94
161 155 95
154 150 90
152 147 89
154 149 88
152 147 88
153 147 88
161 155 94
152 145 87
145 140 81
158 151 88
149 142 83
153 146 89
158 152 84
140 134 73
146 140 80
134 129 70
137 136 65
144 146 62
159 170 42
159 173 37
167 185 39
168 188 16
173 196 0
175 197 0
171 195 0
172 195 0
174 197 0
174 198 0
175 197 0
174 196 0
173 197 0
174 197 0
175 198 0
171 194 0
174 197 0
175 197 0
172 195 0
174 197 0
174 197 0
175 198 0
172 196 0
173 196 0
174 197 0
173 197 0
174 197 0
175 198 0
175 198 0
172 195 0
174 197 0
173 196 0
171 195 0
174 197 0
175 198 0
174 198 0
174 197 0
175 198 0
174 197 0
174 197 0
175 198 0
174 198 0
172 196 0
174 197 0
171 195 0
173 196 0
174 198 0
175 198 0
174 197 0
174 197 0
173 197 0
174 197 0
173 196 0
173 196 0
172 195 0
172 196 0
173 197 0
172 196 0
173 196 0
172 196 0
174 197 0
171 196 0
173 197 0
173 196 0
173 196 0
174 197 0
170 194 0
173 197 0
172 195 0
174 198 0
173 196 0
173 196 0
174 198 0
175 197 0
173 196 0
172 196 0
173 197 0
173 196 0
174 196 0
172 196 0
175 198 0
173 196 0
174 197 0
172 195 0
174 197 0
173 197 0
171 195 0
173 196 0
171 194 0
172 195 0
174 197 0
174 197 0
171 195 0
173 197 0
173 196 0
169 193 0
174 197 0
172 196 0
175 198 0
173 195 0
170 194 0
172 195 0
173 196 0
171 195 0
174 197 0
173 196 0
175 198 0
173 197 0
172 196 0
172 196 0
170 193 0
173 197 0
172 195 0
173 196 0
170 194 0
172 196 0
173 197 0
173 196 0
172 195 0
173 197 0
174 196 0
172 195 0
173 196 0
173 197 0
173 196 0
172 195 0
173 196 0
173 196 0
171 194 0
173 197 0
173 197 0
171 194 0
171 195 0
171 194 0
173 196 0
176 198 0
172 196 0
174 197 0
171 194 0
171 194 0
170 194 0
172 194 0
171 195 18
166 191 44
150 174 95
131 155 124
108 135 149
74 108 174
67 102 178
62 99 178
61 99 179
61 99 180
62 99 179
61 99 179
61 98 177
62 99 180
61 99 181
61 99 180
62 99 181
61 99 181
61 99 181
62 99 181
62 99 181
62 99 180
61 99 181
61 98 180
62 99 181
62 99 181
62 99 181
62 99 181
61 99 181
61 99 181
61 98 181
62 99 181
62 99 181
61 98 181
61 98 180
61 98 181
62 99 181
62 99 181
61 98 181
61 99 181
62 99 181
62 99 181
61 99 181
61 99 181
61 99 181
62 99 181
61 98 181
61 99 181
61 99 181
61 99 181
61 99 181
61 99 181
61 99 181
61 99 181
61 98 181
61 99 181
61 98 181
61 98 180
62 98 178
61 99 181
62 99 181
62 99 181
61 99 181
61 98 178
61 98 180
62 99 181
62 99 178
62 99 180
62 99 180
62 98 178
61 98 179
62 98 178
62 99 179
62 99 178
61 98 177
61 98 179
61 97 176
61 97 174
65 100 172
97 125 154
119 145 132
153 175 88
166 189 45
172 195 0
174 197 0
173 196 0
171 194 0
172 195 0
172 196 0
170 193 0
171 194 0
173 195 0
169 193 0
175 198 0
173 196 0
169 193 0
171 194 0
172 196 0
171 194 0
172 195 0
169 192 0
173 196 0
171 192 0
170 193 0
173 194 22
168 191 0
159 178 22
154 169 30
155 168 40
159 169 59
140 147 51
147 148 64
134 132 65
137 135 63
135 132 71
141 136 77
146 141 81
138 134 81
145 141 83
152 146 84
151 145 85
149 144 88
142 138 86
150 146 89
139 134 84
147 142 88
145 141 89
136 133 87
146 142 92
140 138 86
146 144 90
144 140 92
153 149 96
148 144 94
159 155 101
149 145 95
154 150 98
161 157 102
140 138 94
151 148 98
149 146 96
151 147 99
151 149 100
157 153 103
153 151 101
155 152 103
154 152 100
148 146 98
157 154 103
149 148 100
158 155 103
164 160 106
155 153 102
155 152 103
163 159 107
159 156 106
165 162 109
160 157 106
161 159 108
166 163 110
168 164 108
169 166 111
172 168 111
167 164 109
166 163 109
164 161 109
163 161 107
166 163 109
162 159 106
170 166 111
171 167 112
171 167 111
172 168 111
170 166 109
170 167 111
172 168 112
167 164 110
170 167 112
167 164 108
169 166 110
174 170 112
166 164 109
169 166 109
173 169 112
171 168 111
169 166 110
174 170 112
170 166 110
172 168 112
171 167 111
174 170 111
170 167 111
170 166 110
174 170 112
174 169 111
168 166 111
169 166 111
169 165 108
170 166 109
170 167 111
168 164 109
169 165 109
169 166 108
175 171 112
171 166 109
172 168 109
168 164 106
172 168 110
167 163 107
170 166 108
171 167 107
172 167 108
169 166 109
171 167 108
162 160 106
169 165 107
167 163 105
172 167 109
172 167 107
168 164 104
169 164 107
165 161 104
166 162 104
159 155 100
166 161 101
166 161 103
166 162 104
169 164 105
162 157 101
158 154 98
164 159 101
159 154 96
165 160 102
162 157 97
168 163 103
166 161 103
158 153 96
163 158 96
156 151 97
149 144 87
161 154 96
160 154 93
156 151 91
158 151 92
152 146 89
153 147 84
156 149 90
153 148 90
142 136 81
154 147 84
149 143 87
144 137 78
140 134 78
134 129 72
136 130 73
151 144 80
131 129 67
144 142 65
152 158 54
153 166 39
164 181 32
171 191 25
173 195 11
172 194 0
172 196 0
175 198 0
172 196 0
172 196 0
174 197 0
171 195 0
174 197 0
171 195 0
173 197 0
172 195 0
172 196 0
172 195 0
172 196 0
173 196 0
173 196 0
174 197 0
173 197 0
173 197 0
173 197 0
172 196 0
173 196 0
171 195 0
174 198 0
175 197 0
173 197 0
173 197 0
173 196 0
173 196 0
174 197 0
173 197 0
174 197 0
171 195 0
175 198 0
174 197 0
172 196 0
173 197 0
174 197 0
173 197 0
174 197 0
176 198 0
174 197 0
172 196 0
174 198 0
172 196 0
174 197 0
172 196 0
175 197 0
175 198 0
174 197 0
175 198 0
174 197 0
172 195 0
175 198 0
173 197 0
175 198 0
174 197 0
173 197 0
174 197 0
172 196 0
174 196 0
174 197 0
172 195 0
174 198 0
172 196 0
174 196 0
171 195 0
175 198 0
173 196 0
176 198 0
173 196 0
172 195 0
173 196 0
172 195 0
171 195 0
174 197 0
174 197 0
175 197 0
172 196 0
172 196 0
173 197 0
173 196 0
173 196 0
173 196 0
170 194 0
173 196 0
172 196 0
173 196 0
173 196 0
170 193 0
174 197 0
174 197 0
171 195 0
173 197 0
172 195 0
171 194 0
173 195 0
173 196 0
171 194 0
175 197 0
173 196 0
173 196 0
173 196 0
173 197 0
173 196 0
170 194 0
171 195 0
173 195 0
171 195 0
173 197 0
172 195 0
172 195 0
171 195 0
174 197 0
174 196 0
174 197 0
173 196 0
171 194 0
173 196 0
173 196 0
172 195 0
173 197 0
174 197 0
173 195 0
173 196 0
173 197 0
173 196 0
170 193 0
175 198 0
171 194 0
171 195 0
173 196 0
173 196 0
171 195 0
174 196 0
171 194 0
167 190 44
146 170 99
133 159 118
106 134 150
79 112 171
64 101 179
62 99 180
62 99 181
62 99 179
62 99 176
62 99 178
61 98 180
62 99 179
62 99 181
61 98 179
62 99 181
61 99 181
62 99 180
61 99 181
61 99 181
62 99 181
62 99 180
61 99 181
61 98 181
62 99 181
61 99 181
62 99 181
61 99 181
62 99 181
61 99 181
62 99 181
61 99 181
62 99 181
62 99 181
61 99 181
61 98 181
62 99 181
61 99 181
62 99 181
61 99 181
62 99 181
61 99 181
61 99 181
62 99 181
62 99 181
62 99 181
61 99 181
62 99 181
62 99 181
61 99 181
61 98 181
61 99 181
61 99 181
62 99 181
61 98 181
61 99 181
62 99 181
62 99 181
61 99 180
62 99 181
62 99 181
62 99 181
61 99 181
61 99 181
61 99 181
61 99 180
62 99 180
62 99 180
61 98 178
62 99 181
62 98 178
61 98 178
61 98 176
61 98 178
61 98 177
62 99 179
62 98 178
62 99 178
61 98 179
61 98 176
60 96 173
66 101 171
87 118 164
122 148 126
153 177 80
169 192 36
174 197 0
172 194 0
172 195 0
169 193 0
171 194 0
172 196 0
169 191 0
171 193 0
171 194 0
172 195 0
172 194 0
169 192 0
173 197 0
172 194 0
174 197 0
172 194 0
172 195 0
171 195 0
172 194 0
170 192 16
169 190 0
156 174 28
153 166 37
148 159 45
152 163 46
148 152 65
145 145 66
142 140 69
141 138 76
133 128 73
134 129 73
138 133 76
144 138 78
146 141 80
136 133 80
142 138 83
142 138 85
146 141 85
142 138 84
146 142 86
149 144 89
149 146 92
146 142 89
150 147 94
136 133 85
151 147 97
154 150 96
135 133 84
151 148 97
145 142 94
147 144 95
152 150 100
147 144 96
149 146 98
150 146 97
152 149 99
145 143 95
157 154 102
153 151 103
165 162 107
156 153 102
162 159 107
160 157 105
156 154 103
157 154 103
160 157 105
164 161 107
157 156 105
158 156 105
161 157 104
165 162 109
162 159 107
163 161 108
166 163 108
164 161 108
159 157 106
163 161 107
170 167 111
163 159 107
157 155 105
165 162 109
166 164 110
167 164 109
169 167 112
165 162 108
169 166 110
168 165 110
165 162 108
169 165 109
168 164 109
166 163 108
170 166 110
173 169 110
171 169 111
172 168 111
173 169 112
173 170 112
170 167 111
171 167 111
174 170 112
174 170 112
170 168 112
170 166 109
175 171 113
171 167 110
171 169 111
173 169 112
176 171 113
175 170 113
173 170 114
172 169 111
174 169 112
176 171 113
164 160 104
176 172 113
173 168 110
171 167 110
173 169 110
175 170 112
170 166 109
174 170 112
174 169 111
172 167 110
171 168 110
172 167 110
165 161 104
165 162 106
169 165 106
172 168 110
168 164 107
172 166 108
163 159 103
171 167 109
169 165 106
167 162 106
171 166 108
161 157 101
170 165 104
168 163 105
163 158 100
165 160 102
167 161 104
164 160 102
172 166 107
169 163 103
169 163 100
154 149 94
164 160 102
165 160 98
164 159 101
162 158 99
159 154 96
160 156 99
166 160 102
158 153 97
164 158 95
164 159 97
157 151 90
153 147 89
158 152 90
154 149 89
158 152 90
155 149 90
154 148 87
158 152 87
150 144 85
136 130 74
148 140 77
152 146 85
139 133 73
140 134 75
158 152 82
142 139 67
154 160 57
157 167 54
160 177 36
161 181 16
171 193 11
174 197 0
171 194 0
174 197 0
174 197 0
173 196 0
172 195 0
170 194 0
173 197 0
173 196 0
171 196 0
171 195 0
173 196 0
175 198 0
174 197 0
172 194 0
173 197 0
175 198 0
173 196 0
175 198 0
172 196 0
175 197 0
172 196 0
174 197 0
174 197 0
171 195 0
173 197 0
172 196 0
175 198 0
175 198 0
174 197 0
173 197 0
173 196 0
175 198 0
174 197 0
174 197 0
174 198 0
172 195 0
174 197 0
173 196 0
173 197 0
172 196 0
174 198 0
171 195 0
173 196 0
172 195 0
173 196 0
172 195 0
175 198 0
174 197 0
173 196 0
172 196 0
172 196 0
175 198 0
174 197 0
172 196 0
173 196 0
172 196 0
172 196 0
173 196 0
174 198 0
171 194 0
173 197 0
172 195 0
173 196 0
173 196 0
172 195 0
172 195 0
174 197 0
172 195 0
171 195 0
173 197 0
172 195 0
175 198 0
173 197 0
173 196 0
173 197 0
170 194 0
173 196 0
172 195 0
172 196 0
173 196 0
173 196 0
174 197 0
171 195 0
171 195 0
173 196 0
172 196 0
172 195 0
169 192 0
172 196 0
174 197 0
173 197 0
170 193 0
174 197 0
172 196 0
174 197 0
172 195 0
173 196 0
173 196 0
172 196 0
172 196 0
172 195 0
174 197 0
173 195 0
172 196 0
171 195 0
172 196 0
171 195 0
172 196 0
174 197 0
171 195 0
172 194 0
174 196 0
172 196 0
170 193 0
175 197 0
173 196 0
172 195 0
172 195 0
172 195 0
173 197 0
172 196 0
171 195 0
170 193 0
173 196 0
172 195 0
173 197 0
173 196 0
173 196 0
171 194 0
171 195 0
175 197 0
173 195 0
171 195 18
167 191 44
156 180 80
129 155 124
99 128 153
71 105 170
62 99 177
62 99 181
62 99 181
62 99 180
61 98 178
61 99 180
62 99 181
62 99 180
62 99 181
62 99 180
62 99 181
61 99 181
62 99 180
62 99 181
61 99 181
61 99 181
62 99 181
62 99 181
62 99 181
61 99 181
62 99 181
61 98 180
62 99 181
61 99 181
61 99 181
61 99 181
61 98 181
61 99 181
61 99 181
61 99 181
62 99 181
61 99 181
61 98 180
61 98 181
61 99 181
61 99 181
61 99 181
61 99 181
62 99 181
61 98 181
61 98 181
61 98 181
62 99 181
61 98 181
61 98 180
61 99 181
61 98 180
61 99 181
61 99 181
61 99 181
62 99 181
62 99 181
62 99 181
61 99 181
62 99 181
62 99 181
62 99 181
62 99 179
62 99 180
61 99 180
62 99 180
62 99 180
61 98 179
61 98 180
61 98 181
61 98 180
61 98 181
62 99 179
62 99 180
62 99 180
61 98 178
61 98 179
61 98 177
62 99 180
62 98 176
62 98 176
62 98 176
62 99 179
61 98 176
61 97 175
63 99 176
97 125 154
120 145 131
150 174 79
168 191 32
170 194 0
171 194 0
168 192 0
170 193 0
171 194 0
170 192 0
172 195 0
170 193 0
173 196 0
172 194 0
171 193 0
170 194 0
173 196 0
174 197 0
168 190 0
170 193 0
172 194 11
167 187 19
167 187 22
164 182 28
157 169 45
148 155 52
149 153 55
141 142 61
129 129 56
129 128 65
140 136 74
144 138 79
140 135 78
137 132 73
142 137 78
135 131 74
141 136 83
153 148 91
147 142 88
136 133 85
154 149 94
139 135 81
139 135 85
148 144 95
145 140 90
146 143 92
136 133 88
145 141 92
144 141 93
136 135 90
140 138 90
146 143 95
147 144 94
150 147 97
148 145 93
147 144 97
145 143 98
153 150 100
152 150 100
150 148 99
148 147 99
159 156 103
156 154 103
153 150 101
148 146 99
157 154 104
157 155 104
157 154 104
159 156 105
159 157 106
157 154 104
159 156 104
156 153 102
158 156 105
160 157 107
162 159 106
159 156 104
162 159 106
166 163 109
163 160 108
160 158 105
165 162 109
161 158 106
169 166 110
164 161 107
161 157 105
166 164 110
172 168 112
160 158 106
170 167 111
172 169 113
169 166 109
171 167 111
172 168 111
174 170 113
168 166 111
171 168 112
168 165 109
173 169 111
170 167 112
173 169 112
173 169 113
169 166 109
171 168 111
170 166 109
172 168 112
173 169 112
174 169 112
175 171 113
173 169 112
171 167 111
175 171 113
174 170 112
171 167 109
171 167 110
173 169 111
172 167 110
171 167 110
171 167 110
171 166 106
173 169 111
173 168 110
172 167 108
170 166 109
170 165 108
171 167 110
167 164 108
163 160 105
175 171 112
167 163 104
170 166 108
169 165 106
169 165 105
168 164 108
170 165 106
170 166 108
164 160 104
173 168 108
168 164 104
169 164 105
163 159 102
161 157 102
166 161 102
164 160 102
167 161 100
165 160 103
160 155 97
163 159 100
166 161 101
162 158 101
163 157 99
159 154 98
158 152 93
163 158 101
154 148 91
170 163 103
164 158 97
160 155 94
157 152 90
152 147 89
149 144 88
154 148 92
156 151 90
154 148 89
156 150 87
149 142 81
150 143 83
152 146 88
156 149 85
147 141 80
148 141 80
149 142 79
128 123 67
137 131 73
145 144 67
144 145 63
144 154 44
157 171 39
164 181 36
166 188 16
172 195 0
172 196 0
173 197 0
175 198 0
170 194 0
174 197 0
172 196 0
172 196 0
173 197 0
173 197 0
174 198 0
173 197 0
173 196 0
174 197 0
172 195 0
173 196 0
173 197 0
174 197 0
172 195 0
171 194 0
174 197 0
172 196 0
173 197 0
171 195 0
173 196 0
172 195 0
174 197 0
174 197 0
171 194 0
173 196 0
171 195 0
173 196 0
172 195 0
171 194 0
172 195 0
171 195 0
175 198 0
170 194 0
174 197 0
171 195 0
174 197 0
173 196 0
171 195 0
173 196 0
172 196 0
175 197 0
173 197 0
170 194 0
173 197 0
174 197 0
171 195 0
171 195 0
174 197 0
173 196 0
174 197 0
174 198 0
172 197 0
174 197 0
172 195 0
174 197 0
173 197 0
170 194 0
172 196 0
173 197 0
172 195 0
173 196 0
172 196 0
173 196 0
175 197 0
172 196 0
171 195 0
172 195 0
172 195 0
173 197 0
173 197 0
174 197 0
171 195 0
172 195 0
172 195 0
172 196 0
172 196 0
173 197 0
174 198 0
170 194 0
174 197 0
170 195 0
171 194 0
170 193 0
173 196 0
173 196 0
170 194 0
170 193 0
171 194 0
173 196 0
172 195 0
174 197 0
172 195 0
173 197 0
174 197 0
174 197 0
172 196 0
172 196 0
173 196 0
172 196 0
174 197 0
172 196 0
170 194 0
173 197 0
173 197 0
174 197 0
173 196 0
171 195 0
173 196 0
172 196 0
174 197 0
174 197 0
173 196 0
173 195 0
170 193 0
173 196 0
174 197 0
170 194 0
169 192 0
167 190 0
172 194 0
172 196 0
168 190 0
175 197 0
173 196 0
172 195 0
174 197 0
173 195 0
164 188 47
165 189 51
132 157 120
105 133 149
71 105 173
62 99 176
62 99 180
62 99 178
62 99 179
60 98 178
62 99 179
61 99 180
62 99 178
62 99 181
61 98 179
62 99 181
62 99 181
62 99 179
62 99 181
61 98 180
62 99 181
62 99 181
61 99 181
62 99 181
61 99 180
61 99 181
62 99 181
61 99 181
61 98 181
62 99 181
62 99 181
61 98 181
61 99 181
61 99 181
61 99 181
61 98 181
61 98 181
61 98 181
61 98 181
62 99 181
61 98 181
61 99 181
61 98 181
61 99 181
61 99 181
61 99 181
61 99 181
62 99 181
61 98 180
61 98 181
61 99 181
61 99 181
61 99 181
61 98 180
61 98 181
61 99 181
61 98 180
61 98 181
61 98 181
61 99 181
62 99 181
62 99 181
61 99 181
61 99 181
62 98 179
61 98 180
62 99 181
61 98 178
61 99 181
62 99 179
61 99 181
62 99 179
62 99 180
62 99 181
61 99 181
62 99 178
61 98 179
61 98 179
62 99 180
62 99 180
61 98 177
62 99 177
61 98 177
60 97 174
62 99 179
61 98 176
61 97 173
62 98 177
61 97 171
66 101 174
96 125 155
135 158 117
162 185 63
172 194 0
169 192 0
171 193 0
170 192 0
171 194 0
166 189 0
171 195 0
171 195 0
172 195 0
171 195 0
170 192 0
169 192 0
171 194 0
172 195 0
171 194 0
168 192 0
168 189 11
161 180 21
161 177 37
157 170 42
144 152 53
145 152 56
143 144 63
144 143 67
129 126 62
121 119 57
125 122 62
136 131 75
137 132 79
135 131 76
141 138 81
149 144 83
142 137 78
142 138 83
142 137 87
148 144 91
143 139 89
144 141 88
145 142 91
138 136 87
136 133 86
139 136 88
151 146 93
146 142 94
144 140 91
136 134 87
142 140 93
151 149 97
148 145 93
150 147 96
141 139 95
161 158 105
145 142 95
148 145 98
154 151 100
152 149 100
154 152 101
161 158 103
147 144 97
156 153 102
157 155 105
149 147 98
150 148 99
152 150 102
154 152 103
157 154 104
155 152 102
159 156 105
166 163 109
158 155 104
160 157 107
159 156 104
166 162 108
164 160 108
168 164 109
166 163 109
160 157 105
159 156 105
165 163 109
161 159 107
172 168 111
162 161 108
163 161 108
167 165 110
167 164 109
174 170 112
167 164 107
170 167 112
169 166 110
173 169 111
172 169 112
174 171 113
167 164 110
172 168 112
175 170 112
172 169 113
174 170 112
176 171 113
173 169 112
167 165 110
172 168 111
174 170 111
170 167 110
176 171 111
174 170 113
175 171 112
169 165 109
175 171 113
173 169 111
175 171 111
171 167 110
169 166 110
167 164 109
169 164 106
174 170 112
170 166 107
172 168 109
170 166 106
171 167 110
171 167 110
166 163 108
172 167 108
169 165 105
169 164 107
171 168 110
170 165 107
175 170 109
172 166 106
168 164 108
164 161 103
168 164 108
173 168 109
165 161 104
168 164 106
169 164 106
165 160 102
171 164 105
166 161 106
166 161 101
169 164 104
165 160 103
164 159 99
168 162 101
159 154 93
163 159 96
158 153 95
168 164 105
163 158 99
160 156 97
160 155 93
160 154 95
161 154 92
168 162 101
163 155 97
163 157 99
156 151 89
163 157 94
150 145 84
157 151 87
160 153 87
153 147 87
146 140 81
146 139 77
151 145 82
146 141 81
150 144 80
151 145 78
145 139 75
141 136 67
146 142 72
148 150 62
156 163 56
150 159 51
164 182 32
167 186 22
171 193 11
173 197 0
175 198 0
173 196 0
172 196 0
174 197 0
174 198 0
172 195 0
172 196 0
175 198 0
174 197 0
172 195 0
173 196 0
174 198 0
175 197 0
173 197 0
174 196 0
172 196 0
174 197 0
173 197 0
176 198 0
171 195 0
174 197 0
172 196 0
172 196 0
172 196 0
175 198 0
173 197 0
172 196 0
174 197 0
174 196 0
173 196 0
174 197 0
173 196 0
174 197 0
174 197 0
174 197 0
174 197 0
172 196 0
173 196 0
174 197 0
172 195 0
173 197 0
172 196 0
173 196 0
174 197 0
173 196 0
172 195 0
171 195 0
171 193 0
172 196 0
174 197 0
172 195 0
174 197 0
170 194 0
170 194 0
171 195 0
173 197 0
173 196 0
169 192 0
174 198 0
174 198 0
173 197 0
170 194 0
174 197 0
173 196 0
175 198 0
172 195 0
171 195 0
172 196 0
174 197 0
175 198 0
172 194 0
173 196 0
176 198 0
170 194 0
173 196 0
172 195 0
173 196 0
170 193 0
173 196 0
175 198 0
169 193 0
173 196 0
174 197 0
174 197 0
172 196 0
174 197 0
172 196 0
170 193 0
173 197 0
173 196 0
172 196 0
173 196 0
174 196 0
170 193 0
174 197 0
172 196 0
173 197 0
170 194 0
172 196 0
174 197 0
171 194 0
173 197 0
173 197 0
174 196 0
173 196 0
171 195 0
173 197 0
172 195 0
168 192 0
172 196 0
170 195 0
174 197 0
173 196 0
172 194 0
171 195 0
173 196 0
174 198 0
172 195 0
174 198 0
172 196 0
173 197 0
171 194 0
171 194 0
169 192 0
172 195 0
172 196 0
171 195 0
173 196 0
172 196 0
165 189 57
139 163 108
120 146 136
88 119 160
62 99 178
62 99 178
62 99 179
62 99 179
61 98 177
62 99 178
62 99 179
62 99 180
62 99 178
62 99 181
62 99 180
61 99 181
61 99 181
61 99 181
61 99 181
62 99 179
62 99 181
61 99 181
61 99 181
61 98 180
62 99 181
62 99 181
62 99 181
61 99 181
62 99 181
61 98 181
61 99 181
61 99 181
61 99 181
61 98 181
61 98 181
61 99 181
62 99 181
62 99 181
61 99 181
61 99 181
61 98 181
61 99 181
61 98 181
61 99 181
61 98 181
62 99 181
61 98 181
61 98 181
61 98 181
62 99 181
61 99 181
61 99 181
61 98 180
61 99 181
61 98 181
62 99 181
62 99 181
62 99 181
61 98 181
61 98 180
61 98 180
61 98 180
61 99 181
61 98 180
61 98 181
61 99 180
62 99 181
61 99 181
62 99 181
62 99 181
62 99 180
61 98 179
62 99 181
62 99 181
62 99 180
61 99 181
62 99 180
62 99 179
62 99 180
62 99 176
61 98 179
62 99 178
62 99 181
61 98 178
61 98 176
62 99 178
62 98 179
62 99 179
62 98 176
62 98 172
62 98 175
62 98 172
73 107 171
101 128 146
139 164 112
166 188 45
169 192 0
171 194 0
172 195 0
171 194 0
171 194 0
175 197 0
171 194 0
170 193 0
171 194 0
168 191 0
169 191 0
170 193 0
171 194 11
170 191 16
163 181 25
158 178 11
159 175 30
147 157 44
146 152 54
139 141 60
148 150 65
146 144 68
140 137 71
142 137 78
144 139 79
138 133 74
146 140 82
127 124 77
134 130 77
138 134 76
139 134 79
137 133 79
136 133 81
140 135 84
145 141 89
135 133 84
139 136 85
139 136 89
143 140 92
146 143 94
146 143 96
139 137 90
130 129 84
145 142 95
152 148 97
144 142 95
148 145 96
150 149 101
149 147 100
149 146 98
139 137 94
152 150 101
144 143 98
156 153 102
153 151 102
144 143 97
153 150 99
151 150 102
157 154 104
156 153 103
151 148 100
155 153 105
159 156 105
162 159 106
157 155 105
163 161 107
153 150 101
156 155 106
162 159 107
161 159 108
160 158 107
160 158 106
158 156 105
160 157 105
163 160 106
166 163 108
161 158 105
169 166 111
166 163 109
168 165 110
168 165 110
165 163 108
170 167 111
168 166 110
168 165 110
172 168 112
170 167 112
171 168 111
171 167 111
172 168 110
171 167 110
172 168 110
174 170 111
174 170 112
173 170 112
169 166 110
169 166 109
173 169 111
174 170 112
173 169 112
174 170 112
175 172 114
174 170 112
172 168 111
171 168 111
172 168 110
175 171 112
173 168 111
171 167 110
175 170 111
171 168 108
171 167 109
174 170 110
170 167 110
173 169 112
170 167 107
174 171 113
168 165 107
166 163 106
171 168 110
174 170 110
172 167 109
170 165 108
169 164 107
173 168 106
171 167 109
172 167 108
166 161 103
169 164 105
167 163 104
169 164 107
165 160 101
167 163 104
159 155 97
172 166 104
163 158 101
173 167 104
167 161 101
162 157 98
169 164 103
171 165 106
168 162 98
161 156 95
169 162 100
159 155 97
166 161 101
164 158 97
159 154 93
161 155 93
162 156 95
154 149 89
159 153 95
161 155 95
155 150 90
154 148 89
164 158 90
160 155 91
159 152 92
152 146 90
158 151 87
152 145 88
151 144 84
152 146 82
145 140 80
138 132 72
145 139 77
135 130 66
135 131 69
153 152 72
145 150 54
159 168 53
160 172 41
167 185 32
171 194 16
174 197 0
172 195 0
174 198 0
174 198 0
174 198 0
175 198 0
173 196 0
174 197 0
172 194 0
174 198 0
174 198 0
174 197 0
173 197 0
173 197 0
174 197 0
173 197 0
174 196 0
174 197 0
172 196 0
174 197 0
171 194 0
173 196 0
171 195 0
171 194 0
173 196 0
172 195 0
172 196 0
174 197 0
171 194 0
172 196 0
173 196 0
174 198 0
173 196 0
172 196 0
175 198 0
173 196 0
172 196 0
173 197 0
172 195 0
171 195 0
174 197 0
173 196 0
173 196 0
173 196 0
174 197 0
174 197 0
172 195 0
173 197 0
172 196 0
171 194 0
173 196 0
169 193 0
172 195 0
172 196 0
173 197 0
174 198 0
174 197 0
172 195 0
173 196 0
174 197 0
175 197 0
173 195 0
171 194 0
171 195 0
174 197 0
172 196 0
173 196 0
172 196 0
171 195 0
173 197 0
170 194 0
174 197 0
170 194 0
174 197 0
172 195 0
173 196 0
172 196 0
173 196 0
170 193 0
173 196 0
172 196 0
173 196 0
173 196 0
173 196 0
174 197 0
172 195 0
171 193 0
172 196 0
171 195 0
172 196 0
174 197 0
172 195 0
172 194 0
174 197 0
174 197 0
172 196 0
174 197 0
171 194 0
171 194 0
173 197 0
171 194 0
172 196 0
173 197 0
174 198 0
173 196 0
169 192 0
171 195 0
172 195 0
173 196 0
172 195 0
172 195 0
170 193 0
172 196 0
176 199 0
173 197 0
171 194 0
172 196 0
173 197 0
174 197 0
171 195 0
175 197 0
171 195 0
172 196 0
171 195 0
173 196 0
171 195 0
170 193 0
173 196 0
169 192 40
154 178 82
123 149 134
94 123 155
70 105 174
62 99 175
62 99 179
62 99 180
62 99 178
62 99 180
62 99 181
62 99 179
62 99 180
62 99 179
61 98 180
62 99 181
61 99 180
62 99 180
62 99 181
62 99 181
62 99 181
62 99 181
62 99 181
62 99 181
61 99 181
61 98 180
61 99 181
61 99 181
61 99 181
61 99 181
62 99 181
62 99 181
61 99 181
61 99 181
61 99 181
61 99 181
62 99 181
62 99 181
62 99 181
61 98 181
61 99 181
61 98 181
62 99 181
61 99 181
62 99 181
61 99 181
61 99 181
61 99 181
61 99 181
61 99 181
61 99 181
61 99 181
61 99 181
61 99 181
61 99 181
61 99 181
62 99 181
61 98 181
61 98 181
62 99 181
61 99 181
61 99 181
61 99 181
62 99 181
61 99 181
61 99 181
61 98 179
62 99 181
61 98 181
62 99 181
62 99 181
62 99 181
62 99 180
62 99 180
62 99 181
61 98 180
62 99 181
61 99 181
61 99 181
61 98 181
61 98 178
62 99 180
61 98 179
61 98 179
62 99 180
61 98 179
61 98 176
62 99 178
61 98 179
62 99 179
62 99 177
61 98 176
62 98 179
61 97 175
61 97 175
61 97 176
83 113 160
114 140 129
151 174 85
169 192 25
169 192 0
171 193 0
171 194 0
171 194 0
172 194 0
170 193 0
170 193 0
173 196 0
174 196 0
170 194 0
167 189 11
164 186 11
165 186 22
154 170 19
147 159 37
145 151 54
148 156 48
147 147 72
142 140 68
139 136 69
139 133 71
136 131 75
139 135 75
138 133 80
124 121 73
140 136 79
141 137 80
145 140 82
133 130 79
141 138 88
137 134 85
146 141 87
137 133 84
138 136 87
147 143 94
142 139 91
141 137 90
144 141 92
148 145 94
142 139 92
142 140 93
144 141 93
138 136 92
140 137 90
135 133 88
137 136 94
141 139 93
148 145 96
148 145 97
145 143 96
154 152 103
158 155 104
156 154 103
148 147 101
149 147 100
154 151 102
156 153 102
150 148 99
157 154 103
155 153 103
154 152 103
155 152 103
160 158 105
159 157 105
156 155 106
164 161 108
166 163 110
160 157 105
162 160 107
161 159 107
165 162 107
159 157 105
169 166 111
165 162 108
166 163 109
162 160 108
169 166 109
173 169 112
169 165 109
170 167 111
166 164 109
167 165 110
170 166 109
170 167 111
174 170 112
172 167 110
166 164 109
170 167 110
171 167 111
174 170 113
171 167 110
170 167 111
174 171 113
171 167 109
174 170 111
173 170 113
172 169 113
174 171 113
170 166 110
170 167 110
172 169 112
170 167 110
176 171 113
174 170 111
175 170 111
173 170 113
173 169 111
171 168 109
174 169 110
170 167 109
172 168 110
173 168 110
172 169 110
175 171 109
173 169 110
176 171 111
173 168 109
172 168 107
170 167 109
170 166 106
173 168 110
170 166 107
168 164 107
172 168 109
168 163 104
173 168 108
167 163 105
172 168 109
168 164 105
165 161 104
171 166 104
172 167 104
163 158 101
165 160 103
173 167 104
165 160 100
166 161 101
161 157 100
174 168 105
160 155 97
164 158 99
163 157 97
167 161 101
162 155 99
162 156 98
157 152 93
163 158 95
161 155 95
157 150 93
156 151 92
156 150 90
162 157 95
155 149 87
155 149 92
159 153 90
155 149 89
156 150 86
154 148 88
150 144 86
152 146 84
154 147 78
153 146 83
153 146 82
145 139 79
145 139 78
142 136 73
147 145 68
147 153 59
153 160 56
162 178 37
164 182 22
166 188 11
170 193 0
175 197 0
174 197 0
173 195 0
172 196 0
171 195 0
173 196 0
174 197 0
173 196 0
171 194 0
175 198 0
174 197 0
173 197 0
173 197 0
173 197 0
173 197 0
173 197 0
171 195 0
174 197 0
176 199 0
172 195 0
175 198 0
173 196 0
170 194 0
172 196 0
174 196 0
174 198 0
174 196 0
172 196 0
174 198 0
173 196 0
173 197 0
176 198 0
174 197 0
174 197 0
172 196 0
174 197 0
171 194 0
171 194 0
174 198 0
172 194 0
174 197 0
172 196 0
172 196 0
172 194 0
172 197 0
173 197 0
169 193 0
174 197 0
173 197 0
173 196 0
175 198 0
173 196 0
173 196 0
172 195 0
174 198 0
171 195 0
171 194 0
173 196 0
174 197 0
170 194 0
172 196 0
173 196 0
173 196 0
171 195 0
171 194 0
173 196 0
170 194 0
172 196 0
173 196 0
173 196 0
170 193 0
174 197 0
174 196 0
173 196 0
174 196 0
171 195 0
173 196 0
171 195 0
173 196 0
171 195 0
173 196 0
172 195 0
173 196 0
173 196 0
173 196 0
173 196 0
173 197 0
172 195 0
175 198 0
173 197 0
172 196 0
170 195 0
171 195 0
172 195 0
172 195 0
170 194 0
172 196 0
170 193 0
169 191 0
172 195 0
173 197 0
172 196 0
170 193 0
171 194 0
170 194 0
173 196 0
172 196 0
171 195 0
173 197 0
171 195 0
173 196 0
174 197 0
173 196 0
173 196 0
173 196 0
171 195 0
172 195 0
174 197 0
172 195 0
174 197 0
172 195 0
170 193 0
169 193 0
171 195 0
171 194 0
168 192 25
160 184 65
134 159 118
99 127 153
75 108 171
61 98 173
62 99 179
61 99 179
62 99 179
62 99 180
63 100 178
62 99 180
62 99 180
61 99 177
62 99 179
62 99 180
62 99 181
61 99 181
62 99 180
62 99 179
61 99 181
61 98 181
62 99 181
62 99 181
61 99 181
62 99 181
61 98 181
61 99 181
61 99 181
62 99 181
62 99 181
62 99 181
61 98 181
62 99 181
62 99 181
62 99 181
61 99 181
62 99 181
62 99 181
62 99 181
61 99 181
61 98 181
62 99 181
61 99 181
62 99 181
61 99 181
62 99 181
62 99 181
61 98 181
62 99 181
61 99 181
61 99 181
61 99 181
61 99 181
62 99 181
62 99 181
61 98 181
62 99 181
62 99 181
62 99 181
62 99 181
62 99 181
61 98 180
61 99 181
61 99 181
62 99 181
62 99 181
61 99 181
62 99 181
62 99 180
62 99 181
61 99 181
62 99 181
62 99 181
62 99 181
62 99 179
62 99 180
62 99 179
62 99 181
62 99 181
61 99 180
62 99 180
62 99 180
62 98 177
62 99 180
62 98 178
61 99 181
62 98 178
61 98 177
62 99 181
62 98 178
61 97 176
62 98 175
61 98 177
61 98 177
61 98 176
61 97 172
61 98 176
62 98 175
64 99 170
90 120 159
129 153 123
163 186 58
172 194 0
172 196 0
173 196 0
170 193 0
172 195 0
170 192 0
170 194 0
171 193 0
172 194 0
169 191 11
166 186 25
160 177 28
158 174 28
155 166 44
151 161 54
145 149 57
134 135 55
125 126 63
137 134 69
135 130 69
133 129 75
133 128 70
135 131 77
127 122 72
138 134 80
147 142 87
139 136 85
140 137 89
135 132 84
139 135 84
147 142 87
139 136 88
141 137 84
147 143 94
139 136 89
133 131 86
144 141 90
137 135 90
145 142 95
147 143 93
144 142 95
144 140 92
151 148 98
138 137 92
155 152 102
144 142 95
145 143 94
150 147 99
149 147 99
154 151 101
151 149 101
145 143 95
145 143 97
152 150 101
153 151 103
150 148 102
151 149 100
154 152 103
157 155 104
161 158 106
156 154 105
164 161 107
158 156 106
161 158 107
166 163 108
161 158 105
162 160 107
163 160 106
160 157 105
168 164 109
168 164 109
167 163 108
164 161 106
162 160 108
167 164 110
164 161 109
163 161 106
173 169 113
170 167 111
167 163 109
169 165 110
170 166 110
168 165 110
170 166 110
167 164 109
176 172 113
172 168 110
171 167 110
175 172 113
171 167 110
171 168 110
174 170 111
171 167 111
171 167 110
173 170 112
174 170 111
174 171 112
172 168 110
172 169 111
174 170 111
171 168 110
174 170 112
174 169 109
175 170 109
176 171 110
175 170 110
174 170 110
173 168 110
174 170 110
174 170 112
173 168 109
172 167 108
175 170 112
175 171 113
169 165 106
170 165 108
171 167 108
170 167 108
173 169 109
174 169 109
169 164 104
175 170 110
167 162 103
168 163 103
165 161 104
170 165 104
169 164 103
170 166 108
170 165 104
168 163 106
165 160 100
165 160 100
167 163 103
165 159 99
169 164 104
164 159 101
162 157 97
167 161 102
164 159 101
172 167 105
164 159 99
160 156 94
161 156 96
162 157 95
161 155 97
157 151 88
156 150 94
160 155 94
157 152 90
157 151 94
148 143 87
164 158 93
162 155 90
152 147 84
157 151 87
155 149 86
160 153 92
147 140 78
157 151 86
150 144 77
160 153 87
151 144 82
147 141 77
142 135 77
130 125 68
147 144 71
137 140 58
143 153 44
154 166 34
164 180 36
169 189 25
173 196 0
173 197 0
173 195 0
173 197 0
173 196 0
174 197 0
173 197 0
170 193 0
175 198 0
174 197 0
172 196 0
173 196 0
172 196 0
172 196 0
172 196 0
171 194 0
173 197 0
174 197 0
176 198 0
174 196 0
171 195 0
174 197 0
175 198 0
172 196 0
173 196 0
174 197 0
172 195 0
172 195 0
175 198 0
173 197 0
173 196 0
174 198 0
174 197 0
172 195 0
172 196 0
172 196 0
174 197 0
172 196 0
169 193 0
174 197 0
173 196 0
172 196 0
172 195 0
173 196 0
174 198 0
173 196 0
171 195 0
173 197 0
173 195 0
171 194 0
172 196 0
173 196 0
174 198 0
173 197 0
175 198 0
172 196 0
172 196 0
174 197 0
172 196 0
171 194 0
174 197 0
172 196 0
172 196 0
169 192 0
172 196 0
173 196 0
175 198 0
173 196 0
172 195 0
174 197 0
172 197 0
169 193 0
173 197 0
173 197 0
170 193 0
171 195 0
171 195 0
173 196 0
172 195 0
172 195 0
171 194 0
173 196 0
174 197 0
171 194 0
169 194 0
172 195 0
173 197 0
171 194 0
174 197 0
172 195 0
171 194 0
169 192 0
173 196 0
171 194 0
172 195 0
174 197 0
173 196 0
173 196 0
171 194 0
172 195 0
171 195 0
174 197 0
173 196 0
173 196 0
172 195 0
169 193 0
173 197 0
173 196 0
169 193 0
172 195 0
172 196 0
169 193 0
175 198 0
171 195 0
172 195 0
171 194 0
173 196 0
173 197 0
173 196 0
174 197 0
172 195 0
174 197 0
173 195 0
170 194 0
174 197 0
163 187 51
157 180 82
119 145 135
86 117 165
64 100 172
62 99 178
61 98 176
62 99 176
62 99 179
62 99 179
62 99 180
61 98 179
62 99 179
62 99 180
61 99 180
62 99 180
61 98 179
61 99 180
62 99 180
62 99 181
62 99 180
62 99 181
62 99 181
62 99 181
61 99 181
62 99 181
61 99 181
62 99 180
61 99 181
61 98 180
62 99 181
62 99 181
61 99 181
62 99 181
61 99 181
61 98 181
61 99 181
61 99 181
61 99 181
61 98 181
61 98 181
61 99 181
61 99 181
62 99 181
61 99 181
62 99 181
61 98 181
62 99 181
61 98 181
62 99 181
61 99 181
61 99 181
62 99 181
61 99 181
62 99 181
61 99 181
61 99 181
62 99 181
61 98 180
61 98 181
61 98 181
61 99 181
62 99 181
61 99 181
62 99 181
61 99 181
61 99 181
61 98 181
61 99 181
61 98 181
62 99 181
61 98 180
62 99 181
61 99 180
62 99 181
62 99 181
62 99 181
62 99 180
62 99 180
62 98 178
62 99 180
62 99 180
61 99 180
61 98 176
61 98 180
62 99 180
62 99 180
62 98 179
62 99 180
61 98 177
62 99 180
61 98 176
60 97 175
62 99 181
61 98 177
62 99 180
61 98 175
62 98 175
61 98 177
61 97 170
62 98 175
61 97 175
75 107 166
114 140 134
145 169 96
168 191 0
172 195 0
167 190 0
171 194 0
171 194 0
173 196 0
173 196 0
168 191 0
171 193 0
167 186 28
165 183 28
153 170 30
149 160 51
151 158 54
141 147 56
136 137 60
136 133 66
123 118 64
136 132 69
129 125 74
139 134 78
131 127 71
143 139 81
141 136 82
135 132 84
136 132 80
130 128 76
134 132 82
141 137 84
124 122 79
132 129 81
139 137 90
139 136 85
135 133 86
140 136 86
141 137 90
140 137 91
137 135 90
139 137 92
138 136 92
147 145 96
137 135 90
149 147 97
141 138 93
140 139 94
136 135 92
148 146 100
150 147 99
140 139 93
149 148 99
155 151 102
141 139 94
149 147 100
154 152 103
147 145 99
158 155 105
156 154 105
155 153 102
162 159 106
157 156 105
156 155 104
155 153 104
157 155 103
161 158 106
162 159 107
168 164 109
169 165 109
163 160 106
166 162 105
164 161 108
165 163 110
163 160 107
169 165 109
172 167 111
170 166 109
170 167 111
167 163 107
168 166 110
168 165 109
171 167 110
170 166 110
165 163 107
174 170 113
172 168 110
169 166 110
170 167 110
171 168 112
173 169 112
169 166 110
168 164 108
172 168 110
170 167 110
174 170 111
174 169 111
173 169 111
172 167 110
170 167 110
173 168 109
175 171 112
172 168 110
171 167 110
171 168 109
176 171 110
175 171 112
174 170 111
171 166 108
171 167 109
176 171 111
174 170 112
173 168 109
173 169 109
175 170 111
173 169 111
172 168 109
171 167 109
170 166 106
171 166 107
172 167 107
172 167 108
168 165 106
174 169 108
171 166 108
170 165 106
171 166 106
171 166 106
167 163 104
171 166 106
170 166 106
173 169 108
169 163 102
169 164 104
164 159 97
167 163 103
169 165 103
167 162 103
166 160 99
163 158 96
165 160 97
162 156 95
166 160 101
164 159 98
165 161 100
165 159 95
158 153 95
165 160 98
168 162 97
162 156 98
158 152 90
155 150 91
160 154 89
161 154 93
161 155 91
153 147 87
158 153 91
150 145 84
156 150 87
149 143 80
149 143 82
157 151 87
142 137 75
147 140 80
148 141 83
152 146 80
140 134 71
144 141 68
147 149 59
138 144 47
157 168 45
160 176 34
164 182 28
171 191 16
173 195 0
172 195 0
173 197 0
173 197 0
172 196 0
175 198 0
173 196 0
175 198 0
174 197 0
171 195 0
172 195 0
172 196 0
173 197 0
174 197 0
172 195 0
172 196 0
174 197 0
172 196 0
172 196 0
174 197 0
172 195 0
172 196 0
172 196 0
176 198 0
173 196 0
173 197 0
174 197 0
173 197 0
172 195 0
173 197 0
172 196 0
175 198 0
173 196 0
172 196 0
171 195 0
172 196 0
174 196 0
173 196 0
172 195 0
174 198 0
173 197 0
173 197 0
170 193 0
174 197 0
172 195 0
171 194 0
175 197 0
174 197 0
175 198 0
173 197 0
175 198 0
172 196 0
173 196 0
174 196 0
174 196 0
172 196 0
172 195 0
174 197 0
173 196 0
172 195 0
171 195 0
173 197 0
175 198 0
172 196 0
172 195 0
174 197 0
172 196 0
171 195 0
174 198 0
170 195 0
172 196 0
174 197 0
172 194 0
170 194 0
173 197 0
174 197 0
174 198 0
173 196 0
172 196 0
172 196 0
173 197 0
174 196 0
173 197 0
174 197 0
173 196 0
171 195 0
173 196 0
171 195 0
171 195 0
170 194 0
174 196 0
173 196 0
174 197 0
172 195 0
172 195 0
173 197 0
171 194 0
171 195 0
173 197 0
169 192 0
172 196 0
171 194 0
172 195 0
174 197 0
169 191 0
173 196 0
170 194 0
171 194 0
173 196 0
170 194 0
172 197 0
171 195 0
170 193 0
168 192 0
175 198 0
172 196 0
171 194 0
172 196 0
172 195 0
174 198 0
172 196 0
170 194 0
169 193 0
158 182 74
147 171 97
106 134 148
78 110 162
63 100 180
61 98 173
62 99 177
62 99 179
62 99 178
62 99 178
62 99 179
62 99 180
62 99 181
62 99 180
61 99 179
61 99 178
62 99 179
62 99 181
61 99 181
62 99 180
62 99 181
61 99 180
62 99 181
62 99 181
61 98 180
62 99 181
62 99 181
62 99 181
61 99 181
62 99 181
62 99 181
61 99 181
61 99 181
62 99 181
62 99 181
62 99 181
62 99 181
61 99 181
61 98 181
61 98 181
62 99 181
62 99 181
61 99 181
62 99 181
62 99 181
61 99 181
61 98 181
62 99 181
61 99 181
61 99 181
61 99 181
61 99 181
61 99 181
62 99 181
62 99 181
61 99 181
61 99 181
61 99 181
61 99 181
61 98 181
62 99 181
61 99 181
62 99 181
62 99 181
62 99 181
61 99 181
61 98 181
61 98 181
61 99 181
61 99 181
61 99 181
62 99 181
62 99 181
62 99 181
62 99 181
62 99 181
61 98 180
62 99 181
62 99 181
62 99 181
61 99 181
62 98 178
61 98 179
61 98 180
62 98 178
62 99 181
62 99 181
61 98 179
62 99 179
61 97 176
61 98 179
62 98 177
61 98 180
62 99 180
62 99 178
61 99 179
62 99 178
61 98 177
63 99 180
61 97 174
62 98 173
62 98 175
61 97 172
61 97 174
61 97 173
87 117 158
134 159 111
168 191 31
170 192 0
169 191 0
171 194 0
169 192 0
170 193 0
171 194 0
165 186 16
162 182 25
156 171 30
144 154 45
143 154 38
155 164 51
150 153 60
129 131 60
138 135 66
129 125 64
140 133 75
135 130 73
137 133 74
127 124 69
134 131 74
133 129 78
136 132 78
135 132 83
131 129 79
139 135 82
143 139 85
143 140 85
134 130 85
127 126 79
142 140 93
138 136 90
140 137 88
138 136 90
144 141 93
140 139 93
140 138 92
144 141 93
140 138 89
141 139 91
147 144 96
153 150 100
140 138 91
152 147 98
140 138 93
149 145 96
143 142 96
143 141 97
150 148 100
147 146 100
144 144 98
146 145 98
155 153 102
146 144 98
154 151 101
158 157 106
160 158 107
148 146 98
158 155 104
151 150 103
159 157 106
154 151 103
165 161 108
157 155 105
160 158 106
161 158 106
167 163 109
167 164 109
166 163 109
164 162 106
172 167 110
166 163 108
166 163 106
165 162 108
163 161 108
165 162 107
167 164 109
168 164 107
168 165 110
170 166 110
171 167 110
170 167 111
171 167 109
172 168 110
166 164 108
169 166 109
172 168 111
169 166 110
167 165 108
173 169 111
170 167 109
174 170 112
176 171 111
168 165 110
173 169 109
175 170 111
176 171 112
173 169 110
170 167 108
174 170 112
172 168 109
176 171 110
176 172 113
172 169 110
175 170 110
176 172 110
173 169 110
175 170 110
172 168 107
172 167 107
174 170 111
171 167 109
171 167 107
173 168 109
166 162 101
173 170 110
173 168 108
170 165 104
168 164 108
173 168 107
170 165 104
171 166 106
173 169 108
172 166 105
166 161 103
171 166 108
169 163 105
164 159 99
164 159 99
167 162 99
170 165 106
170 164 102
164 159 99
166 160 98
168 162 101
161 156 94
162 157 95
165 160 99
166 160 97
162 156 97
171 165 103
161 156 95
165 160 97
154 148 89
168 162 99
155 149 89
152 146 90
158 153 90
163 157 98
149 143 86
151 146 85
157 151 89
156 151 87
153 147 86
150 144 80
158 152 86
154 148 84
147 141 72
147 140 81
148 142 77
140 134 71
144 138 75
140 135 68
138 135 64
150 154 59
152 162 47
158 172 37
162 181 25
172 193 19
173 195 0
172 195 0
176 198 0
176 199 0
171 196 0
175 197 0
173 196 0
173 196 0
172 195 0
173 196 0
173 196 0
174 197 0
173 196 0
170 195 0
172 196 0
172 196 0
172 195 0
171 194 0
172 196 0
174 197 0
173 197 0
171 195 0
175 198 0
173 195 0
175 198 0
174 196 0
173 197 0
173 196 0
174 196 0
173 197 0
173 197 0
172 196 0
171 195 0
172 196 0
173 196 0
173 195 0
175 198 0
173 197 0
172 196 0
172 195 0
174 197 0
174 197 0
172 195 0
173 197 0
173 197 0
175 198 0
173 196 0
170 193 0
175 198 0
172 196 0
174 197 0
170 192 0
176 198 0
171 194 0
175 197 0
173 197 0
174 197 0
172 196 0
172 196 0
170 194 0
173 195 0
170 193 0
174 198 0
173 197 0
171 194 0
175 198 0
172 196 0
174 197 0
172 196 0
173 196 0
174 197 0
171 195 0
171 193 0
175 198 0
172 196 0
171 196 0
172 196 0
174 197 0
171 195 0
173 196 0
170 194 0
173 196 0
173 196 0
173 195 0
172 195 0
172 196 0
174 197 0
170 194 0
173 196 0
173 196 0
172 195 0
173 196 0
171 194 0
172 195 0
172 196 0
173 197 0
171 195 0
173 196 0
172 195 0
170 194 0
169 193 0
170 194 0
173 196 0
171 195 0
171 194 0
171 194 0
173 196 0
173 195 0
173 197 0
170 195 0
173 196 0
172 195 0
171 194 0
169 193 0
173 196 0
172 195 0
172 196 0
174 197 0
172 195 0
172 196 0
169 193 0
169 193 36
160 183 67
126 151 126
90 120 161
65 101 177
62 99 177
62 98 173
62 99 180
62 99 177
62 99 177
61 99 180
61 98 176
62 99 178
62 99 180
62 99 180
62 99 180
63 100 180
62 99 181
62 99 179
62 99 181
62 99 178
61 99 180
61 99 181
62 99 179
62 99 181
61 99 181
62 99 181
62 99 181
61 99 181
62 99 181
61 98 181
62 99 181
61 99 181
62 99 181
61 98 181
61 98 181
61 98 181
61 98 180
62 99 181
61 99 181
61 99 181
62 99 181
62 99 181
61 98 181
62 99 181
61 99 181
61 99 181
62 99 180
62 99 181
62 99 181
61 99 181
62 99 181
61 99 181
61 99 181
62 99 181
62 99 181
61 98 181
62 99 181
62 99 181
62 99 181
62 99 181
62 99 181
61 99 181
61 98 181
61 99 181
61 98 181
61 98 181
61 99 181
61 99 181
62 99 181
61 99 181
62 99 180
62 99 181
61 99 181
61 99 178
62 99 181
62 99 181
62 99 181
62 99 180
61 98 178
61 99 181
61 98 179
62 99 180
61 99 179
62 99 181
62 99 180
61 99 180
62 99 180
62 98 177
62 99 180
62 99 179
62 99 180
61 98 179
62 99 179
61 98 180
62 99 180
61 98 176
61 98 176
61 98 178
61 98 176
61 98 178
61 98 176
61 97 174
61 97 176
62 97 172
61 97 172
62 98 176
61 96 168
72 104 165
124 149 125
152 176 83
170 192 0
172 194 0
172 193 0
172 194 0
170 193 0
166 188 0
169 188 28
152 167 28
150 164 32
151 162 49
145 152 51
147 149 60
144 144 70
140 136 67
138 133 68
137 132 76
133 129 72
128 125 71
134 129 74
134 131 78
125 121 67
143 138 82
124 122 78
128 126 80
144 140 86
133 131 82
140 136 87
133 130 86
125 125 84
140 137 86
141 138 85
136 134 89
139 135 89
137 135 90
135 134 91
137 135 91
141 140 94
147 144 95
138 137 91
139 137 92
139 137 93
156 153 100
143 142 96
148 146 99
144 142 95
143 142 97
149 146 98
148 146 98
143 141 96
142 140 95
157 154 104
150 148 100
155 152 102
161 158 106
154 152 103
153 152 103
157 155 105
155 153 103
165 162 107
159 157 107
156 155 105
164 160 108
158 156 104
166 163 108
163 161 108
164 161 108
159 156 104
164 161 107
164 160 107
166 162 106
166 163 108
165 162 106
167 163 107
166 163 108
169 166 110
164 162 108
172 168 111
169 166 110
173 169 112
173 169 112
169 167 110
167 164 108
167 164 108
172 168 112
169 165 109
172 168 110
173 169 109
172 168 111
175 170 111
176 171 113
174 170 113
171 168 110
172 168 111
169 165 109
171 167 107
174 169 111
172 168 110
175 171 112
172 169 109
176 171 111
170 166 108
174 169 110
175 169 111
172 169 109
174 170 110
176 171 111
171 167 106
171 166 108
174 170 109
175 170 109
172 168 108
169 166 108
172 167 108
171 166 106
173 168 108
170 165 106
170 166 106
169 166 109
175 169 107
173 167 109
172 166 104
175 170 106
170 164 106
169 165 105
170 164 106
171 166 105
169 164 102
166 163 103
172 167 108
168 163 103
166 161 97
164 159 98
170 164 104
169 164 104
166 160 98
161 155 94
169 164 101
159 154 93
164 158 98
170 164 99
161 156 96
166 159 98
160 155 95
162 155 93
160 154 95
159 153 92
158 152 87
167 161 95
148 142 84
152 146 88
157 151 85
155 148 87
149 143 81
156 150 84
149 143 84
144 138 77
149 143 80
148 142 81
150 143 75
144 138 73
147 141 75
133 128 69
143 138 73
146 150 57
148 156 48
161 175 36
163 180 30
168 187 25
171 193 0
173 195 0
174 197 0
173 197 0
174 197 0
172 196 0
174 198 0
174 197 0
173 196 0
174 197 0
173 196 0
173 196 0
171 195 0
173 196 0
174 197 0
174 198 0
173 196 0
174 197 0
173 197 0
173 196 0
173 196 0
170 195 0
174 197 0
173 196 0
171 193 0
175 198 0
171 194 0
172 196 0
174 197 0
174 197 0
173 196 0
175 198 0
172 196 0
174 197 0
173 197 0
173 196 0
174 197 0
172 195 0
175 198 0
174 197 0
173 196 0
174 197 0
173 197 0
174 197 0
175 198 0
172 196 0
172 195 0
173 196 0
173 197 0
170 193 0
173 197 0
175 198 0
172 195 0
170 193 0
173 197 0
173 197 0
173 196 0
171 195 0
174 197 0
172 196 0
173 196 0
174 198 0
172 195 0
174 197 0
171 194 0
174 197 0
174 197 0
174 198 0
172 196 0
171 194 0
172 195 0
173 196 0
174 198 0
172 195 0
173 196 0
169 194 0
170 194 0
173 196 0
174 197 0
169 194 0
171 194 0
174 197 0
171 194 0
170 194 0
171 195 0
171 195 0
172 196 0
174 197 0
173 196 0
172 195 0
171 195 0
172 196 0
172 196 0
172 194 0
171 194 0
172 194 0
173 195 0
172 195 0
171 194 0
170 194 0
175 198 0
171 194 0
174 197 0
173 196 0
173 196 0
173 197 0
170 194 0
172 195 0
171 194 0
172 195 0
171 195 0
172 195 0
171 194 0
168 192 0
171 194 0
171 194 0
171 194 0
173 197 0
174 197 0
173 196 0
164 188 44
154 177 92
109 136 144
78 111 169
63 100 176
62 99 177
62 99 177
62 99 176
62 99 181
62 99 180
62 99 178
61 99 180
62 99 177
62 99 179
62 99 180
62 99 178
62 99 181
62 99 181
62 99 181
61 99 181
62 99 180
62 99 180
61 98 179
62 99 181
62 99 181
61 99 181
62 99 180
61 98 181
62 99 180
61 99 181
61 99 181
62 99 181
61 99 180
62 99 181
62 99 181
62 99 181
62 99 181
62 99 181
61 99 181
61 99 181
62 99 181
61 99 181
62 99 181
61 99 181
61 99 181
61 99 181
61 99 181
62 99 181
62 99 181
61 99 180
61 99 181
61 99 181
62 99 181
61 99 181
62 99 181
61 99 181
62 99 181
61 99 181
61 98 181
61 99 181
62 99 181
62 99 181
60 98 180
61 98 181
62 99 181
61 99 181
61 98 181
62 99 180
61 98 180
61 99 181
62 99 181
61 99 181
62 99 181
61 98 181
61 99 181
62 99 180
61 99 181
61 98 180
62 99 180
62 99 180
62 99 181
62 99 180
61 99 181
62 99 181
61 99 181
62 99 180
62 99 181
62 99 180
62 99 179
61 99 179
62 99 180
62 99 180
61 98 178
62 99 178
62 98 177
61 98 178
61 98 176
62 98 178
62 98 175
61 98 180
62 99 177
62 99 176
61 98 175
61 97 176
61 97 171
61 98 176
62 99 178
61 97 173
61 98 174
60 94 164
67 101 170
102 131 151
150 174 90
168 191 18
173 195 0
170 192 0
166 188 11
165 185 16
163 183 16
154 169 36
147 158 34
139 146 44
140 145 54
140 140 61
128 128 58
142 138 73
126 123 68
144 139 74
130 125 72
133 129 75
127 123 75
139 134 84
128 125 73
124 122 76
130 127 76
135 131 78
136 133 85
132 130 83
132 130 83
141 139 90
135 132 86
141 138 86
142 139 93
138 135 90
140 137 91
131 130 87
144 141 94
136 134 89
127 127 87
144 142 96
139 137 91
132 131 91
144 142 95
144 142 95
146 143 96
141 139 94
149 147 99
137 137 93
147 146 99
143 142 96
145 144 99
148 146 100
143 142 97
149 147 98
153 150 102
144 143 98
149 148 101
153 150 101
149 148 101
155 153 102
155 152 103
157 155 105
157 154 102
159 157 106
163 160 106
156 155 104
162 159 107
164 161 108
163 160 106
163 161 108
166 163 108
160 158 104
160 157 104
168 165 110
168 164 108
169 166 109
171 168 110
168 163 108
170 167 110
171 168 110
171 167 110
168 165 109
171 167 106
170 166 110
172 169 111
171 167 109
176 172 113
175 170 112
172 168 110
176 171 112
174 169 110
174 170 110
172 168 109
172 168 110
172 169 110
176 171 109
173 170 110
173 169 109
174 170 109
173 170 112
175 169 108
172 168 107
172 168 109
172 167 108
177 172 112
174 169 109
170 166 108
175 170 110
171 167 109
172 168 109
169 166 106
172 167 107
173 168 108
172 166 107
171 166 106
175 170 109
174 169 109
175 170 110
173 167 108
174 169 109
172 167 108
173 167 107
171 167 106
169 164 105
169 164 101
165 161 102
167 162 101
165 159 98
170 165 104
172 166 103
164 158 100
168 163 103
165 160 101
165 159 103
166 160 98
166 161 98
171 166 104
171 166 103
168 162 100
169 163 101
161 155 94
163 158 98
165 158 95
159 154 93
162 156 91
158 153 92
162 156 96
156 149 89
163 156 92
156 151 84
162 155 91
160 154 93
151 146 80
147 141 84
165 158 94
149 143 78
155 149 82
151 145 80
148 141 75
148 142 74
145 141 74
148 142 80
135 129 67
143 137 74
141 135 68
136 137 49
146 153 51
160 173 47
165 183 25
169 187 28
172 195 19
172 195 0
173 196 0
175 197 0
173 197 0
173 197 0
172 196 0
172 195 0
173 196 0
174 198 0
174 197 0
172 196 0
172 196 0
173 197 0
172 195 0
173 197 0
173 197 0
173 197 0
173 196 0
174 197 0
172 196 0
173 196 0
172 196 0
171 195 0
169 193 0
172 196 0
175 198 0
173 196 0
170 193 0
173 196 0
172 195 0
173 197 0
173 197 0
170 194 0
174 198 0
173 196 0
172 196 0
173 196 0
173 196 0
174 198 0
172 195 0
174 197 0
173 195 0
174 197 0
171 194 0
172 194 0
173 197 0
172 195 0
171 194 0
172 196 0
171 194 0
173 196 0
172 196 0
174 197 0
173 197 0
174 197 0
174 197 0
175 197 0
175 198 0
174 197 0
173 195 0
172 195 0
173 196 0
172 196 0
171 194 0
173 197 0
175 198 0
175 198 0
171 195 0
172 195 0
176 198 0
172 196 0
174 197 0
174 197 0
173 196 0
172 196 0
171 195 0
173 196 0
171 195 0
172 196 0
173 197 0
175 198 0
174 196 0
173 195 0
172 194 0
174 197 0
171 194 0
173 196 0
172 196 0
174 197 0
172 197 0
173 195 0
172 196 0
173 196 0
173 196 0
173 196 0
171 195 0
172 196 0
171 193 0
171 195 0
174 197 0
172 196 0
173 196 0
170 194 0
173 196 0
174 196 0
169 192 0
173 196 0
169 192 0
172 196 0
171 195 0
171 195 0
173 196 0
172 196 0
171 195 0
169 192 0
169 193 0
171 194 0
172 196 18
160 183 67
144 169 99
109 136 148
68 103 168
61 98 173
63 100 180
62 99 180
62 99 177
61 99 179
62 99 179
62 99 180
61 99 179
62 99 179
62 99 179
62 99 180
62 99 178
62 99 177
62 99 178
62 99 181
62 99 181
62 99 181
62 99 181
62 99 181
62 99 180
63 100 181
61 99 181
62 99 180
62 99 178
62 99 181
62 99 181
61 99 181
62 99 181
62 99 181
61 99 180
62 99 181
61 99 181
62 99 181
61 99 180
62 99 181
61 98 181
62 99 181
61 99 180
61 99 181
61 99 181
61 99 181
61 99 181
62 99 181
62 99 181
62 99 181
62 99 181
61 98 181
61 98 181
61 98 181
61 98 181
61 99 181
61 98 181
61 98 181
62 99 181
61 99 181
61 99 181
61 99 181
61 98 181
61 99 181
61 99 181
62 99 181
62 99 181
61 99 181
61 99 181
61 99 181
62 99 181
61 99 180
61 99 181
61 99 180
61 99 181
62 99 181
62 99 181
61 99 181
61 99 181
62 99 181
62 99 181
62 99 181
61 99 180
62 99 181
61 98 180
62 99 181
61 99 180
62 99 181
61 98 178
61 98 179
62 99 178
62 99 180
62 99 179
61 98 178
62 99 180
62 99 179
61 98 176
62 99 178
62 99 180
62 98 178
62 98 177
62 98 178
61 98 176
62 98 177
61 98 177
61 98 177
62 98 176
61 97 172
62 98 177
61 98 176
60 96 174
61 97 174
61 98 174
61 96 165
93 122 153
130 154 123
164 186 48
172 194 0
170 191 11
167 187 22
157 173 30
148 159 43
150 162 37
141 145 56
147 152 52
138 138 66
123 122 59
131 126 66
138 133 73
130 128 72
131 127 70
142 136 78
138 133 74
129 126 79
132 128 80
129 125 79
128 126 82
133 129 78
137 134 88
128 126 82
138 135 87
137 135 88
126 124 82
135 133 88
132 131 90
134 131 85
130 129 86
138 137 91
135 132 88
131 129 86
135 133 89
142 140 97
145 143 95
133 132 91
138 137 92
143 141 96
138 137 95
141 139 94
141 140 96
150 147 99
143 142 97
144 142 96
146 143 96
149 147 100
149 147 100
141 140 96
147 145 98
153 151 102
149 148 102
158 155 105
157 154 104
153 150 101
152 151 103
148 146 100
157 155 104
159 156 104
159 156 104
157 155 105
161 159 106
162 158 105
167 164 109
169 166 110
168 164 110
161 158 105
170 167 109
160 157 103
166 163 108
165 162 108
166 163 108
166 164 108
166 163 108
166 163 109
170 167 111
170 166 110
171 167 110
173 169 112
174 170 112
169 166 108
168 164 108
169 165 106
167 164 107
170 166 109
173 169 111
170 166 110
172 168 110
174 170 110
173 168 107
169 166 108
176 171 112
174 170 110
175 171 111
172 168 109
177 171 110
174 169 108
176 171 111
176 171 109
175 171 112
173 167 107
171 167 106
174 170 110
172 168 107
172 167 109
174 170 111
177 171 112
172 167 106
172 167 106
175 170 108
167 162 103
167 163 103
169 165 104
171 166 104
171 166 106
172 168 109
171 166 106
174 169 108
173 168 106
170 165 103
170 165 105
167 162 101
170 165 104
173 167 104
171 165 101
169 163 103
166 161 99
169 164 100
171 165 104
174 168 104
164 158 97
170 164 99
163 157 95
165 160 98
167 161 100
170 164 99
163 157 95
158 152 92
165 159 95
162 156 88
162 156 90
153 147 87
160 154 92
161 155 88
162 156 95
158 153 90
161 155 90
150 144 81
157 151 89
152 146 82
157 151 89
160 153 87
154 147 82
152 146 79
153 146 83
148 141 75
137 132 66
140 134 71
133 128 62
139 134 68
136 140 49
151 158 54
158 170 45
160 176 30
171 191 28
173 196 0
173 196 0
174 197 0
176 198 0
174 198 0
174 197 0
174 198 0
175 198 0
173 197 0
174 197 0
174 197 0
173 196 0
173 196 0
171 195 0
173 196 0
172 195 0
173 196 0
174 198 0
172 195 0
174 196 0
172 195 0
173 196 0
174 197 0
175 198 0
172 196 0
175 197 0
173 197 0
171 195 0
174 198 0
173 196 0
173 196 0
173 197 0
173 197 0
172 195 0
174 197 0
172 197 0
175 198 0
174 197 0
172 195 0
173 196 0
172 196 0
171 194 0
172 195 0
174 196 0
174 197 0
172 196 0
174 197 0
173 196 0
173 196 0
171 194 0
173 195 0
172 196 0
174 197 0
173 196 0
175 198 0
171 194 0
170 194 0
171 195 0
173 197 0
173 196 0
174 197 0
174 197 0
172 196 0
175 198 0
173 197 0
171 195 0
173 197 0
173 197 0
172 195 0
174 197 0
175 198 0
172 195 0
171 194 0
174 196 0
169 194 0
174 197 0
172 196 0
172 195 0
173 196 0
173 196 0
174 197 0
173 197 0
172 196 0
170 194 0
174 196 0
170 194 0
171 194 0
171 195 0
171 195 0
173 196 0
173 197 0
170 193 0
173 196 0
171 194 0
172 195 0
173 196 0
173 196 0
174 196 0
171 195 0
172 195 0
171 195 0
174 197 0
172 196 0
170 194 0
172 196 0
173 196 0
170 194 0
172 195 0
172 195 0
170 193 0
175 198 0
174 197 0
170 193 0
174 196 0
174 197 0
173 196 0
170 194 0
171 194 0
161 185 57
127 154 126
88 119 156
66 102 173
62 99 180
62 99 173
61 98 176
62 99 176
62 99 180
62 99 179
61 99 180
62 99 178
62 99 175
62 99 180
62 99 180
62 99 177
62 99 180
62 99 181
62 99 179
62 99 181
62 99 180
62 99 179
62 99 179
61 99 181
62 99 181
62 99 181
62 99 181
62 99 180
61 98 181
61 99 181
61 98 181
61 99 180
62 99 181
62 99 181
62 99 181
62 99 180
62 99 181
62 99 181
62 99 181
62 99 181
62 99 181
61 99 181
61 99 181
61 98 180
62 99 181
61 99 181
62 99 181
61 98 181
62 99 181
61 99 181
62 99 181
62 99 181
62 99 181
61 99 181
61 98 181
62 99 181
61 99 181
61 99 181
61 99 181
62 99 181
62 99 181
62 99 181
62 99 181
62 99 181
61 99 181
62 99 181
62 99 181
62 99 181
61 99 181
61 99 181
61 99 181
61 99 181
61 98 181
62 99 181
61 99 181
62 99 181
62 99 181
61 99 181
61 98 180
62 99 181
62 99 181
62 99 179
62 99 181
61 99 181
62 99 180
62 99 180
63 100 181
62 99 180
62 99 179
62 99 181
62 99 179
62 99 178
62 99 181
61 99 181
62 99 181
61 98 177
62 98 176
61 98 177
62 99 178
62 99 179
61 98 176
61 98 175
61 98 178
61 98 178
62 99 179
62 99 179
61 97 175
62 98 176
61 98 174
61 97 174
61 97 174
61 97 172
61 97 173
61 97 173
62 97 172
79 109 156
113 138 134
160 183 44
170 193 0
166 184 22
166 183 34
156 171 41
151 161 49
142 149 45
133 137 51
138 137 58
132 132 64
127 124 66
138 133 72
131 127 68
134 130 73
144 139 77
131 128 74
129 125 74
135 131 83
128 125 74
127 124 77
127 124 78
135 132 83
132 129 82
130 129 84
134 132 81
132 129 84
132 130 83
139 136 89
135 133 87
128 127 83
139 137 90
132 131 88
137 134 88
132 131 91
135 134 91
135 134 92
134 133 93
136 135 91
140 138 92
136 136 92
145 143 98
152 150 101
145 144 98
142 140 95
146 144 98
143 141 95
146 145 98
154 151 100
146 144 98
145 144 97
151 150 102
151 149 101
149 148 100
159 156 103
147 145 98
155 152 102
157 155 103
163 160 107
162 158 106
158 156 104
159 156 104
158 157 104
163 160 108
164 161 108
161 158 105
157 154 101
169 165 110
168 164 107
165 162 107
166 163 108
164 161 108
164 162 108
170 166 109
168 165 110
164 161 105
166 163 109
168 165 107
170 166 109
166 164 109
170 166 109
172 168 111
176 171 112
171 167 110
171 166 108
174 169 111
177 171 111
170 167 108
174 170 109
177 171 109
174 169 109
176 171 110
171 166 106
175 170 109
176 171 111
172 168 107
174 169 111
173 169 110
175 170 109
176 170 108
176 171 110
175 171 110
170 165 104
170 166 108
170 166 108
173 168 108
168 165 106
177 171 110
176 171 112
176 170 107
172 168 105
171 167 106
173 168 108
171 166 106
170 166 107
169 164 105
169 164 104
167 162 103
174 169 109
169 164 105
171 166 106
173 168 103
170 165 104
166 162 102
165 161 102
167 162 101
165 160 99
166 160 99
170 166 104
169 163 100
169 164 101
172 167 105
169 164 102
167 161 101
171 165 102
160 154 95
163 157 96
164 159 94
163 157 97
160 155 94
160 154 90
165 160 95
162 157 93
156 151 86
164 158 95
152 146 83
154 148 87
152 147 84
159 153 90
155 149 88
156 149 84
144 139 81
152 146 84
158 150 87
145 140 77
154 148 85
137 131 70
130 124 67
150 143 79
138 134 64
139 133 71
138 139 57
145 149 61
144 154 42
163 180 39
164 184 25
167 189 11
172 196 0
172 196 0
174 198 0
174 197 0
173 196 0
173 197 0
174 197 0
173 197 0
171 195 0
173 197 0
173 196 0
170 195 0
173 197 0
170 194 0
174 197 0
175 198 0
171 195 0
174 197 0
167 191 0
173 196 0
173 196 0
174 197 0
172 195 0
172 196 0
174 197 0
174 197 0
173 197 0
175 198 0
172 196 0
172 195 0
174 197 0
174 198 0
173 196 0
172 196 0
174 197 0
173 197 0
172 195 0
174 197 0
172 195 0
172 195 0
173 196 0
173 197 0
174 196 0
173 197 0
172 196 0
173 196 0
172 196 0
175 197 0
172 197 0
172 196 0
173 196 0
172 196 0
174 197 0
174 197 0
174 197 0
173 196 0
172 196 0
172 195 0
175 198 0
174 198 0
171 195 0
174 197 0
174 197 0
176 199 0
173 196 0
170 194 0
175 197 0
173 196 0
171 195 0
172 195 0
170 194 0
174 197 0
173 196 0
172 196 0
170 193 0
172 195 0
172 195 0
173 196 0
169 194 0
173 196 0
171 195 0
173 197 0
173 197 0
171 195 0
174 197 0
172 195 0
170 194 0
172 196 0
173 196 0
172 196 0
172 196 0
172 195 0
171 194 0
172 195 0
172 195 0
173 197 0
171 194 0
173 195 0
170 194 0
170 193 0
169 193 0
170 193 0
172 195 0
173 196 0
172 196 0
172 196 0
173 196 0
171 194 0
174 197 0
172 195 0
168 191 0
172 196 0
169 192 0
170 194 0
174 197 0
170 193 31
158 182 70
121 147 129
85 116 163
62 99 176
62 99 176
61 98 173
61 98 176
62 99 177
62 99 177
61 98 175
62 99 179
62 99 176
62 99 173
62 99 178
62 99 180
62 99 180
62 99 180
62 99 181
62 99 178
62 99 180
61 99 180
61 98 179
62 99 179
61 98 179
62 99 181
62 99 181
61 98 179
62 99 179
61 99 181
62 99 181
61 99 181
61 98 181
62 99 181
62 99 181
61 99 181
61 99 181
62 99 181
62 99 180
62 99 181
62 99 181
61 98 181
62 99 181
62 99 181
62 99 181
61 99 181
61 98 181
62 99 181
61 99 181
61 99 181
61 99 181
62 99 181
61 99 181
61 98 181
62 99 181
62 99 181
62 99 181
62 99 181
61 99 181
62 99 181
61 99 181
62 99 181
62 99 181
61 99 181
61 99 181
62 99 180
61 98 181
62 99 181
61 98 181
61 99 181
61 99 181
62 99 181
61 99 181
62 99 181
61 99 181
61 98 181
62 99 181
62 99 180
61 99 180
62 99 181
61 99 181
61 98 181
61 99 180
62 99 181
62 99 181
62 99 181
62 99 181
62 99 180
62 99 181
62 99 180
62 98 178
62 99 181
62 99 179
61 99 179
61 98 178
62 98 177
62 99 180
62 99 180
62 98 174
61 99 180
62 99 180
61 99 179
62 99 178
62 98 175
61 97 175
62 99 178
61 98 175
62 98 177
61 98 177
62 98 176
62 98 177
62 98 176
62 99 177
61 97 176
61 98 176
60 96 171
62 97 168
61 96 167
76 105 154
116 141 133
148 165 73
159 177 25
147 163 19
155 169 37
149 157 54
148 154 56
131 133 52
130 129 53
140 135 70
135 130 71
131 128 75
126 122 69
129 126 72
138 134 75
123 120 71
138 134 79
120 118 74
127 124 74
131 128 81
130 128 80
123 121 82
122 121 77
125 124 80
128 127 84
123 122 81
118 118 80
133 131 89
120 119 80
123 122 85
121 121 84
136 135 92
130 129 87
133 131 87
130 129 90
130 129 89
136 134 92
129 130 88
133 133 92
130 131 91
141 140 97
131 131 91
134 134 94
141 141 95
141 140 96
146 144 98
139 137 95
141 139 94
147 145 99
149 147 100
147 146 99
155 153 102
159 157 105
157 155 106
157 155 104
159 157 106
157 154 101
157 154 102
161 158 105
153 151 102
161 158 104
158 157 106
161 158 104
160 158 103
166 162 109
161 159 106
156 154 103
170 166 110
162 159 105
165 162 108
166 164 108
168 165 108
167 163 105
166 163 107
170 166 108
172 168 110
171 167 108
170 166 108
170 165 107
170 166 108
171 168 108
170 166 110
174 170 111
174 170 110
174 169 108
174 170 109
174 170 109
173 168 108
174 170 110
175 170 109
177 171 112
174 169 108
174 169 110
174 169 109
175 170 109
176 171 109
175 171 110
176 172 112
177 171 112
174 170 107
173 168 109
172 168 108
172 168 108
175 169 107
176 170 109
174 169 108
171 167 108
175 170 108
173 169 109
173 168 109
175 170 108
170 166 103
174 169 109
172 166 105
170 165 103
168 164 103
170 166 105
174 168 102
172 167 105
170 165 104
169 164 101
173 166 105
164 160 100
167 162 99
169 164 101
172 166 106
171 165 103
172 167 103
166 159 99
172 165 102
164 159 95
167 161 97
169 163 99
158 154 92
160 155 95
166 160 98
171 165 99
172 166 101
162 157 92
160 156 93
160 154 94
156 151 87
162 156 90
163 156 95
157 151 92
161 154 88
156 151 90
154 148 83
158 153 84
152 146 84
152 145 87
148 142 79
145 140 80
154 148 82
143 137 75
151 145 77
149 143 75
136 130 73
150 144 76
141 135 64
136 134 60
144 150 49
147 156 47
160 174 42
166 183 37
168 188 16
173 194 11
176 199 0
172 195 0
174 197 0
175 197 0
172 195 0
172 196 0
175 198 0
173 197 0
173 197 0
174 197 0
174 197 0
172 196 0
173 196 0
172 196 0
172 195 0
174 198 0
173 197 0
173 197 0
173 197 0
175 198 0
175 197 0
172 196 0
174 197 0
174 197 0
174 197 0
173 197 0
172 195 0
174 197 0
173 196 0
172 196 0
173 197 0
171 195 0
172 195 0
173 197 0
173 196 0
173 196 0
174 197 0
172 195 0
174 198 0
170 193 0
172 195 0
172 196 0
173 196 0
173 197 0
173 196 0
174 197 0
172 195 0
174 196 0
174 197 0
172 195 0
174 197 0
170 194 0
172 196 0
174 197 0
171 195 0
175 197 0
173 196 0
170 193 0
174 197 0
172 196 0
173 196 0
174 198 0
174 197 0
173 196 0
174 197 0
172 195 0
176 198 0
175 197 0
172 196 0
171 194 0
171 194 0
169 193 0
174 197 0
175 197 0
173 195 0
168 191 0
173 197 0
174 197 0
174 197 0
172 196 0
172 195 0
173 196 0
172 195 0
173 196 0
171 195 0
170 194 0
173 196 0
171 195 0
172 195 0
172 195 0
171 193 0
171 195 0
172 195 0
170 193 0
171 195 0
175 197 0
172 196 0
172 195 0
171 194 0
172 195 0
170 194 0
170 193 0
171 194 0
170 194 0
171 195 0
170 193 0
174 198 0
170 193 0
170 193 0
172 195 0
173 195 0
171 195 0
172 195 0
169 192 25
153 178 82
121 148 136
76 109 166
63 99 175
62 99 176
62 99 180
62 99 180
62 99 180
62 99 175
62 99 178
63 100 179
62 99 179
62 99 179
62 99 181
61 98 179
62 99 180
62 99 179
62 99 181
61 99 180
61 99 181
62 99 179
62 99 180
62 99 181
61 99 179
62 99 180
62 99 181
62 99 181
62 99 181
62 99 181
62 99 180
62 99 181
62 99 179
62 99 181
61 99 181
62 99 181
61 99 181
61 99 181
62 99 180
61 98 181
62 99 181
61 98 181
62 99 181
62 99 181
62 99 181
62 99 181
61 98 180
62 99 180
62 99 181
62 99 181
62 99 181
62 99 181
61 99 181
62 99 181
61 99 181
61 99 181
62 99 181
61 98 181
61 99 181
61 98 181
61 99 181
62 99 181
61 99 181
62 99 181
61 99 181
62 99 181
61 98 181
61 99 181
61 99 181
61 99 181
62 99 181
62 99 181
61 98 180
62 99 181
61 99 181
61 99 181
62 99 181
61 99 181
62 99 181
61 99 181
61 98 180
61 98 180
62 99 179
62 99 180
61 99 181
62 99 181
61 98 178
61 98 179
62 99 180
62 99 178
61 98 180
62 99 180
62 99 180
62 99 180
62 99 179
62 99 179
62 99 177
61 99 180
61 98 180
62 99 178
62 99 178
62 99 179
61 98 176
61 98 177
62 99 178
61 98 177
62 98 174
62 99 178
62 99 177
63 100 179
62 98 174
62 99 176
61 98 174
62 97 173
61 97 172
61 97 173
61 98 176
61 97 172
61 98 178
62 98 174
63 97 168
102 127 139
145 162 73
156 170 39
151 161 47
142 153 45
135 141 46
135 138 54
135 133 62
138 133 70
121 116 64
128 125 74
129 125 75
122 118 67
135 131 77
134 129 79
118 116 69
135 131 79
123 121 73
123 121 75
125 124 78
133 131 82
133 130 81
138 136 91
121 121 82
122 122 81
137 135 91
135 133 89
129 127 84
129 127 86
138 137 92
130 129 87
137 136 93
140 138 91
126 125 86
132 132 91
137 134 90
136 134 92
145 143 96
135 135 93
131 131 90
141 141 96
149 147 98
138 138 96
142 141 97
143 141 96
144 142 97
131 132 92
152 149 100
146 144 98
152 151 103
151 150 100
149 148 100
161 157 103
152 150 101
153 151 103
146 146 100
158 155 105
157 154 103
160 156 105
158 156 105
158 156 105
157 154 102
157 155 104
166 162 107
162 160 107
161 158 104
166 163 108
163 159 104
163 160 107
167 163 108
165 163 107
160 158 104
169 165 109
164 161 106
172 167 110
173 169 108
172 168 109
170 166 109
168 164 108
170 167 110
171 166 108
177 171 111
173 169 111
172 167 108
170 167 109
169 166 106
173 168 108
176 170 110
175 171 112
173 168 108
175 170 109
170 167 106
176 171 110
175 170 109
172 166 106
173 169 105
172 168 109
174 170 109
176 170 109
177 171 109
176 172 110
174 169 111
171 166 103
179 173 109
172 167 106
179 173 111
173 168 106
172 168 106
167 163 101
171 167 108
174 169 108
171 167 106
169 165 106
169 164 103
174 169 105
169 163 100
176 170 108
170 166 107
171 165 103
169 165 103
174 168 104
168 163 103
167 161 99
168 163 102
170 165 100
170 164 100
170 164 104
168 162 98
168 162 99
165 160 97
169 163 99
165 159 94
169 162 97
164 158 96
167 162 95
161 155 95
168 161 98
165 159 97
158 152 93
162 156 93
163 157 93
156 150 89
157 151 85
162 157 88
160 153 88
159 154 92
161 155 90
153 148 80
155 150 84
155 149 84
149 143 79
150 145 84
150 143 77
153 147 84
150 144 78
139 134 67
135 130 66
138 132 67
136 130 61
139 137 64
151 155 57
144 152 48
150 161 36
165 183 32
167 186 30
173 196 0
173 196 0
174 197 0
172 195 0
176 199 0
172 195 0
174 197 0
174 197 0
173 196 0
172 196 0
171 195 0
172 195 0
173 196 0
174 197 0
172 195 0
173 196 0
173 196 0
173 196 0
171 195 0
172 196 0
173 196 0
172 196 0
174 197 0
174 197 0
171 195 0
172 196 0
175 198 0
171 194 0
173 196 0
173 196 0
172 196 0
173 197 0
170 194 0
172 195 0
172 195 0
172 195 0
172 196 0
172 195 0
175 198 0
171 195 0
172 195 0
173 196 0
170 194 0
173 195 0
172 196 0
176 199 0
171 195 0
174 197 0
173 196 0
171 195 0
172 196 0
171 195 0
172 195 0
173 197 0
171 194 0
171 194 0
173 196 0
171 195 0
172 195 0
171 193 0
172 196 0
172 195 0
174 196 0
171 194 0
171 195 0
171 195 0
171 194 0
174 196 0
172 195 0
173 196 0
168 192 0
171 194 0
169 192 0
174 198 0
170 193 0
168 192 0
173 196 0
173 197 0
172 195 0
173 196 0
173 196 0
172 196 0
173 196 0
171 195 0
173 196 0
172 196 0
171 194 0
174 197 0
171 195 0
172 196 0
170 194 0
174 196 0
170 194 0
173 196 0
173 196 0
172 195 0
171 194 0
175 198 0
174 197 0
174 197 0
170 193 0
174 197 0
172 196 0
170 193 0
170 193 0
172 195 0
172 194 0
171 195 0
172 195 0
173 196 0
170 193 0
171 195 0
172 195 0
169 193 31
155 179 78
116 142 137
74 107 168
62 99 176
63 99 175
63 100 179
62 99 179
61 98 175
62 99 179
62 99 180
62 99 177
62 99 179
62 99 177
62 99 179
61 99 180
63 99 180
62 99 178
63 100 181
61 99 179
62 99 178
62 99 181
62 99 180
62 99 180
62 99 177
61 98 181
61 99 181
61 99 181
61 98 179
62 99 181
62 99 180
62 99 180
61 99 179
62 99 180
63 100 181
62 99 181
62 99 181
61 99 181
62 99 180
61 98 181
62 99 181
62 99 181
62 99 181
61 99 181
61 99 181
62 99 181
61 99 180
61 99 181
61 99 181
62 99 181
62 99 181
62 99 181
61 99 181
62 99 181
61 99 181
62 99 180
61 98 181
62 99 180
61 99 181
62 99 181
61 98 181
61 99 181
61 99 181
62 99 181
61 99 181
62 99 181
61 99 181
62 99 180
61 99 181
61 99 181
62 99 181
62 99 180
61 99 180
61 99 181
62 99 181
62 99 181
62 99 180
62 99 181
62 99 181
62 100 181
62 99 181
62 99 181
62 99 180
61 99 181
62 99 181
61 99 180
62 99 181
62 99 179
62 99 179
62 99 181
62 99 180
62 99 181
61 99 179
62 99 180
62 99 179
61 99 179
62 99 179
62 99 181
62 99 180
62 99 180
62 99 180
62 99 177
61 98 176
61 98 174
62 99 179
62 98 174
61 98 174
62 99 179
62 99 180
62 98 175
61 98 174
61 98 175
62 98 176
62 98 177
61 98 176
62 98 174
61 97 172
61 97 172
63 99 177
61 97 172
61 96 169
61 96 168
64 96 161
91 116 145
130 146 93
150 162 34
149 156 52
144 148 57
135 136 60
127 126 59
127 124 65
126 123 67
127 124 73
118 115 60
126 122 74
126 124 75
130 126 75
121 119 70
133 130 78
124 122 79
119 118 75
118 117 75
120 119 72
116 116 73
120 118 77
126 126 84
120 120 80
129 127 85
128 126 84
129 128 89
124 123 81
128 128 88
126 126 87
138 136 93
123 123 87
142 140 94
125 125 86
132 130 87
132 132 92
132 132 92
128 128 89
131 131 91
134 133 92
141 140 98
146 144 97
145 144 97
141 141 98
140 139 94
149 147 99
139 138 94
148 146 99
155 152 103
150 148 100
149 148 99
157 154 102
147 146 100
151 150 101
158 155 103
160 157 102
155 153 103
155 153 102
162 160 107
159 155 101
163 160 105
163 159 105
161 158 104
165 160 105
166 163 107
162 159 106
159 157 105
169 165 108
168 164 108
163 160 105
169 164 105
167 163 108
166 162 106
166 162 108
167 164 106
167 163 106
166 163 106
175 170 110
166 163 107
170 167 109
175 169 107
173 169 109
172 168 108
171 166 108
173 168 109
176 171 111
172 168 107
177 171 107
176 171 110
173 168 108
174 170 109
174 169 110
177 172 111
175 170 107
174 169 105
174 169 107
175 170 108
174 169 104
174 169 107
175 170 109
174 169 107
176 171 109
172 168 108
173 169 107
173 168 109
172 168 106
175 170 108
169 164 106
177 171 108
176 170 107
175 169 107
173 168 106
172 167 105
168 165 103
175 169 105
171 165 103
175 168 104
169 163 104
176 170 108
171 166 103
165 161 98
168 163 102
173 168 103
168 162 98
167 161 100
167 161 100
163 158 100
162 158 99
169 164 100
163 157 93
162 156 93
164 159 95
160 155 93
167 160 97
164 158 97
163 157 93
164 159 99
161 155 92
161 156 91
155 149 88
159 153 93
151 146 87
157 151 88
150 145 83
160 154 89
159 153 88
157 152 87
149 143 83
153 146 80
154 149 80
152 146 80
153 147 82
148 143 75
147 141 72
139 134 69
147 140 73
139 133 68
142 135 73
136 132 66
144 147 51
142 153 34
155 168 36
162 180 30
163 181 16
170 192 0
171 196 0
173 196 0
174 197 0
174 198 0
172 196 0
170 195 0
173 196 0
174 197 0
172 196 0
171 195 0
172 196 0
174 198 0
172 195 0
173 197 0
170 193 0
173 197 0
173 196 0
172 196 0
173 196 0
173 196 0
170 193 0
174 197 0
174 198 0
173 197 0
171 195 0
172 196 0
173 196 0
174 197 0
174 197 0
173 195 0
174 197 0
173 196 0
171 195 0
172 196 0
173 196 0
173 196 0
174 197 0
175 198 0
170 194 0
176 198 0
174 197 0
172 195 0
170 194 0
172 195 0
176 198 0
172 195 0
174 197 0
172 195 0
171 194 0
173 197 0
174 197 0
170 194 0
175 198 0
172 195 0
170 194 0
175 198 0
172 196 0
171 195 0
171 196 0
172 196 0
169 193 0
174 197 0
172 196 0
170 194 0
170 193 0
173 196 0
168 192 0
172 196 0
174 197 0
170 193 0
173 196 0
174 197 0
171 194 0
174 196 0
172 196 0
172 195 0
173 196 0
171 195 0
168 192 0
172 196 0
175 198 0
173 197 0
174 197 0
170 194 0
171 195 0
174 198 0
171 195 0
173 196 0
172 195 0
172 196 0
173 195 0
171 195 0
172 196 0
171 195 0
171 194 0
170 195 0
174 197 0
168 192 0
172 196 0
169 192 0
168 192 0
173 196 0
171 194 0
170 193 0
174 196 0
173 196 0
171 194 0
170 194 0
172 195 0
169 193 0
171 194 0
169 193 25
150 174 86
113 140 141
72 106 173
62 99 176
61 98 175
62 99 176
62 99 177
62 99 179
62 99 175
63 100 178
62 99 178
63 99 179
62 99 177
62 99 179
62 99 178
62 99 180
62 99 181
62 99 181
62 99 179
63 100 181
61 98 177
61 99 180
62 99 180
62 99 180
61 99 180
62 99 181
61 99 179
62 99 181
61 99 180
62 99 180
62 99 180
62 99 181
62 99 181
61 99 181
62 99 180
62 99 181
62 99 181
61 98 181
62 99 180
62 99 181
61 99 181
62 99 181
61 99 181
61 99 181
62 99 181
62 99 181
62 99 181
61 99 181
62 99 181
62 99 181
61 99 181
61 99 181
62 99 181
62 99 181
62 99 181
61 99 181
61 98 181
62 99 181
61 99 181
62 99 180
61 99 181
61 99 180
62 99 181
62 99 181
61 99 181
61 98 181
61 98 181
61 98 181
62 99 180
62 99 181
62 99 180
61 98 181
62 99 181
62 99 180
62 99 181
62 99 181
62 99 181
62 99 181
62 99 181
62 99 179
61 98 180
61 98 179
62 99 180
62 99 181
61 98 181
61 99 180
61 99 181
62 99 180
62 99 181
61 99 181
62 99 180
62 99 180
61 98 177
62 99 177
62 99 178
62 99 179
62 99 179
62 99 179
62 99 180
62 98 176
62 99 179
62 99 176
62 99 178
62 99 178
62 99 176
62 99 177
61 98 175
62 98 178
62 99 176
62 99 176
62 98 176
62 98 177
62 98 177
62 99 176
61 98 173
62 98 173
61 97 174
61 98 178
62 98 177
60 96 169
61 96 170
62 98 172
60 94 166
62 96 165
79 104 148
124 138 98
145 151 48
126 130 46
139 140 61
128 128 58
124 122 62
132 128 69
136 132 73
134 129 67
130 126 70
133 130 76
120 117 67
127 124 77
119 118 71
123 120 75
122 120 76
126 123 80
129 125 78
118 118 76
122 121 77
138 136 89
116 116 77
131 131 84
131 130 86
127 126 84
118 119 83
126 126 88
127 126 86
125 125 85
128 127 87
123 124 87
135 135 91
132 132 92
136 135 90
137 135 91
140 138 95
141 139 95
138 137 95
130 130 88
149 146 99
143 141 95
140 140 97
134 135 95
142 139 92
150 149 102
148 146 98
150 148 101
152 150 102
135 135 94
152 150 102
148 147 98
143 142 96
149 147 99
157 155 104
150 149 100
157 155 104
165 162 107
155 153 101
161 159 107
163 160 106
165 161 105
160 158 104
160 158 105
159 157 102
164 161 104
160 158 106
165 163 108
166 163 107
167 164 107
168 165 106
165 162 108
171 167 109
167 164 108
168 164 106
170 166 110
172 167 108
175 171 111
172 168 109
172 168 106
175 169 110
175 170 110
171 168 108
171 167 108
172 169 109
175 170 110
176 172 110
177 171 110
173 168 106
176 171 110
172 168 105
173 169 110
177 172 112
175 170 110
175 170 108
176 170 109
174 169 106
175 170 109
173 168 106
174 169 107
174 170 108
174 169 107
171 166 104
169 165 102
175 169 105
168 163 103
174 169 106
174 169 103
172 168 105
172 167 103
173 167 102
174 168 108
174 168 106
173 168 103
169 162 100
167 162 102
172 166 104
173 168 106
169 163 99
173 167 104
166 162 102
173 167 106
166 160 95
167 162 104
168 163 99
168 161 101
170 164 100
166 161 100
172 166 101
159 153 91
168 163 101
164 159 96
165 160 95
162 156 95
163 157 91
164 158 95
164 158 98
169 163 99
162 156 92
163 157 90
163 156 90
153 147 83
165 158 95
154 149 83
159 153 92
153 148 87
157 150 80
153 147 82
154 148 86
149 142 83
148 143 82
142 136 71
151 144 80
151 145 72
149 143 74
140 134 71
138 133 65
141 136 69
141 142 60
148 158 39
159 175 34
161 177 32
165 184 16
172 195 0
171 195 0
175 198 0
173 197 0
174 197 0
175 197 0
174 197 0
174 197 0
173 197 0
173 196 0
171 194 0
172 196 0
172 196 0
172 196 0
168 192 0
172 195 0
171 195 0
173 196 0
175 198 0
175 198 0
171 195 0
173 196 0
172 196 0
174 197 0
173 197 0
171 193 0
172 196 0
172 196 0
175 198 0
174 197 0
174 197 0
173 196 0
173 195 0
174 198 0
170 193 0
172 196 0
173 196 0
172 196 0
172 196 0
172 196 0
173 196 0
172 196 0
173 197 0
173 196 0
172 196 0
173 196 0
171 194 0
172 196 0
172 195 0
168 192 0
174 197 0
173 196 0
173 197 0
173 197 0
171 196 0
170 194 0
174 197 0
175 198 0
174 197 0
173 197 0
170 194 0
175 198 0
172 195 0
171 195 0
173 197 0
173 197 0
173 196 0
172 195 0
172 195 0
169 192 0
172 196 0
173 197 0
172 196 0
171 195 0
174 198 0
170 194 0
172 196 0
172 196 0
173 196 0
174 197 0
171 194 0
171 195 0
173 196 0
173 197 0
173 196 0
175 198 0
168 191 0
173 195 0
170 194 0
173 196 0
172 196 0
173 196 0
168 192 0
172 195 0
170 194 0
174 196 0
172 195 0
171 194 0
170 194 0
170 194 0
172 196 0
172 196 0
173 197 0
170 193 0
171 195 0
173 197 0
173 196 0
173 196 0
169 192 0
172 196 0
174 197 0
168 192 0
147 171 94
101 129 153
72 106 168
62 98 171
62 99 172
62 99 178
62 99 174
62 99 177
62 99 180
62 99 178
61 98 176
62 99 180
62 99 176
62 99 177
63 99 178
61 99 179
61 99 181
62 99 181
62 99 179
62 99 181
63 100 179
62 99 180
61 99 180
62 99 180
62 99 180
62 99 179
62 99 180
62 99 179
62 99 179
62 99 181
61 99 180
62 99 181
62 99 181
61 99 180
62 99 180
62 99 181
61 99 181
62 99 181
62 99 179
62 99 181
62 99 181
61 99 181
62 99 181
62 99 181
62 99 180
61 99 181
62 99 181
61 99 181
62 99 180
62 99 181
62 99 181
61 99 181
62 99 180
62 99 181
61 99 181
60 98 181
62 99 180
62 99 181
62 99 181
62 99 181
62 99 180
62 99 181
61 99 181
62 99 181
61 99 181
61 99 181
62 99 181
61 99 181
61 98 180
62 99 181
62 99 181
62 99 181
62 99 180
62 99 181
62 99 181
62 99 180
62 99 181
62 99 181
61 99 180
62 99 181
62 99 180
61 99 181
62 99 181
62 99 181
62 99 179
62 99 181
62 99 181
62 99 180
62 99 180
61 98 178
62 99 181
62 99 178
62 99 181
62 99 181
61 98 179
62 99 180
62 99 177
61 99 180
62 99 181
61 99 179
62 99 180
62 99 179
62 99 181
62 99 178
62 99 179
62 99 178
61 98 176
61 98 178
61 98 175
62 99 177
62 99 178
62 99 177
62 99 178
61 98 177
61 97 172
63 100 179
61 97 174
62 99 176
61 97 173
62 98 176
63 99 178
61 96 168
61 97 172
60 95 167
60 94 164
61 96 166
76 102 157
118 129 105
142 146 48
127 127 59
128 125 52
131 127 67
137 132 73
130 126 70
132 129 73
118 115 66
132 129 76
129 125 75
128 124 74
124 121 73
135 132 83
122 121 74
122 121 78
113 112 75
114 114 79
124 122 78
122 121 82
120 120 81
134 132 88
127 124 83
117 117 81
130 128 86
119 119 82
129 128 88
133 132 89
129 128 87
131 130 90
129 129 88
124 125 86
121 122 87
125 125 85
133 133 92
135 135 93
150 148 100
135 135 94
134 133 92
139 138 95
136 136 94
144 142 97
136 136 95
147 146 99
145 144 98
151 149 101
140 140 95
142 141 97
155 152 103
155 153 103
150 148 99
163 160 107
152 151 102
159 156 103
156 154 102
162 159 103
157 154 102
155 153 102
160 158 104
163 160 104
159 157 105
161 157 104
161 158 104
163 160 105
164 161 103
164 160 105
161 158 103
166 163 106
171 167 108
167 164 106
169 165 107
173 168 109
175 171 113
173 169 108
169 166 107
168 165 107
172 167 106
173 168 106
177 171 110
169 165 104
173 168 107
171 168 109
174 169 108
172 167 107
172 168 110
175 171 111
175 170 111
171 166 106
170 166 108
176 171 110
175 171 108
171 167 104
173 169 108
176 170 108
177 171 109
173 168 109
176 170 107
172 168 107
174 169 106
174 170 108
175 170 106
173 168 108
174 169 106
177 171 108
171 165 103
177 170 104
173 166 104
173 168 104
171 166 104
172 165 103
173 167 107
169 163 99
168 162 99
174 169 106
170 165 103
170 164 103
174 167 103
173 166 98
173 166 102
167 162 95
170 165 101
167 162 100
167 162 99
170 165 102
167 161 99
168 163 102
167 161 97
168 162 97
169 162 96
157 152 91
163 158 93
165 159 94
167 161 93
164 158 95
166 160 91
160 154 93
161 155 93
161 154 89
157 152 88
159 153 87
155 150 86
164 158 88
156 151 84
158 152 84
155 148 84
162 155 87
151 145 77
149 142 77
147 141 71
142 137 69
147 141 75
134 128 67
146 140 77
147 141 79
138 132 64
140 134 72
147 148 57
151 156 51
155 165 47
162 178 32
168 187 28
171 192 16
172 195 0
174 197 0
172 196 0
173 197 0
173 197 0
172 196 0
172 196 0
173 197 0
174 197 0
175 198 0
174 197 0
174 197 0
172 194 0
171 195 0
175 198 0
174 198 0
172 195 0
172 196 0
174 197 0
174 197 0
173 196 0
175 198 0
174 197 0
171 194 0
170 194 0
171 196 0
170 193 0
175 198 0
173 196 0
171 195 0
173 196 0
172 196 0
172 195 0
172 196 0
172 195 0
172 196 0
174 197 0
171 194 0
172 195 0
173 196 0
173 196 0
172 196 0
172 195 0
173 197 0
169 192 0
173 196 0
173 196 0
175 198 0
171 194 0
171 194 0
172 196 0
172 195 0
172 196 0
172 196 0
172 196 0
172 196 0
174 197 0
172 195 0
172 196 0
172 195 0
171 194 0
170 193 0
172 196 0
172 196 0
174 197 0
173 196 0
173 197 0
170 193 0
171 195 0
173 196 0
171 195 0
170 194 0
173 195 0
172 196 0
171 195 0
172 195 0
173 197 0
171 193 0
172 196 0
170 194 0
176 199 0
171 194 0
172 196 0
172 196 0
170 194 0
174 197 0
169 193 0
172 196 0
173 196 0
175 198 0
172 195 0
170 193 0
173 196 0
172 196 0
172 195 0
171 195 0
171 195 0
170 193 0
171 194 0
174 197 0
173 196 0
168 191 0
169 192 0
174 197 0
171 195 0
172 196 0
170 194 0
173 197 0
173 195 0
172 195 25
148 172 92
100 128 150
68 103 168
62 99 174
62 99 175
63 99 176
62 99 175
62 99 178
62 99 176
62 99 176
62 99 177
62 99 180
62 99 179
62 99 179
62 99 180
62 99 177
62 99 177
62 99 180
62 99 179
63 100 180
61 99 179
62 99 181
62 99 181
61 99 179
62 99 180
62 99 177
61 99 181
62 99 181
61 99 180
61 99 181
61 99 180
62 99 181
62 99 179
62 99 181
61 99 180
61 98 179
61 99 181
62 99 179
62 99 181
62 99 181
62 99 181
62 99 180
61 98 180
62 99 181
62 99 180
61 98 181
62 99 181
62 99 181
61 98 179
61 99 181
61 99 181
62 99 181
62 99 181
62 99 181
61 99 180
61 99 181
61 99 181
61 99 181
62 99 181
62 99 180
62 99 181
62 99 180
61 99 180
62 99 181
61 99 181
62 99 180
62 99 181
61 99 180
62 99 181
62 99 181
61 99 181
61 99 181
61 99 180
62 99 181
62 99 180
61 99 181
62 99 181
62 99 181
61 99 181
62 99 179
61 98 180
62 99 179
62 99 181
61 99 181
62 99 181
62 99 181
61 99 180
62 99 179
61 98 179
62 99 180
61 99 181
61 99 181
61 98 179
62 99 177
62 99 178
62 99 181
62 99 180
62 99 177
62 99 177
62 99 181
62 99 181
62 99 176
61 99 180
62 99 179
62 99 178
62 98 175
62 98 178
61 98 175
62 99 176
62 98 176
62 99 177
61 98 176
62 99 176
62 98 176
62 98 173
61 98 174
61 98 177
61 98 176
61 96 170
61 98 177
61 97 171
61 97 169
61 97 174
60 96 174
62 99 176
61 97 173
60 95 168
61 95 167
77 100 149
114 123 109
136 136 56
130 125 64
118 114 59
129 125 70
132 127 70
129 126 74
124 121 70
129 125 69
120 117 70
130 125 75
127 126 77
125 123 71
124 122 76
117 117 78
116 114 75
106 107 73
130 128 83
116 115 76
124 123 82
121 120 78
119 120 82
120 120 84
130 129 86
131 130 88
122 123 85
128 126 85
126 126 85
130 129 88
122 122 83
128 128 88
124 125 87
134 134 94
136 136 94
136 135 92
131 132 91
139 138 94
136 137 95
146 143 97
146 145 99
149 147 101
148 145 97
137 137 95
141 140 95
151 149 101
146 145 99
150 149 101
139 139 95
149 148 100
158 155 105
157 154 103
159 157 104
153 150 100
154 151 100
157 155 103
164 161 107
160 156 104
158 156 104
164 161 106
158 155 103
158 156 101
162 158 104
158 156 102
166 162 106
167 164 108
171 165 105
163 161 103
170 166 108
169 165 108
168 163 105
165 161 105
172 168 110
173 168 107
172 167 107
173 168 109
169 165 105
173 168 107
169 166 105
172 167 108
175 170 108
174 169 110
172 168 106
174 169 108
172 168 107
170 166 104
175 170 109
174 170 108
171 167 108
173 169 109
174 169 108
175 170 106
175 170 107
176 170 106
177 171 110
175 171 109
173 168 108
174 170 108
173 168 105
176 171 109
176 170 105
173 168 106
174 169 103
175 170 106
170 166 101
170 165 106
174 170 109
172 167 105
174 168 105
173 168 103
174 169 108
172 166 103
168 164 102
169 165 100
169 165 103
167 162 98
165 160 99
171 165 104
170 165 102
176 169 107
168 163 100
168 164 101
166 160 97
168 163 99
168 162 99
170 163 101
161 157 97
165 160 93
160 153 89
164 158 98
169 163 97
155 150 85
166 160 99
157 152 90
152 147 87
159 152 90
159 153 90
164 157 95
168 162 97
167 160 93
155 150 85
155 148 83
157 150 83
155 149 85
150 144 85
154 148 84
156 150 80
156 149 85
144 139 75
150 144 79
144 139 74
154 148 75
145 139 73
138 132 67
141 135 67
139 133 70
148 149 58
150 154 56
152 163 41
159 176 25
165 183 22
169 191 16
173 196 0
173 196 0
174 197 0
172 196 0
173 196 0
171 196 0
173 197 0
171 194 0
173 197 0
172 196 0
174 197 0
173 196 0
173 196 0
176 198 0
172 195 0
174 196 0
170 193 0
173 197 0
173 196 0
173 196 0
170 194 0
173 197 0
174 197 0
174 197 0
174 198 0
172 195 0
175 198 0
174 198 0
171 194 0
172 196 0
170 194 0
172 196 0
171 195 0
174 197 0
175 198 0
174 197 0
171 194 0
172 195 0
172 196 0
173 196 0
174 197 0
173 197 0
174 197 0
173 197 0
174 197 0
174 198 0
173 196 0
175 198 0
169 193 0
170 193 0
173 196 0
173 196 0
173 196 0
172 195 0
174 197 0
174 197 0
172 195 0
171 195 0
175 198 0
173 197 0
169 193 0
172 195 0
174 196 0
170 193 0
173 196 0
173 197 0
171 195 0
172 195 0
172 195 0
171 195 0
173 196 0
172 196 0
174 197 0
171 195 0
174 197 0
171 195 0
171 195 0
172 196 0
169 192 0
172 195 0
171 194 0
171 194 0
173 195 0
171 195 0
173 195 0
173 195 0
172 195 0
173 196 0
170 194 0
171 195 0
170 194 0
172 195 0
172 196 0
168 192 0
174 197 0
171 194 0
174 198 0
174 197 0
173 196 0
172 194 0
169 192 0
172 196 0
173 196 0
171 195 0
172 194 0
171 194 0
174 197 0
170 194 0
172 194 0
149 173 92
94 123 153
74 107 165
62 99 176
62 99 175
62 99 177
62 99 175
62 99 178
61 98 177
62 99 176
62 99 179
62 99 177
62 99 174
62 99 180
63 100 179
62 99 178
62 99 180
62 99 179
61 98 175
62 99 181
62 99 177
62 99 180
62 99 181
62 99 181
62 99 180
62 99 180
62 99 180
62 99 179
61 98 180
62 99 181
62 99 181
61 99 180
62 99 179
62 99 180
62 99 179
62 99 181
62 99 181
62 99 181
61 98 180
61 99 179
62 99 181
61 99 181
61 99 181
61 99 181
62 99 181
62 99 181
62 99 181
62 99 181
62 99 181
61 98 180
62 99 181
62 99 181
61 98 181
62 99 181
62 99 181
61 99 179
62 99 181
61 99 180
61 99 180
62 99 181
62 99 181
61 99 181
62 99 181
61 99 181
62 99 180
62 99 181
62 99 181
61 99 181
62 99 181
61 99 180
62 99 181
61 99 181
61 99 181
62 99 180
62 99 181
61 99 181
61 98 179
62 99 181
61 99 180
61 98 180
62 99 181
62 99 180
62 99 181
62 99 181
61 98 180
62 99 180
62 99 181
62 99 180
61 99 180
62 99 177
61 99 181
62 99 181
61 98 179
62 99 180
61 98 180
62 99 177
62 99 178
62 99 181
62 99 178
62 99 181
62 99 178
61 98 176
62 99 178
62 99 180
62 99 176
62 99 178
63 99 180
62 99 177
63 99 180
62 98 178
62 98 176
62 99 176
61 98 176
62 98 176
61 97 173
61 97 174
62 99 175
62 99 174
61 98 175
62 98 174
62 98 174
61 97 172
62 98 174
61 97 173
62 97 169
62 98 172
60 96 166
60 95 161
60 94 165
61 96 167
77 99 144
115 121 111
140 137 66
123 120 54
125 122 64
113 110 60
111 109 62
119 116 70
127 125 76
124 121 77
102 102 65
121 119 72
115 114 70
125 122 75
122 121 81
114 113 73
122 122 79
108 109 74
116 116 79
128 126 79
114 113 74
128 126 80
119 120 84
124 124 85
115 116 82
123 123 84
110 113 81
118 118 82
128 127 86
118 118 82
125 125 86
133 133 91
126 125 86
124 125 89
142 140 93
134 134 94
136 136 94
141 140 96
145 144 97
140 139 95
142 140 95
151 149 97
142 140 95
145 143 97
148 147 99
148 146 96
149 148 101
149 148 97
158 155 104
152 150 100
158 156 103
160 157 105
152 150 100
161 158 105
158 156 102
163 160 105
162 159 103
158 156 103
164 161 104
159 157 105
164 161 104
166 162 106
166 161 106
166 163 108
163 161 104
163 160 104
165 161 106
164 161 105
166 163 106
167 163 104
172 168 110
165 162 102
165 162 105
168 164 106
169 165 106
171 167 106
174 169 108
172 167 106
172 168 106
170 166 104
174 169 108
175 171 110
173 168 106
171 167 108
175 169 106
175 169 105
174 169 108
173 168 108
175 170 108
177 171 107
173 169 107
176 171 110
172 168 104
173 168 104
174 168 104
173 167 103
172 167 104
175 170 108
173 169 105
175 170 107
172 167 105
170 166 106
173 168 104
171 166 103
174 168 104
174 169 105
172 168 107
176 169 106
177 171 104
175 169 107
170 165 101
171 165 106
171 166 101
175 169 104
171 166 101
169 163 102
173 166 102
170 164 101
167 162 101
165 159 98
166 161 92
167 162 97
168 163 97
168 161 98
166 161 98
165 160 90
163 158 95
167 161 95
169 163 100
165 158 96
169 164 98
164 157 94
162 157 95
161 155 88
159 152 87
165 159 93
160 154 93
159 154 93
160 153 92
159 153 85
160 155 87
153 147 80
158 152 85
156 150 83
154 149 84
154 148 87
155 149 80
153 148 84
143 137 76
142 136 75
139 133 74
136 130 66
145 139 73
148 141 78
144 139 72
143 142 60
147 150 64
153 163 39
160 175 34
164 184 19
168 188 22
171 195 0
172 196 0
173 197 0
172 196 0
170 194 0
174 197 0
175 198 0
174 197 0
172 196 0
175 198 0
171 195 0
174 197 0
173 197 0
174 198 0
172 196 0
175 198 0
172 195 0
173 196 0
173 197 0
173 197 0
171 195 0
174 197 0
173 196 0
173 197 0
172 196 0
173 197 0
173 196 0
171 196 0
172 195 0
172 195 0
172 197 0
175 198 0
174 198 0
172 196 0
175 198 0
174 197 0
173 196 0
171 194 0
173 197 0
174 197 0
171 195 0
170 194 0
173 197 0
171 194 0
172 196 0
172 196 0
174 198 0
175 198 0
172 196 0
173 196 0
173 196 0
172 196 0
168 193 0
172 196 0
172 196 0
173 196 0
172 196 0
171 195 0
174 198 0
171 195 0
174 198 0
171 194 0
173 197 0
173 197 0
172 195 0
173 196 0
172 195 0
171 194 0
173 197 0
173 195 0
172 195 0
169 192 0
172 195 0
174 197 0
171 194 0
173 195 0
173 196 0
173 196 0
173 196 0
175 198 0
171 194 0
174 196 0
170 193 0
173 197 0
175 198 0
172 195 0
172 195 0
171 194 0
174 196 0
173 197 0
172 195 0
171 194 0
173 196 0
172 195 0
172 196 0
173 196 0
172 195 0
170 194 0
172 195 0
173 196 0
171 195 0
169 193 0
172 196 0
170 193 0
173 196 0
171 194 0
170 192 0
171 195 25
154 178 82
108 135 142
68 103 171
62 99 174
62 99 173
62 99 178
62 99 177
62 99 177
62 99 178
61 98 177
62 99 175
62 99 176
62 99 176
62 99 177
61 99 177
61 98 178
62 99 180
61 98 176
62 99 179
63 100 179
62 99 180
62 99 178
61 99 180
62 99 180
62 99 180
62 99 178
62 99 179
62 99 179
62 99 181
62 99 178
61 99 179
62 99 180
62 99 181
62 99 181
62 99 181
61 98 180
61 98 180
61 98 179
62 99 181
62 99 181
62 99 181
61 98 180
61 98 180
61 99 181
61 98 180
62 99 181
62 99 181
61 98 179
61 98 180
62 99 180
61 99 181
62 99 181
61 98 180
61 99 180
61 99 181
62 99 181
62 99 181
61 99 181
61 99 181
61 99 180
62 99 181
62 99 181
62 99 181
62 99 179
61 99 181
61 99 181
62 99 180
61 99 181
62 99 181
62 99 180
61 99 180
62 99 180
62 99 180
61 98 180
62 99 181
61 99 181
61 99 179
62 99 181
61 99 181
61 98 181
61 98 179
62 99 181
62 99 181
62 99 181
62 99 179
62 99 181
62 99 181
62 99 180
62 99 179
62 99 181
62 99 178
62 99 180
63 100 181
61 99 180
61 99 181
62 99 179
62 99 180
61 98 180
63 100 181
62 99 181
62 99 177
61 99 179
62 99 180
62 99 179
62 99 178
62 99 176
62 98 177
62 99 179
61 99 178
62 99 178
62 98 175
62 98 175
62 99 179
62 99 177
61 98 177
62 99 177
62 98 175
62 99 175
62 99 179
62 98 171
61 98 176
61 98 174
61 98 174
61 98 175
61 97 170
62 98 176
62 97 169
62 98 171
61 97 170
60 95 167
60 96 169
61 96 169
73 98 147
111 117 103
129 124 67
106 104 59
126 122 73
116 113 63
124 122 73
118 116 67
122 119 72
124 122 77
115 115 72
114 112 68
113 113 76
112 112 70
109 109 69
108 109 75
103 104 74
122 122 83
120 121 82
120 119 81
115 115 78
115 116 80
114 113 79
127 126 84
123 124 85
122 122 83
130 130 89
116 118 83
125 125 89
136 134 90
123 123 86
132 132 93
133 132 91
134 134 93
137 136 95
125 124 86
128 128 88
136 136 93
131 130 90
143 141 96
146 144 99
136 135 95
137 137 94
143 142 96
150 148 100
152 150 100
142 142 96
153 151 100
139 138 95
157 154 103
150 148 99
156 154 103
163 159 103
153 151 103
150 147 99
157 155 102
158 155 103
158 156 102
154 152 100
159 156 103
163 160 105
158 155 100
168 164 107
169 164 102
169 165 106
167 162 104
168 164 105
173 168 109
169 166 108
167 164 109
169 165 106
168 165 105
172 167 108
170 166 107
170 166 107
170 166 108
173 169 110
172 168 108
175 170 110
173 169 107
173 168 105
175 170 109
174 169 107
175 169 110
172 168 107
178 172 109
174 169 108
173 168 103
171 167 107
175 170 109
174 169 108
176 171 109
178 172 107
172 167 105
177 171 108
172 167 103
174 169 103
176 170 106
176 171 108
176 171 108
172 167 100
171 166 104
174 168 107
172 168 103
175 169 104
173 167 102
170 165 101
169 164 101
172 167 103
173 167 106
173 168 104
168 164 99
170 165 101
174 168 103
168 163 97
169 163 100
170 165 102
169 164 102
165 160 97
168 162 98
168 162 99
167 161 97
162 157 90
167 161 96
169 163 98
164 157 91
170 164 98
163 157 93
161 155 91
166 160 96
170 163 99
161 155 93
156 149 90
162 155 89
158 153 87
164 158 91
163 156 90
155 149 84
155 148 81
161 154 86
160 153 84
153 146 82
163 156 87
150 145 81
152 146 78
150 144 80
147 140 77
151 145 73
148 141 76
144 137 72
141 135 74
147 141 73
146 140 70
146 141 73
139 139 57
150 155 56
151 160 49
156 171 32
162 180 28
168 190 0
172 196 0
175 198 0
172 196 0
173 197 0
174 197 0
173 197 0
175 198 0
172 195 0
174 197 0
168 193 0
173 196 0
173 197 0
175 198 0
176 198 0
172 196 0
175 198 0
172 196 0
175 198 0
175 198 0
172 195 0
174 197 0
174 197 0
171 195 0
174 197 0
173 197 0
174 196 0
172 196 0
171 194 0
172 196 0
171 195 0
172 196 0
173 197 0
172 196 0
172 196 0
173 196 0
172 196 0
175 198 0
173 196 0
174 198 0
175 197 0
173 196 0
171 195 0
172 196 0
173 196 0
174 197 0
172 195 0
170 194 0
170 194 0
173 196 0
173 195 0
171 194 0
172 196 0
173 196 0
172 195 0
173 197 0
172 196 0
171 194 0
172 195 0
174 197 0
172 195 0
171 194 0
170 193 0
175 198 0
171 194 0
172 196 0
172 196 0
172 196 0
170 193 0
171 194 0
172 194 0
171 195 0
173 196 0
173 196 0
173 196 0
169 192 0
173 197 0
171 194 0
171 194 0
173 196 0
172 194 0
170 194 0
170 194 0
172 196 0
167 191 0
172 195 0
173 196 0
167 191 0
174 197 0
170 193 0
168 192 0
171 195 0
171 195 0
172 195 0
170 194 0
173 197 0
171 195 0
173 195 0
174 197 0
174 197 0
170 194 0
171 195 0
173 196 0
172 195 0
173 196 0
172 195 0
170 194 0
167 192 18
152 175 74
113 141 139
69 103 166
62 99 172
62 99 172
62 99 173
62 99 178
62 99 178
63 100 180
62 99 174
61 99 178
62 99 176
62 99 181
62 99 176
62 99 180
61 99 179
62 99 178
62 99 181
62 99 179
62 99 179
62 99 178
62 99 181
62 99 177
62 99 179
62 99 180
62 99 181
62 99 180
62 99 180
62 99 178
62 99 180
61 99 180
61 99 178
62 99 181
62 99 179
62 99 181
62 99 181
62 99 179
62 99 181
61 99 179
63 100 180
62 99 180
61 99 181
62 99 181
62 99 180
62 99 181
62 99 181
62 99 181
62 99 181
62 99 181
62 99 180
62 99 180
61 99 181
62 99 181
61 98 181
62 99 181
61 99 181
62 99 181
62 99 181
62 99 181
62 99 181
61 98 181
61 98 181
61 99 181
62 99 181
61 99 181
62 99 180
62 99 181
62 99 181
62 99 181
62 99 181
62 99 181
61 99 180
62 99 181
62 99 181
61 99 181
61 98 181
61 99 181
61 98 180
62 99 180
62 99 179
62 99 180
62 99 179
62 99 181
62 99 181
61 99 181
62 99 181
62 99 181
62 99 181
62 99 181
62 99 180
62 99 180
62 99 181
61 99 178
61 99 179
62 99 178
62 99 179
62 99 180
62 99 180
61 98 180
61 98 178
61 98 177
61 98 179
62 99 178
61 98 179
62 99 180
62 99 178
62 99 179
62 99 179
62 98 179
62 99 180
62 99 177
61 98 176
62 99 178
61 98 174
62 99 177
62 99 179
61 97 173
61 98 175
62 99 179
61 98 174
60 97 170
62 99 177
62 98 171
61 97 169
62 99 176
62 98 174
61 98 175
62 98 174
62 98 172
60 95 168
61 97 171
61 96 170
61 96 170
63 96 165
78 100 147
109 111 99
126 121 68
121 118 70
126 122 72
116 113 69
121 118 71
124 122 75
115 113 70
111 110 67
114 113 73
111 110 72
115 113 72
106 107 72
106 106 69
124 123 79
118 118 76
129 127 84
120 120 83
119 119 81
109 110 75
125 124 83
106 107 75
123 123 86
119 119 83
109 111 79
126 125 86
130 129 88
125 126 89
130 130 90
122 123 88
130 130 92
132 131 87
130 130 89
133 132 91
139 139 95
128 129 91
140 138 94
142 141 96
154 152 102
144 143 99
139 138 93
137 137 94
148 146 99
148 147 99
156 153 102
151 149 97
146 145 99
151 149 98
154 152 98
160 157 101
157 153 101
160 157 103
157 155 103
162 159 105
155 154 103
156 154 100
164 161 106
155 153 101
161 157 103
164 160 103
164 160 104
162 159 102
154 152 102
169 164 106
161 158 102
167 162 106
168 163 107
165 162 103
171 166 107
171 166 106
165 162 103
172 168 108
169 165 103
170 165 106
169 165 104
175 170 108
171 166 108
171 166 106
170 166 105
176 170 110
176 170 108
172 168 109
171 166 104
176 170 106
173 169 109
176 171 108
176 170 106
175 170 104
175 169 105
171 166 100
174 169 106
175 169 105
172 167 106
178 171 105
174 168 103
176 170 105
176 170 106
175 168 102
175 169 106
171 166 101
176 171 108
174 169 101
173 166 104
170 165 103
176 170 106
172 166 101
170 165 103
173 168 101
169 164 101
174 167 102
169 163 95
168 164 103
173 167 104
173 167 103
167 162 96
171 165 100
171 166 102
166 161 100
170 164 101
170 164 100
169 164 100
169 163 97
166 160 97
166 160 95
168 162 97
162 156 90
165 159 96
167 161 97
165 159 95
161 155 87
166 160 92
162 156 88
158 152 87
161 156 89
161 154 91
160 154 86
161 155 88
154 148 87
159 153 84
159 153 87
163 157 86
154 148 79
156 148 82
156 149 87
151 145 80
145 140 74
146 140 72
154 147 82
145 139 69
142 137 66
149 142 74
152 144 79
142 139 63
144 148 51
153 160 56
160 173 44
159 175 28
171 193 0
171 194 0
174 198 0
174 198 0
173 196 0
172 196 0
172 196 0
172 196 0
173 197 0
171 195 0
173 197 0
175 197 0
171 196 0
174 197 0
172 195 0
175 198 0
174 196 0
173 196 0
170 194 0
174 197 0
174 197 0
171 195 0
173 197 0
173 197 0
174 196 0
176 198 0
173 197 0
172 196 0
173 196 0
171 194 0
168 192 0
176 198 0
176 199 0
174 197 0
172 195 0
171 195 0
172 196 0
173 196 0
173 196 0
172 195 0
171 195 0
175 198 0
171 195 0
174 196 0
174 197 0
173 196 0
172 196 0
173 196 0
173 196 0
171 195 0
171 194 0
174 197 0
171 194 0
173 196 0
171 195 0
173 196 0
172 195 0
171 194 0
170 194 0
173 197 0
173 195 0
172 195 0
174 197 0
172 194 0
172 196 0
170 194 0
174 197 0
171 194 0
176 198 0
171 194 0
169 193 0
172 194 0
173 196 0
172 196 0
172 195 0
175 198 0
169 193 0
173 196 0
171 195 0
172 195 0
171 194 0
172 195 0
169 193 0
169 193 0
170 194 0
171 194 0
170 193 0
171 195 0
170 192 0
172 195 0
173 195 0
171 195 0
172 195 0
173 196 0
171 194 0
171 195 0
171 194 0
169 192 0
168 192 0
172 195 0
172 195 0
170 193 0
170 193 0
172 195 0
172 194 0
168 191 0
170 193 18
155 180 80
122 147 131
69 104 168
62 99 172
62 98 172
63 100 176
63 99 173
63 99 177
62 99 176
63 99 177
62 99 178
62 98 174
62 99 178
61 98 177
62 99 179
62 99 181
62 99 177
61 99 178
62 99 180
62 99 179
62 99 181
61 99 179
62 99 180
62 99 181
62 99 179
61 98 177
62 99 177
61 98 179
62 99 177
62 99 181
62 99 179
62 99 180
62 99 180
62 99 180
62 99 179
61 98 179
62 99 181
62 99 181
61 99 180
62 99 181
61 99 180
62 99 181
62 99 180
61 98 179
62 99 181
62 99 181
62 99 180
61 99 181
61 99 181
62 99 180
62 99 181
62 99 181
61 99 180
62 99 181
62 99 179
62 99 181
62 99 181
61 99 181
61 99 181
62 99 181
62 99 181
62 99 181
62 99 181
62 99 180
62 99 181
62 99 180
61 99 180
62 99 181
62 99 181
62 99 181
61 98 180
62 99 181
61 98 181
62 99 181
62 99 181
61 99 180
62 99 180
62 99 181
62 99 181
61 99 180
62 99 180
62 99 181
62 99 179
61 98 179
62 99 180
61 99 179
62 99 180
61 98 179
61 99 181
62 99 181
62 99 181
62 99 180
62 99 180
61 99 180
62 99 179
61 99 178
62 99 180
61 99 179
61 99 180
62 99 180
62 99 178
61 98 176
62 99 178
62 99 179
61 98 176
61 98 175
62 99 179
62 99 180
62 99 179
62 98 178
62 99 177
63 100 179
62 99 176
62 99 177
62 99 179
61 98 175
62 99 175
62 99 178
61 98 175
62 99 178
61 98 175
62 98 173
61 98 172
62 98 174
62 99 174
61 98 175
61 98 172
61 97 167
59 93 161
60 96 170
62 98 176
62 98 173
62 97 173
60 96 168
59 94 165
61 95 162
84 101 134
111 113 97
107 105 57
115 113 62
122 120 72
121 118 73
121 118 70
117 115 67
115 113 70
123 120 75
115 114 72
119 118 75
116 114 76
114 114 74
118 116 77
116 117 78
110 110 74
106 107 74
110 112 76
110 109 74
123 122 85
115 116 81
121 121 85
122 124 86
118 120 86
118 119 82
119 119 81
125 126 86
122 121 84
121 122 87
129 129 90
133 133 92
137 136 93
138 138 95
134 134 93
136 136 91
138 137 92
135 134 92
146 145 99
136 135 93
131 130 89
135 135 92
142 142 98
141 139 92
152 149 100
147 145 98
147 146 99
146 146 99
154 152 101
157 154 101
157 155 103
149 146 97
150 148 96
154 152 100
160 156 103
160 157 103
160 155 97
161 156 100
165 161 104
160 157 105
161 158 105
162 159 104
161 158 101
163 159 103
168 164 105
168 164 104
166 162 103
166 162 102
169 164 105
170 166 108
173 168 106
168 164 105
169 165 105
170 165 103
170 166 107
174 169 108
170 167 104
170 165 101
173 169 108
174 169 107
175 169 106
167 163 104
174 169 110
174 170 109
175 171 110
173 168 104
174 169 103
174 169 106
177 171 106
174 170 104
173 167 103
173 169 105
172 167 104
177 172 108
171 166 102
176 170 109
175 170 106
173 167 103
176 170 105
168 164 96
177 171 107
173 167 104
175 169 104
177 171 106
171 166 103
171 165 102
174 168 103
169 164 99
170 165 99
171 166 98
177 171 106
170 164 99
175 168 104
168 162 99
172 167 103
164 158 97
166 160 94
172 166 103
168 162 95
166 161 97
169 165 99
167 162 96
165 160 96
171 165 99
169 164 102
166 160 96
167 162 97
162 156 89
165 159 95
166 160 95
157 152 85
159 153 90
160 154 88
160 154 87
164 157 87
163 157 91
160 154 85
158 152 81
157 150 87
149 143 75
151 145 80
154 148 76
151 145 75
151 145 73
145 140 71
154 147 80
153 146 78
149 143 75
143 138 67
144 138 70
146 139 73
142 135 71
142 141 63
146 148 54
147 154 52
159 173 39
160 178 22
168 187 22
173 197 0
174 198 0
173 196 0
173 196 0
172 195 0
174 197 0
173 196 0
172 197 0
170 194 0
172 196 0
174 197 0
172 195 0
173 196 0
173 197 0
171 195 0
173 196 0
173 196 0
171 194 0
171 194 0
174 198 0
170 194 0
172 196 0
171 195 0
173 196 0
174 197 0
169 194 0
172 195 0
173 197 0
172 196 0
173 197 0
174 197 0
170 194 0
172 195 0
171 195 0
173 196 0
171 194 0
172 196 0
172 195 0
172 196 0
172 196 0
170 193 0
170 194 0
168 192 0
170 193 0
172 195 0
173 196 0
172 196 0
175 198 0
174 197 0
173 196 0
171 195 0
172 195 0
174 197 0
176 198 0
171 194 0
174 197 0
173 196 0
169 193 0
174 197 0
169 193 0
169 192 0
171 195 0
173 196 0
171 195 0
173 197 0
172 197 0
169 192 0
173 195 0
172 195 0
171 194 0
172 196 0
171 196 0
173 195 0
173 196 0
171 195 0
171 194 0
172 195 0
172 195 0
172 195 0
173 195 0
170 193 0
173 196 0
174 197 0
171 194 0
175 198 0
173 196 0
172 195 0
172 196 0
173 195 0
173 197 0
172 194 0
169 192 0
173 196 0
170 193 0
173 196 0
172 196 0
168 192 0
172 196 0
170 194 0
172 195 0
171 194 0
172 196 0
173 196 0
172 196 0
170 193 18
161 185 60
119 145 134
70 104 167
61 98 168
62 99 175
62 99 176
61 98 174
62 99 175
61 98 172
62 98 171
62 99 177
61 98 175
62 99 175
62 99 176
61 98 176
63 99 179
62 99 177
63 100 180
62 99 177
62 99 179
62 99 178
63 100 179
62 99 180
62 99 181
62 99 179
62 99 180
62 99 181
62 99 180
63 100 181
62 99 180
62 99 181
62 99 179
61 98 180
61 99 180
62 99 181
62 99 179
62 99 180
63 100 180
63 100 181
62 99 181
62 99 179
62 99 181
62 99 181
62 99 181
62 99 181
62 99 181
62 99 180
62 99 181
61 99 180
62 99 181
61 98 179
62 99 181
61 98 180
62 99 180
62 99 180
62 99 181
62 99 180
61 99 181
61 99 180
61 99 180
62 99 181
62 99 181
62 99 181
61 99 181
61 99 180
62 99 181
62 99 178
61 98 180
61 98 179
62 99 181
61 99 181
62 99 180
62 99 179
61 99 179
62 99 181
61 99 179
62 100 181
62 99 180
62 99 181
62 99 181
62 99 180
61 99 179
62 99 179
62 99 179
62 99 181
62 99 179
62 99 181
62 99 181
62 99 179
62 99 181
61 99 181
62 99 181
61 98 178
62 99 181
62 99 177
62 99 178
62 99 180
61 98 180
61 98 178
62 99 176
62 99 178
61 98 180
62 99 179
62 99 179
62 99 180
62 99 181
62 99 178
62 99 177
62 98 178
62 98 176
62 99 180
61 98 177
62 98 179
62 99 178
62 99 177
62 98 174
63 99 178
61 98 177
62 99 177
61 98 176
62 98 175
62 99 174
62 98 174
61 97 167
61 98 174
61 98 172
61 98 170
62 98 174
61 98 174
61 96 168
61 96 170
62 97 173
61 97 171
61 96 166
60 95 168
61 97 170
61 96 168
62 96 167
79 96 131
109 109 80
115 113 64
106 106 56
121 119 68
107 105 59
114 113 70
112 111 65
107 106 67
111 111 69
114 113 66
116 113 70
109 109 73
113 113 77
122 121 80
99 99 70
108 109 72
112 113 79
110 112 79
114 115 79
123 122 86
122 121 83
112 114 81
105 107 75
125 124 85
119 120 82
117 119 84
121 121 84
123 124 87
129 130 92
119 120 84
125 125 88
129 129 88
136 136 93
138 138 95
132 132 90
134 132 90
133 133 92
144 143 97
142 142 97
144 142 95
136 136 91
145 144 97
148 145 95
141 141 96
150 148 100
153 151 100
145 144 97
145 144 98
155 152 99
154 152 100
151 148 97
157 155 101
154 152 100
158 155 101
157 155 99
156 155 102
160 157 100
163 160 102
162 159 104
157 154 103
167 164 108
168 164 105
162 158 101
164 160 103
164 161 105
164 161 100
169 165 104
162 159 102
170 165 107
173 168 107
169 165 106
175 170 110
169 165 102
169 166 103
176 171 109
175 169 105
174 169 108
170 165 106
174 169 108
173 168 105
173 168 107
171 167 106
175 170 108
173 169 108
172 168 107
175 170 109
172 167 104
172 168 104
171 167 100
176 170 106
176 170 108
174 168 101
176 169 105
176 170 104
171 166 102
174 169 106
174 168 105
171 166 100
172 166 100
172 166 99
173 168 102
176 171 108
171 166 104
168 163 96
173 168 103
171 166 101
175 169 106
168 162 100
164 158 96
170 165 102
171 165 100
170 164 102
171 164 94
172 166 100
168 161 95
170 164 95
170 163 99
166 160 94
161 155 92
164 157 93
170 163 97
163 158 93
164 158 90
164 158 97
163 157 92
171 163 95
165 159 92
166 159 97
164 157 91
160 154 90
163 158 87
155 149 81
161 155 87
163 156 89
163 156 90
163 157 91
156 149 84
156 150 84
153 146 80
153 147 81
152 146 80
156 150 77
153 147 82
145 140 71
149 144 69
144 138 68
146 140 70
147 140 77
138 132 64
139 132 68
144 142 63
150 154 59
139 149 41
157 171 39
157 173 22
167 185 22
173 196 0
172 196 0
170 194 0
174 197 0
173 197 0
173 197 0
170 195 0
173 196 0
173 197 0
172 195 0
175 198 0
172 196 0
174 198 0
174 198 0
174 197 0
172 196 0
174 197 0
172 196 0
171 195 0
175 197 0
173 196 0
172 195 0
172 196 0
172 196 0
172 196 0
175 198 0
172 196 0
173 196 0
171 195 0
171 194 0
172 195 0
174 197 0
170 194 0
172 195 0
172 196 0
171 194 0
174 197 0
173 197 0
171 195 0
171 194 0
172 195 0
171 195 0
173 197 0
173 196 0
173 196 0
172 195 0
173 197 0
170 194 0
172 195 0
172 195 0
173 197 0
173 196 0
173 196 0
171 195 0
172 196 0
173 196 0
172 196 0
172 196 0
173 196 0
174 197 0
174 197 0
171 194 0
175 198 0
172 196 0
171 195 0
170 193 0
172 195 0
173 197 0
173 196 0
172 194 0
171 195 0
169 193 0
173 196 0
172 195 0
170 194 0
173 196 0
173 196 0
170 193 0
172 195 0
174 197 0
173 197 0
172 195 0
174 196 0
172 195 0
173 196 0
171 194 0
171 194 0
171 194 0
172 195 0
170 194 0
175 197 0
173 196 0
168 192 0
169 192 0
173 196 0
172 195 0
173 196 0
171 195 0
170 194 0
172 196 0
171 195 0
172 195 0
170 194 0
171 192 0
168 191 36
135 160 107
81 112 159
62 99 170
62 98 168
63 99 175
62 99 176
62 99 175
63 99 178
62 99 172
62 99 175
62 99 178
62 99 178
61 98 175
62 99 177
62 99 179
63 99 178
62 99 179
62 99 177
62 99 177
61 98 176
63 100 179
62 99 179
61 98 177
62 99 179
62 99 181
62 99 181
61 98 179
62 99 181
62 99 179
62 99 177
62 99 179
62 99 179
62 99 180
62 99 181
62 99 180
62 99 180
61 99 180
62 99 181
61 99 181
61 99 181
62 99 181
61 99 180
61 99 178
61 99 181
62 99 179
62 99 181
62 99 181
62 99 181
62 99 181
62 99 181
61 99 180
62 99 180
62 99 181
62 99 181
62 99 180
62 99 180
62 99 181
62 99 181
61 98 180
62 99 181
62 99 181
62 99 181
61 98 178
62 99 181
62 99 180
61 99 181
62 99 181
62 99 181
62 99 180
62 99 181
62 99 181
62 99 180
62 99 181
62 99 180
62 99 180
62 99 180
62 99 180
62 99 180
62 99 178
61 99 177
62 99 179
61 99 180
62 99 180
61 98 178
61 98 175
62 99 180
62 99 181
61 99 180
62 99 180
61 98 178
62 99 180
62 99 177
62 99 179
62 99 178
62 99 177
62 99 177
62 99 181
62 99 180
61 98 179
61 98 179
62 99 179
62 99 180
62 99 179
62 99 178
62 99 176
61 98 179
62 99 180
62 99 179
62 98 178
63 99 177
62 99 179
62 99 178
62 99 179
62 98 176
62 99 179
62 99 175
62 99 177
62 99 176
62 98 176
61 98 174
62 99 177
61 97 171
62 98 174
62 98 174
60 97 173
61 97 170
61 97 172
61 97 170
60 96 171
61 97 170
62 98 170
61 97 167
60 95 167
61 96 167
60 95 164
60 95 163
60 95 166
60 94 160
70 98 155
87 101 126
110 110 71
110 108 65
117 115 64
123 122 76
113 113 70
113 111 69
104 103 68
109 109 69
110 110 72
111 111 73
108 107 69
116 114 75
112 112 75
92 94 66
104 105 71
103 105 74
96 98 69
118 119 83
99 103 73
109 111 79
112 113 80
119 120 82
108 109 76
119 120 83
118 119 84
121 122 88
124 125 86
129 129 91
125 124 85
116 118 84
131 132 91
136 134 93
135 135 93
133 132 91
125 126 87
126 127 89
130 130 89
125 127 87
133 133 91
134 133 92
143 141 97
148 145 98
148 145 98
146 145 99
142 141 96
154 152 100
145 144 97
158 155 104
147 146 97
146 144 95
147 146 96
146 146 97
158 155 103
153 152 99
158 155 99
156 154 99
161 158 103
162 159 105
156 154 102
163 160 99
160 157 100
169 164 105
166 163 102
166 162 104
169 165 108
169 165 102
169 164 102
174 168 104
172 168 107
168 164 103
172 168 107
167 163 104
172 167 105
172 167 102
170 166 105
174 169 108
175 170 105
174 169 103
174 168 107
175 169 104
169 165 103
171 166 102
174 169 104
173 168 103
177 171 105
176 169 107
176 170 107
175 169 103
174 169 104
177 171 104
175 168 101
175 169 102
175 169 104
175 169 104
177 171 103
177 171 106
171 166 100
169 165 101
170 165 101
171 166 103
170 164 99
175 169 103
170 164 101
174 167 103
174 169 103
174 167 104
168 162 99
170 165 100
169 164 101
166 160 97
170 164 97
172 167 99
172 165 98
164 158 95
172 165 99
168 163 96
168 162 95
165 159 93
164 158 91
161 156 94
165 159 93
166 160 95
165 159 95
162 156 85
168 161 88
163 157 92
161 156 86
160 154 85
158 153 85
166 160 90
158 152 87
169 162 96
160 154 93
158 152 86
154 148 81
152 146 85
157 150 80
161 153 85
148 143 75
154 147 80
149 143 80
154 148 79
153 146 77
146 139 75
145 139 67
143 137 75
145 139 67
141 135 64
134 127 67
142 139 54
149 152 59
153 163 45
153 167 42
159 173 34
167 188 19
174 198 0
173 197 0
172 196 0
172 196 0
171 194 0
171 196 0
174 197 0
174 197 0
174 196 0
173 197 0
173 196 0
173 196 0
174 197 0
173 196 0
172 196 0
173 197 0
171 194 0
174 197 0
173 197 0
175 198 0
173 197 0
175 198 0
174 197 0
174 197 0
172 195 0
170 194 0
174 197 0
169 192 0
174 197 0
175 198 0
175 197 0
172 196 0
173 196 0
173 197 0
172 195 0
171 195 0
173 196 0
174 197 0
172 194 0
170 194 0
173 197 0
171 195 0
172 195 0
170 194 0
170 194 0
169 193 0
174 196 0
169 193 0
172 196 0
174 197 0
174 197 0
171 195 0
172 196 0
171 195 0
172 195 0
171 195 0
168 192 0
172 196 0
174 197 0
171 195 0
173 196 0
171 195 0
171 194 0
172 196 0
171 194 0
171 195 0
169 193 0
173 197 0
170 193 0
171 195 0
175 198 0
173 196 0
172 196 0
173 195 0
171 194 0
171 194 0
171 193 0
172 195 0
173 197 0
172 196 0
169 192 0
171 194 0
172 195 0
171 194 0
172 196 0
173 195 0
173 195 0
173 196 0
173 196 0
172 196 0
171 195 0
173 196 0
171 194 0
170 193 0
170 192 0
167 192 0
172 196 0
172 195 0
171 194 0
171 193 0
169 193 0
172 195 0
173 196 0
167 190 44
135 160 108
84 115 162
62 99 171
63 99 172
62 99 173
62 99 174
62 99 174
62 99 175
62 99 176
61 98 176
62 99 177
62 99 177
61 98 174
62 99 180
62 99 179
62 99 176
62 99 176
63 99 174
63 100 180
62 99 176
62 99 180
61 99 180
62 99 177
62 99 178
62 99 179
61 99 180
63 100 181
61 99 179
61 99 178
62 99 180
62 99 179
61 98 180
62 99 180
62 99 178
62 99 180
62 99 179
62 99 180
62 99 179
61 99 181
62 99 181
62 99 181
62 99 179
62 99 180
62 99 181
62 99 181
62 99 180
62 99 181
62 99 181
62 99 181
61 99 181
62 99 181
62 99 179
62 99 178
62 99 180
61 99 181
62 99 181
62 99 181
61 99 180
62 99 181
61 99 181
62 99 179
62 99 181
62 99 180
62 99 181
61 98 181
62 99 178
61 98 180
62 99 180
62 99 181
62 99 180
61 98 179
63 100 181
62 99 179
62 99 181
62 99 180
62 99 180
62 99 179
62 99 181
61 98 179
62 99 181
62 99 180
62 99 180
62 99 180
62 99 181
62 99 180
62 99 181
62 99 181
62 99 179
62 99 180
62 99 181
61 99 180
61 99 180
61 99 179
62 99 178
62 99 181
63 100 181
61 99 178
62 99 177
62 99 179
62 99 180
62 99 179
63 100 180
62 99 181
62 99 181
63 100 181
62 98 178
62 99 179
62 99 179
62 99 180
62 99 179
62 99 178
62 99 178
62 99 179
62 99 176
61 98 173
62 99 180
62 99 177
62 99 178
62 98 174
62 99 176
62 99 176
61 97 171
62 99 177
61 98 173
61 98 176
61 98 170
62 99 175
62 98 178
62 98 174
61 98 175
61 97 172
61 98 174
60 96 166
62 98 173
60 96 171
61 96 169
62 98 170
60 94 165
58 92 161
61 95 167
61 91 150
101 109 115
111 110 74
107 106 61
104 103 60
111 109 69
113 112 73
112 110 70
117 116 73
114 113 71
96 97 60
108 108 74
107 108 69
103 103 70
106 108 72
110 110 76
108 108 72
114 115 79
119 120 83
111 112 78
108 109 77
112 113 80
105 107 74
102 104 74
122 123 86
126 125 87
120 121 86
127 126 87
116 117 84
123 124 85
126 126 85
134 133 92
125 127 89
127 127 89
127 127 88
124 126 87
136 134 92
138 138 95
140 139 95
141 141 96
141 140 93
140 139 93
138 138 95
145 144 96
149 148 97
148 146 96
149 146 96
154 151 99
156 153 101
149 147 97
162 158 103
149 147 96
161 158 100
152 149 98
157 153 98
163 160 104
163 158 99
162 159 104
160 158 102
162 158 100
162 159 104
165 161 98
165 161 102
168 164 105
170 166 108
172 166 106
168 164 104
169 164 104
166 162 103
167 164 101
170 166 106
165 161 99
171 167 107
171 166 102
170 166 103
177 171 108
173 168 103
171 166 106
174 168 104
176 170 108
174 168 105
176 170 107
176 170 105
176 170 108
177 170 103
175 169 105
174 169 103
173 168 104
175 170 105
174 169 104
175 169 105
176 170 108
174 168 100
173 167 103
171 166 101
176 170 104
176 169 101
177 170 104
173 168 103
173 168 101
168 162 97
175 169 103
172 166 98
171 166 99
173 166 103
174 167 99
170 165 99
167 162 101
172 166 102
169 164 92
166 160 92
172 166 99
170 164 95
171 164 99
168 163 95
168 162 97
169 163 94
170 164 96
168 161 95
167 161 95
170 164 97
165 158 93
161 156 93
170 164 99
164 158 93
162 156 83
164 158 90
166 160 93
165 158 92
166 159 95
164 158 84
168 160 90
152 146 82
161 155 85
155 148 78
158 152 83
165 158 88
154 149 85
163 156 86
147 140 77
148 142 77
153 147 76
143 138 70
150 143 77
147 142 72
144 138 64
144 139 71
143 137 70
141 135 68
136 130 62
135 133 54
145 149 49
146 155 42
163 177 36
164 178 28
169 189 16
174 196 0
173 196 0
172 196 0
174 197 0
172 196 0
173 197 0
173 196 0
173 196 0
173 196 0
174 197 0
173 196 0
172 195 0
174 198 0
175 198 0
173 196 0
172 196 0
173 196 0
174 197 0
172 194 0
174 197 0
172 195 0
174 197 0
172 195 0
174 197 0
174 198 0
171 194 0
173 196 0
173 196 0
174 198 0
172 195 0
172 195 0
174 197 0
173 197 0
173 196 0
172 195 0
172 195 0
171 194 0
171 195 0
174 197 0
175 198 0
170 194 0
173 196 0
173 197 0
173 196 0
172 195 0
175 198 0
173 197 0
172 195 0
170 193 0
171 195 0
171 195 0
172 195 0
171 195 0
172 196 0
173 197 0
171 194 0
172 196 0
173 196 0
172 196 0
170 194 0
173 196 0
170 194 0
173 196 0
171 195 0
172 195 0
173 195 0
171 195 0
173 196 0
168 193 0
172 195 0
172 196 0
172 196 0
170 194 0
170 193 0
170 193 0
170 193 0
168 192 0
170 193 0
171 194 0
170 194 0
172 195 0
169 192 0
171 194 0
173 196 0
174 197 0
168 192 0
172 196 0
171 195 0
169 193 0
168 191 0
171 195 0
173 196 0
170 193 0
173 196 0
168 191 0
170 193 0
171 194 0
173 196 0
174 197 0
172 196 0
171 195 0
170 194 0
168 191 25
145 168 90
90 120 149
65 101 173
62 98 168
61 98 170
61 98 168
62 99 176
63 99 174
62 99 174
63 100 178
62 99 176
62 99 179
62 99 176
63 100 174
62 99 172
62 99 177
62 99 175
62 99 177
61 98 177
62 99 177
62 99 177
62 99 179
61 98 174
62 99 180
62 99 178
62 99 180
61 99 180
61 98 177
62 99 180
62 99 181
62 99 181
62 99 181
62 99 179
62 99 179
62 99 181
62 99 181
62 99 179
62 99 181
62 99 179
61 98 177
62 99 181
62 99 180
62 99 180
62 99 180
63 100 180
62 99 180
62 99 180
62 99 181
62 99 181
62 99 181
61 99 180
62 99 180
62 99 180
61 99 181
62 99 181
62 99 179
61 99 181
61 99 180
61 98 178
62 99 179
62 99 181
62 99 181
62 99 179
62 99 180
61 99 180
62 99 179
62 99 181
62 99 181
61 99 181
61 99 180
61 99 179
62 99 181
61 99 181
63 100 181
62 99 181
62 99 180
62 99 177
62 99 180
61 99 179
62 99 179
62 99 180
62 99 180
61 99 178
62 99 178
62 99 177
61 99 180
62 99 180
61 98 179
61 98 179
62 99 178
62 99 178
62 99 181
62 99 180
62 99 180
62 99 181
61 98 178
62 99 179
62 99 180
62 99 180
62 99 181
62 99 179
62 99 180
62 99 180
61 98 178
62 99 178
61 99 179
62 99 180
62 99 176
61 98 177
62 99 177
62 99 179
61 98 178
62 99 177
63 99 180
62 99 176
62 99 179
61 98 176
62 98 175
62 99 176
62 98 175
62 98 174
62 99 176
62 99 176
63 99 179
61 98 173
61 98 176
61 98 173
61 98 175
62 98 174
62 98 172
61 97 172
61 97 173
62 97 170
61 98 174
62 99 173
61 96 169
61 97 168
61 96 169
61 96 169
61 96 166
60 94 162
58 91 157
66 92 145
91 97 93
114 113 67
104 104 69
105 105 64
105 104 66
104 103 65
114 112 72
102 101 66
90 93 65
102 103 70
100 101 68
109 110 77
106 106 72
112 111 77
107 108 75
99 101 71
114 115 79
103 103 69
107 108 77
102 104 75
116 117 83
112 112 77
105 107 75
112 114 80
116 117 82
125 124 86
115 117 84
127 127 90
120 122 87
123 124 85
127 127 88
132 131 90
132 132 91
129 129 87
138 137 93
133 134 92
138 138 96
145 142 94
137 137 95
138 137 89
144 143 93
147 145 96
151 149 99
154 152 99
145 143 96
145 144 95
144 143 93
147 146 99
149 147 98
158 155 103
158 154 98
149 148 96
158 154 98
158 155 99
157 154 98
169 164 104
155 152 97
159 157 100
161 157 102
166 162 105
169 165 107
166 162 103
164 159 99
167 162 100
172 167 108
169 164 104
168 165 105
170 166 105
161 158 100
169 165 101
167 163 103
169 165 103
169 165 104
178 171 108
173 168 103
174 168 107
176 170 109
172 167 104
173 168 104
176 170 104
172 167 106
177 171 107
170 165 100
170 166 104
175 169 103
175 170 106
174 168 105
172 167 101
173 168 103
174 168 102
175 169 104
176 170 104
175 169 108
171 166 102
176 170 104
172 166 104
174 167 99
175 170 104
171 165 98
172 167 103
172 167 97
170 166 97
174 168 103
172 167 102
168 161 97
174 168 99
174 167 103
174 167 101
170 165 101
174 169 101
166 161 95
168 162 95
172 166 99
168 163 99
166 160 97
170 164 98
168 161 98
163 157 90
170 164 93
168 162 93
170 162 95
168 161 96
169 163 97
154 148 80
164 159 90
170 163 96
163 156 92
161 155 90
161 155 87
155 149 85
160 154 88
165 158 87
150 144 78
161 154 87
154 148 84
164 157 87
150 144 76
156 149 84
147 141 72
153 148 77
144 140 65
143 137 74
144 138 70
142 137 77
150 144 72
145 140 69
142 137 62
134 128 65
139 135 60
137 139 51
150 159 47
158 171 36
155 172 34
162 181 22
172 194 0
174 197 0
171 194 0
173 196 0
175 198 0
173 197 0
173 197 0
173 196 0
170 195 0
173 197 0
171 195 0
174 196 0
172 196 0
172 196 0
172 196 0
173 196 0
173 196 0
171 195 0
172 196 0
173 197 0
174 197 0
173 197 0
174 197 0
173 196 0
173 197 0
171 195 0
171 195 0
173 196 0
174 198 0
172 196 0
173 197 0
173 196 0
173 196 0
171 194 0
170 194 0
174 197 0
172 195 0
171 195 0
173 196 0
173 196 0
174 197 0
173 196 0
172 195 0
172 195 0
171 194 0
170 194 0
175 198 0
171 193 0
173 197 0
172 196 0
169 192 0
174 196 0
172 196 0
171 195 0
173 196 0
171 194 0
171 194 0
172 195 0
172 195 0
172 195 0
170 194 0
171 194 0
171 195 0
174 197 0
170 193 0
170 193 0
168 191 0
169 192 0
173 195 0
166 191 0
169 193 0
169 192 0
169 192 0
169 193 0
170 194 0
173 196 0
171 193 0
172 195 0
172 195 0
171 194 0
172 195 0
170 193 0
169 192 0
170 193 0
173 196 0
168 192 0
172 195 0
171 194 0
172 195 0
173 196 0
172 195 0
170 193 0
171 194 0
171 196 0
170 193 0
171 193 0
169 192 0
168 192 0
171 194 0
170 193 0
171 194 0
171 194 18
157 180 74
111 137 136
64 100 166
63 99 172
62 99 167
62 99 178
62 99 171
62 99 175
62 99 176
62 99 174
62 99 177
62 99 175
62 99 177
62 99 177
62 99 172
63 99 175
61 98 173
62 99 175
62 99 179
62 99 179
62 99 177
62 99 178
62 99 181
62 99 178
63 100 181
62 99 178
62 99 177
62 99 180
62 99 179
62 99 179
62 99 179
62 99 180
61 98 178
61 99 179
62 99 181
62 99 181
62 99 178
62 99 180
62 99 181
62 99 178
62 99 181
62 99 181
61 99 179
62 99 180
62 99 179
62 99 181
62 99 181
62 99 180
62 99 180
62 99 178
62 99 180
62 99 181
62 99 180
62 99 180
62 99 179
62 99 180
62 99 180
62 99 181
62 99 181
62 99 179
61 98 180
61 99 179
62 99 181
62 99 179
61 98 178
62 99 180
61 99 179
62 99 180
62 99 179
61 99 179
62 99 180
61 99 180
62 99 179
62 99 180
62 99 180
62 99 180
62 99 179
62 99 181
61 98 180
62 99 181
61 98 177
62 99 180
62 99 181
62 99 180
62 99 179
62 99 179
61 99 180
62 99 180
61 99 179
62 99 179
61 98 180
62 99 179
62 99 177
62 99 178
61 99 181
62 99 180
62 99 179
62 99 181
62 99 177
62 99 177
62 99 178
62 99 180
63 100 180
62 99 179
62 99 180
62 99 178
61 98 175
62 99 180
62 99 179
62 99 179
62 99 177
62 99 177
62 98 175
62 99 175
62 99 177
62 99 173
62 99 180
63 100 177
62 98 172
61 98 175
62 99 176
61 98 173
61 98 178
62 98 172
61 98 171
62 99 176
62 98 174
61 98 174
62 98 172
62 98 175
62 99 175
61 98 174
60 95 164
62 99 176
61 97 173
61 96 169
61 98 169
61 97 169
61 96 166
61 97 170
62 98 175
60 96 169
59 94 159
62 95 160
69 95 148
102 106 99
103 103 57
105 104 63
103 102 65
94 96 63
108 107 69
104 104 69
100 100 61
97 100 70
99 100 68
101 102 71
93 96 70
101 101 69
106 107 75
94 97 71
101 103 72
120 120 82
112 113 79
111 112 80
100 103 76
90 94 68
113 114 80
109 113 81
129 129 89
119 121 85
119 120 82
126 126 87
120 120 85
114 117 84
126 127 88
130 131 89
131 132 90
124 125 86
135 134 90
139 138 95
136 136 89
142 140 94
141 140 96
145 143 92
147 145 95
146 145 93
145 143 94
150 148 99
148 146 98
148 145 95
148 146 99
155 152 99
164 160 101
150 148 97
150 149 95
158 156 101
159 156 103
161 158 103
161 157 104
165 162 104
159 155 100
167 162 105
161 158 99
167 163 105
156 153 100
170 165 105
170 165 104
167 163 105
160 158 99
171 166 103
169 164 103
167 163 101
168 164 105
171 166 106
169 164 103
172 167 101
169 164 103
173 169 106
174 169 107
172 167 103
174 168 105
175 170 107
175 169 106
173 168 106
170 166 99
177 171 108
175 170 108
174 168 105
172 167 101
175 168 104
172 168 103
175 170 103
174 169 103
177 171 107
173 168 103
175 169 99
173 168 104
169 164 98
176 170 104
174 168 102
173 168 99
174 168 102
171 165 100
172 167 103
172 167 99
170 165 99
175 168 101
173 168 101
172 165 101
178 170 103
170 164 98
169 164 103
177 170 103
168 163 94
172 166 99
167 161 93
170 163 93
160 155 87
165 160 92
166 161 97
167 161 94
170 164 96
164 159 93
164 159 87
170 164 97
162 157 92
161 155 84
167 161 93
158 152 87
169 162 91
161 155 90
160 153 87
161 155 86
157 151 83
160 152 86
162 157 89
159 153 86
151 144 79
159 152 84
152 146 75
148 142 75
155 148 78
155 147 82
152 146 74
156 149 80
148 143 73
146 139 74
146 140 67
134 129 61
137 132 62
135 129 62
148 142 69
138 135 60
137 141 47
154 163 47
157 171 28
159 175 28
169 188 16
172 195 0
172 196 0
174 197 0
173 196 0
172 196 0
172 196 0
174 197 0
174 197 0
174 198 0
174 197 0
175 197 0
171 195 0
172 196 0
173 196 0
173 196 0
169 192 0
171 194 0
173 196 0
171 196 0
174 196 0
170 194 0
172 195 0
172 195 0
173 195 0
173 197 0
175 197 0
172 196 0
173 197 0
173 196 0
173 197 0
173 197 0
170 195 0
169 193 0
170 194 0
171 195 0
172 195 0
172 195 0
172 196 0
171 195 0
173 196 0
165 189 0
170 193 0
174 198 0
172 196 0
174 197 0
174 197 0
171 193 0
171 194 0
173 197 0
171 195 0
173 196 0
173 195 0
173 197 0
169 192 0
171 194 0
176 198 0
174 197 0
173 197 0
169 193 0
173 196 0
174 197 0
171 195 0
172 196 0
173 196 0
172 195 0
172 196 0
171 195 0
171 195 0
170 194 0
173 196 0
170 193 0
169 193 0
170 194 0
169 193 0
172 194 0
173 196 0
170 194 0
174 197 0
167 190 0
169 191 0
172 195 0
171 196 0
173 196 0
169 192 0
171 193 0
169 194 0
171 194 0
172 195 0
171 194 0
169 193 0
169 193 0
170 193 0
172 195 0
172 194 0
169 192 0
170 193 0
172 195 0
172 196 0
169 192 0
172 195 0
171 194 0
159 183 54
126 152 121
69 104 170
62 99 172
62 99 174
63 99 174
62 99 171
61 98 174
62 99 176
63 99 176
63 99 176
62 99 175
62 99 174
62 98 174
63 100 176
62 99 177
62 99 173
62 99 178
62 99 175
62 99 176
61 98 175
62 99 178
62 99 180
62 99 179
62 99 174
62 99 180
62 99 176
63 100 181
62 99 180
61 98 178
62 99 179
62 99 179
62 99 180
62 100 181
61 99 179
63 100 180
61 99 181
62 99 180
62 99 180
62 99 180
62 99 179
62 99 180
62 99 180
62 99 179
62 99 180
62 99 180
61 98 178
62 99 181
62 99 180
62 99 181
62 99 180
62 99 179
61 98 180
62 99 181
62 99 180
61 98 179
62 99 181
62 99 180
61 99 178
62 99 181
62 99 181
62 99 181
62 99 180
62 99 180
62 99 180
61 99 179
62 99 179
61 99 179
62 99 181
62 99 180
61 99 180
62 99 179
62 99 181
63 100 179
62 99 181
62 99 180
61 99 180
62 99 180
62 99 181
62 99 180
61 99 181
62 99 179
62 99 180
62 99 180
62 99 181
62 99 181
62 99 181
61 99 181
62 99 180
61 98 178
62 99 180
62 99 179
62 99 179
62 99 178
62 99 180
62 99 177
62 99 180
62 99 181
62 99 176
62 99 181
62 99 177
62 99 177
61 98 178
63 99 180
62 99 179
62 99 180
61 98 178
62 99 178
62 99 178
63 99 177
62 99 178
61 98 177
62 99 177
62 99 176
61 98 177
62 99 178
62 99 176
62 99 175
62 99 177
62 98 174
62 98 173
62 99 179
62 99 178
62 98 172
61 97 173
62 99 178
63 99 175
62 98 172
62 98 173
62 99 175
62 99 174
62 98 175
62 98 172
60 96 168
61 97 172
62 98 175
61 97 167
61 96 167
61 97 167
60 96 164
61 97 170
61 96 168
61 96 161
59 94 162
61 96 169
58 91 155
87 102 129
98 99 72
103 102 62
89 90 54
92 93 58
88 89 61
106 106 73
87 89 58
87 89 60
100 101 69
104 105 75
96 98 68
97 99 71
93 94 65
102 106 75
94 98 72
99 101 73
113 114 81
105 108 78
109 110 77
110 111 77
110 112 81
108 110 77
106 109 78
113 114 81
114 116 81
114 116 82
131 131 90
120 120 83
118 119 82
121 122 84
122 123 88
129 128 87
127 128 88
135 134 88
135 135 92
140 139 95
138 138 92
138 137 92
138 138 95
143 142 94
147 144 95
143 142 92
143 141 94
148 147 96
148 146 93
153 151 97
160 156 101
153 150 97
155 153 95
159 156 100
163 159 102
158 154 98
147 145 92
161 157 97
161 157 98
161 157 98
168 164 103
164 160 103
167 163 100
155 152 96
163 159 100
164 161 99
170 164 102
165 161 102
165 161 100
167 163 96
168 164 101
168 163 103
171 165 103
167 163 103
173 168 103
172 167 102
173 168 101
169 165 102
172 167 100
176 170 105
169 165 102
176 170 106
176 170 104
177 172 108
174 169 105
175 169 102
172 167 103
170 166 99
178 171 106
177 170 103
177 171 105
176 170 104
174 168 102
173 168 98
175 169 104
175 170 108
171 166 99
173 167 100
175 169 103
175 169 101
171 165 99
173 167 101
174 168 99
175 169 102
172 167 102
167 162 99
176 169 100
173 166 95
175 168 100
165 160 94
169 163 100
172 166 99
171 164 99
170 163 95
170 164 96
166 159 93
163 157 91
168 162 93
173 165 95
167 161 95
164 158 91
168 162 91
164 158 86
164 158 90
166 160 87
159 154 89
164 157 87
156 150 86
163 156 91
160 154 87
161 154 87
157 152 84
160 154 87
161 155 85
160 152 81
154 149 80
157 151 85
153 146 79
144 138 68
151 145 80
153 146 75
150 144 72
154 146 81
150 143 71
151 145 75
148 143 75
144 138 66
147 141 70
137 131 66
145 138 73
142 138 64
153 157 56
151 161 41
157 171 37
161 177 28
167 187 19
173 197 0
174 197 0
172 195 0
175 198 0
172 196 0
172 196 0
172 196 0
173 197 0
173 197 0
173 196 0
171 195 0
172 196 0
171 195 0
172 196 0
170 193 0
174 197 0
175 198 0
172 195 0
172 196 0
173 196 0
174 197 0
174 197 0
173 196 0
171 195 0
172 196 0
174 197 0
173 196 0
172 196 0
175 198 0
171 194 0
173 196 0
173 197 0
172 195 0
169 192 0
171 194 0
171 195 0
173 197 0
174 198 0
173 197 0
173 197 0
171 195 0
172 195 0
175 198 0
173 196 0
174 197 0
171 195 0
173 196 0
172 196 0
171 195 0
171 196 0
171 195 0
171 194 0
173 197 0
174 197 0
170 194 0
171 194 0
176 198 0
171 194 0
174 197 0
172 196 0
172 196 0
170 194 0
171 195 0
170 194 0
174 197 0
174 197 0
173 196 0
174 197 0
171 194 0
172 197 0
174 196 0
174 197 0
172 195 0
168 191 0
172 196 0
173 196 0
173 197 0
171 195 0
172 195 0
168 192 0
167 191 0
173 197 0
171 194 0
175 198 0
168 191 0
172 195 0
172 195 0
173 196 0
171 193 0
173 196 0
168 192 0
169 192 0
169 193 0
173 196 0
169 192 0
169 193 0
169 193 0
171 195 0
172 196 0
169 193 0
165 188 44
137 161 105
71 105 162
62 99 168
62 99 169
62 99 173
62 98 171
63 99 176
62 98 170
62 99 173
62 99 176
62 99 177
61 98 173
63 100 176
62 99 176
62 99 174
63 99 177
61 99 178
61 98 177
61 98 175
61 99 180
62 99 176
62 99 180
62 99 177
62 99 178
63 100 181
62 99 179
62 99 180
62 99 178
62 99 181
62 99 178
62 99 180
62 99 176
61 98 179
62 99 177
62 99 178
63 100 179
62 99 179
62 99 180
62 99 178
62 99 181
62 99 179
62 99 181
62 99 179
62 99 179
61 99 181
62 99 180
62 99 181
63 100 181
61 99 179
61 99 181
62 99 179
61 99 181
61 99 180
62 99 181
62 99 180
63 100 181
62 99 180
62 100 181
62 99 181
62 99 179
62 99 181
62 99 179
62 99 181
62 99 179
61 98 180
62 99 180
61 99 180
62 99 180
62 99 181
62 99 179
62 99 179
62 99 180
61 99 181
62 99 178
62 99 180
62 99 180
61 98 180
61 99 180
62 99 178
62 99 179
62 99 180
62 99 177
62 99 180
62 99 180
62 99 180
63 100 181
61 98 179
62 99 180
62 99 178
61 99 181
61 99 179
62 99 180
63 99 179
62 99 180
62 99 179
62 99 176
62 99 179
62 99 179
62 99 180
61 98 179
62 99 177
62 99 174
63 100 180
62 99 179
62 99 175
62 99 180
62 99 180
62 99 181
62 99 178
62 99 178
62 99 178
62 99 176
62 98 175
62 99 177
62 98 175
61 98 177
61 98 176
61 98 174
63 99 177
62 99 177
62 99 177
62 99 177
61 98 171
63 99 179
61 98 171
63 99 178
62 98 174
62 99 176
62 98 174
62 98 171
61 97 172
62 98 175
61 98 174
62 99 174
62 99 173
61 97 167
61 96 165
61 97 168
62 98 173
61 97 171
60 96 166
60 95 166
61 96 170
60 96 165
60 95 162
59 93 157
63 94 154
75 91 119
98 98 67
90 91 60
92 92 58
98 98 63
109 108 73
103 104 69
96 97 65
111 111 74
94 96 65
94 95 66
92 94 66
102 103 68
103 105 73
85 89 67
102 105 74
99 101 72
108 109 78
95 99 70
103 106 77
113 113 77
129 128 88
107 109 78
99 103 74
115 116 82
125 125 85
121 120 82
124 125 88
122 123 83
123 124 85
123 124 86
122 122 85
122 124 86
143 142 95
126 126 84
137 136 92
139 138 91
141 139 94
137 138 92
143 142 94
145 143 96
145 144 95
142 141 91
139 138 92
153 149 98
151 149 93
151 148 96
156 153 98
152 149 98
160 156 98
149 148 97
155 151 97
154 152 95
158 154 95
158 155 99
163 159 102
163 159 100
166 162 102
167 162 103
166 162 101
159 156 98
166 162 99
169 165 103
165 161 101
169 164 105
166 162 99
171 165 101
167 164 101
169 163 102
174 169 103
168 163 101
171 167 101
175 169 104
173 168 103
170 166 104
174 169 103
170 164 100
174 168 100
174 168 103
169 165 99
176 170 105
176 169 101
175 169 103
172 166 98
172 167 104
177 170 103
175 169 102
175 170 105
172 166 96
173 168 105
174 168 99
175 169 103
175 169 101
171 165 97
176 170 104
173 167 98
168 162 93
176 170 101
175 168 102
174 168 100
170 164 97
174 167 95
174 167 99
171 164 97
175 169 102
172 165 97
171 165 99
165 161 96
170 163 95
169 162 94
165 159 93
161 156 89
167 161 92
170 163 97
168 162 87
165 159 96
167 161 96
169 162 93
163 156 91
161 156 84
162 155 87
163 157 90
165 158 93
164 158 90
163 156 87
163 156 91
169 162 94
156 151 82
163 157 85
157 151 82
158 152 83
155 149 80
148 142 80
152 146 76
152 146 75
147 141 74
147 141 73
146 140 71
153 147 75
148 141 75
149 143 74
153 146 80
131 125 67
144 139 58
138 133 61
134 128 61
143 141 64
143 143 54
152 160 42
157 170 32
162 176 30
167 187 19
174 197 0
175 198 0
173 196 0
173 196 0
174 198 0
172 195 0
172 195 0
174 197 0
170 194 0
175 198 0
171 195 0
174 197 0
170 194 0
170 194 0
171 194 0
173 197 0
172 195 0
171 195 0
171 196 0
173 197 0
171 195 0
170 194 0
173 195 0
172 195 0
172 195 0
175 197 0
172 196 0
172 195 0
173 196 0
174 197 0
170 193 0
174 198 0
172 195 0
171 194 0
172 195 0
172 195 0
174 197 0
172 195 0
171 195 0
171 194 0
172 195 0
173 196 0
172 196 0
173 197 0
173 196 0
168 192 0
173 196 0
172 196 0
173 196 0
169 193 0
171 194 0
172 195 0
171 194 0
171 195 0
166 190 0
173 197 0
173 196 0
172 195 0
171 194 0
174 196 0
169 192 0
172 195 0
172 195 0
170 193 0
168 191 0
173 196 0
171 194 0
173 196 0
173 196 0
173 196 0
169 193 0
175 198 0
175 197 0
173 196 0
169 192 0
174 196 0
169 193 0
173 196 0
174 197 0
168 192 0
173 196 0
172 194 0
171 194 0
172 194 0
173 196 0
167 190 0
171 194 0
171 194 0
171 194 0
173 195 0
173 196 0
169 192 0
171 194 0
169 192 0
171 193 0
169 193 0
168 192 0
170 194 0
172 195 0
173 196 0
149 173 82
93 123 154
64 99 171
62 99 173
63 100 176
63 99 171
62 99 173
62 99 175
63 100 176
62 99 177
62 99 174
62 99 174
62 99 178
62 99 176
62 99 174
62 99 175
62 99 179
62 99 180
63 100 178
62 99 177
62 99 179
62 99 173
62 99 178
62 99 175
62 99 179
63 99 178
62 99 179
62 99 175
62 99 180
62 99 180
62 99 178
62 99 177
61 98 176
62 99 180
62 99 180
61 98 180
62 99 181
62 99 181
62 99 179
62 99 180
62 99 179
62 99 181
62 99 178
62 99 181
62 99 178
62 99 180
62 99 180
62 99 178
61 99 181
62 99 180
62 99 181
61 99 179
62 99 181
61 98 176
62 99 180
62 99 180
61 99 181
62 99 180
62 99 180
62 99 180
62 99 180
62 99 180
61 99 179
61 99 180
62 99 179
62 99 180
62 99 179
62 99 180
62 99 179
63 100 181
61 99 181
61 99 179
62 99 180
62 99 179
62 99 181
62 99 181
61 99 180
62 99 181
62 99 179
61 98 179
62 99 180
61 98 177
62 99 180
62 99 179
61 99 180
62 99 181
62 99 178
62 99 179
62 99 178
62 99 179
62 99 180
62 99 180
62 100 181
61 99 179
61 99 181
62 99 179
61 99 179
62 99 180
62 99 178
62 99 181
62 99 180
62 99 177
62 99 177
61 98 176
62 99 180
62 99 178
62 99 178
62 99 177
62 99 178
62 99 179
62 99 179
61 98 176
63 100 178
62 99 177
62 99 178
62 99 180
62 99 176
62 99 175
61 98 175
62 99 178
62 99 178
61 98 176
61 98 176
62 99 178
62 99 173
62 98 175
61 98 174
62 99 174
62 99 175
61 97 171
62 98 174
62 98 172
62 99 174
63 100 179
62 98 174
61 97 170
62 98 176
61 97 172
63 99 175
61 96 166
61 97 172
62 98 171
60 95 161
61 97 164
60 96 167
60 96 164
61 96 166
60 94 161
58 88 141
89 98 102
88 90 59
92 94 58
102 101 64
85 88 57
96 97 65
91 91 62
93 94 62
85 89 63
99 100 71
100 101 69
96 98 69
85 88 63
101 103 72
96 99 71
94 96 69
109 110 75
104 106 75
103 106 76
93 97 72
108 111 78
118 120 84
112 114 80
109 112 79
118 119 82
112 115 82
126 127 88
130 130 89
126 126 85
116 118 83
127 128 87
123 124 83
133 133 87
129 129 87
138 137 93
133 132 90
148 145 96
135 135 92
141 140 94
143 140 91
134 133 89
139 138 92
147 146 96
149 147 94
155 152 98
148 146 94
152 149 94
149 147 91
155 152 98
150 147 97
158 154 96
158 154 95
154 151 94
160 156 101
162 158 97
158 154 98
160 157 102
163 159 97
160 157 93
167 163 104
167 162 100
168 164 102
168 163 102
171 166 100
166 162 101
168 163 101
165 160 97
171 166 100
167 163 101
167 163 99
171 166 104
169 164 98
173 167 102
171 166 101
174 169 104
175 169 104
175 169 100
177 171 105
176 170 106
170 165 99
172 167 98
172 167 100
175 169 102
173 168 102
178 171 104
177 171 106
173 167 101
177 171 104
174 167 100
176 170 107
176 169 100
176 170 103
174 168 99
173 167 97
175 169 102
173 167 98
174 168 100
172 166 100
176 170 101
169 164 95
169 163 97
172 166 101
167 162 95
170 164 97
172 166 101
161 156 88
171 164 98
169 162 95
168 162 95
172 165 96
168 162 92
166 160 94
171 165 97
173 166 97
168 162 96
164 158 94
161 155 86
163 156 90
163 156 90
156 151 87
162 156 87
161 154 86
164 157 87
156 150 80
164 157 93
164 158 85
159 152 84
160 153 84
155 149 83
156 150 75
152 147 82
153 146 79
152 147 71
150 144 75
153 146 78
150 144 70
155 148 75
153 147 75
146 140 75
153 147 70
143 138 71
149 143 70
146 141 66
129 123 61
138 132 64
142 139 60
142 146 49
148 157 42
156 167 36
161 178 22
167 186 22
172 196 0
174 198 0
173 196 0
173 196 0
173 196 0
170 195 0
174 198 0
173 197 0
173 197 0
172 195 0
171 195 0
171 195 0
171 195 0
171 195 0
170 194 0
173 195 0
171 194 0
173 196 0
171 194 0
171 194 0
174 197 0
174 197 0
174 197 0
170 193 0
170 193 0
172 196 0
173 196 0
172 196 0
170 193 0
172 196 0
174 197 0
173 197 0
173 197 0
172 196 0
173 196 0
173 197 0
175 198 0
172 195 0
171 195 0
171 194 0
172 196 0
172 196 0
172 195 0
173 196 0
173 197 0
171 194 0
173 197 0
169 192 0
173 196 0
172 195 0
171 195 0
171 194 0
174 198 0
173 196 0
174 197 0
172 195 0
169 193 0
171 195 0
174 197 0
172 195 0
170 194 0
173 196 0
170 193 0
172 196 0
173 196 0
172 195 0
171 195 0
169 193 0
172 196 0
173 197 0
171 194 0
171 194 0
169 192 0
173 197 0
170 195 0
170 194 0
172 196 0
169 193 0
171 194 0
172 195 0
169 193 0
172 196 0
170 193 0
170 193 0
171 194 0
171 194 0
170 193 0
170 192 0
172 195 0
174 197 0
171 194 0
174 197 0
170 193 0
168 190 0
170 194 0
170 193 0
168 193 0
170 192 0
172 196 0
163 187 60
107 136 142
71 105 169
62 99 171
62 98 169
62 99 174
62 99 173
63 100 177
62 99 175
62 99 174
63 99 178
63 99 174
61 98 170
61 98 172
62 99 177
62 98 174
62 98 171
62 99 180
63 100 179
62 99 178
63 100 181
63 99 176
62 99 177
62 99 178
62 98 173
62 99 178
62 99 178
62 99 178
62 99 173
62 99 178
63 100 181
62 99 181
62 99 179
62 99 179
62 99 180
62 99 179
62 99 179
62 99 180
62 99 178
62 99 179
61 98 179
62 99 178
61 99 181
62 99 180
63 100 181
62 99 179
62 99 178
61 99 179
62 99 181
62 100 181
61 99 180
62 99 178
61 98 178
62 99 178
62 99 180
62 99 180
62 99 181
62 99 179
61 98 179
62 100 181
62 99 179
62 99 180
62 99 181
61 98 178
62 99 181
62 99 180
62 99 181
62 99 181
62 99 181
62 99 180
62 99 180
62 99 180
62 99 179
61 99 179
62 99 181
62 99 178
62 99 177
62 99 180
62 99 179
61 98 176
62 99 179
61 99 178
62 99 181
62 99 180
62 99 181
62 99 179
62 99 180
63 99 179
61 98 180
62 99 180
62 99 180
62 99 179
62 99 178
61 98 177
63 100 180
62 99 178
62 99 178
62 99 181
62 99 179
61 98 178
62 99 178
62 99 180
62 99 177
62 99 180
62 99 178
62 99 176
62 99 178
62 99 177
62 99 177
61 98 176
62 99 179
62 99 181
62 99 179
62 99 174
62 99 175
62 99 178
62 99 176
62 98 178
62 99 178
63 99 174
62 99 178
62 98 174
62 99 174
61 98 174
62 99 176
61 98 175
63 99 177
62 99 177
62 99 177
62 99 174
62 98 175
62 99 174
61 98 172
61 98 172
62 99 176
61 97 168
62 98 171
62 98 174
61 98 174
62 97 170
61 97 166
61 96 165
61 97 167
60 95 160
61 96 166
60 95 161
61 96 166
62 97 168
60 95 166
59 92 155
72 96 143
90 97 97
99 99 67
94 94 60
91 92 61
87 88 60
91 93 64
96 97 68
85 87 60
103 103 68
85 87 63
93 95 68
96 98 70
90 93 67
94 97 71
95 97 69
112 112 78
96 99 70
99 101 72
106 108 74
113 115 79
117 118 84
116 117 81
105 108 78
110 112 80
110 112 78
130 129 88
115 116 82
128 128 87
125 125 87
117 119 85
137 136 92
122 123 84
135 134 85
134 134 93
135 135 93
137 136 89
137 137 93
138 138 90
146 145 95
151 148 96
141 139 90
143 141 89
153 151 95
138 138 89
161 157 99
155 152 98
154 151 93
151 149 98
152 150 97
150 146 97
162 158 100
164 160 100
161 158 99
165 161 100
164 161 101
165 160 103
165 160 99
158 155 94
161 158 97
166 161 101
168 163 103
165 161 104
168 163 100
166 163 100
173 167 104
171 166 103
169 165 101
169 164 105
171 166 105
170 166 98
168 164 103
172 167 99
172 167 102
172 166 100
173 167 100
173 167 102
171 166 102
176 170 104
175 169 104
171 165 97
175 169 104
177 171 106
170 165 101
175 169 104
174 168 102
174 168 96
176 170 104
173 169 101
174 168 101
172 167 101
176 169 97
170 164 99
176 169 103
172 166 101
174 167 101
174 168 101
178 171 106
172 165 101
169 162 98
175 167 99
168 162 97
176 169 98
172 166 99
170 164 92
170 165 98
172 166 99
167 161 95
169 164 93
172 166 97
168 162 95
166 160 88
167 161 91
170 164 92
168 161 90
161 156 85
164 158 91
162 156 89
162 157 83
157 151 86
168 161 90
167 160 90
158 152 85
164 157 86
159 153 81
156 150 84
156 150 80
169 161 87
159 154 88
156 151 80
162 155 84
160 154 82
154 148 78
152 146 80
151 146 77
147 142 73
152 146 79
149 142 77
150 144 74
152 146 75
131 127 59
143 137 72
133 126 65
149 142 73
141 136 66
136 133 56
151 158 51
148 156 45
159 172 36
162 181 22
163 183 19
171 195 0
172 195 0
174 197 0
174 197 0
171 195 0
170 193 0
173 197 0
171 194 0
172 196 0
172 196 0
174 196 0
171 194 0
173 196 0
173 196 0
174 197 0
172 196 0
171 195 0
172 196 0
173 196 0
174 197 0
171 195 0
173 196 0
171 194 0
171 195 0
172 195 0
172 195 0
173 196 0
172 195 0
169 193 0
172 195 0
173 196 0
171 194 0
172 196 0
171 194 0
171 194 0
174 197 0
171 195 0
174 197 0
171 195 0
174 197 0
172 195 0
171 193 0
169 193 0
172 196 0
171 194 0
172 195 0
170 193 0
173 196 0
168 192 0
173 196 0
171 195 0
171 193 0
173 197 0
171 195 0
171 195 0
171 194 0
172 195 0
172 195 0
172 196 0
172 196 0
172 195 0
172 196 0
174 196 0
169 192 0
174 196 0
174 197 0
172 196 0
172 195 0
171 195 0
174 197 0
174 197 0
170 194 0
169 192 0
169 193 0
169 193 0
172 195 0
171 195 0
172 196 0
173 197 0
168 191 0
173 196 0
170 194 0
166 189 0
170 193 0
171 194 0
172 195 0
170 193 0
170 193 0
170 193 0
170 194 0
170 194 0
169 192 0
171 193 0
172 195 0
169 193 0
170 194 0
168 191 0
170 193 0
171 194 40
127 153 122
75 108 162
62 99 170
62 99 171
62 99 171
62 99 173
61 98 167
62 99 171
62 98 170
62 99 173
62 99 177
62 98 172
62 99 171
63 100 179
62 99 174
61 98 176
62 99 176
62 99 181
62 99 176
63 100 179
62 99 175
62 99 179
62 99 176
62 99 180
61 98 178
62 99 177
62 99 179
61 98 177
62 99 179
62 99 181
62 99 180
61 98 178
62 99 180
62 99 176
62 99 180
62 99 179
62 99 180
62 99 177
62 99 178
61 99 179
62 99 180
63 100 179
62 99 179
62 99 179
62 99 180
62 99 179
61 98 177
62 99 178
62 99 180
62 99 181
62 100 181
62 99 179
62 99 180
62 99 180
62 99 181
62 99 181
62 99 179
62 99 180
61 99 181
62 99 180
62 99 179
62 99 179
62 99 181
62 99 180
62 99 179
62 99 181
62 99 178
62 99 179
63 100 180
61 99 179
62 99 180
63 100 180
62 99 180
61 99 179
62 99 180
62 99 180
63 100 179
62 99 181
62 99 180
62 99 181
62 99 181
62 99 181
62 99 179
62 99 179
62 99 178
62 99 178
62 99 179
62 99 181
62 99 180
62 99 180
62 99 179
62 99 179
61 98 177
62 99 178
62 99 179
62 99 179
62 99 179
62 99 180
62 99 179
61 98 178
62 99 177
62 99 178
62 99 179
62 99 179
62 99 177
61 98 176
61 98 177
62 99 178
62 99 176
62 99 178
62 99 179
62 99 177
61 98 176
61 98 174
62 99 177
63 99 177
61 98 175
61 99 177
61 98 173
61 98 175
62 99 176
62 98 174
61 98 176
62 98 170
61 98 170
63 99 177
62 99 171
62 99 173
62 98 170
62 98 175
62 99 173
62 99 177
62 99 176
62 98 170
62 98 172
61 96 171
61 98 176
62 99 176
61 97 168
61 98 175
61 97 167
62 97 166
62 97 168
61 97 166
60 95 165
62 98 170
61 96 165
61 95 164
60 95 160
60 93 157
60 91 149
80 97 129
88 90 63
108 105 65
84 85 53
91 91 58
90 91 61
96 99 67
89 90 60
92 93 60
77 81 60
94 96 65
88 91 62
95 98 70
93 96 70
90 94 71
90 94 69
100 102 71
101 104 74
87 92 70
93 98 73
117 117 83
114 115 82
98 101 71
119 121 86
112 113 80
105 107 73
127 127 84
120 122 82
123 123 82
125 126 84
127 128 86
134 134 89
132 131 87
132 132 87
135 136 90
145 142 94
136 134 87
142 140 91
140 139 90
139 137 91
140 139 90
146 144 92
144 142 94
152 149 92
146 143 90
152 150 96
155 152 98
154 152 99
162 157 98
156 152 94
158 155 98
158 155 100
162 158 101
154 151 96
160 157 101
165 160 97
164 159 98
168 163 102
164 160 98
164 161 98
166 162 102
172 167 103
164 160 97
167 162 98
169 165 106
166 162 102
165 161 96
170 164 100
173 167 104
170 165 98
170 166 100
171 166 100
171 165 101
168 164 97
173 168 101
173 168 104
172 166 100
170 165 96
173 167 104
177 170 101
175 170 104
171 166 102
171 166 98
179 172 104
177 171 106
172 167 99
171 167 98
174 168 100
176 169 100
175 169 101
175 169 101
176 170 103
173 167 95
172 166 95
169 163 89
171 165 97
171 165 98
169 164 96
174 168 99
168 163 95
169 163 95
173 166 100
168 162 93
172 166 95
170 165 95
169 162 97
173 166 99
173 166 96
172 165 97
166 161 95
169 164 93
162 157 88
170 163 93
162 156 90
164 158 91
166 159 95
169 162 89
163 157 95
165 159 84
162 156 86
162 156 84
164 158 91
170 163 93
162 156 85
162 155 83
151 145 76
150 145 80
157 151 81
158 151 80
160 153 82
152 146 84
162 155 86
160 153 84
157 151 81
152 146 82
145 140 75
151 144 73
152 145 75
145 140 64
154 149 76
145 139 72
141 134 70
138 132 69
142 136 63
134 133 56
141 146 42
139 148 37
153 166 34
159 176 25
167 186 22
172 196 0
174 197 0
170 194 0
172 196 0
173 196 0
172 195 0
173 196 0
173 197 0
172 195 0
173 196 0
174 197 0
175 198 0
174 197 0
173 196 0
172 196 0
171 195 0
172 195 0
170 193 0
171 195 0
171 194 0
172 196 0
172 195 0
172 196 0
172 195 0
172 196 0
175 198 0
172 196 0
170 194 0
172 195 0
173 196 0
173 196 0
173 197 0
170 194 0
172 196 0
173 196 0
173 197 0
175 198 0
173 196 0
171 194 0
173 197 0
171 195 0
173 197 0
171 195 0
172 196 0
172 195 0
171 193 0
172 195 0
171 194 0
172 196 0
171 195 0
171 195 0
173 196 0
172 195 0
172 196 0
173 197 0
170 193 0
172 195 0
172 196 0
170 194 0
168 192 0
172 196 0
169 193 0
174 197 0
169 192 0
172 195 0
171 195 0
172 196 0
170 194 0
173 197 0
173 195 0
171 194 0
170 194 0
171 194 0
168 192 0
171 195 0
170 194 0
171 194 0
173 196 0
171 195 0
170 193 0
171 194 0
171 195 0
172 195 0
175 198 0
172 194 0
170 194 0
173 196 0
172 196 0
171 195 0
173 196 0
170 193 0
172 196 0
169 193 0
167 190 0
173 197 0
169 193 0
169 191 0
167 190 25
150 174 86
87 117 157
64 100 171
62 98 168
62 99 173
61 98 169
63 99 174
62 99 175
62 99 172
63 99 175
62 99 175
62 99 169
62 99 174
62 99 175
62 98 173
62 99 175
62 99 175
62 99 178
62 99 179
62 99 176
62 99 172
63 99 177
62 99 178
62 99 177
62 99 179
63 99 177
62 99 178
62 99 178
62 99 179
61 99 179
62 99 179
62 99 177
62 99 179
63 100 178
62 99 181
62 99 178
62 99 178
63 99 178
62 99 178
61 98 179
62 99 177
62 99 179
63 100 180
62 99 180
62 99 181
62 99 179
62 99 179
62 99 181
62 99 181
62 99 180
62 99 181
62 99 179
62 99 181
62 99 179
62 99 181
62 99 180
62 99 180
61 98 176
62 99 178
61 98 179
62 99 181
61 99 180
62 99 179
62 99 178
62 99 181
62 99 179
62 99 180
62 99 178
62 99 181
62 99 180
62 99 180
61 98 180
62 99 180
62 99 181
62 99 180
61 99 179
62 99 180
62 99 180
62 99 178
62 99 181
62 99 181
62 99 181
62 99 179
62 99 180
61 98 175
62 99 181
61 99 178
62 99 177
62 99 179
62 99 177
62 99 181
62 99 179
61 98 180
62 99 179
62 99 179
62 99 179
62 99 177
61 98 178
61 99 181
62 99 180
61 98 176
62 99 175
63 100 179
63 99 179
62 99 179
62 99 181
62 99 177
62 99 177
63 100 180
62 99 176
61 98 172
61 98 175
62 99 176
62 99 173
61 98 172
63 100 179
61 98 172
62 99 176
61 98 178
63 99 178
62 99 177
62 99 175
61 98 177
62 99 178
62 99 174
62 99 177
62 99 176
61 98 175
61 98 175
62 99 176
62 99 176
62 98 174
61 98 174
61 98 167
61 97 174
61 98 175
61 98 172
61 98 173
62 97 168
61 98 174
61 97 169
62 98 174
62 98 168
60 95 159
60 95 163
61 97 170
61 95 166
61 97 170
61 95 165
61 97 165
59 93 156
58 91 152
57 86 144
77 87 95
91 91 60
102 101 62
91 90 59
86 89 59
74 78 56
83 85 58
80 84 56
78 82 60
96 98 69
75 80 59
90 92 64
88 91 68
91 94 68
90 93 67
92 96 72
90 93 68
96 99 72
89 94 69
103 106 77
98 102 74
106 108 77
111 113 79
112 114 81
111 112 76
118 118 79
117 118 78
109 111 78
117 117 82
117 119 81
136 135 89
125 125 83
130 130 87
128 129 89
119 120 83
142 141 93
134 133 88
144 143 95
148 146 92
144 141 89
142 141 90
142 140 89
151 149 94
150 148 94
154 150 94
153 150 95
138 137 92
147 145 93
152 150 92
163 159 99
155 153 96
162 158 98
162 159 99
157 154 95
158 155 95
161 158 94
161 157 99
162 158 97
164 159 99
165 160 100
169 163 101
168 163 99
166 162 98
171 166 101
165 161 102
166 162 101
169 165 99
168 163 100
170 166 101
170 164 103
173 167 98
172 166 101
170 165 98
171 166 96
170 164 98
174 168 102
171 166 97
174 168 103
173 167 98
172 166 102
173 167 100
177 171 103
175 170 103
175 169 103
175 169 102
177 170 103
173 168 99
174 168 99
172 166 97
175 168 95
175 168 101
173 168 99
175 169 103
171 165 95
172 166 99
172 167 99
172 165 94
173 167 95
173 166 99
170 164 92
173 166 97
169 162 93
171 165 98
174 167 95
168 161 93
170 163 97
169 163 94
168 162 95
174 167 96
169 163 92
162 156 87
170 163 91
166 159 91
163 157 88
166 161 87
165 159 89
159 154 87
164 158 87
162 156 90
158 152 80
169 162 92
164 156 90
163 156 90
151 145 76
155 149 79
158 152 80
160 154 81
154 148 83
155 149 77
147 141 71
150 143 79
149 143 73
147 141 67
151 145 73
142 138 66
156 149 83
140 135 62
146 140 71
144 138 73
143 138 65
136 131 63
138 132 60
130 127 57
140 143 52
153 157 57
156 165 41
150 164 30
163 180 30
164 184 11
173 196 0
172 196 0
172 195 0
173 196 0
173 196 0
173 196 0
173 196 0
173 197 0
172 196 0
170 193 0
173 197 0
172 195 0
174 197 0
173 197 0
174 197 0
176 198 0
174 197 0
174 197 0
173 197 0
172 195 0
174 197 0
173 196 0
173 195 0
173 197 0
171 194 0
172 196 0
173 197 0
173 196 0
172 195 0
175 198 0
172 196 0
173 196 0
170 193 0
173 195 0
176 198 0
171 193 0
171 195 0
173 196 0
174 197 0
171 195 0
172 196 0
169 193 0
171 195 0
171 194 0
171 194 0
173 196 0
174 197 0
171 194 0
174 197 0
174 198 0
172 195 0
173 196 0
171 194 0
173 196 0
167 191 0
170 193 0
173 196 0
172 196 0
171 195 0
167 191 0
170 193 0
171 195 0
171 195 0
171 194 0
172 196 0
172 195 0
170 193 0
173 197 0
168 191 0
172 195 0
172 196 0
171 195 0
172 195 0
171 194 0
173 197 0
173 196 0
168 191 0
172 196 0
172 196 0
174 197 0
171 195 0
171 195 0
170 192 0
172 196 0
173 196 0
171 194 0
168 192 0
170 194 0
171 194 0
173 196 0
171 194 0
170 193 0
165 189 0
170 192 0
170 194 0
171 194 0
170 193 0
161 184 60
127 153 117
73 106 165
62 98 174
62 98 166
62 99 170
62 98 167
62 99 175
62 99 174
62 98 170
63 99 174
62 99 178
62 99 173
62 99 174
62 99 176
62 99 175
62 99 177
63 99 177
62 99 176
62 99 178
62 99 176
62 99 179
62 99 179
62 99 178
62 99 175
63 99 176
62 99 179
62 99 180
62 99 181
62 99 178
62 99 180
63 99 179
62 99 180
62 99 181
62 99 179
62 99 181
62 99 180
62 99 177
62 98 176
61 98 177
62 99 181
61 99 179
62 99 180
62 99 178
62 99 179
61 98 177
62 99 178
62 99 180
62 99 179
62 99 181
62 99 180
62 99 180
62 99 178
62 99 180
62 99 181
62 99 178
63 100 181
62 99 179
62 99 180
62 99 179
62 99 181
62 99 180
61 99 178
61 99 181
62 99 179
61 98 178
61 99 178
62 99 180
61 98 180
62 99 180
63 100 180
62 99 179
62 99 181
62 99 180
62 99 180
61 98 179
62 99 179
62 99 179
62 99 177
62 99 177
62 99 178
61 98 179
62 99 181
62 99 181
62 99 178
62 99 178
61 98 179
62 99 180
61 98 177
62 99 180
62 99 179
62 99 178
63 99 178
62 99 179
62 99 178
62 99 180
62 99 178
62 99 181
62 99 177
62 99 179
62 99 179
61 98 176
62 99 178
62 99 180
62 99 179
62 99 179
62 99 178
62 99 179
62 99 179
62 99 178
62 99 176
62 99 177
61 98 172
62 99 178
62 99 177
62 99 174
61 98 177
62 99 178
62 99 175
62 99 175
61 98 173
61 99 179
62 99 175
62 98 174
62 99 177
63 100 177
62 99 176
61 98 170
61 98 172
62 99 175
62 98 177
62 99 176
62 98 170
63 99 174
62 98 168
61 97 167
61 98 170
63 99 174
62 98 168
61 98 171
61 97 169
61 97 172
61 98 171
61 97 171
60 96 162
61 97 162
61 97 169
62 98 172
59 94 158
61 97 168
61 96 166
60 94 158
61 95 165
60 93 156
79 98 133
77 83 79
80 82 55
77 79 53
79 82 55
78 81 55
76 79 56
89 90 64
67 72 51
94 96 67
82 85 61
87 89 65
91 93 68
85 88 64
89 92 65
100 102 72
99 103 75
91 94 69
96 100 70
111 113 77
114 116 81
109 111 77
109 111 77
121 122 85
110 112 78
121 123 85
117 120 82
117 117 77
123 124 86
118 120 82
134 133 90
128 128 84
130 130 86
138 137 90
128 129 87
141 139 91
136 135 88
140 140 90
142 140 91
136 134 86
143 141 93
143 142 93
148 146 94
147 146 94
155 152 96
154 151 95
153 151 96
155 151 91
141 140 89
157 153 96
154 150 95
154 151 93
155 152 95
152 150 92
153 150 92
158 155 98
155 152 94
173 167 104
155 152 96
165 161 102
161 156 93
163 159 96
166 161 99
165 160 95
171 165 100
163 159 99
171 166 101
168 164 97
173 168 102
167 163 100
175 168 103
172 166 98
170 165 99
174 169 102
174 169 104
170 165 93
175 169 102
176 170 103
169 164 95
175 169 101
171 165 97
174 168 103
172 166 96
171 165 97
169 164 92
177 170 101
172 167 99
173 167 99
174 167 98
172 166 101
172 166 95
170 164 97
177 170 101
173 167 96
175 168 99
174 167 97
173 167 94
169 164 91
173 167 99
170 163 90
171 165 98
174 168 99
172 165 97
163 157 90
169 163 95
170 164 96
165 159 92
168 163 97
168 162 92
171 165 89
165 159 90
169 161 92
168 162 91
167 160 93
169 161 89
166 159 87
167 160 90
165 159 90
167 160 87
167 160 86
165 159 90
159 152 84
162 155 82
156 150 83
154 148 77
150 145 71
157 151 83
161 155 80
155 149 83
152 146 75
153 146 78
145 139 64
156 151 79
146 141 70
150 144 76
146 139 72
147 140 70
143 137 68
145 139 73
147 140 70
142 136 66
139 133 65
137 132 63
140 137 57
145 153 36
154 162 45
158 171 34
166 184 30
169 190 16
173 196 0
174 197 0
170 193 0
173 196 0
173 196 0
171 194 0
173 196 0
171 194 0
172 195 0
175 198 0
171 195 0
171 195 0
174 197 0
174 197 0
172 196 0
170 194 0
174 197 0
172 196 0
173 196 0
172 195 0
171 193 0
174 197 0
171 194 0
174 197 0
173 196 0
173 196 0
169 193 0
175 198 0
171 196 0
173 196 0
173 196 0
170 193 0
172 196 0
170 194 0
173 196 0
171 195 0
169 192 0
173 197 0
173 196 0
173 196 0
174 197 0
171 194 0
170 193 0
170 194 0
169 193 0
170 193 0
171 195 0
172 196 0
171 195 0
171 195 0
171 195 0
173 196 0
172 195 0
172 196 0
173 196 0
171 194 0
171 194 0
172 195 0
172 195 0
168 192 0
171 195 0
171 194 0
172 196 0
172 196 0
170 194 0
172 196 0
171 195 0
168 192 0
172 196 0
168 191 0
172 195 0
171 194 0
172 195 0
168 191 0
169 193 0
169 192 0
173 196 0
169 192 0
171 195 0
173 195 0
171 195 0
170 194 0
173 197 0
169 191 0
172 195 0
170 193 0
172 196 0
172 195 0
170 194 0
168 192 0
169 192 0
172 194 0
172 194 0
171 195 0
170 193 0
171 195 0
168 191 25
132 157 110
86 116 156
62 99 172
63 99 174
63 99 172
63 99 175
63 99 172
63 100 177
63 99 175
62 99 173
62 99 175
62 98 172
62 99 176
61 98 175
62 99 176
62 99 177
62 99 178
62 99 178
62 99 175
62 99 174
62 99 177
62 99 177
62 99 179
63 99 178
62 98 172
62 99 178
62 99 176
63 100 179
62 99 177
63 99 177
62 99 180
61 98 175
62 99 178
62 99 178
63 99 179
62 99 180
62 99 177
62 99 179
62 99 179
62 99 179
63 100 181
62 99 179
62 99 179
62 99 181
62 99 178
62 99 178
62 99 180
62 99 178
62 99 179
62 99 180
61 98 178
62 99 180
62 99 178
62 99 180
62 99 181
63 100 180
61 98 176
62 99 177
62 99 180
62 99 181
62 99 179
62 99 181
62 99 180
63 100 180
62 99 180
61 98 179
62 99 181
62 99 180
62 99 180
62 99 178
62 99 178
62 99 179
61 98 175
62 99 177
62 99 181
62 99 179
62 99 181
61 99 179
62 99 179
61 98 179
62 99 179
62 99 178
62 99 179
62 99 180
62 99 179
62 99 178
62 99 178
62 99 178
62 99 178
62 99 179
61 98 178
62 99 180
62 99 177
62 99 176
62 99 178
62 99 178
62 99 180
62 99 177
62 99 179
62 99 175
63 99 179
62 99 175
62 99 181
62 99 177
62 99 181
62 99 176
63 99 177
62 99 178
63 100 178
62 99 174
62 99 180
62 99 175
61 99 177
61 98 179
61 98 173
62 99 176
62 99 173
62 99 177
62 99 175
63 99 176
62 99 177
63 100 178
62 98 173
62 99 175
62 98 173
62 99 178
62 99 177
61 98 174
62 98 171
62 99 174
62 98 175
62 98 172
62 99 173
62 99 177
62 98 172
62 98 173
62 98 173
62 99 175
61 97 167
62 99 174
61 98 174
62 99 173
62 98 172
62 98 167
62 98 176
62 98 168
61 97 168
61 97 165
61 97 166
61 97 170
60 96 166
60 95 159
60 94 157
60 93 155
65 92 142
82 94 113
83 84 56
83 84 57
89 89 58
82 84 53
77 80 58
83 86 60
70 74 55
89 90 64
75 79 56
87 88 60
79 83 60
75 82 63
79 84 61
87 92 68
90 94 69
94 97 71
100 103 73
99 102 72
99 101 71
108 110 78
107 109 75
113 114 77
113 115 78
119 120 82
114 116 77
120 122 85
117 118 81
113 115 79
119 120 81
119 121 83
123 123 83
130 129 87
128 126 82
125 126 86
147 145 93
131 130 86
140 138 89
148 144 89
144 142 90
153 149 94
150 147 93
146 144 93
147 144 87
145 142 86
145 143 90
154 151 96
154 150 91
157 154 95
165 160 100
157 153 89
159 155 100
151 148 93
159 155 95
167 163 104
168 163 100
164 159 96
161 157 93
162 158 94
169 164 101
168 163 100
170 165 100
166 162 99
168 164 100
165 161 96
168 163 97
170 165 104
165 161 96
171 167 98
167 162 92
173 167 103
172 166 99
169 163 95
172 166 102
171 165 97
173 167 97
173 168 103
171 166 99
171 166 100
173 167 96
171 165 95
174 167 98
177 170 103
172 166 98
170 164 92
173 166 96
170 165 95
173 168 95
173 167 99
172 166 93
175 169 98
172 166 96
177 169 100
175 168 100
172 165 94
172 166 92
175 168 97
172 165 92
171 165 96
173 167 96
169 162 95
165 159 88
174 167 99
169 162 92
171 164 90
168 162 94
166 160 87
165 159 92
165 158 88
169 162 89
170 164 94
168 161 90
172 164 93
169 162 93
165 159 88
165 157 88
166 159 90
167 161 88
161 154 83
160 154 80
167 159 89
160 154 80
154 149 79
154 148 77
159 153 78
152 146 72
159 153 81
157 150 85
154 147 76
158 152 76
159 153 76
144 138 66
153 148 75
157 150 79
146 141 72
148 142 65
147 141 65
149 141 75
144 138 64
143 136 67
132 128 58
135 131 53
146 146 62
148 155 49
148 159 37
160 174 36
166 184 22
166 184 11
174 197 0
173 196 0
172 196 0
174 197 0
170 194 0
174 197 0
172 195 0
173 196 0
169 193 0
175 198 0
170 193 0
174 197 0
172 195 0
175 198 0
175 198 0
173 196 0
173 196 0
175 198 0
175 198 0
173 197 0
172 196 0
172 196 0
172 195 0
173 196 0
173 196 0
173 196 0
172 195 0
172 196 0
175 198 0
170 193 0
172 196 0
172 196 0
174 196 0
170 193 0
172 195 0
174 197 0
174 196 0
171 194 0
173 196 0
172 195 0
173 196 0
169 192 0
172 195 0
171 194 0
172 195 0
171 195 0
175 198 0
171 194 0
171 195 0
171 195 0
171 195 0
171 194 0
172 196 0
171 194 0
172 196 0
171 195 0
172 195 0
173 196 0
174 197 0
170 193 0
173 196 0
171 194 0
170 192 0
165 189 0
171 195 0
171 195 0
171 194 0
171 195 0
170 194 0
172 195 0
173 196 0
171 194 0
172 196 0
170 194 0
171 195 0
171 194 0
169 192 0
171 195 0
171 194 0
170 193 0
169 192 0
171 194 0
170 194 0
169 193 0
169 193 0
169 192 0
171 194 0
170 193 0
170 193 0
171 195 0
172 195 0
170 193 0
169 192 0
172 195 0
168 192 0
170 194 18
159 183 47
118 144 130
64 99 165
62 98 166
63 99 170
62 98 169
62 99 171
62 98 172
62 99 173
62 99 172
62 99 175
61 98 166
61 98 172
62 98 174
62 99 175
63 99 176
63 100 176
63 99 176
62 98 172
62 99 172
61 98 174
63 99 177
62 99 175
62 99 179
62 99 175
62 99 179
62 99 177
63 99 179
62 99 176
62 99 179
63 99 178
62 99 178
62 99 178
62 99 178
63 99 178
62 99 177
62 98 179
62 99 178
62 99 178
62 99 176
62 99 179
62 99 181
62 99 179
62 99 180
62 99 179
62 99 179
62 99 180
62 99 179
62 99 180
62 99 181
62 99 176
62 99 180
62 99 178
62 99 180
62 99 181
62 99 177
62 99 179
61 99 177
62 99 180
62 99 181
62 99 181
61 98 180
62 99 179
61 99 180
62 99 179
62 99 179
62 99 178
62 99 179
62 99 179
62 99 178
62 99 179
61 98 177
62 99 179
62 99 178
61 99 180
62 99 181
62 99 181
62 99 181
62 99 180
62 99 180
62 99 180
62 99 179
62 99 180
62 99 179
62 99 180
62 99 178
62 99 175
62 99 180
62 99 180
62 99 180
61 98 177
61 99 177
62 99 178
62 99 180
62 99 179
62 99 177
62 99 179
62 99 178
62 99 179
62 99 177
61 98 178
62 99 180
61 98 175
62 99 176
62 99 179
63 99 179
62 99 178
62 99 179
62 99 180
62 99 174
62 99 179
62 98 176
63 99 176
62 99 180
62 99 178
62 99 180
62 99 179
62 98 174
62 99 176
63 100 179
63 99 174
62 98 175
62 99 176
63 100 177
61 98 175
62 99 175
62 99 172
61 97 171
62 98 171
62 98 172
62 98 176
61 98 172
62 99 175
62 99 179
62 98 170
61 98 173
61 98 171
61 98 171
62 98 171
62 99 174
62 98 171
61 97 166
62 98 169
62 98 174
61 97 164
62 97 166
62 98 174
61 97 167
61 97 170
61 97 170
61 96 166
61 96 166
62 97 168
60 95 156
61 97 169
59 93 158
63 90 143
71 81 88
71 74 51
69 73 52
82 85 59
76 79 54
73 77 56
82 84 59
75 80 59
90 93 66
90 93 66
68 73 51
85 90 67
92 93 64
80 84 61
90 94 68
82 87 63
105 106 70
107 109 76
102 105 72
111 112 73
104 108 75
102 105 73
117 117 80
109 111 77
118 119 81
103 107 76
116 118 79
118 119 77
110 112 76
131 130 85
127 128 86
128 128 83
134 133 87
129 128 77
134 134 87
138 136 87
131 131 87
141 140 92
146 143 87
123 124 77
144 142 89
141 139 84
144 143 93
150 146 87
153 150 90
153 149 94
154 151 93
146 145 91
157 153 96
155 152 96
157 153 97
157 154 95
159 155 96
161 157 98
154 152 91
161 158 97
163 159 97
171 165 100
159 155 95
166 161 96
168 163 99
165 161 96
172 166 100
164 159 97
168 163 95
167 163 98
171 165 96
172 166 95
173 167 99
174 168 101
171 165 100
171 165 98
171 165 95
171 165 99
167 162 95
173 167 94
172 167 98
171 166 102
170 164 97
174 167 97
174 167 98
175 169 98
170 165 94
169 164 90
175 168 101
174 167 97
172 166 93
176 169 96
173 166 96
174 167 98
174 168 99
175 167 92
174 168 99
173 167 97
173 167 94
167 161 87
169 164 95
168 162 88
165 160 95
173 166 95
166 160 90
166 159 86
161 156 83
167 161 93
168 162 90
171 164 97
164 157 84
167 160 90
164 159 89
170 163 95
163 156 87
165 158 83
165 159 87
166 160 86
161 155 82
161 155 80
160 154 86
158 151 84
160 153 82
157 152 84
157 151 77
161 155 87
163 157 87
160 153 80
160 153 84
157 152 77
153 146 73
157 150 80
164 157 82
157 151 74
154 148 75
154 147 74
152 146 73
149 142 80
135 130 64
136 131 61
146 140 63
138 133 64
134 129 62
150 144 74
131 128 52
140 141 54
138 142 47
145 154 36
158 170 42
161 177 22
168 187 16
171 194 0
174 197 0
173 196 0
174 197 0
173 196 0
172 196 0
174 197 0
171 193 0
174 197 0
175 198 0
174 197 0
171 195 0
172 196 0
173 196 0
171 195 0
173 196 0
171 194 0
175 198 0
174 198 0
172 195 0
173 196 0
170 194 0
171 196 0
173 196 0
173 197 0
172 196 0
174 198 0
172 195 0
172 196 0
172 196 0
173 196 0
172 196 0
174 198 0
172 195 0
174 196 0
174 197 0
173 197 0
169 193 0
172 195 0
172 195 0
173 196 0
172 196 0
173 196 0
174 197 0
171 194 0
171 193 0
174 198 0
172 195 0
169 192 0
168 192 0
169 193 0
172 195 0
171 193 0
171 194 0
171 194 0
169 193 0
173 197 0
173 197 0
170 194 0
174 198 0
174 197 0
172 194 0
172 196 0
172 195 0
169 191 0
173 196 0
168 191 0
172 195 0
170 193 0
172 195 0
169 192 0
170 193 0
173 196 0
169 192 0
171 194 0
170 193 0
171 195 0
170 194 0
169 192 0
169 193 0
173 196 0
172 195 0
172 196 0
173 197 0
170 193 0
172 195 0
171 194 0
170 194 0
169 192 0
172 194 0
168 191 0
173 196 0
169 193 0
169 192 0
168 191 0
164 188 40
128 154 110
77 109 159
62 99 170
62 99 169
63 99 171
63 99 172
62 99 172
62 99 176
62 99 172
61 98 173
63 99 176
62 99 175
62 99 175
63 99 176
62 99 177
61 98 172
61 98 176
63 100 180
62 99 178
62 99 176
62 99 178
62 99 176
62 98 172
62 99 174
62 99 178
62 99 175
61 98 176
62 99 178
63 99 178
62 99 178
62 99 179
62 99 179
62 99 179
62 99 179
61 98 176
61 98 173
61 98 178
62 99 180
61 98 176
62 99 180
62 99 180
62 99 180
62 99 179
62 99 181
62 99 178
62 99 181
62 99 180
62 99 176
62 99 180
62 99 179
62 99 179
62 99 180
62 99 181
62 99 178
62 99 179
62 99 178
62 99 177
62 99 179
61 98 178
62 99 179
62 99 180
62 99 179
62 99 177
61 98 178
62 99 178
61 98 176
62 99 180
61 99 179
61 98 181
62 99 180
62 99 180
62 99 181
62 99 179
63 100 180
61 99 179
62 99 179
62 99 177
61 99 181
61 99 178
62 99 181
62 99 180
61 99 178
61 98 176
62 99 178
62 99 180
62 99 177
62 99 177
62 99 180
62 99 178
62 99 180
62 99 178
62 99 179
62 99 178
62 99 178
62 99 175
61 98 174
62 99 179
61 99 178
63 99 177
63 99 178
62 99 178
61 98 176
62 99 179
62 99 177
62 99 177
62 99 179
61 98 177
62 99 177
62 99 178
62 99 177
62 99 175
62 99 176
62 99 179
62 99 173
63 100 177
62 99 177
62 98 175
62 99 179
62 99 178
62 99 178
62 99 178
62 99 177
62 99 176
62 99 176
62 99 175
61 99 177
62 99 178
61 98 169
62 99 176
62 98 174
62 99 175
62 99 176
62 99 170
62 99 176
62 98 170
61 98 170
62 98 171
63 100 177
61 98 172
62 99 174
62 98 174
62 98 171
62 98 170
61 96 165
61 96 161
61 97 164
62 98 172
61 97 168
61 97 167
61 96 163
61 96 163
60 95 158
60 94 158
61 96 166
60 95 163
60 94 161
58 91 153
69 87 116
78 83 70
82 85 62
63 67 48
64 68 50
80 82 56
60 64 49
68 70 50
70 75 56
83 86 61
71 78 60
89 91 65
83 89 67
83 88 66
90 93 69
94 98 69
91 94 67
105 106 72
99 102 74
101 105 74
100 101 69
112 113 74
103 106 77
117 117 79
109 112 78
116 117 76
135 134 86
119 119 80
135 134 87
121 122 80
126 127 82
131 130 85
136 134 85
131 130 86
132 132 88
140 139 87
136 135 82
134 133 86
134 133 82
147 145 86
138 138 92
149 146 90
151 148 92
151 148 97
158 153 96
147 144 91
162 157 98
158 154 95
152 148 90
159 155 99
152 149 93
158 154 95
165 160 97
159 155 95
166 161 98
164 158 95
163 159 97
164 159 96
164 160 98
160 156 91
166 161 95
165 160 94
167 162 98
170 164 100
166 162 95
169 164 98
168 163 99
166 161 93
165 160 95
167 161 95
172 166 99
172 166 97
172 166 98
173 168 99
167 163 97
174 168 97
171 166 97
172 166 94
175 169 100
172 167 94
172 166 98
172 166 95
173 167 96
170 164 91
172 166 99
174 167 99
174 168 99
167 161 92
171 165 97
169 163 93
172 166 97
173 166 94
175 168 91
172 165 90
169 163 94
167 161 97
168 162 89
164 159 91
169 162 94
169 162 95
173 166 95
166 160 87
167 161 92
168 162 90
169 163 95
168 162 94
168 162 90
166 160 88
169 163 91
168 161 88
167 160 89
165 159 87
163 157 84
166 159 88
164 158 86
167 161 86
162 156 84
164 158 92
160 153 87
160 153 85
160 154 83
168 161 87
157 151 73
159 153 80
158 152 80
153 148 75
151 145 69
153 146 76
158 152 80
151 146 70
158 151 78
146 139 71
149 143 69
141 135 68
158 152 75
141 135 61
140 133 66
141 135 60
135 131 59
129 124 53
140 136 59
144 142 63
147 153 42
155 167 37
160 175 37
161 180 22
168 187 16
172 196 0
173 196 0
172 196 0
172 196 0
172 195 0
173 197 0
170 194 0
173 196 0
174 197 0
172 196 0
174 197 0
170 193 0
173 197 0
173 196 0
175 197 0
172 196 0
171 195 0
172 196 0
173 196 0
171 195 0
170 194 0
172 195 0
174 198 0
172 196 0
173 196 0
172 195 0
173 197 0
171 195 0
171 194 0
167 190 0
173 197 0
174 196 0
173 196 0
171 195 0
172 195 0
171 194 0
170 194 0
170 194 0
174 196 0
173 196 0
171 195 0
171 196 0
173 196 0
173 196 0
170 194 0
170 193 0
174 196 0
174 197 0
173 197 0
172 195 0
173 196 0
173 196 0
173 196 0
172 195 0
171 195 0
168 192 0
171 194 0
170 193 0
169 192 0
172 196 0
172 195 0
168 192 0
167 190 0
170 194 0
173 196 0
172 196 0
172 195 0
172 195 0
174 197 0
169 193 0
172 195 0
171 195 0
169 192 0
171 194 0
170 193 0
170 194 0
171 195 0
172 194 0
173 196 0
172 195 0
168 191 0
171 195 0
168 190 0
170 193 0
169 192 0
173 196 0
172 196 0
170 194 0
167 192 0
168 192 0
173 196 0
170 193 0
170 194 0
170 194 0
170 193 0
157 180 65
94 123 151
64 100 164
62 98 164
62 98 167
62 99 168
62 99 169
62 99 175
62 99 174
62 99 175
62 99 172
62 98 171
62 99 174
62 99 175
62 99 172
62 99 174
61 98 175
62 99 176
63 99 173
62 99 176
62 99 176
62 99 176
63 99 176
62 99 178
62 99 175
62 99 174
62 99 176
62 99 177
62 99 176
62 99 178
62 99 178
63 100 181
61 98 176
62 99 178
62 99 179
62 99 180
62 99 177
62 99 179
62 99 181
62 99 179
62 99 177
63 100 179
62 99 177
62 99 178
62 99 179
61 99 178
62 99 180
62 99 180
61 98 178
62 99 178
62 99 179
62 99 180
62 99 177
62 99 178
62 99 179
62 99 178
62 99 178
61 99 178
62 99 180
61 98 177
61 99 180
62 99 180
62 99 179
62 99 180
62 99 178
62 99 178
62 99 180
63 99 178
62 99 179
62 99 178
62 99 180
62 99 179
62 99 180
63 100 181
62 99 181
62 99 181
63 99 177
62 99 179
62 99 180
62 99 178
62 99 181
62 99 178
62 99 180
62 99 176
62 99 180
62 99 181
62 99 180
62 99 180
62 99 178
63 99 180
62 99 179
62 99 179
61 98 179
61 98 178
62 99 180
62 99 180
62 99 176
61 98 176
62 99 178
62 99 179
62 99 178
62 98 175
62 99 176
62 99 178
62 99 179
62 99 178
62 99 177
62 99 177
62 99 178
62 99 179
62 99 177
62 99 174
62 99 179
63 100 180
62 99 179
62 99 177
62 99 177
62 99 178
62 99 176
61 98 173
62 99 178
62 99 177
62 99 172
61 98 178
62 99 176
63 100 179
63 100 178
63 99 175
62 99 178
62 99 175
62 99 176
62 98 174
62 99 175
62 99 175
62 99 175
62 99 175
62 98 170
62 98 175
62 98 173
62 98 167
62 99 172
61 97 169
63 99 179
61 97 166
62 98 170
62 98 174
62 98 170
61 97 169
62 98 170
62 97 171
61 97 167
61 95 162
60 95 162
61 95 155
60 95 163
59 94 158
60 94 159
59 93 158
70 94 138
63 74 86
68 70 43
59 63 47
63 66 45
55 61 47
90 92 62
78 82 59
64 70 51
92 94 65
73 77 59
69 76 60
85 88 62
90 92 63
85 89 66
100 103 69
83 87 64
85 89 63
91 95 68
84 89 63
113 114 77
96 99 68
101 102 68
98 102 70
110 112 75
109 111 78
121 122 83
124 125 80
124 124 82
124 124 80
124 124 84
129 129 86
126 126 81
131 131 87
136 135 84
129 129 83
143 141 88
138 136 88
141 140 94
149 145 92
142 140 92
139 138 85
144 141 87
139 137 88
147 143 88
152 149 93
151 148 85
149 147 91
150 148 90
162 158 96
158 154 93
156 153 93
154 151 92
166 160 97
171 164 97
160 156 98
159 155 95
162 157 93
164 159 95
169 163 97
166 161 97
164 160 93
165 160 97
162 157 92
166 162 94
167 162 98
174 168 102
164 159 93
169 164 98
173 166 96
172 166 96
170 165 94
168 164 96
169 163 94
171 165 97
171 165 90
173 167 95
172 168 99
172 165 95
171 164 88
170 165 95
171 165 91
173 167 97
170 164 94
171 165 94
171 165 98
168 164 93
170 164 92
173 166 95
174 168 97
175 168 99
175 168 98
170 165 93
169 163 95
172 165 93
171 165 95
173 166 95
174 167 99
168 161 92
166 160 92
167 161 84
176 168 95
165 159 85
172 165 95
167 160 88
167 161 90
164 159 87
169 163 92
162 156 81
162 156 84
164 159 90
159 154 83
158 152 84
165 158 87
159 153 80
156 150 83
163 156 86
156 150 80
157 151 80
161 155 88
166 159 87
162 155 83
162 156 80
146 141 75
151 145 78
142 137 67
153 147 79
154 147 79
158 152 75
144 137 70
156 149 75
147 141 69
152 145 75
149 144 67
154 148 70
144 139 68
140 135 64
134 127 56
148 141 68
142 136 58
147 143 61
138 141 47
143 150 44
152 160 39
155 169 32
167 186 30
168 188 11
172 195 0
174 198 0
173 197 0
171 195 0
172 194 0
171 195 0
173 196 0
172 196 0
174 197 0
173 196 0
174 197 0
171 195 0
171 195 0
174 198 0
171 194 0
174 198 0
172 196 0
171 195 0
172 195 0
170 194 0
173 196 0
172 195 0
171 195 0
173 196 0
168 192 0
168 191 0
173 197 0
173 196 0
171 195 0
173 197 0
167 191 0
172 196 0
170 194 0
174 197 0
173 196 0
171 194 0
171 194 0
172 195 0
174 197 0
173 197 0
172 195 0
170 194 0
171 195 0
172 195 0
171 194 0
175 198 0
171 193 0
169 193 0
172 196 0
172 195 0
174 196 0
171 195 0
170 193 0
172 196 0
174 197 0
174 197 0
173 195 0
172 195 0
171 195 0
172 195 0
171 195 0
171 195 0
170 193 0
171 195 0
171 193 0
171 195 0
172 195 0
169 193 0
170 193 0
170 193 0
172 196 0
173 196 0
171 194 0
173 196 0
169 193 0
171 195 0
171 194 0
171 195 0
171 195 0
169 192 0
171 194 0
170 194 0
170 192 0
168 191 0
172 196 0
171 194 0
171 195 0
172 196 0
166 189 0
171 195 0
169 192 0
170 193 0
168 190 0
172 194 0
162 185 44
120 145 126
68 103 166
62 98 168
62 99 170
62 98 168
63 99 171
63 99 171
62 99 174
63 99 175
62 99 169
61 98 173
62 99 174
62 98 171
62 98 170
62 99 176
62 99 172
62 99 174
62 99 176
62 99 176
62 99 172
62 99 175
62 99 174
62 99 174
62 99 180
62 99 179
62 99 177
62 99 176
62 99 175
62 99 178
62 99 179
62 99 176
62 99 178
61 99 179
62 99 177
62 99 178
62 99 179
62 99 179
62 98 171
62 99 178
62 99 179
62 99 177
61 99 180
61 99 179
62 99 177
62 99 179
62 99 181
62 99 177
62 99 179
62 99 179
63 100 180
62 99 178
62 99 180
63 99 177
62 99 181
62 99 179
62 99 179
61 99 180
62 99 180
62 99 180
63 100 180
62 99 178
62 99 180
62 99 178
62 99 180
62 99 180
63 100 179
62 99 179
61 99 178
62 99 179
62 99 178
61 98 177
62 99 176
62 99 179
62 99 177
62 99 177
61 99 178
62 99 180
62 99 176
62 99 179
61 98 179
62 99 178
62 99 179
62 99 178
61 98 179
62 99 178
61 99 178
62 99 177
62 99 180
63 99 179
62 99 175
63 100 181
62 99 178
62 99 178
62 99 181
62 99 177
62 99 177
62 99 178
62 99 177
62 99 179
62 99 178
62 99 179
61 99 178
61 98 175
62 99 180
62 99 178
62 99 178
62 99 176
62 99 178
62 99 176
62 99 176
62 99 175
62 99 177
62 99 177
62 99 178
62 99 176
62 99 177
62 99 178
63 99 180
62 99 176
62 99 174
62 98 172
61 98 173
62 99 170
61 98 174
61 98 170
61 98 172
62 99 178
61 98 171
62 99 178
62 99 178
62 99 177
62 99 178
62 99 176
62 99 171
63 99 175
61 97 170
61 97 169
62 98 171
62 98 169
63 99 172
62 98 170
60 96 163
62 98 170
62 99 173
63 99 172
61 97 170
62 98 171
61 97 165
62 97 169
63 98 166
62 98 168
61 96 162
60 95 163
60 95 154
60 94 158
63 98 171
60 94 161
60 94 163
61 92 149
71 90 122
59 64 50
77 78 52
67 70 49
65 69 45
74 77 54
64 70 55
60 65 46
73 78 56
69 76 58
69 74 57
71 75 57
90 92 64
89 93 65
89 93 68
82 86 59
95 100 70
93 96 67
101 103 69
112 113 76
114 114 74
102 105 74
108 109 72
108 110 74
119 120 78
116 117 79
122 123 79
116 118 77
133 132 84
125 125 82
120 121 79
129 129 82
134 133 87
135 134 85
128 128 82
140 139 87
140 138 85
137 135 89
142 140 89
141 139 89
142 140 85
138 137 85
157 154 95
146 144 90
138 138 86
148 146 87
149 147 94
150 148 93
153 150 92
154 151 94
152 149 92
166 161 95
160 156 95
156 152 93
165 161 99
161 157 96
164 159 96
164 159 98
168 163 97
159 154 93
163 159 96
169 164 96
164 159 92
161 157 90
167 162 98
165 160 94
166 161 94
169 163 95
173 167 98
173 166 98
176 169 100
170 164 99
163 159 90
173 167 97
169 164 93
172 167 95
173 167 98
177 171 103
171 166 94
175 168 95
171 165 94
175 168 99
171 165 92
176 170 101
171 164 91
170 165 91
174 167 97
169 164 90
172 165 99
170 164 89
176 169 101
176 169 98
173 167 95
173 165 95
173 167 95
170 164 95
172 165 92
171 164 93
159 154 83
171 164 93
169 163 90
164 158 84
167 161 90
163 156 81
167 161 85
167 160 87
171 165 93
169 162 92
167 161 89
163 158 85
164 157 87
164 158 81
165 159 85
166 159 90
155 149 77
169 162 90
156 150 83
157 151 78
157 151 79
158 151 83
157 151 77
159 154 80
161 154 84
160 154 81
162 155 77
151 145 73
155 148 85
156 150 79
156 149 78
139 134 64
153 147 68
144 138 63
149 143 74
153 147 68
135 130 61
145 139 68
138 133 58
148 142 67
137 132 59
141 140 51
145 150 47
151 159 45
146 157 25
162 177 32
164 180 25
165 186 0
174 197 0
175 198 0
172 196 0
174 196 0
172 195 0
170 194 0
170 194 0
173 196 0
173 196 0
172 195 0
173 196 0
171 195 0
169 193 0
169 193 0
172 196 0
171 195 0
173 196 0
171 194 0
173 195 0
173 196 0
174 197 0
169 192 0
173 197 0
172 194 0
172 195 0
175 198 0
167 192 0
171 195 0
173 195 0
172 195 0
172 195 0
170 194 0
174 197 0
172 196 0
176 199 0
170 195 0
170 194 0
169 192 0
169 193 0
174 198 0
173 196 0
171 194 0
171 195 0
172 195 0
172 195 0
170 193 0
170 194 0
171 194 0
172 195 0
170 193 0
172 195 0
167 190 0
171 194 0
171 195 0
171 195 0
172 195 0
171 194 0
171 195 0
172 194 0
173 197 0
171 195 0
169 192 0
171 193 0
171 194 0
171 195 0
170 194 0
171 194 0
170 194 0
171 195 0
167 191 0
169 193 0
174 197 0
171 194 0
170 194 0
173 196 0
167 191 0
169 192 0
173 196 0
172 196 0
171 195 0
165 188 0
172 195 0
172 195 0
170 194 0
171 194 0
171 194 0
167 191 0
173 196 0
172 196 0
166 190 0
173 195 0
173 196 0
172 196 0
172 194 18
145 170 90
99 128 147
61 98 163
63 99 167
62 98 166
62 99 170
61 98 163
62 99 174
63 99 176
62 98 165
62 99 173
63 99 172
62 99 168
63 99 170
62 98 173
62 98 169
62 99 176
62 99 178
62 99 178
62 99 171
62 99 176
62 99 177
62 99 177
62 99 173
61 98 175
62 99 175
62 99 176
62 99 177
62 99 179
62 99 180
62 99 174
63 100 178
62 99 180
62 99 176
61 99 177
62 99 178
63 100 178
62 99 174
63 100 180
62 99 179
62 99 175
62 99 179
62 99 181
62 99 178
63 99 176
63 99 177
62 99 179
62 99 180
62 99 180
63 99 179
62 99 179
62 99 180
62 99 181
62 99 179
63 99 179
62 99 180
62 99 179
62 99 180
62 99 178
62 99 179
62 99 180
62 99 178
63 100 179
62 99 179
62 99 177
62 99 181
62 99 176
62 99 178
62 99 180
62 99 178
62 99 179
62 99 179
62 99 174
62 99 178
62 99 179
62 99 179
62 99 179
62 99 180
62 99 179
62 99 178
62 99 180
62 99 177
62 99 178
62 99 178
62 99 179
62 99 178
62 99 178
62 99 177
62 99 180
62 99 181
62 99 179
62 99 179
62 99 176
62 99 178
62 99 176
62 99 177
62 99 178
61 98 177
61 98 176
62 99 176
62 99 178
62 99 176
62 99 178
62 99 180
61 99 178
62 99 176
62 99 175
62 99 177
61 98 176
63 99 176
62 99 179
62 99 176
62 99 180
62 99 176
62 98 171
62 99 177
62 99 175
62 99 179
62 99 172
62 99 174
63 99 175
63 99 177
63 99 174
62 99 176
62 99 174
62 98 170
62 99 174
62 99 176
62 98 171
63 99 178
62 98 169
62 99 176
62 98 169
62 99 173
61 98 172
61 98 173
62 99 175
62 98 173
62 99 174
62 99 174
61 98 169
62 98 174
61 97 165
62 98 165
62 99 176
61 97 166
61 97 168
62 98 168
61 97 168
61 97 167
61 96 164
60 95 162
61 97 168
61 96 165
62 97 165
61 96 164
61 96 166
58 92 150
59 93 152
58 91 153
59 90 151
62 77 102
66 70 46
58 62 41
66 71 52
72 76 53
76 82 62
64 69 51
66 73 54
61 68 53
71 76 55
86 90 64
76 81 60
73 77 56
80 84 59
85 88 62
101 104 73
92 95 65
100 103 73
104 107 73
107 108 73
111 112 75
94 99 72
118 119 81
110 112 75
111 114 80
103 106 71
128 128 82
120 122 79
128 128 83
123 123 76
121 121 78
121 121 78
132 131 85
125 124 79
132 131 85
132 131 84
140 138 82
138 138 87
145 143 90
149 145 90
146 143 88
145 143 93
147 144 88
161 156 95
150 148 87
148 145 86
153 149 92
153 150 86
151 148 92
157 154 88
146 144 89
159 154 91
153 150 91
157 153 93
154 151 95
161 156 90
164 159 93
165 160 87
163 157 90
159 155 92
162 158 93
169 163 98
166 161 94
168 163 96
169 164 96
163 159 92
173 167 98
163 159 91
174 168 96
169 164 98
173 167 100
169 163 93
174 167 100
166 162 91
172 166 93
172 166 98
172 165 94
172 166 98
177 170 101
173 166 93
169 163 89
171 164 90
175 168 97
174 168 96
168 164 87
174 168 96
172 166 93
174 167 97
171 165 95
171 165 95
170 164 92
168 161 90
165 159 93
166 160 90
169 163 92
167 161 87
167 160 90
162 156 86
164 158 84
170 164 93
168 163 88
169 162 91
168 161 87
169 163 92
158 153 82
167 161 88
160 153 84
168 162 88
164 158 80
161 155 84
158 152 77
162 156 81
166 158 86
161 155 84
161 155 80
153 147 75
159 153 82
158 153 80
161 154 83
161 154 80
159 152 80
163 157 80
152 146 78
161 154 84
149 143 69
155 149 71
135 131 59
155 148 75
148 143 67
149 143 71
147 141 67
147 140 73
141 134 62
139 134 65
142 137 66
146 139 66
140 135 61
130 125 51
145 140 60
140 142 56
148 157 42
157 167 36
161 179 28
166 183 22
167 189 16
172 195 0
173 196 0
173 196 0
169 193 0
172 195 0
170 194 0
172 196 0
174 197 0
169 192 0
171 195 0
171 195 0
173 197 0
171 194 0
170 194 0
170 195 0
173 196 0
173 197 0
170 194 0
170 193 0
171 195 0
171 194 0
171 194 0
172 195 0
171 194 0
172 196 0
173 196 0
173 196 0
171 195 0
173 197 0
169 193 0
173 196 0
169 191 0
172 195 0
172 195 0
172 196 0
169 193 0
173 197 0
171 195 0
173 197 0
173 196 0
174 197 0
170 193 0
171 194 0
173 196 0
171 194 0
173 196 0
172 195 0
170 193 0
173 197 0
169 194 0
171 194 0
172 195 0
172 196 0
171 195 0
173 196 0
170 193 0
171 194 0
173 197 0
171 195 0
171 194 0
173 197 0
173 197 0
170 194 0
170 192 0
168 192 0
171 195 0
170 194 0
173 197 0
172 194 0
168 192 0
168 192 0
170 193 0
171 195 0
174 197 0
170 194 0
169 193 0
171 194 0
169 192 0
173 196 0
168 192 0
173 197 0
173 196 0
170 194 0
169 191 0
169 192 0
172 194 0
169 193 0
172 195 0
169 191 0
165 188 0
170 193 0
171 194 0
167 190 0
163 186 51
123 149 124
68 103 166
63 100 172
63 99 171
61 98 170
61 98 165
62 99 171
62 99 171
62 99 174
62 98 171
62 99 175
62 99 176
62 99 167
62 99 176
63 99 176
62 99 172
62 99 174
62 99 176
62 99 173
62 99 175
62 99 174
61 98 171
62 99 174
62 99 176
63 100 180
62 99 176
63 99 177
62 99 177
61 99 180
62 98 175
62 99 173
62 99 177
61 98 173
62 99 177
62 99 179
62 99 175
63 100 180
62 99 175
62 99 180
62 99 175
62 99 179
63 100 180
62 99 178
62 99 178
63 99 180
62 99 177
62 99 178
62 99 179
62 99 180
63 100 179
62 98 175
61 98 176
62 99 179
62 99 178
62 99 177
62 99 179
63 100 180
62 99 178
62 99 179
61 99 180
62 99 177
62 99 175
62 99 181
61 98 173
63 99 178
63 100 179
62 99 175
61 99 179
62 98 177
61 98 178
62 99 179
62 99 180
62 99 179
62 99 179
62 99 176
62 99 180
62 99 176
62 99 180
61 98 176
62 99 178
62 99 179
62 99 178
62 99 179
62 99 176
62 99 179
62 99 180
62 99 172
62 99 177
61 99 177
61 98 176
61 98 173
62 99 177
62 99 177
62 99 178
62 99 176
63 99 179
62 99 178
62 99 176
62 99 175
62 98 173
62 99 179
62 99 174
62 99 177
62 99 179
62 99 177
63 100 180
62 99 176
63 100 180
62 99 178
62 99 179
62 99 173
61 98 173
62 99 179
62 99 176
62 99 179
62 99 174
62 99 176
62 99 176
62 98 171
63 100 176
61 98 175
62 98 174
62 98 170
62 99 173
61 98 172
62 99 175
62 99 171
61 98 168
60 97 172
61 98 172
63 99 175
62 98 173
63 99 174
62 99 173
62 98 171
62 99 176
61 97 170
62 99 173
62 98 171
62 98 176
61 97 169
62 99 175
63 99 174
63 99 170
63 99 174
62 98 169
62 98 170
61 97 168
62 98 171
62 98 170
61 97 169
61 96 164
61 98 168
61 96 162
61 97 167
60 95 159
59 94 159
60 95 159
60 93 156
60 94 157
58 90 151
50 77 117
68 76 66
63 67 47
70 71 46
60 64 48
68 72 53
62 68 52
70 74 51
69 76 59
77 82 61
80 85 60
74 79 59
80 85 61
78 81 52
73 78 55
78 83 57
74 79 56
98 102 70
86 90 65
100 103 68
119 119 77
92 96 66
117 117 75
105 107 72
114 116 75
119 120 81
101 104 68
116 117 76
113 115 77
116 116 76
121 122 78
131 131 82
128 127 78
119 120 75
132 130 80
136 135 83
129 129 79
135 133 84
138 137 79
144 142 81
145 143 87
145 142 86
155 151 90
143 142 84
149 146 92
146 144 89
153 149 91
154 151 89
160 156 92
159 154 94
156 152 91
157 153 89
155 152 90
154 151 89
161 156 90
159 154 93
159 155 89
163 158 90
159 155 92
167 161 99
163 158 91
168 162 94
168 162 95
171 165 97
170 164 98
169 164 93
170 164 96
168 162 93
172 166 98
169 163 96
167 160 93
169 163 96
174 167 93
169 163 92
169 163 97
172 166 95
169 164 93
171 166 95
175 169 97
172 165 91
170 165 95
173 167 95
174 167 97
172 166 92
174 168 94
172 165 95
175 168 98
166 161 90
172 166 93
170 164 93
173 166 95
168 163 91
168 161 90
170 163 93
172 164 94
169 164 91
169 163 91
169 162 90
166 158 91
172 165 94
166 159 87
161 156 87
167 161 88
168 161 87
167 161 88
165 159 87
167 160 86
166 160 81
159 153 82
164 157 79
164 157 83
164 158 77
159 153 83
165 160 84
167 160 81
163 156 80
165 158 86
157 151 83
160 153 83
151 146 75
154 148 75
159 154 79
156 149 75
154 148 71
152 146 75
157 151 79
153 146 79
139 135 61
146 140 61
157 151 70
146 141 68
143 138 63
136 131 59
141 135 66
128 122 56
137 132 54
135 129 65
123 118 53
140 138 57
152 158 53
146 156 36
161 176 30
164 180 28
160 180 0
164 184 0
171 193 0
174 197 0
170 194 0
171 194 0
172 196 0
172 195 0
173 197 0
175 198 0
173 196 0
174 197 0
171 195 0
172 195 0
171 195 0
174 197 0
170 194 0
172 196 0
173 196 0
172 195 0
173 196 0
171 195 0
172 195 0
172 196 0
171 195 0
171 194 0
174 197 0
172 195 0
171 196 0
172 195 0
173 196 0
168 192 0
173 197 0
172 195 0
173 197 0
171 194 0
173 196 0
173 196 0
170 194 0
174 196 0
171 195 0
173 196 0
170 193 0
170 193 0
172 195 0
172 194 0
170 193 0
172 195 0
170 194 0
168 191 0
171 195 0
173 197 0
170 194 0
173 197 0
170 194 0
168 191 0
174 196 0
174 197 0
174 197 0
171 195 0
170 193 0
170 194 0
172 195 0
168 191 0
171 194 0
169 192 0
174 196 0
170 194 0
170 194 0
167 191 0
172 196 0
170 193 0
171 195 0
172 195 0
165 189 0
173 196 0
171 194 0
172 195 0
169 192 0
172 195 0
172 195 0
169 192 0
170 193 0
170 194 0
170 193 0
173 195 0
171 194 0
170 194 0
167 190 0
167 190 0
171 194 0
172 195 0
171 194 0
166 190 0
168 192 0
154 178 80
88 118 152
63 99 168
62 99 169
61 98 162
62 99 173
62 99 167
62 99 172
62 98 168
62 99 173
63 99 166
62 98 166
62 99 169
62 99 175
62 99 174
63 99 173
62 99 176
62 99 176
62 99 176
62 99 176
63 99 174
62 99 174
62 99 177
61 98 174
62 99 176
62 99 176
62 99 176
63 99 178
62 99 176
63 100 178
61 98 175
62 99 179
61 99 178
63 100 180
62 99 173
62 99 177
63 100 177
63 99 178
62 99 174
61 99 177
62 99 178
62 99 179
62 99 177
62 99 180
62 99 179
61 98 175
61 98 178
62 99 181
62 99 176
62 99 180
62 99 178
62 99 181
62 99 177
62 99 180
61 99 176
62 99 181
63 99 178
62 99 177
63 99 178
62 99 179
63 99 178
62 99 180
62 99 181
62 99 177
62 99 177
61 99 178
62 99 177
62 99 177
61 98 178
62 99 180
62 99 178
62 99 178
62 99 179
62 99 180
61 99 180
62 99 177
62 99 178
62 99 172
62 99 178
61 98 171
62 99 180
62 99 179
62 99 178
62 99 179
62 99 173
62 99 175
62 99 178
62 99 181
63 100 181
62 99 177
62 99 176
62 99 176
62 99 178
62 99 180
62 99 178
62 99 177
62 99 179
62 99 178
62 99 178
62 99 179
62 99 177
63 99 177
62 99 177
61 98 179
62 99 178
62 99 178
62 99 176
63 100 180
62 99 177
62 99 179
62 99 177
62 99 179
62 99 180
62 99 175
61 98 174
63 99 178
62 99 176
62 99 176
62 99 174
62 99 175
62 99 175
63 100 179
62 99 174
61 98 173
61 98 174
62 99 175
62 98 170
63 99 175
62 98 170
63 99 175
62 99 177
62 98 173
62 98 172
63 99 174
63 99 173
62 98 173
62 99 172
63 99 174
61 98 167
61 98 170
61 98 172
63 100 178
62 98 170
61 98 171
61 97 168
62 98 168
62 98 170
62 98 167
61 97 162
62 98 168
62 98 171
62 97 166
61 97 164
62 98 170
60 95 160
61 96 165
61 96 164
61 96 166
61 95 156
60 95 160
59 92 151
59 92 152
56 88 141
60 76 103
66 69 46
59 63 47
58 62 44
56 61 45
51 57 44
66 71 54
73 77 52
70 76 57
69 73 53
69 75 51
61 67 50
73 80 58
90 95 68
86 91 63
81 85 57
87 91 61
86 91 67
98 101 68
110 113 74
105 106 73
102 104 71
106 108 68
109 111 72
117 117 74
113 114 75
107 109 72
121 120 77
124 124 80
128 127 82
111 113 70
119 120 76
126 127 80
127 126 80
133 132 84
134 133 84
145 142 84
140 138 84
136 134 82
154 150 91
148 145 86
147 144 87
144 142 90
148 145 81
150 147 87
150 147 87
149 146 90
152 149 91
158 153 89
156 152 91
160 155 94
162 157 96
156 152 90
166 161 92
167 161 95
156 153 87
160 156 90
158 154 86
169 163 98
163 158 88
164 160 96
170 164 95
162 158 90
165 160 93
172 166 97
171 165 98
166 162 94
171 165 96
168 163 90
170 164 93
164 159 83
177 168 100
171 165 97
171 165 95
173 167 96
172 166 100
173 166 97
173 166 93
174 167 93
174 168 97
169 163 86
170 164 93
171 165 93
171 165 90
174 167 95
173 166 93
170 163 92
171 165 95
170 165 90
169 163 88
172 166 90
168 162 90
173 166 92
167 162 87
171 164 90
166 160 84
167 161 87
166 160 87
170 164 86
167 160 86
161 155 84
166 159 81
165 159 88
166 160 80
168 161 87
165 158 87
170 163 92
165 158 85
160 153 79
158 151 79
163 156 80
162 156 80
162 155 83
163 157 80
163 157 83
166 159 87
157 151 75
157 150 79
160 154 73
157 150 75
148 143 73
152 146 71
157 151 73
147 141 71
149 143 72
152 147 73
149 144 65
152 145 72
140 134 70
142 137 64
147 142 68
137 132 57
143 137 61
136 132 54
140 134 57
131 125 51
138 133 61
145 144 48
148 153 51
152 160 45
151 167 22
164 180 30
167 185 22
167 187 0
172 196 0
172 196 0
173 197 0
170 194 0
174 197 0
174 197 0
172 195 0
171 195 0
173 195 0
172 196 0
174 197 0
175 198 0
171 194 0
169 193 0
171 194 0
172 196 0
174 197 0
173 197 0
174 197 0
171 195 0
171 194 0
173 196 0
171 194 0
171 195 0
171 195 0
172 195 0
172 195 0
170 194 0
171 194 0
172 195 0
176 199 0
172 196 0
172 195 0
171 195 0
173 196 0
170 193 0
169 193 0
173 196 0
173 197 0
171 194 0
172 196 0
171 194 0
173 195 0
173 197 0
172 195 0
173 196 0
170 194 0
171 195 0
172 195 0
172 196 0
171 193 0
170 193 0
170 193 0
171 194 0
171 194 0
167 190 0
170 194 0
171 195 0
174 197 0
170 194 0
173 196 0
171 195 0
171 195 0
171 195 0
167 190 0
172 195 0
170 194 0
168 192 0
169 193 0
170 194 0
171 194 0
173 195 0
170 194 0
167 191 0
168 192 0
172 195 0
171 194 0
170 193 0
173 195 0
171 194 0
171 195 0
170 194 0
171 194 0
170 192 0
169 192 0
171 194 0
169 192 0
172 195 0
169 192 0
171 193 0
167 190 0
172 195 0
165 189 44
125 151 118
66 101 164
62 98 165
62 98 172
62 98 165
62 99 168
62 98 170
63 99 173
62 98 170
62 98 168
62 98 168
62 98 169
61 98 168
63 99 175
62 99 171
62 98 170
62 99 177
63 99 177
62 98 170
62 99 172
62 99 177
62 99 170
62 99 175
62 99 177
62 99 175
62 99 175
62 99 175
63 100 180
62 99 176
63 99 176
62 99 176
62 99 179
62 99 179
62 99 178
61 98 175
62 99 174
62 99 178
62 99 179
63 100 177
62 99 178
63 99 180
63 100 179
63 100 178
62 99 179
62 99 179
63 100 180
62 99 179
62 99 179
62 99 178
61 99 180
62 99 177
62 99 177
62 99 178
62 99 180
62 99 178
61 99 181
62 99 178
62 99 178
62 99 179
62 99 179
63 100 179
62 99 177
61 98 178
62 99 179
62 99 179
62 99 176
62 99 176
62 99 179
62 99 180
62 99 180
62 99 176
62 99 180
62 99 177
62 99 176
62 99 175
62 99 180
61 98 178
62 99 174
63 100 181
62 99 178
62 99 180
62 99 176
62 99 175
62 99 177
62 99 176
61 98 177
62 99 177
62 99 181
62 98 177
62 99 176
62 99 177
62 99 179
62 99 177
62 99 172
62 99 178
62 99 177
62 99 176
63 99 176
62 99 178
62 99 174
62 99 178
63 100 177
62 99 174
61 98 173
62 99 178
62 99 177
61 98 175
62 99 173
62 99 177
62 99 176
62 99 175
62 99 175
63 99 175
62 99 176
62 99 175
62 99 177
61 98 171
62 99 177
62 99 176
61 98 169
62 99 176
62 99 173
62 99 174
63 99 176
62 99 171
62 99 176
61 98 171
63 100 177
61 98 176
62 99 173
62 99 170
62 99 173
62 99 172
61 98 170
61 98 170
63 100 178
63 99 170
62 99 175
62 98 168
62 97 168
61 98 171
61 98 168
62 99 172
62 99 172
61 98 173
62 98 168
62 99 171
62 98 172
62 97 167
61 98 171
61 97 168
63 98 170
62 98 166
61 97 171
60 96 160
61 97 166
60 95 160
61 96 162
61 95 160
59 93 155
60 95 164
59 92 154
57 90 151
64 89 136
75 81 71
63 66 47
68 71 50
64 69 50
56 63 46
60 67 53
50 57 42
59 66 49
63 68 49
76 80 57
81 85 59
69 75 58
80 83 52
87 91 62
85 90 63
88 91 61
90 94 67
99 101 69
102 105 71
99 100 66
106 107 67
115 116 74
108 109 74
112 112 75
115 116 74
124 124 77
109 110 68
122 123 78
127 127 80
114 115 73
125 126 84
136 134 83
135 133 80
129 129 75
130 129 78
129 129 77
138 136 81
137 135 80
144 142 86
143 141 86
151 148 89
154 150 92
142 141 87
151 148 88
149 145 87
158 154 88
160 156 94
156 152 89
153 149 88
158 155 90
151 148 83
152 149 89
159 154 91
157 153 88
169 163 97
166 160 91
159 155 92
164 159 88
159 155 90
164 158 90
162 157 91
166 161 95
164 159 92
164 159 91
160 156 89
171 164 94
167 162 93
173 166 94
173 166 95
167 162 92
172 165 98
166 161 93
171 165 90
166 161 87
174 168 95
172 165 94
172 166 93
169 163 89
168 163 87
170 164 89
173 166 93
173 166 92
173 166 93
174 167 90
167 161 86
171 165 90
168 163 92
171 165 94
173 166 95
168 162 87
175 168 97
167 160 84
165 159 86
172 165 87
167 160 87
165 159 84
171 164 93
166 159 86
167 160 83
166 159 87
171 163 90
166 159 89
161 155 86
168 161 90
169 162 90
167 159 87
163 157 86
160 155 81
156 151 79
153 148 80
160 154 80
163 157 84
156 149 84
158 151 78
156 149 79
160 153 75
155 149 77
160 153 80
159 152 80
159 152 77
154 148 74
159 153 79
145 139 75
158 151 80
148 142 71
150 143 74
156 150 75
152 147 65
150 144 66
151 144 74
153 146 72
152 145 72
139 134 54
131 126 54
142 136 58
137 133 51
150 151 54
143 152 36
150 159 36
162 176 30
162 180 19
164 185 11
169 191 0
172 196 0
173 196 0
171 195 0
171 194 0
173 197 0
171 194 0
173 197 0
172 196 0
172 195 0
172 195 0
172 195 0
172 196 0
175 198 0
171 194 0
172 196 0
173 196 0
171 194 0
172 196 0
173 197 0
174 197 0
172 195 0
169 193 0
171 196 0
172 195 0
172 196 0
170 194 0
173 197 0
172 194 0
172 196 0
171 194 0
170 193 0
173 196 0
172 195 0
173 196 0
171 195 0
170 193 0
171 195 0
172 196 0
173 196 0
173 196 0
172 195 0
172 194 0
169 193 0
168 192 0
171 194 0
172 194 0
171 195 0
170 193 0
174 196 0
170 193 0
168 192 0
170 194 0
172 195 0
170 194 0
171 194 0
172 195 0
175 198 0
171 195 0
170 194 0
171 195 0
171 195 0
172 195 0
174 197 0
170 193 0
167 191 0
170 193 0
170 194 0
172 195 0
170 194 0
172 194 0
170 194 0
172 196 0
171 195 0
171 195 0
169 192 0
169 193 0
174 196 0
174 196 0
172 196 0
172 195 0
167 190 0
169 192 0
171 194 0
168 192 0
170 193 0
171 194 0
168 192 0
167 190 0
172 196 0
169 193 0
167 190 0
171 194 0
149 174 70
87 117 152
62 99 169
63 99 169
62 98 163
62 98 165
62 98 169
62 99 165
62 99 173
62 98 173
63 99 170
62 98 170
62 98 171
62 99 175
63 99 176
62 99 172
62 99 173
63 99 173
62 99 173
62 99 174
61 98 173
62 99 175
62 99 173
62 99 176
62 99 179
62 99 175
61 98 172
62 99 178
62 99 176
62 99 175
62 99 176
62 99 176
62 99 179
62 99 175
62 99 179
62 99 178
62 99 175
62 99 173
61 98 174
63 99 178
62 99 178
62 99 180
62 99 179
62 99 177
62 99 179
62 99 179
62 99 179
62 99 178
63 100 177
62 99 180
62 99 177
63 99 179
62 99 176
62 99 179
62 99 178
62 99 175
63 100 179
61 98 177
62 99 178
62 99 180
61 98 176
61 99 178
62 99 178
62 99 178
62 99 177
62 99 179
62 99 178
62 99 180
62 99 177
62 99 179
62 99 173
62 99 178
62 99 179
61 98 176
62 99 177
62 99 174
62 99 180
62 99 178
62 99 178
62 99 178
62 99 178
62 99 178
62 99 177
63 100 178
63 99 177
62 99 172
62 99 178
62 99 176
62 99 177
62 99 180
62 99 175
62 99 178
63 100 180
61 98 178
62 99 178
63 99 177
62 99 177
63 99 175
62 99 177
62 99 178
63 100 179
62 99 176
62 99 176
62 99 177
62 99 176
62 99 174
62 99 176
63 99 175
62 99 179
62 99 175
62 99 172
62 99 179
62 99 177
62 98 174
62 99 178
62 99 178
63 99 177
61 98 168
63 100 179
62 99 175
63 99 176
62 99 173
62 98 174
62 98 171
62 99 172
62 99 174
61 98 172
62 99 172
62 99 175
62 98 168
62 99 175
62 99 173
63 99 176
61 98 171
63 99 174
63 100 178
62 99 177
62 98 167
62 98 169
62 99 173
62 98 170
63 100 176
62 98 169
61 98 173
62 98 174
62 98 167
61 97 164
62 98 174
62 97 164
63 99 172
62 97 168
62 98 166
62 97 168
62 98 168
61 95 159
62 97 168
61 97 162
62 98 166
62 97 165
60 95 161
62 97 166
60 94 154
60 95 163
60 94 156
58 87 143
66 80 94
43 49 39
60 64 47
47 54 41
46 53 40
65 71 54
68 74 56
64 71 54
65 70 53
86 91 64
85 86 58
74 81 56
82 86 61
77 81 56
92 95 63
84 88 59
90 95 65
102 104 70
98 101 63
108 108 69
114 115 73
108 111 71
110 111 71
107 109 68
111 113 75
125 124 74
116 117 81
124 124 80
132 131 79
133 132 77
121 120 75
131 131 74
134 133 85
144 141 85
142 140 86
128 127 78
141 139 81
138 137 81
142 140 86
147 145 85
143 141 84
145 142 83
149 146 85
150 147 86
140 139 84
157 154 89
147 144 84
147 144 83
157 153 86
151 149 88
160 155 93
165 159 93
157 153 88
156 151 90
160 156 89
163 158 94
164 159 92
164 159 90
165 160 93
167 161 89
160 156 91
167 162 95
160 156 88
166 161 91
171 165 93
171 164 93
171 165 95
172 165 94
169 163 92
166 162 94
171 164 93
172 166 95
171 164 94
174 167 101
167 161 87
167 162 86
169 162 92
165 160 86
168 162 86
173 166 93
169 163 89
169 163 87
170 164 90
166 160 87
173 166 91
168 162 81
172 165 87
168 162 85
168 162 84
171 164 93
170 164 93
168 162 85
169 162 88
171 164 90
171 165 89
170 163 93
165 159 84
163 157 85
165 158 83
168 162 90
163 157 84
165 160 81
164 158 85
164 157 78
165 158 80
162 155 85
163 156 85
162 156 75
157 151 77
158 152 79
158 152 77
157 150 82
168 161 85
157 152 76
159 153 75
151 144 75
158 151 79
154 148 72
152 146 76
156 150 74
159 153 80
155 150 74
149 143 68
156 149 76
151 145 71
153 146 72
141 136 67
142 136 68
147 141 62
149 143 71
141 135 63
146 139 65
136 131 57
142 136 66
133 128 61
139 136 57
142 145 49
153 162 37
156 168 30
158 173 16
162 179 16
167 186 16
172 192 0
173 196 0
174 196 0
173 197 0
174 197 0
171 194 0
175 197 0
173 196 0
174 197 0
171 194 0
171 194 0
172 196 0
174 197 0
173 197 0
171 195 0
173 196 0
175 198 0
168 192 0
171 195 0
173 197 0
168 192 0
174 197 0
172 195 0
170 193 0
171 194 0
171 195 0
170 193 0
171 193 0
174 198 0
171 194 0
169 192 0
173 195 0
171 195 0
173 196 0
170 193 0
170 194 0
172 195 0
172 196 0
171 195 0
169 193 0
172 195 0
172 195 0
172 195 0
173 196 0
170 194 0
170 194 0
170 194 0
171 195 0
172 195 0
172 195 0
169 192 0
171 195 0
169 193 0
171 195 0
173 196 0
170 194 0
172 196 0
168 191 0
168 191 0
171 195 0
172 196 0
171 194 0
167 191 0
172 196 0
172 195 0
174 197 0
169 193 0
172 195 0
170 194 0
171 194 0
169 193 0
170 192 0
169 192 0
169 193 0
170 193 0
170 193 0
172 195 0
173 197 0
171 195 0
170 193 0
172 195 0
166 189 0
170 194 0
170 194 0
169 192 0
169 194 0
170 193 0
171 194 0
170 193 0
165 187 0
168 192 0
171 193 0
167 191 25
133 158 108
68 102 160
62 98 163
62 98 163
62 99 171
62 99 170
61 98 167
62 99 167
62 99 167
62 99 167
62 98 168
62 99 175
62 98 170
63 99 170
63 99 176
63 99 173
62 99 171
61 98 169
61 98 176
62 99 172
62 99 175
62 99 173
62 99 177
62 98 172
62 98 174
63 99 171
62 99 175
62 99 180
62 99 175
62 99 176
62 99 176
62 99 176
62 99 179
62 98 173
62 99 179
62 99 174
62 99 174
61 98 175
62 99 178
62 99 178
62 99 179
62 99 176
62 99 174
62 99 174
62 99 179
62 99 179
62 99 179
63 100 180
62 99 176
63 100 180
63 99 179
62 99 180
62 99 178
62 99 176
62 99 174
62 99 181
61 98 177
63 100 179
62 99 178
61 99 179
62 99 178
62 99 178
61 98 176
62 99 177
61 99 177
61 98 178
62 99 179
62 99 180
62 99 179
63 99 177
62 99 178
62 99 173
63 100 180
62 99 178
62 99 180
62 99 177
62 99 180
62 99 176
62 99 177
62 99 176
62 99 180
62 99 177
62 99 178
61 98 177
62 99 180
61 98 173
62 99 178
62 99 178
62 99 175
62 99 180
62 99 175
62 99 178
62 99 178
62 99 178
61 98 174
62 99 177
62 99 174
61 98 176
62 99 177
62 99 176
62 99 178
61 98 174
62 99 178
62 99 175
62 99 174
63 99 176
62 99 176
63 100 178
62 99 176
62 99 177
63 99 177
62 99 175
62 99 176
62 99 174
61 98 171
62 99 173
63 99 177
61 98 176
62 99 175
62 99 175
62 99 174
62 99 177
62 99 172
62 99 172
62 99 174
62 99 176
62 98 171
62 99 174
62 99 170
62 99 174
61 98 172
62 98 170
62 98 173
62 98 165
62 99 176
62 99 174
62 98 171
62 98 169
62 99 169
61 98 172
62 98 174
62 98 171
62 98 170
63 99 171
62 98 169
62 98 172
62 99 177
61 97 168
61 97 165
63 99 172
61 96 160
61 97 171
62 98 167
61 97 169
61 97 165
61 97 165
61 96 163
62 97 169
60 96 159
60 95 160
61 95 155
60 94 155
61 95 161
58 92 152
60 91 148
54 76 110
50 58 63
49 55 39
57 61 40
60 64 46
58 66 51
73 77 53
58 65 48
55 64 51
78 82 59
74 78 54
70 76 54
71 76 53
74 80 56
85 90 59
94 96 67
88 91 64
90 95 61
89 93 62
102 103 66
105 106 69
96 99 68
104 106 66
106 108 72
110 112 70
115 116 72
113 114 74
122 122 72
112 113 72
131 129 77
118 119 67
133 132 81
126 126 76
138 137 84
137 135 85
134 133 78
139 137 82
140 137 77
143 141 84
141 138 82
150 146 88
153 148 88
142 140 89
155 150 89
143 141 83
148 146 85
149 145 79
156 151 83
155 151 90
165 159 92
158 153 93
156 153 88
165 159 93
160 155 87
159 154 88
165 160 95
164 159 95
165 159 90
163 158 92
163 158 90
157 153 86
164 160 87
171 164 98
167 161 94
171 165 91
164 160 88
165 160 91
167 161 88
160 156 82
168 163 90
165 160 82
170 164 91
171 165 87
170 164 87
169 163 90
176 169 96
168 162 89
169 163 87
173 167 93
173 166 95
173 166 95
177 169 97
172 166 92
167 161 85
169 163 89
171 164 90
166 159 89
169 162 89
172 165 92
171 164 93
170 163 87
168 161 85
167 161 89
170 164 95
167 161 87
171 163 83
168 161 88
165 158 83
170 163 91
169 163 90
164 158 84
169 162 83
162 156 80
169 161 89
166 160 87
163 158 82
167 160 83
167 160 87
163 158 82
156 149 81
163 156 77
160 154 81
157 151 75
161 155 85
155 150 76
160 154 82
154 148 76
155 150 75
154 148 70
149 144 70
162 155 80
143 137 70
154 149 69
157 150 75
154 148 74
154 148 70
147 141 70
140 134 61
153 146 68
147 141 71
145 139 60
137 132 58
144 137 68
134 128 60
133 129 52
136 136 42
138 143 41
146 151 42
149 159 30
162 177 22
169 185 25
168 188 0
171 193 11
170 193 0
172 195 0
171 195 0
172 196 0
173 196 0
173 197 0
172 195 0
171 195 0
173 196 0
173 196 0
170 194 0
172 196 0
173 196 0
173 196 0
172 196 0
171 195 0
172 196 0
174 196 0
174 198 0
173 196 0
173 196 0
169 192 0
170 193 0
170 194 0
171 194 0
171 194 0
170 194 0
171 194 0
172 195 0
169 192 0
171 194 0
168 190 0
171 195 0
168 192 0
173 197 0
170 193 0
175 198 0
170 192 0
173 196 0
169 192 0
170 193 0
169 192 0
171 194 0
170 194 0
173 196 0
173 196 0
170 193 0
170 194 0
172 196 0
174 198 0
172 196 0
172 196 0
168 191 0
170 193 0
169 192 0
172 195 0
171 194 0
170 194 0
173 195 0
172 196 0
171 194 0
170 194 0
170 195 0
169 192 0
173 196 0
170 193 0
172 194 0
170 194 0
172 195 0
173 196 0
169 192 0
171 194 0
172 195 0
171 195 0
173 196 0
170 193 0
173 195 0
170 193 0
174 197 0
169 192 0
172 195 0
168 191 0
164 187 0
172 196 0
172 195 0
170 193 0
170 194 0
171 194 0
171 194 0
169 192 0
171 195 0
158 181 65
96 126 147
62 99 168
62 98 167
62 99 169
62 98 163
63 99 169
62 99 172
62 99 171
63 100 177
62 99 171
62 99 171
62 99 171
63 99 171
61 98 166
62 99 174
62 99 173
62 99 176
61 98 172
63 99 176
62 98 172
63 99 176
62 99 171
62 99 177
62 99 174
62 98 170
62 99 174
63 100 178
62 99 175
62 99 173
61 98 173
61 98 174
62 99 179
62 99 178
61 98 173
62 99 176
62 99 175
62 99 175
62 99 178
61 99 179
62 99 177
62 99 176
62 99 174
62 99 175
62 99 179
62 99 180
62 99 177
62 99 177
62 99 179
62 99 178
63 100 179
62 99 178
62 99 175
62 99 179
62 99 176
62 99 179
62 99 174
62 99 180
61 98 177
62 99 177
63 100 181
62 99 177
62 99 177
62 99 176
62 99 177
62 99 177
62 99 179
63 100 181
62 99 174
62 99 178
62 99 179
62 99 176
62 99 178
63 100 177
62 99 177
63 100 180
63 100 177
62 98 176
62 98 177
62 99 175
62 99 177
63 100 181
63 100 180
62 99 175
62 99 178
62 99 179
62 99 179
62 99 179
62 99 178
63 100 178
62 99 176
62 99 175
63 99 174
62 99 179
62 99 174
61 98 177
62 99 180
63 100 177
62 99 175
62 99 174
62 99 178
62 99 176
62 99 177
63 100 179
62 99 177
62 99 179
62 99 178
61 98 174
63 99 175
61 98 172
63 100 179
63 100 176
63 99 177
63 99 175
62 99 174
62 99 176
62 99 176
62 99 174
62 99 175
62 99 175
62 98 174
62 99 172
61 98 169
62 99 174
63 99 176
62 98 172
62 99 174
62 99 175
61 98 175
63 100 175
62 98 176
62 98 170
62 99 173
61 98 172
62 98 172
62 99 171
63 99 172
62 98 167
62 98 170
61 98 169
62 99 169
62 99 173
62 99 175
61 98 170
62 99 169
61 97 167
62 99 175
62 98 169
61 96 160
62 98 166
61 98 168
61 97 167
61 97 165
62 98 169
62 97 170
62 98 169
61 96 161
62 97 167
61 96 164
61 96 162
61 96 159
61 97 164
62 97 165
61 96 159
58 91 147
59 94 166
54 83 132
60 71 82
38 45 31
53 59 40
56 60 40
63 68 52
64 70 51
61 67 51
69 73 51
65 70 46
77 83 60
72 76 56
72 76 50
83 86 60
84 87 58
87 91 60
86 90 61
90 94 60
95 97 60
90 93 63
99 102 67
100 103 68
91 93 61
119 119 75
99 102 68
115 116 72
119 119 75
118 118 73
130 128 80
127 127 81
130 128 79
132 130 82
131 129 76
128 127 75
134 132 82
136 135 83
138 135 81
143 139 85
138 136 79
141 139 82
148 144 86
133 132 81
148 144 82
152 148 85
150 146 83
156 151 91
149 146 85
156 152 86
154 150 90
144 142 80
155 151 88
164 158 93
163 157 87
162 157 91
159 154 84
163 158 90
161 157 90
161 156 89
161 156 94
162 158 90
164 159 93
169 163 89
174 167 100
164 159 91
160 156 85
162 157 87
172 165 90
167 161 94
166 160 87
172 166 95
169 163 93
166 160 90
167 162 89
170 164 89
168 162 91
168 163 93
168 163 88
171 165 87
171 165 90
171 164 91
171 164 88
173 166 91
172 165 91
166 159 85
165 159 82
173 167 96
169 162 87
169 163 87
167 160 84
163 158 87
167 160 82
164 158 83
166 160 86
170 164 92
167 160 87
167 160 90
170 162 90
174 167 92
162 156 80
168 161 84
163 157 83
166 159 84
160 153 82
168 160 90
162 157 82
166 159 84
160 154 75
158 151 77
162 155 82
167 159 85
164 158 78
154 149 72
164 158 80
161 154 78
159 152 81
157 151 75
155 148 74
159 152 73
152 146 71
147 141 69
146 140 68
156 149 80
148 142 68
146 141 64
151 144 67
149 143 68
137 132 63
150 143 72
151 145 64
136 131 56
145 140 59
140 134 61
131 127 57
142 137 64
125 122 48
133 135 44
141 141 49
148 157 37
147 163 22
164 180 28
163 182 19
164 183 11
168 189 0
171 194 0
173 197 0
171 196 0
171 194 0
173 195 0
174 197 0
171 194 0
172 195 0
170 193 0
173 196 0
172 195 0
173 196 0
172 195 0
172 196 0
169 194 0
172 195 0
172 194 0
175 197 0
173 197 0
170 193 0
172 195 0
173 195 0
171 194 0
173 196 0
172 196 0
172 196 0
167 191 0
172 195 0
169 192 0
174 198 0
174 197 0
172 195 0
173 195 0
171 195 0
171 195 0
174 197 0
170 194 0
170 193 0
172 195 0
170 194 0
171 194 0
171 194 0
171 195 0
172 195 0
174 197 0
171 195 0
172 195 0
172 195 0
172 196 0
170 194 0
173 196 0
169 193 0
171 194 0
171 195 0
169 193 0
171 194 0
173 196 0
173 196 0
171 194 0
169 192 0
169 193 0
169 192 0
169 192 0
167 191 0
169 191 0
169 192 0
172 195 0
171 195 0
172 196 0
166 190 0
170 193 0
174 197 0
173 195 0
172 195 0
170 193 0
168 192 0
170 192 0
168 192 0
167 191 0
170 194 0
169 192 0
170 194 0
168 191 0
172 194 0
169 192 0
169 193 0
167 191 0
169 192 0
167 190 0
169 192 0
167 190 25
135 160 95
69 103 158
62 99 169
62 99 166
61 98 164
62 98 167
63 99 167
63 99 169
63 99 167
62 99 171
60 97 163
62 98 171
62 99 176
62 99 170
62 98 173
62 98 171
62 99 171
62 99 167
61 98 169
62 99 171
62 99 171
62 98 168
63 99 178
63 100 176
62 99 176
62 98 173
62 99 177
62 99 173
63 100 179
62 99 175
63 99 175
62 99 175
62 99 171
62 98 173
63 99 178
62 99 174
62 99 177
62 99 176
62 99 177
61 98 173
62 99 177
62 99 177
62 98 175
63 99 177
62 99 175
63 99 176
62 99 179
62 99 177
62 99 177
62 99 178
62 99 178
62 99 177
62 99 179
62 99 176
62 99 173
62 99 178
61 98 177
62 99 180
62 99 176
62 99 178
62 99 180
62 99 179
62 99 178
62 99 176
62 99 178
62 99 176
62 99 178
62 99 180
62 99 176
62 99 177
62 99 176
62 98 174
62 99 178
62 99 174
62 99 176
63 100 181
62 99 180
62 99 179
62 99 179
62 99 177
63 99 178
62 99 177
62 99 179
62 99 178
62 99 178
62 99 178
62 99 179
61 98 175
63 99 174
62 99 175
62 99 177
61 99 178
62 99 176
62 99 178
62 99 180
61 98 175
62 98 175
62 99 175
62 99 179
62 99 176
62 99 175
62 99 179
63 99 175
62 99 175
62 99 177
62 99 177
62 99 175
62 99 177
62 99 178
63 100 178
63 99 176
61 98 176
62 99 174
62 99 170
62 99 176
62 99 174
62 99 175
62 99 177
62 99 174
62 99 174
62 99 172
62 99 175
62 99 173
62 99 170
62 99 176
62 99 175
62 99 175
62 99 174
62 99 176
62 99 170
62 99 176
62 99 172
63 99 173
62 98 174
63 99 174
62 98 169
62 99 175
63 99 173
62 98 170
62 98 174
61 98 168
62 99 174
63 99 167
61 97 168
62 97 166
62 99 176
61 98 168
61 97 171
62 98 166
61 97 171
62 98 171
61 97 163
61 97 164
62 98 168
61 96 159
61 97 169
62 98 170
60 96 162
61 96 155
62 98 167
61 97 163
61 97 164
60 95 157
60 94 152
60 94 159
61 95 153
59 92 155
52 71 104
58 62 42
48 52 36
54 57 39
51 57 40
56 62 47
50 58 45
65 70 53
76 80 57
54 62 45
66 72 50
65 72 52
71 77 50
81 84 51
82 88 61
92 96 66
92 94 61
89 93 62
91 95 65
99 100 61
97 100 65
109 110 67
115 116 71
109 111 66
113 113 71
108 111 72
109 110 73
124 122 72
126 126 75
113 113 66
126 126 78
124 124 75
136 135 86
132 131 76
131 130 76
144 140 81
134 132 77
140 138 82
146 142 85
151 147 85
142 139 85
146 143 82
152 149 83
143 141 82
158 154 92
144 142 83
153 149 85
156 153 93
157 153 86
151 148 80
161 156 90
155 151 85
160 156 85
164 158 89
155 152 84
165 160 88
156 153 84
164 159 87
166 161 90
165 160 87
153 148 81
164 159 87
171 165 96
167 161 89
170 165 96
167 161 89
167 161 90
163 158 89
166 161 88
168 162 86
166 160 86
165 160 88
162 157 83
171 165 93
171 165 88
166 160 87
169 163 91
167 161 87
164 158 81
167 161 83
167 161 94
166 160 82
168 162 87
168 161 85
169 162 86
169 163 88
166 160 86
167 160 88
169 163 90
169 162 88
169 162 88
170 164 91
169 162 91
169 162 91
165 158 84
168 161 86
170 163 85
166 159 87
157 151 73
166 161 84
166 159 87
164 157 84
165 158 87
162 156 78
163 157 76
161 154 80
163 156 81
165 158 80
158 152 79
165 159 82
162 156 82
149 142 71
163 156 82
162 155 80
157 150 74
154 148 73
153 147 74
151 147 68
151 145 70
158 152 75
147 140 65
153 147 69
152 145 66
145 139 63
153 146 71
146 140 65
144 138 66
134 129 53
139 133 59
133 128 58
142 135 58
141 134 67
138 133 59
137 131 57
131 131 45
140 144 42
147 158 36
151 164 32
165 182 32
165 184 11
166 185 19
173 195 0
172 195 0
172 195 0
171 195 0
173 196 0
171 195 0
173 196 0
172 196 0
172 196 0
172 196 0
173 196 0
173 196 0
171 194 0
171 194 0
172 196 0
171 194 0
172 195 0
170 193 0
173 196 0
170 194 0
169 192 0
172 196 0
169 192 0
170 194 0
173 197 0
173 196 0
174 197 0
169 193 0
173 196 0
172 196 0
171 195 0
172 194 0
172 195 0
170 194 0
170 193 0
172 195 0
169 193 0
173 196 0
171 194 0
170 193 0
172 196 0
174 197 0
172 196 0
173 196 0
168 193 0
171 194 0
172 196 0
173 195 0
171 195 0
170 194 0
173 196 0
173 196 0
170 193 0
169 193 0
169 192 0
173 196 0
171 194 0
171 194 0
171 194 0
169 192 0
172 195 0
170 194 0
173 196 0
171 194 0
169 192 0
171 194 0
171 194 0
167 191 0
171 194 0
171 194 0
171 194 0
169 192 0
168 190 0
169 192 0
170 193 0
172 194 0
169 193 0
173 197 0
171 193 0
170 193 0
168 191 0
167 190 0
169 193 0
170 193 0
170 193 0
168 191 0
167 190 0
170 193 0
171 195 0
172 195 0
170 193 0
159 183 57
110 137 134
62 98 160
61 98 167
62 98 169
61 98 164
62 98 165
61 98 164
62 99 167
61 98 165
63 99 166
61 98 166
62 99 172
63 99 171
62 98 171
62 99 171
61 98 171
62 99 169
62 99 173
62 98 172
63 99 174
62 99 174
63 100 176
61 98 170
61 98 168
62 99 173
63 99 177
62 99 176
61 98 169
62 98 173
62 99 176
63 99 178
62 99 173
63 99 178
62 99 174
62 99 172
62 99 174
62 99 176
63 100 180
62 99 176
62 98 175
62 99 177
62 99 177
62 99 173
62 99 177
62 98 176
62 99 178
62 99 176
62 99 179
62 99 174
62 99 177
62 99 177
62 99 179
62 99 176
62 99 179
62 99 176
62 99 176
63 100 180
62 99 176
62 99 179
62 99 180
62 99 177
62 99 179
62 99 181
62 99 178
62 99 177
62 98 174
62 99 177
62 99 177
62 99 175
62 99 180
63 100 178
62 99 178
62 99 179
62 99 176
62 99 177
62 98 176
62 99 178
62 99 180
62 99 177
62 99 178
62 98 173
62 99 178
62 99 174
62 99 179
62 99 179
62 99 174
62 99 177
63 99 179
62 99 180
62 99 176
62 99 174
62 99 177
62 99 180
62 98 173
62 99 179
62 99 178
62 99 175
62 98 175
62 99 180
62 99 180
63 99 176
63 100 178
62 99 179
61 99 178
63 99 177
62 99 175
62 99 177
62 99 178
62 99 177
62 99 174
62 99 177
62 99 176
63 99 176
62 99 176
62 99 175
62 99 176
62 99 171
63 99 174
62 99 177
62 99 173
62 99 173
62 99 175
62 99 174
62 99 175
62 99 170
62 99 174
62 99 172
62 98 170
62 99 175
62 98 173
61 98 172
63 99 170
62 99 174
62 99 169
63 99 171
62 99 172
62 98 172
62 98 169
63 99 175
62 98 169
61 98 170
61 98 167
62 98 171
62 98 170
61 98 172
62 99 171
62 98 170
62 98 170
61 97 170
61 98 168
61 97 167
62 98 170
62 98 165
61 96 164
61 97 162
62 98 168
61 97 163
62 99 169
62 97 164
61 96 160
60 95 161
61 96 158
60 95 160
62 97 166
59 93 157
60 94 157
60 94 159
55 79 123
60 72 83
50 55 35
49 57 43
48 55 39
54 60 43
64 68 45
54 60 43
71 76 53
58 64 48
80 84 58
75 80 51
74 79 58
77 82 56
79 83 50
100 101 63
87 91 58
86 89 60
102 105 65
101 103 66
98 101 61
92 95 61
117 117 72
106 107 66
115 116 67
112 113 70
111 111 64
122 122 77
114 114 73
112 113 73
127 126 77
130 129 77
138 136 76
131 129 82
128 128 77
124 125 80
134 132 74
136 134 78
142 140 79
142 140 81
149 146 90
150 147 88
141 138 75
158 152 83
152 148 80
156 151 85
156 151 88
148 146 81
154 149 82
151 148 80
147 144 81
153 149 85
158 154 91
161 156 87
161 156 85
158 154 85
162 157 90
165 161 94
162 158 90
160 154 83
165 160 90
166 160 89
167 161 86
169 164 90
165 159 89
168 162 91
164 159 85
163 158 88
169 162 93
166 160 85
167 161 89
170 164 92
167 161 85
170 163 88
169 163 91
173 166 95
168 161 88
172 165 88
169 163 84
170 164 89
167 161 81
167 160 87
165 159 85
165 159 86
169 162 89
168 162 90
167 160 91
166 160 80
171 164 86
171 164 88
174 166 93
166 159 86
172 165 87
169 162 89
165 159 80
166 160 84
173 166 94
171 163 90
168 161 84
167 160 84
170 163 90
164 158 79
158 153 73
168 162 80
158 153 77
155 149 73
155 150 74
160 154 78
156 151 75
158 152 77
155 149 75
164 157 84
158 151 79
157 151 71
164 157 76
153 147 76
158 150 75
150 143 68
145 139 65
158 151 77
154 149 67
149 143 66
152 145 75
150 144 75
143 136 63
150 144 65
145 138 67
143 137 64
135 130 60
139 132 61
136 130 59
139 133 57
129 125 52
139 138 54
143 143 45
144 151 36
146 155 34
154 167 34
160 176 22
166 185 11
168 189 16
173 192 0
172 196 0
172 195 0
172 195 0
171 195 0
168 191 0
170 194 0
173 196 0
173 196 0
174 198 0
172 195 0
172 196 0
171 195 0
172 195 0
172 195 0
173 196 0
171 195 0
170 194 0
172 196 0
171 195 0
175 198 0
172 196 0
172 196 0
173 196 0
173 196 0
172 196 0
173 196 0
172 195 0
171 194 0
171 194 0
172 195 0
173 196 0
173 196 0
173 196 0
170 193 0
172 196 0
168 191 0
172 195 0
172 196 0
172 195 0
173 196 0
173 195 0
171 195 0
168 192 0
171 195 0
172 196 0
172 195 0
172 195 0
170 195 0
166 191 0
172 196 0
171 195 0
171 194 0
171 194 0
172 195 0
173 195 0
171 194 0
171 194 0
171 195 0
173 196 0
172 195 0
167 191 0
170 194 0
167 190 0
169 192 0
167 191 0
167 190 0
172 195 0
169 193 0
171 195 0
172 196 0
172 195 0
169 193 0
169 193 0
168 192 0
168 192 0
172 195 0
166 189 0
168 192 0
169 193 0
168 190 0
168 192 0
171 194 0
171 194 0
168 192 0
171 195 0
168 191 0
168 191 0
170 193 0
168 192 0
167 191 18
141 165 99
84 115 149
62 99 168
62 98 162
62 98 169
61 98 163
61 98 162
63 99 171
61 97 168
63 99 173
62 99 171
62 98 169
62 99 175
62 98 172
62 99 172
62 99 171
63 99 172
63 99 171
61 98 171
61 98 169
62 98 175
63 99 174
62 99 170
63 100 179
62 99 180
63 99 177
62 99 173
62 99 170
62 99 175
62 99 175
62 99 174
63 99 172
62 99 176
62 99 176
62 99 180
62 99 175
62 99 177
61 98 177
63 99 174
62 99 175
62 99 177
62 98 174
63 100 179
63 99 176
62 99 178
62 99 175
62 99 172
62 99 175
61 98 172
62 99 178
62 99 176
61 99 177
62 99 178
62 99 177
63 99 178
63 99 177
62 99 178
61 98 173
62 99 176
63 100 178
62 99 178
62 99 177
62 99 179
62 99 177
63 100 179
62 99 180
61 99 177
62 99 178
62 99 179
63 100 179
62 99 177
61 98 176
62 99 174
61 98 172
62 99 179
62 99 178
62 99 174
62 99 173
62 99 177
62 98 174
62 99 175
62 99 173
62 99 181
62 99 176
62 98 175
62 99 176
62 99 178
62 99 175
62 99 177
61 98 176
62 99 178
62 99 178
62 99 174
62 99 177
62 99 177
63 99 176
62 99 178
62 99 177
63 99 176
62 98 174
62 99 176
61 99 177
62 99 174
62 99 176
63 100 178
62 99 176
62 99 171
62 99 175
61 98 178
62 99 176
62 99 178
62 99 173
62 99 176
63 99 173
61 98 174
62 99 176
62 99 178
63 99 174
62 99 176
63 100 178
62 99 172
62 99 171
62 99 176
61 98 177
62 99 173
62 99 169
62 99 174
63 99 173
62 98 172
62 99 172
62 99 174
62 99 176
63 99 175
62 99 171
62 99 173
62 98 169
62 98 177
62 99 174
63 99 172
62 99 175
61 98 166
61 98 170
62 98 167
62 98 169
62 99 173
62 99 170
63 99 169
62 98 170
62 98 171
61 97 164
62 98 172
61 97 165
62 98 169
62 98 168
62 97 168
61 97 162
62 98 168
61 96 160
62 97 164
61 96 158
61 97 166
62 97 163
59 94 159
60 95 159
61 96 157
60 95 158
58 92 152
60 94 157
54 83 131
44 65 89
56 59 37
51 55 32
59 64 46
61 66 48
50 56 39
65 68 49
79 83 51
73 78 54
52 59 46
62 69 46
61 69 52
64 70 48
73 79 54
81 85 50
95 98 61
90 93 59
87 91 58
99 101 64
97 98 59
116 117 69
110 111 71
102 105 67
106 108 66
103 105 63
123 122 75
126 123 74
123 121 69
121 122 75
125 124 70
133 132 82
140 137 83
124 124 70
134 132 79
129 129 72
129 128 77
132 132 73
145 141 77
137 135 82
140 138 73
140 138 78
146 144 84
142 140 83
150 147 84
146 143 83
154 150 87
154 150 88
155 152 81
154 150 85
152 149 83
157 152 88
154 150 84
152 148 76
159 154 85
159 155 86
162 157 84
160 155 82
166 161 89
156 151 82
158 153 78
171 165 96
159 155 87
167 160 82
163 159 84
165 159 85
165 159 88
170 164 92
169 162 88
167 162 87
171 165 91
164 159 84
165 159 84
171 165 88
163 159 82
167 161 87
160 155 78
168 161 85
172 164 92
172 165 95
166 160 90
171 165 87
166 160 90
168 161 83
169 163 89
166 160 86
169 163 91
170 163 90
169 162 89
167 161 81
167 161 81
165 159 87
166 159 83
166 161 85
163 157 84
162 155 77
166 160 86
167 160 82
155 150 79
163 156 79
163 156 85
166 158 84
165 158 80
160 154 79
156 150 70
163 155 84
164 156 83
164 156 86
162 156 80
157 151 77
156 150 78
162 155 80
158 151 80
163 157 78
150 145 62
154 148 73
160 153 74
160 153 79
158 152 69
157 150 72
146 140 66
155 149 72
144 139 66
152 147 69
144 138 65
145 139 63
142 136 60
144 138 60
141 135 51
136 131 58
138 133 49
134 129 53
130 128 49
137 135 49
146 149 41
150 158 42
153 166 25
158 174 25
159 175 25
163 183 0
167 188 0
170 191 0
172 196 0
170 193 0
172 194 0
173 196 0
168 191 0
170 193 0
173 197 0
174 198 0
174 197 0
174 196 0
174 197 0
172 196 0
173 197 0
173 197 0
172 196 0
172 196 0
172 194 0
173 196 0
169 192 0
174 197 0
173 196 0
175 198 0
174 196 0
169 193 0
173 196 0
168 192 0
169 194 0
169 193 0
171 195 0
173 197 0
173 195 0
172 195 0
170 192 0
171 194 0
173 196 0
171 195 0
170 193 0
168 193 0
172 196 0
170 193 0
172 195 0
173 196 0
171 194 0
170 193 0
171 195 0
173 196 0
171 194 0
171 195 0
168 191 0
170 194 0
172 195 0
168 192 0
170 193 0
172 195 0
171 195 0
174 197 0
172 195 0
166 190 0
171 194 0
171 194 0
172 195 0
174 198 0
170 193 0
170 194 0
169 192 0
169 193 0
169 193 0
171 193 0
169 192 0
170 194 0
168 191 0
172 195 0
170 194 0
171 193 0
168 192 0
169 192 0
171 194 0
167 191 0
171 194 0
171 194 0
169 192 0
169 192 0
166 189 0
169 192 0
169 193 0
168 192 0
166 189 0
172 195 0
168 192 0
165 188 44
126 151 117
70 104 162
61 97 159
62 99 167
62 98 163
63 99 172
62 98 165
62 98 165
61 98 163
62 99 169
62 98 172
62 98 168
62 98 166
62 99 173
62 98 168
62 99 169
62 99 172
61 98 171
63 99 174
63 99 175
62 99 172
62 98 174
62 99 170
62 99 175
62 99 177
61 98 172
62 99 178
62 99 176
62 99 174
62 99 176
62 99 173
62 99 172
62 99 175
63 99 176
62 99 177
62 99 176
62 99 176
61 98 166
62 99 177
63 99 177
62 99 174
62 99 174
62 99 175
61 99 176
62 99 176
62 99 174
63 99 175
62 99 177
62 99 178
62 99 173
62 99 179
62 99 176
62 99 177
62 99 177
63 100 179
62 99 177
61 98 175
62 99 178
62 99 176
62 99 177
62 99 180
62 99 172
62 99 177
62 99 177
63 99 179
63 99 177
62 99 177
62 99 179
62 99 179
62 99 175
62 99 174
62 99 178
62 99 178
63 100 177
62 99 177
62 99 171
62 99 177
62 99 174
62 99 179
63 100 179
62 99 178
62 99 178
62 98 172
62 99 176
62 99 175
62 99 177
62 98 171
62 99 175
62 99 176
62 99 176
62 98 178
62 99 178
62 99 174
62 99 177
63 99 177
61 98 174
63 100 179
63 100 179
62 99 173
62 99 178
62 99 175
62 99 175
62 98 173
62 99 174
62 99 179
62 99 177
62 99 177
62 99 174
62 99 177
62 99 175
62 99 177
62 98 170
62 99 173
62 99 174
62 99 174
62 98 173
63 99 175
62 99 171
62 99 176
62 98 169
62 99 173
62 99 180
61 98 170
62 99 175
62 99 170
62 99 167
62 98 171
62 98 169
63 99 172
62 99 176
63 99 173
62 98 167
63 99 174
61 98 167
62 99 172
62 99 176
62 98 171
63 99 173
62 99 174
63 99 172
62 98 170
62 98 169
62 99 170
62 99 170
62 98 168
63 99 171
61 97 166
63 99 168
62 98 170
61 97 165
62 99 170
61 97 168
62 98 172
61 97 164
62 98 167
61 97 166
61 97 166
61 96 164
61 96 164
61 97 162
61 97 162
61 96 162
61 97 165
60 95 159
59 93 153
60 94 156
58 92 150
60 94 155
58 90 148
50 74 112
50 56 45
47 54 39
56 60 38
42 51 37
52 58 39
52 60 42
57 63 40
67 71 49
72 77 50
69 73 48
80 84 56
75 80 56
78 81 51
77 82 56
91 95 54
92 94 62
75 82 51
94 98 64
101 103 56
112 113 70
93 97 64
109 109 65
91 96 61
111 112 68
114 115 71
121 119 69
129 128 74
111 112 72
125 124 74
114 116 72
125 125 72
135 132 79
134 131 75
126 125 69
136 134 74
130 129 72
136 134 78
152 148 82
145 142 80
150 146 84
150 146 83
144 141 81
153 149 84
143 141 79
151 148 79
154 149 87
152 148 87
144 141 75
149 145 82
148 146 80
148 145 81
152 147 81
160 155 89
160 155 83
158 153 84
165 159 86
163 157 86
156 151 82
166 159 91
163 157 82
160 155 86
166 160 89
165 160 83
168 161 89
165 159 88
164 158 87
166 160 89
166 160 83
166 159 87
170 163 89
167 160 86
171 165 90
170 163 91
170 163 92
166 159 83
167 161 86
172 165 88
165 159 87
171 164 87
171 164 90
169 162 85
173 166 94
168 162 86
165 160 82
169 162 83
167 161 80
169 163 80
170 164 85
165 159 80
168 161 92
163 156 83
167 161 89
167 161 81
171 164 89
164 158 86
160 155 81
168 161 82
162 156 75
159 153 77
164 157 84
157 150 77
161 155 80
165 157 87
157 150 73
163 157 73
158 152 75
161 155 74
164 157 79
154 149 68
166 158 82
153 147 71
157 151 76
156 149 73
155 150 73
157 151 76
158 152 77
148 141 65
143 137 62
149 144 64
145 139 69
144 138 69
149 143 62
151 145 72
142 136 58
144 138 63
147 141 72
145 139 60
142 137 59
134 129 56
149 143 61
133 129 51
127 127 39
144 152 42
152 160 41
162 174 30
164 181 28
167 187 19
169 189 19
167 188 0
171 194 0
169 193 0
169 193 0
173 197 0
173 197 0
172 195 0
172 195 0
174 198 0
173 196 0
174 197 0
170 194 0
172 196 0
173 197 0
171 194 0
174 197 0
170 194 0
170 194 0
171 193 0
172 196 0
173 196 0
173 196 0
170 193 0
172 196 0
172 195 0
172 195 0
172 196 0
173 196 0
174 197 0
174 197 0
172 195 0
172 195 0
170 194 0
171 194 0
171 194 0
170 194 0
173 196 0
173 196 0
171 194 0
170 194 0
171 195 0
171 195 0
168 192 0
173 196 0
172 195 0
172 196 0
171 195 0
172 195 0
170 194 0
172 195 0
169 193 0
174 198 0
168 192 0
172 195 0
164 188 0
172 196 0
167 191 0
170 193 0
173 197 0
169 193 0
170 194 0
170 193 0
171 193 0
173 196 0
174 197 0
168 192 0
170 193 0
172 195 0
168 191 0
172 195 0
170 193 0
169 192 0
168 191 0
167 189 0
169 192 0
170 193 0
170 194 0
170 194 0
170 192 0
166 190 0
169 193 0
169 193 0
171 194 0
169 192 0
169 192 0
168 192 0
170 193 0
166 188 0
168 191 0
169 192 0
169 191 0
155 178 67
95 124 139
63 98 163
63 99 168
61 97 158
62 98 164
62 98 168
62 99 170
61 98 163
61 97 159
62 99 174
61 98 168
62 98 169
62 99 173
62 98 172
62 99 174
62 99 170
62 98 168
62 98 175
62 99 174
62 99 173
62 99 176
62 98 171
62 99 173
62 99 173
62 99 175
63 100 178
62 99 177
61 98 170
62 99 175
62 99 178
62 99 174
62 99 173
62 98 171
62 99 178
61 98 170
62 98 174
63 99 178
62 99 174
62 99 176
62 99 174
62 99 174
61 98 177
61 98 174
62 99 178
63 99 179
61 99 177
62 99 178
62 99 178
62 99 176
62 99 175
62 99 179
62 99 174
62 99 177
62 99 178
62 99 177
61 98 173
62 99 177
63 99 177
63 99 178
62 99 178
62 99 178
62 99 177
62 99 177
62 99 176
63 100 178
62 99 176
62 99 177
62 99 178
62 99 177
61 98 177
62 99 177
63 99 175
63 99 178
62 99 174
62 99 174
62 98 175
62 99 179
61 98 172
62 99 178
62 99 178
63 99 179
63 100 178
63 100 174
62 99 175
61 98 177
62 99 175
62 99 175
61 98 172
62 99 176
62 99 172
62 98 173
62 99 175
62 98 173
62 99 177
62 99 175
62 98 172
62 99 172
63 100 180
62 99 176
63 99 174
62 99 177
62 99 176
62 99 175
62 99 177
62 99 178
62 99 178
62 99 174
62 99 176
62 99 179
63 99 174
62 99 176
62 99 177
62 99 175
63 99 178
62 99 174
62 99 173
61 98 173
62 99 171
62 98 171
62 99 175
62 98 168
63 100 180
62 99 175
62 99 176
62 98 173
62 99 174
63 100 176
62 99 173
63 99 172
61 98 171
61 98 169
63 99 173
62 99 173
62 99 171
63 99 176
62 98 171
61 97 164
62 99 171
62 98 168
62 99 169
61 98 168
61 98 168
61 98 171
62 98 169
62 98 170
62 98 169
61 97 162
61 96 164
61 97 167
62 98 170
62 98 163
62 97 161
62 98 166
61 97 166
61 97 166
62 98 169
61 97 162
62 98 171
61 97 162
61 97 167
61 96 159
61 97 164
60 96 162
61 96 162
60 95 160
60 93 151
61 96 157
60 94 149
58 91 142
57 86 133
55 69 87
33 42 29
44 51 32
57 62 41
48 54 33
56 61 41
67 70 45
62 68 44
57 63 47
68 74 50
72 77 52
70 74 53
82 85 54
75 79 49
83 85 55
86 90 57
86 89 54
83 87 55
88 91 58
104 107 67
100 102 57
97 101 61
103 106 66
106 107 62
99 102 64
121 121 72
113 113 69
119 119 73
120 120 66
129 128 72
137 134 81
132 130 78
139 137 77
139 137 84
137 134 84
137 135 79
141 138 81
136 134 77
145 142 74
135 133 79
148 145 83
142 140 78
144 141 82
141 138 80
152 147 84
143 141 82
151 147 88
146 143 78
149 146 80
157 152 79
153 149 84
159 154 88
154 150 83
159 154 79
161 157 90
161 155 86
167 161 91
162 156 86
162 157 87
161 155 89
162 157 82
159 154 80
161 156 84
167 162 87
160 156 85
171 164 91
161 156 85
167 161 87
164 159 83
164 159 83
163 157 85
169 163 84
170 164 87
167 162 90
171 164 88
168 161 84
169 163 88
170 163 93
163 157 81
167 160 83
168 161 85
166 160 86
168 161 82
165 160 79
167 160 83
166 159 78
165 159 79
169 163 82
168 161 87
166 159 79
168 161 86
167 161 84
164 158 82
156 151 73
165 159 80
156 150 73
163 157 78
169 162 80
160 154 77
162 156 79
158 152 80
162 155 81
156 151 68
161 154 82
160 154 75
156 150 76
163 156 80
157 151 73
159 152 77
156 149 73
157 151 75
154 147 69
151 145 71
155 148 76
159 153 75
153 147 71
145 140 59
146 140 66
149 143 62
149 143 66
142 136 59
151 145 68
140 135 64
149 143 68
132 126 57
135 129 57
133 128 56
141 135 52
127 122 53
129 125 53
126 123 47
143 147 39
143 150 42
147 156 34
147 160 16
164 179 25
163 182 16
169 189 0
170 190 0
169 191 0
172 195 0
171 195 0
171 195 0
172 196 0
172 196 0
170 193 0
169 192 0
172 196 0
174 197 0
174 197 0
174 197 0
171 194 0
171 195 0
171 193 0
171 195 0
172 195 0
173 196 0
168 190 0
174 197 0
172 195 0
172 195 0
170 193 0
173 197 0
171 195 0
172 196 0
174 197 0
169 192 0
171 194 0
171 195 0
172 195 0
171 194 0
170 193 0
173 196 0
171 194 0
170 194 0
172 195 0
171 195 0
172 195 0
171 195 0
169 192 0
174 196 0
172 195 0
172 196 0
172 195 0
173 196 0
174 198 0
170 194 0
175 198 0
173 196 0
169 193 0
168 191 0
172 195 0
172 196 0
171 194 0
167 191 0
170 193 0
170 193 0
170 194 0
171 194 0
170 193 0
173 197 0
172 196 0
171 195 0
170 193 0
171 195 0
169 193 0
171 194 0
168 192 0
170 194 0
170 194 0
173 196 0
169 193 0
172 195 0
170 193 0
168 192 0
172 195 0
169 193 0
167 191 0
164 188 0
168 192 0
170 193 0
172 196 0
168 191 0
171 194 0
168 191 0
169 192 0
169 191 0
166 189 0
170 194 18
141 166 99
70 104 154
61 97 158
62 98 163
62 98 167
62 98 164
62 98 169
62 98 165
63 99 176
62 98 160
62 99 172
61 98 165
62 99 170
63 99 174
62 99 170
62 98 170
62 99 172
62 98 169
62 99 168
63 99 176
62 98 174
62 99 173
62 99 176
61 98 169
62 99 174
63 99 174
62 99 177
62 99 174
63 99 176
63 99 176
62 98 171
62 98 174
62 98 169
62 98 169
62 99 174
62 99 175
63 99 176
63 100 180
62 99 175
61 98 171
62 99 177
62 99 172
62 99 175
62 99 176
62 99 175
62 99 175
62 99 178
61 98 177
62 99 177
63 100 180
62 99 175
62 99 177
62 99 179
62 99 177
62 99 176
63 100 179
63 100 179
63 99 178
61 98 175
62 99 175
62 99 179
62 99 174
62 99 177
61 98 174
62 99 178
63 99 173
62 99 178
63 100 180
61 98 177
61 98 175
62 99 175
62 99 177
62 99 178
62 99 176
62 98 175
62 99 176
62 99 176
62 99 179
62 99 178
62 99 173
62 99 178
62 99 176
62 99 176
62 99 174
62 99 176
62 99 176
63 100 180
62 99 177
63 99 177
62 99 177
62 99 173
62 99 175
63 99 176
63 99 178
62 99 173
63 100 178
62 99 177
62 99 175
62 98 173
62 99 173
62 99 175
61 98 168
62 99 175
63 100 177
62 99 173
62 99 177
62 99 176
62 98 173
62 99 180
62 99 174
62 99 177
62 99 175
62 99 174
62 98 167
62 99 177
62 99 173
62 99 179
61 98 168
63 99 173
62 98 170
62 99 172
62 98 170
62 99 172
63 99 176
62 98 170
63 99 178
62 99 169
62 99 174
62 99 172
62 99 173
61 98 168
62 98 174
62 98 165
62 99 173
62 99 174
62 99 169
62 99 174
63 99 173
62 99 172
61 98 166
62 98 170
62 98 167
61 98 169
62 98 165
61 98 167
62 98 168
61 97 168
62 98 174
61 98 166
62 98 167
61 97 165
64 100 171
62 98 171
61 95 160
62 97 165
61 98 167
62 98 166
62 98 170
62 98 170
62 98 164
61 96 161
62 98 164
60 95 158
62 97 163
61 96 159
62 96 163
60 94 158
59 93 150
59 94 156
59 92 149
55 87 141
50 68 94
46 54 49
48 54 38
56 59 38
47 54 37
56 61 36
67 71 43
66 72 48
71 74 46
62 68 44
78 82 46
68 74 47
78 83 56
81 84 52
87 90 57
87 91 55
91 93 55
105 105 62
96 97 56
98 100 62
110 111 65
95 98 54
102 105 61
110 111 64
104 105 65
114 114 69
119 119 69
116 116 69
121 121 70
122 121 65
136 134 82
125 123 71
136 134 78
139 137 78
129 128 66
142 140 80
145 141 75
151 148 83
144 143 77
139 136 71
134 133 77
157 152 84
150 147 82
144 141 77
156 152 85
150 146 79
150 147 88
151 146 77
151 147 81
153 149 85
149 145 80
158 153 86
157 152 86
160 155 85
159 154 83
156 152 81
153 149 78
164 158 86
153 149 82
161 155 83
158 154 81
170 163 91
168 162 87
167 162 91
167 161 86
166 160 89
162 156 81
170 163 85
172 165 90
165 159 84
155 150 78
162 158 81
168 162 86
172 164 90
174 166 92
170 163 90
169 163 88
170 163 90
162 155 78
167 161 84
164 158 79
168 162 90
166 160 80
170 164 87
171 164 87
161 155 79
164 158 80
164 157 77
169 162 87
167 160 83
162 157 83
172 165 89
166 159 84
171 164 90
161 155 81
155 149 76
157 151 79
168 161 83
163 156 80
163 157 79
164 157 80
163 156 83
163 157 82
160 154 80
153 148 64
157 152 72
152 147 67
151 145 73
152 145 68
153 146 70
160 153 74
148 142 72
158 151 69
162 155 78
152 145 70
158 151 68
160 153 72
152 146 65
150 143 68
143 138 62
140 135 53
147 141 65
143 136 61
142 135 65
138 132 64
134 128 54
141 135 58
134 128 58
129 125 48
136 131 44
133 131 45
139 145 37
146 153 37
157 169 34
162 179 30
160 178 11
168 189 19
169 190 0
162 183 0
174 196 0
173 196 0
173 196 0
171 195 0
169 193 0
171 194 0
171 195 0
171 194 0
172 195 0
169 193 0
169 192 0
171 195 0
174 197 0
171 194 0
171 195 0
170 195 0
174 196 0
171 195 0
171 194 0
171 194 0
172 195 0
171 195 0
174 197 0
171 194 0
172 195 0
172 196 0
175 197 0
173 197 0
169 192 0
172 195 0
170 194 0
173 195 0
168 192 0
172 196 0
173 196 0
174 197 0
170 193 0
171 194 0
168 192 0
172 196 0
172 195 0
171 194 0
167 189 0
171 194 0
170 194 0
170 193 0
172 196 0
173 195 0
173 197 0
170 193 0
170 193 0
174 197 0
169 192 0
171 195 0
169 192 0
168 191 0
168 191 0
169 192 0
168 191 0
166 189 0
168 191 0
169 193 0
172 196 0
169 193 0
169 192 0
174 197 0
168 191 0
172 195 0
168 191 0
168 191 0
169 192 0
171 194 0
173 196 0
170 193 0
169 192 0
166 190 0
172 195 0
171 195 0
169 193 0
170 193 0
169 192 0
169 192 0
168 191 0
170 193 0
167 191 0
167 190 0
168 191 0
170 194 0
168 191 0
168 191 36
128 154 115
64 99 161
63 99 165
62 98 160
61 97 159
63 99 166
63 99 174
62 99 168
63 99 167
62 98 167
61 98 169
61 97 164
62 98 166
62 98 167
62 98 167
62 98 171
61 98 165
62 99 176
62 98 173
61 98 168
62 99 173
62 98 168
62 98 171
63 99 174
63 100 178
62 98 173
62 99 173
62 99 174
62 98 171
62 99 175
62 99 176
63 99 176
62 99 177
62 99 172
62 99 177
62 99 177
62 98 169
63 99 174
62 99 175
62 99 179
62 98 175
63 100 178
61 98 177
62 99 173
61 98 174
62 99 177
62 99 175
63 99 178
63 99 175
63 99 177
62 99 177
63 100 176
62 99 172
63 99 174
62 99 179
61 99 176
62 99 175
61 98 171
62 99 180
62 98 172
62 99 175
62 99 178
62 99 178
62 98 174
62 99 177
62 99 176
62 99 179
62 98 175
62 99 176
61 99 176
62 99 177
62 99 178
62 99 177
63 100 174
61 98 172
62 99 173
62 99 176
63 100 179
61 98 172
63 99 176
63 100 178
62 98 173
62 99 176
62 99 173
61 98 176
62 99 176
62 98 175
62 99 177
63 100 178
62 99 176
61 98 171
62 99 175
62 99 176
61 99 178
62 99 174
62 99 178
62 99 175
61 98 171
62 99 173
62 99 176
62 99 175
62 99 173
61 98 173
62 99 174
62 99 173
62 99 174
62 99 175
62 99 176
63 99 173
62 99 177
61 98 171
62 99 173
61 98 173
62 99 171
62 99 178
61 98 170
62 99 176
61 98 172
62 99 170
62 99 175
61 98 170
62 99 173
62 99 176
62 99 171
63 99 178
62 98 172
62 98 169
62 99 170
62 99 178
62 99 176
62 98 169
62 98 170
61 98 169
62 98 172
62 99 177
62 99 171
62 98 168
62 98 171
62 99 168
62 99 174
62 99 174
62 99 172
62 98 170
62 99 171
62 98 168
62 99 173
62 98 170
61 98 169
63 99 170
63 99 169
62 98 167
62 98 166
62 98 165
62 98 166
62 98 167
61 96 157
61 97 164
61 97 161
62 97 162
61 96 156
61 97 165
61 96 163
62 98 166
62 97 158
61 95 153
60 95 157
61 96 162
59 93 142
61 95 151
59 94 151
57 89 147
56 82 126
39 51 58
55 60 39
49 54 33
62 64 37
54 59 40
69 71 39
62 66 45
69 73 43
74 78 48
67 74 46
79 83 47
79 83 47
69 74 48
85 88 55
80 85 53
96 98 60
98 100 62
100 102 62
96 98 58
106 107 64
104 106 59
108 110 61
105 106 63
114 115 67
121 120 67
112 114 67
109 110 65
117 117 63
119 118 68
139 136 75
131 130 74
124 124 69
136 133 75
132 131 77
145 142 78
137 135 76
130 129 72
137 136 74
140 137 72
145 141 82
140 137 74
149 145 81
144 140 71
149 146 80
142 139 76
139 138 78
159 153 85
157 151 88
159 155 87
156 151 76
159 153 86
155 150 78
165 160 82
160 155 87
162 156 83
158 152 79
168 162 86
157 152 85
168 162 90
163 157 82
163 157 84
164 158 83
162 156 84
159 154 82
166 159 84
169 162 89
165 158 86
165 159 85
171 164 87
163 157 77
161 155 78
165 159 82
168 162 82
167 160 86
168 162 89
167 161 82
167 160 80
172 165 83
166 160 84
160 155 81
168 162 84
172 164 90
164 158 83
164 157 80
168 162 82
169 163 85
168 161 83
167 161 81
164 157 82
166 159 84
162 157 80
164 158 74
168 162 84
161 154 79
159 153 75
156 149 75
162 155 84
160 153 74
158 152 69
160 154 70
161 154 81
161 155 77
160 155 71
164 157 73
156 149 74
154 148 69
160 153 74
155 149 75
147 142 64
158 150 76
139 135 59
153 147 69
154 147 75
155 149 69
152 147 69
144 139 60
158 151 77
151 144 68
149 143 61
146 141 60
152 144 69
142 137 63
139 134 53
153 146 69
130 125 47
142 136 60
135 130 51
133 127 59
134 130 52
139 141 49
142 148 41
144 153 28
152 164 32
161 178 16
164 183 16
168 188 16
168 189 11
169 189 0
169 191 0
173 197 0
173 196 0
172 196 0
172 194 0
172 196 0
174 197 0
173 196 0
171 194 0
175 198 0
172 195 0
172 196 0
171 194 0
171 195 0
171 195 0
170 194 0
173 197 0
172 195 0
171 194 0
172 195 0
174 197 0
172 196 0
174 197 0
172 195 0
172 196 0
173 196 0
169 193 0
171 194 0
170 193 0
173 197 0
170 193 0
171 196 0
173 197 0
170 193 0
169 192 0
172 195 0
170 194 0
174 197 0
168 191 0
168 192 0
171 194 0
171 194 0
171 195 0
172 195 0
172 196 0
172 196 0
172 196 0
172 196 0
171 195 0
170 194 0
169 193 0
170 193 0
168 191 0
170 193 0
169 193 0
171 195 0
170 193 0
171 194 0
171 194 0
170 194 0
169 192 0
170 193 0
169 192 0
170 194 0
168 191 0
168 191 0
169 193 0
166 190 0
172 195 0
169 193 0
172 195 0
171 195 0
169 192 0
170 194 0
173 195 0
168 191 0
168 191 0
172 195 0
170 193 0
172 196 0
172 195 0
168 191 0
172 194 0
167 190 0
170 194 0
167 191 0
165 188 0
169 193 0
170 194 0
157 181 67
102 131 137
62 97 161
62 98 165
62 98 160
63 99 169
62 98 164
62 98 165
62 99 173
62 99 170
62 99 166
61 98 166
62 99 171
63 99 173
63 99 171
62 98 169
61 97 160
62 99 172
62 98 171
62 99 173
62 98 168
62 98 166
62 99 175
62 98 171
62 99 170
62 98 167
63 99 175
62 98 169
62 99 174
63 99 176
62 99 174
62 99 175
62 98 171
62 99 179
62 98 171
62 99 176
63 99 171
62 98 170
61 97 169
63 100 178
62 99 176
63 99 176
61 98 172
62 99 176
62 99 177
62 99 176
61 98 174
63 100 180
62 99 176
61 98 175
62 99 178
62 99 178
62 99 176
62 99 177
62 99 176
62 99 178
63 100 176
62 99 180
62 99 174
62 99 173
62 99 178
62 99 176
62 99 179
62 99 175
62 99 179
63 100 178
62 99 176
62 99 177
63 100 179
61 98 172
61 98 167
62 99 181
62 98 170
63 99 176
62 98 172
62 99 174
63 100 178
62 99 177
63 99 177
62 99 175
63 100 176
62 99 176
61 98 178
61 98 176
62 99 177
62 99 171
62 99 174
61 98 175
62 99 172
61 98 176
62 98 172
62 99 176
61 98 173
62 99 177
62 99 173
62 99 178
62 99 174
62 99 177
62 99 177
61 98 175
62 99 174
63 99 176
62 98 170
62 99 173
62 99 173
62 99 175
62 98 171
62 99 178
61 98 172
62 99 173
62 99 175
62 99 174
62 99 175
62 99 172
63 100 178
63 99 176
63 99 176
62 98 170
62 99 172
63 100 175
62 99 172
62 98 171
62 98 173
62 99 174
62 99 177
62 98 171
62 99 172
62 99 170
63 99 174
62 98 169
62 99 174
62 99 170
61 98 169
63 99 174
62 98 173
62 99 172
62 99 170
62 98 172
62 98 170
63 100 175
63 99 174
62 99 172
62 99 170
62 98 168
62 99 172
62 98 169
62 98 170
61 97 160
62 98 169
61 97 166
62 98 169
62 98 168
62 98 168
62 99 171
63 99 168
61 98 167
61 97 167
62 98 166
62 98 164
61 97 165
62 97 164
61 97 165
62 98 160
62 97 165
60 96 160
61 96 160
60 94 151
62 97 165
60 95 160
61 96 162
59 94 153
59 93 154
57 85 130
54 67 82
37 42 25
42 48 30
49 54 38
47 53 39
54 58 36
59 64 39
63 69 41
61 66 34
62 67 42
63 67 42
85 88 51
92 95 62
84 87 50
90 92 52
75 79 49
99 101 57
91 94 56
96 99 59
107 108 65
102 103 58
96 100 60
104 105 58
112 113 66
115 115 70
114 115 65
119 119 62
121 120 68
121 120 67
109 110 68
126 125 67
119 118 69
139 136 74
139 138 80
128 128 71
124 123 69
147 143 78
144 140 82
138 136 76
143 139 79
136 134 77
150 145 79
146 142 77
145 141 75
147 143 75
147 145 81
152 148 81
158 153 87
144 142 76
159 153 81
150 146 78
153 149 83
149 145 77
162 155 82
164 158 87
155 151 84
158 153 75
156 150 80
152 147 74
160 154 79
166 159 86
163 157 84
161 156 76
162 156 82
165 160 84
164 158 82
166 161 90
166 160 78
164 157 80
167 161 78
164 158 79
167 160 89
162 157 82
163 157 79
167 161 84
166 160 83
162 156 75
161 155 78
165 158 84
165 158 83
167 160 86
166 159 87
163 158 77
165 159 80
167 160 81
160 154 77
169 161 82
158 152 75
155 149 75
165 158 81
164 157 75
162 155 80
157 151 75
159 154 75
165 159 77
166 159 81
160 155 76
161 155 75
159 153 75
163 157 77
162 154 80
156 150 73
162 156 74
164 157 70
158 151 71
167 160 80
148 144 64
149 144 65
152 145 68
156 150 73
153 147 68
155 149 68
155 149 65
148 142 63
147 142 59
156 150 70
156 149 69
151 144 70
145 140 54
153 146 69
141 136 58
143 138 63
135 129 62
136 131 53
136 131 56
135 129 52
130 124 54
130 127 47
134 131 53
142 144 48
151 156 47
152 163 34
157 170 32
166 182 28
166 183 28
169 187 16
165 186 0
172 194 0
170 190 0
171 194 0
172 195 0
171 195 0
172 195 0
171 195 0
171 195 0
170 194 0
172 195 0
171 194 0
173 196 0
174 197 0
173 197 0
171 195 0
172 196 0
174 197 0
169 193 0
172 196 0
171 194 0
171 194 0
169 193 0
171 195 0
171 195 0
172 195 0
169 193 0
173 196 0
175 197 0
171 194 0
169 192 0
172 195 0
173 196 0
169 193 0
173 196 0
172 196 0
171 194 0
170 195 0
171 195 0
170 193 0
171 195 0
168 191 0
174 197 0
171 194 0
173 197 0
168 192 0
167 191 0
172 195 0
172 195 0
170 194 0
167 190 0
169 190 0
169 193 0
170 193 0
169 193 0
169 193 0
170 193 0
168 191 0
171 195 0
172 195 0
166 190 0
170 193 0
171 194 0
165 189 0
172 195 0
171 194 0
172 195 0
172 195 0
172 194 0
170 194 0
169 192 0
172 195 0
172 195 0
170 194 0
172 195 0
171 194 0
171 195 0
168 191 0
169 191 0
167 190 0
172 195 0
168 191 0
165 189 0
170 193 0
170 192 0
170 193 0
170 194 0
171 194 0
170 194 0
169 192 0
169 192 0
151 175 70
78 110 154
62 99 170
62 98 161
61 97 154
62 98 164
62 99 172
62 98 164
61 98 167
62 99 169
62 99 171
62 98 167
62 99 174
62 98 169
62 98 166
62 98 167
62 98 167
63 99 175
62 99 173
62 98 166
62 99 171
62 98 171
62 99 173
62 99 171
62 99 175
61 98 171
62 98 172
63 99 175
62 99 174
62 99 174
62 99 177
62 99 170
62 99 176
63 99 175
63 100 178
62 99 175
63 100 177
62 99 178
62 99 172
62 99 175
62 99 175
63 100 179
62 99 171
63 100 181
62 99 176
62 99 177
62 99 176
62 99 177
62 99 179
62 99 174
62 99 174
62 99 174
62 99 176
63 100 179
63 99 177
62 99 175
61 98 176
62 99 177
62 99 174
62 99 178
61 98 175
62 99 175
62 99 175
62 99 176
61 98 171
62 99 178
62 99 175
61 98 173
62 99 177
62 99 176
63 99 176
62 99 178
61 98 176
62 99 175
62 99 176
62 99 176
62 99 175
62 99 172
62 99 174
62 99 178
62 99 174
62 99 176
62 98 172
62 99 177
63 99 175
62 99 175
62 99 177
62 99 177
62 99 178
62 99 173
62 99 174
61 98 174
62 99 173
62 99 175
62 99 175
62 99 176
62 99 176
62 99 178
62 99 176
63 100 178
63 99 174
62 99 174
62 98 169
62 99 176
62 99 175
63 99 176
62 99 177
62 99 174
61 98 177
61 98 169
62 99 173
62 99 174
62 99 171
61 98 165
62 99 177
62 98 172
63 99 175
62 99 173
63 99 171
61 98 168
62 98 172
62 98 170
61 98 168
63 99 171
62 99 174
61 98 174
62 99 172
62 99 173
63 99 178
62 99 172
61 98 168
62 99 175
62 99 171
61 98 172
62 99 170
62 99 170
63 99 167
62 99 170
62 99 169
62 99 173
61 98 170
62 98 167
62 99 171
61 98 168
62 99 168
62 98 168
63 98 166
62 98 167
62 99 172
62 98 163
63 99 173
62 98 170
62 98 169
62 99 169
62 98 165
62 98 165
61 96 159
61 97 166
61 97 161
60 95 153
62 97 160
60 95 158
61 97 163
62 97 162
61 97 162
61 97 163
60 95 160
60 95 152
60 94 155
59 93 150
59 92 147
58 91 150
60 92 152
58 75 97
42 50 40
50 55 29
46 50 31
56 61 40
40 48 34
63 69 38
62 66 36
71 74 40
58 66 42
50 57 42
68 72 42
77 82 52
93 94 55
78 81 47
78 83 49
89 91 53
87 91 53
90 94 49
108 110 65
94 97 60
115 115 65
109 109 57
109 109 65
102 104 61
113 113 59
124 123 70
120 121 65
126 126 73
127 125 69
119 118 68
119 119 66
134 132 74
142 138 77
136 133 74
148 144 80
131 130 71
144 140 77
141 139 72
134 133 74
141 139 69
146 142 77
143 140 76
149 147 77
150 146 80
148 143 79
151 146 81
152 147 76
150 146 78
146 143 73
160 155 85
155 150 79
159 153 88
150 147 72
162 157 85
161 156 80
161 156 84
159 154 74
155 151 77
164 158 86
162 156 83
162 156 82
155 151 75
164 158 83
160 155 77
168 161 89
164 158 82
168 161 87
169 163 80
163 157 78
162 155 80
168 162 82
167 161 82
162 156 79
162 156 77
169 162 84
164 158 76
166 160 80
164 158 76
165 159 78
169 162 88
174 166 87
165 158 77
166 161 77
165 158 78
166 160 86
160 155 79
167 160 81
168 162 84
168 161 82
158 152 78
164 157 77
161 154 79
160 153 74
165 158 80
162 156 80
161 155 72
162 156 76
163 157 78
161 154 83
162 156 78
160 153 75
161 154 75
154 148 63
160 153 75
161 154 79
154 148 74
154 148 77
144 140 64
152 146 64
150 144 70
144 139 64
152 146 75
143 137 62
154 148 68
149 143 66
142 137 61
135 129 54
149 142 56
145 139 63
146 140 58
136 131 56
150 143 64
133 128 47
135 130 56
136 131 51
133 127 47
123 120 44
148 147 49
148 148 52
147 158 28
154 167 28
157 171 25
161 179 16
167 185 16
169 190 0
169 189 0
170 192 0
171 191 0
171 195 0
171 194 0
173 197 0
172 196 0
171 195 0
173 196 0
171 195 0
171 193 0
172 195 0
169 192 0
172 195 0
173 196 0
171 194 0
170 194 0
173 196 0
171 194 0
172 195 0
173 196 0
171 195 0
168 191 0
169 193 0
172 195 0
169 193 0
172 195 0
171 195 0
171 195 0
170 194 0
169 192 0
171 195 0
168 192 0
167 190 0
173 196 0
173 197 0
169 193 0
173 196 0
173 196 0
172 196 0
170 194 0
172 195 0
171 193 0
169 192 0
166 190 0
174 197 0
168 191 0
170 193 0
170 193 0
169 193 0
168 190 0
167 191 0
169 193 0
170 193 0
170 193 0
171 195 0
172 195 0
170 194 0
169 192 0
171 195 0
170 194 0
169 192 0
172 195 0
172 196 0
165 188 0
169 191 0
170 193 0
172 196 0
172 195 0
168 192 0
168 191 0
167 191 0
169 192 0
168 190 0
171 195 0
171 194 0
167 191 0
168 193 0
165 188 0
167 191 0
172 195 0
165 188 0
166 190 0
170 193 0
170 193 0
167 189 0
166 189 0
168 190 0
164 188 0
171 193 0
169 192 18
127 152 114
63 98 155
61 98 161
62 98 162
62 98 157
61 98 165
62 99 166
62 98 167
62 99 171
61 98 163
63 99 169
62 98 167
61 98 165
62 99 171
61 98 165
62 99 172
62 99 171
62 98 168
62 99 172
62 99 172
62 99 172
61 98 170
61 98 165
61 98 167
63 99 173
62 98 168
61 98 167
62 98 173
62 99 172
62 99 175
62 99 174
61 98 171
62 99 176
62 99 174
63 99 174
62 99 176
63 99 178
62 99 176
63 100 176
62 99 176
62 98 174
63 100 179
62 99 172
61 98 173
62 99 176
62 98 176
62 99 175
62 99 175
62 99 174
61 98 175
61 98 174
62 99 179
63 100 179
63 99 177
62 98 172
62 99 176
62 99 177
62 99 177
62 99 176
62 99 177
63 99 179
62 99 177
62 99 177
62 99 175
62 99 176
63 99 175
62 99 179
62 99 177
61 98 171
63 100 178
61 98 172
62 99 177
61 98 173
62 99 177
62 99 179
63 99 176
62 99 176
62 98 175
62 99 175
63 100 178
63 99 176
63 99 178
62 99 177
62 98 171
62 99 173
61 98 174
61 98 172
62 99 173
62 99 171
63 99 177
61 98 174
62 99 169
62 99 174
61 98 174
62 99 173
62 99 176
62 99 173
62 99 178
62 99 174
62 99 177
63 99 177
62 99 173
62 99 176
62 99 173
62 99 174
62 99 175
62 99 174
62 99 173
62 98 169
62 99 172
63 99 176
62 99 173
63 100 175
62 99 176
62 99 174
62 99 173
62 99 173
62 99 171
62 99 173
62 98 173
61 98 170
62 98 172
63 99 171
63 99 173
62 99 177
63 99 175
62 99 169
62 99 172
62 99 175
62 99 172
62 99 171
62 98 172
62 98 165
62 99 170
62 98 171
62 98 171
61 98 173
61 97 165
62 99 171
61 97 160
62 99 169
62 99 173
62 99 169
61 97 165
63 99 168
61 98 169
62 98 170
62 98 167
62 98 166
62 98 167
61 97 161
62 98 164
62 98 166
62 98 164
62 98 171
62 98 167
61 97 168
62 98 167
62 97 161
61 97 160
63 98 168
61 96 158
61 95 156
61 96 165
61 97 160
61 95 155
61 96 161
60 94 157
61 96 155
60 95 153
59 93 157
60 95 154
59 89 139
51 73 102
50 58 51
54 59 31
51 55 29
58 63 34
56 61 37
54 60 37
64 69 45
56 62 38
57 64 40
64 70 41
81 84 44
77 80 47
79 83 43
90 91 41
87 90 37
89 92 46
104 104 56
97 98 57
109 109 62
103 106 54
103 105 57
102 104 63
115 115 63
111 112 59
117 117 64
108 109 61
122 122 64
125 124 69
132 129 67
129 127 73
128 126 61
137 133 76
131 129 68
127 125 65
134 131 74
139 137 79
136 134 67
133 130 68
141 137 76
144 141 72
154 149 78
146 141 74
152 148 80
149 145 72
153 149 82
147 144 71
147 143 75
161 156 80
154 150 80
151 147 82
161 155 85
148 145 73
156 151 76
155 150 75
169 163 87
159 153 77
155 150 78
164 158 82
168 161 86
163 157 84
167 160 87
161 155 78
158 152 74
165 159 80
162 156 83
161 154 84
158 153 74
162 156 78
164 158 83
163 158 84
165 159 81
163 157 78
162 155 78
168 162 86
166 158 80
164 158 78
164 157 82
167 160 81
170 163 87
163 157 75
166 160 78
168 161 84
157 151 71
162 156 78
164 157 78
165 158 79
166 159 78
166 160 80
162 155 75
162 156 75
163 156 80
162 155 75
159 153 69
159 153 75
166 159 74
162 155 77
156 151 73
159 152 79
152 146 65
166 159 77
160 154 72
160 154 76
159 152 77
155 148 69
152 146 66
158 152 67
149 143 68
159 152 72
161 154 72
147 142 63
155 148 71
146 140 66
153 146 63
147 142 68
145 138 67
136 131 57
143 138 53
149 142 58
151 144 61
139 133 58
137 132 56
136 131 45
138 132 57
130 125 42
142 136 51
146 142 59
127 122 51
143 141 53
146 153 32
149 158 19
147 158 30
166 181 28
161 179 16
168 185 16
171 190 0
171 191 0
172 190 0
170 189 0
169 193 0
173 197 0
174 197 0
174 197 0
167 190 0
175 197 0
172 195 0
172 195 0
173 195 0
172 196 0
172 195 0
174 197 0
171 195 0
172 195 0
172 196 0
170 194 0
171 194 0
172 195 0
173 196 0
172 196 0
171 195 0
169 192 0
172 195 0
173 197 0
173 196 0
169 193 0
172 195 0
172 195 0
169 192 0
170 193 0
169 193 0
174 197 0
171 194 0
170 193 0
172 195 0
169 192 0
172 195 0
172 195 0
172 195 0
172 195 0
168 192 0
171 195 0
169 193 0
169 193 0
170 193 0
170 194 0
171 194 0
170 194 0
169 193 0
172 196 0
169 192 0
169 193 0
169 192 0
171 194 0
170 193 0
171 194 0
167 190 0
172 196 0
171 194 0
169 193 0
172 195 0
174 198 0
170 194 0
169 193 0
171 194 0
168 192 0
174 197 0
170 194 0
168 192 0
169 193 0
168 191 0
168 191 0
169 193 0
169 192 0
169 193 0
169 192 0
169 192 0
172 194 0
169 193 0
167 190 0
169 192 0
168 192 0
173 196 0
164 187 0
170 193 0
168 192 0
169 193 0
163 184 44
101 129 137
62 99 165
61 97 162
62 98 162
61 97 160
62 98 166
62 99 167
62 98 170
62 98 166
62 98 160
62 98 172
62 98 166
62 99 172
62 99 168
62 99 170
62 99 166
62 99 172
62 99 170
63 99 175
63 99 174
62 99 172
62 99 172
62 98 167
62 98 167
62 99 167
62 99 171
62 99 176
62 99 175
63 99 175
63 100 177
62 99 173
62 99 175
62 99 176
63 100 174
62 99 175
62 99 174
62 99 174
63 99 174
63 99 176
62 99 179
62 99 175
62 98 173
61 98 176
63 99 177
62 99 174
63 99 171
61 98 172
63 99 175
62 99 172
62 99 178
62 99 176
62 99 174
63 100 179
62 99 174
62 99 178
62 99 174
62 99 176
62 98 172
62 99 177
62 99 174
62 99 174
62 99 174
62 98 171
62 99 176
62 99 174
62 99 173
62 99 177
63 100 177
62 99 175
62 99 175
62 99 177
62 99 176
62 99 181
62 99 172
62 99 177
62 99 175
62 99 178
62 99 177
62 99 178
62 99 176
62 99 177
63 99 175
62 99 178
62 99 176
62 99 175
61 98 170
62 99 170
62 99 175
61 98 176
62 99 175
62 99 174
62 99 175
62 99 178
62 99 175
62 99 176
62 99 175
62 99 172
62 99 176
62 99 176
62 99 172
62 98 169
62 99 176
62 99 172
62 99 172
62 99 170
62 98 172
62 99 170
62 99 175
62 99 172
63 99 174
62 99 172
63 99 172
62 99 174
62 99 177
62 99 171
61 98 173
62 98 170
63 100 179
61 98 166
62 99 172
62 98 172
63 99 178
62 98 169
62 99 174
62 99 173
62 98 172
62 98 168
63 100 175
62 99 173
62 98 171
63 99 172
62 99 173
63 99 170
62 99 170
62 99 179
62 98 171
62 99 165
62 99 170
62 98 166
62 98 174
62 99 173
62 99 170
61 97 162
62 98 167
63 99 168
61 97 163
62 99 166
61 98 166
61 97 166
61 98 169
62 98 168
63 99 171
62 98 165
62 98 169
62 98 167
62 97 160
62 97 164
60 95 161
63 99 171
61 96 160
61 97 164
61 96 159
61 96 158
61 96 160
62 97 162
60 95 156
62 97 164
60 94 151
61 96 157
60 94 152
59 94 158
56 88 140
58 91 149
54 75 106
48 59 68
51 55 31
46 52 33
49 54 32
65 69 40
50 56 36
63 67 35
64 69 40
67 70 41
66 70 41
70 73 42
68 73 40
76 80 39
76 79 47
80 82 41
88 90 53
81 84 51
93 95 52
95 96 55
101 102 52
98 100 57
95 98 55
113 113 60
107 108 64
114 113 64
117 116 64
109 110 64
133 130 70
124 124 69
121 120 65
118 118 66
122 121 64
133 131 71
132 130 73
142 139 78
130 128 70
139 136 74
141 137 68
142 139 77
133 131 63
150 146 77
141 138 76
154 150 79
149 144 75
149 146 78
148 144 77
151 146 79
150 146 73
151 147 78
153 149 79
152 147 78
148 145 73
150 146 76
160 153 85
157 152 78
153 149 79
156 151 76
161 156 76
163 158 78
162 156 80
158 152 78
164 158 80
164 158 80
161 155 80
164 158 78
162 155 81
162 156 78
161 155 75
163 158 80
164 157 81
158 152 77
164 157 79
165 159 82
156 151 72
164 158 78
162 156 78
161 155 71
163 157 77
163 156 82
166 159 84
163 156 81
160 154 74
164 158 80
163 157 78
162 157 81
163 156 73
157 150 73
162 155 77
159 153 73
161 154 73
165 159 78
166 159 78
163 155 78
156 150 72
164 157 79
156 149 74
159 153 75
158 152 74
160 154 73
155 148 66
153 147 67
158 151 77
160 154 75
158 152 69
156 149 70
155 146 74
159 153 75
153 147 68
152 146 63
150 145 63
147 140 66
153 146 68
147 142 62
149 143 64
138 133 61
150 144 58
147 141 59
148 141 65
146 140 57
141 135 57
134 129 53
144 137 57
138 133 49
141 135 48
148 143 61
125 121 41
135 134 45
139 140 49
154 161 48
150 164 22
157 170 25
165 180 22
159 176 0
169 190 0
169 189 0
168 187 0
172 193 0
172 193 0
173 196 0
173 196 0
172 196 0
173 197 0
172 196 0
172 195 0
171 196 0
170 193 0
174 197 0
170 194 0
172 195 0
171 195 0
168 193 0
171 194 0
168 192 0
174 197 0
172 195 0
172 196 0
170 193 0
168 192 0
173 196 0
169 192 0
167 191 0
172 196 0
170 193 0
173 196 0
173 196 0
172 195 0
170 193 0
170 193 0
173 197 0
173 196 0
173 197 0
170 193 0
168 192 0
172 195 0
171 194 0
171 194 0
169 192 0
171 194 0
174 197 0
173 196 0
171 193 0
171 194 0
169 193 0
171 195 0
170 194 0
172 196 0
169 194 0
172 195 0
168 192 0
169 193 0
172 196 0
172 195 0
170 193 0
171 195 0
169 193 0
170 192 0
167 190 0
172 196 0
167 191 0
170 194 0
169 192 0
173 195 0
167 190 0
165 188 0
168 191 0
168 191 0
170 194 0
170 194 0
167 190 0
170 193 0
172 196 0
171 195 0
169 192 0
173 195 0
170 194 0
170 193 0
169 191 0
170 194 0
165 189 0
167 190 0
168 191 0
168 191 0
168 191 0
169 192 0
169 192 0
146 170 70
81 112 149
62 98 155
62 98 159
62 98 160
61 97 156
62 98 161
62 98 163
62 99 166
61 97 163
62 98 162
63 99 169
62 98 164
62 99 170
62 98 167
62 99 171
62 98 168
61 98 170
62 99 166
63 99 175
61 98 170
62 98 170
63 99 167
62 99 172
62 99 176
61 98 168
62 98 171
62 99 173
62 99 172
63 100 180
62 99 176
62 99 178
61 98 171
62 98 171
62 99 175
62 99 173
63 99 174
62 98 172
62 99 176
62 99 175
62 99 174
62 98 170
61 98 172
62 99 173
63 100 177
61 98 175
62 99 176
62 99 174
62 99 172
62 99 175
62 99 174
62 99 180
62 98 168
62 99 176
61 98 174
62 99 175
62 98 174
62 99 174
62 99 176
62 99 176
62 99 173
62 99 177
62 98 169
63 100 177
62 99 172
63 99 178
62 99 175
61 98 178
62 99 174
62 99 177
61 98 171
62 99 175
63 100 178
62 99 175
62 99 179
62 98 172
61 98 168
62 99 175
62 99 178
63 99 176
62 99 177
62 99 178
62 99 173
62 99 173
62 99 173
62 98 171
62 98 169
62 99 175
62 99 172
62 99 174
62 99 178
62 99 177
62 99 174
63 100 177
62 99 176
62 98 169
62 99 177
62 99 176
61 98 172
62 99 172
62 99 175
62 99 173
62 99 174
62 98 172
62 99 176
61 98 168
62 99 173
61 98 176
63 100 178
62 99 177
62 99 179
62 99 174
62 99 172
63 99 174
63 99 172
63 99 173
62 99 177
63 99 173
62 99 175
62 99 174
62 98 169
62 98 171
63 99 172
62 98 170
62 98 170
62 98 170
62 99 170
62 98 166
62 98 172
62 99 173
62 99 171
62 99 175
62 99 173
63 99 177
62 98 165
62 98 167
62 98 167
62 98 170
62 99 172
62 98 170
61 98 171
61 98 168
62 98 167
62 98 171
62 99 173
62 99 170
62 99 168
62 99 167
61 97 163
62 99 170
62 98 165
61 98 168
62 98 162
61 97 165
62 99 168
62 97 163
62 98 163
62 98 166
61 97 163
62 98 160
62 98 166
62 97 161
62 98 163
62 98 163
62 98 164
61 96 158
61 96 155
61 96 155
60 96 162
60 95 158
59 92 152
59 92 145
59 92 145
58 92 147
64 91 133
49 65 76
46 50 25
49 54 27
44 50 26
52 56 33
55 59 32
68 70 35
58 64 40
59 64 37
76 79 39
74 76 35
71 74 37
80 82 45
79 83 50
98 99 54
82 84 45
101 103 59
92 94 49
98 101 58
96 97 56
93 95 50
111 110 58
94 95 48
111 111 56
107 108 53
110 111 61
117 117 66
124 122 66
119 119 67
128 126 65
113 114 57
140 136 74
124 123 64
129 128 64
131 128 70
140 136 74
138 135 69
125 124 61
139 137 73
144 140 78
143 139 78
138 134 70
148 144 73
143 140 74
143 139 77
152 147 75
152 148 74
147 144 72
143 141 72
156 151 76
151 148 75
156 150 75
166 159 92
158 154 76
161 155 80
158 153 75
156 151 77
157 153 75
156 151 82
161 156 78
159 154 77
159 154 80
164 159 81
161 156 76
158 153 74
162 157 78
162 156 76
164 158 77
170 163 82
165 159 83
165 159 82
167 160 81
169 163 85
169 162 83
159 154 73
167 160 75
158 153 72
164 158 76
157 151 76
165 159 78
156 150 72
161 155 72
158 151 73
164 157 75
165 159 78
160 153 76
161 156 73
159 154 73
165 158 80
162 156 74
166 159 78
165 158 77
164 157 73
162 155 73
159 153 71
162 155 75
156 149 72
153 148 70
150 144 71
158 152 77
157 151 69
161 154 71
154 149 63
157 151 66
154 148 71
149 143 60
147 141 64
150 142 72
154 148 67
152 146 66
149 143 67
143 138 63
148 142 66
159 153 70
155 149 64
147 141 60
148 141 59
146 139 60
151 145 69
140 133 60
139 134 54
140 134 56
135 129 51
144 138 60
130 125 48
136 133 53
136 138 47
142 147 36
148 154 37
155 165 41
156 173 22
166 182 22
168 186 19
171 191 11
171 192 0
168 188 0
172 192 0
166 185 0
173 196 0
172 195 0
170 194 0
170 194 0
171 194 0
173 195 0
170 194 0
172 196 0
174 197 0
171 194 0
173 197 0
173 196 0
170 194 0
174 197 0
170 194 0
172 195 0
171 195 0
171 195 0
171 194 0
171 195 0
173 197 0
173 196 0
168 192 0
172 196 0
172 196 0
171 194 0
172 195 0
173 197 0
170 193 0
167 191 0
171 195 0
170 194 0
170 194 0
174 197 0
173 196 0
171 194 0
170 193 0
170 193 0
173 196 0
168 191 0
171 195 0
174 197 0
170 193 0
169 194 0
172 196 0
171 194 0
167 190 0
171 195 0
172 195 0
171 194 0
167 192 0
173 196 0
173 196 0
170 193 0
169 193 0
172 195 0
169 192 0
172 194 0
170 194 0
170 193 0
169 193 0
168 193 0
169 192 0
168 191 0
170 193 0
168 192 0
170 194 0
168 192 0
168 192 0
172 195 0
167 190 0
167 190 0
170 193 0
171 194 0
167 190 0
168 192 0
171 194 0
165 187 0
169 193 0
166 189 0
169 192 0
168 192 0
165 189 0
166 190 0
166 189 0
170 193 0
167 190 0
140 164 94
71 105 154
61 97 156
62 98 159
61 97 159
62 98 162
61 97 160
62 98 159
62 98 159
62 99 171
62 99 171
62 98 166
63 99 166
63 99 170
61 97 166
62 98 167
62 98 168
62 98 171
62 99 168
63 99 170
62 99 172
62 99 174
62 98 168
62 99 175
62 99 174
62 99 178
62 99 174
62 99 174
62 99 170
62 99 171
62 98 169
62 99 174
62 99 170
61 98 172
63 100 177
62 99 175
63 100 176
61 98 167
62 99 175
63 100 177
62 99 174
61 98 173
62 99 175
63 100 175
62 98 170
62 98 173
62 99 174
63 99 176
62 99 174
62 98 172
63 99 172
62 98 176
62 99 175
61 98 173
61 98 178
63 99 178
63 100 177
62 99 174
62 99 175
62 99 178
62 98 175
62 99 175
61 98 169
62 99 172
62 99 174
62 99 175
62 99 174
62 99 173
62 99 173
63 99 174
63 99 178
62 98 173
62 99 176
62 98 170
62 99 177
62 98 168
62 99 174
62 99 178
62 99 178
62 98 174
62 99 178
61 98 172
62 98 169
62 99 177
62 99 175
63 99 176
63 99 175
61 98 174
62 98 171
63 100 176
63 99 176
62 99 175
63 99 175
63 99 175
62 99 172
61 98 172
62 99 172
63 99 174
63 99 177
62 99 175
62 99 176
62 98 171
61 98 169
63 99 172
62 99 173
62 99 171
62 99 173
62 99 170
62 99 172
63 99 175
61 98 167
62 99 171
62 99 177
62 99 170
63 99 171
62 99 174
63 99 169
63 99 172
63 100 175
62 99 170
61 98 170
62 99 170
62 98 171
62 99 174
62 98 168
62 99 175
63 99 171
62 99 165
62 99 173
62 98 168
62 98 165
62 99 176
62 98 171
63 99 175
63 99 171
62 98 170
62 99 170
61 98 168
62 98 167
63 99 173
62 99 173
62 98 166
62 98 168
63 99 170
63 99 170
62 98 166
63 99 172
62 98 166
60 96 163
63 99 172
62 98 169
61 97 165
61 97 165
62 98 165
61 97 159
62 98 161
61 96 166
62 97 162
63 99 171
61 97 161
62 98 171
62 97 163
62 97 162
60 95 157
61 96 162
61 96 159
60 96 159
60 94 149
61 96 158
60 94 142
61 95 156
61 95 152
59 94 152
58 92 144
57 89 139
42 63 94
35 43 41
44 49 28
39 44 20
40 48 31
42 48 30
67 71 40
56 62 33
76 79 35
68 73 46
78 81 46
73 78 42
77 81 45
83 87 48
83 85 49
83 86 50
98 100 55
89 91 40
84 87 50
92 95 53
99 102 54
102 103 57
106 107 52
113 114 60
111 111 62
115 115 53
118 117 64
121 119 63
127 124 63
129 127 70
121 121 67
116 114 63
131 129 69
130 129 68
134 132 66
138 136 74
136 133 66
125 124 71
145 141 76
140 137 72
135 132 61
148 144 74
134 132 67
146 142 73
144 140 73
139 137 67
145 141 72
158 153 81
151 146 71
149 145 73
153 148 70
154 150 74
154 150 75
161 155 80
155 150 73
154 150 77
156 151 70
163 157 80
160 154 84
162 157 80
159 154 77
161 155 75
161 156 80
166 159 83
164 158 80
162 156 79
163 157 78
165 158 84
165 157 75
169 162 82
164 158 79
159 153 72
160 154 75
168 162 74
160 154 75
165 159 78
167 160 76
162 156 76
165 158 84
167 160 78
162 155 74
164 158 75
159 153 69
161 153 68
165 158 76
164 157 79
163 157 75
159 152 68
162 156 75
164 157 76
157 152 72
156 150 70
159 152 75
158 152 72
164 157 75
150 145 68
155 149 67
154 146 66
157 151 71
157 150 73
159 153 72
161 154 75
154 148 64
159 152 74
151 146 66
149 144 62
156 150 63
149 143 71
156 150 68
151 145 60
149 143 65
143 137 62
150 143 67
146 140 64
141 136 53
146 141 67
146 139 62
141 135 56
139 135 52
138 132 57
137 132 62
142 137 52
123 119 45
133 128 44
135 130 47
136 133 48
143 145 47
134 140 30
154 166 30
156 169 28
161 178 16
164 183 11
162 182 0
170 189 11
168 188 0
167 187 0
169 189 0
168 188 0
171 194 0
173 196 0
169 193 0
172 195 0
170 194 0
171 194 0
170 193 0
175 198 0
171 196 0
172 195 0
170 194 0
171 195 0
168 192 0
168 192 0
172 196 0
171 194 0
172 195 0
172 195 0
174 197 0
172 194 0
170 195 0
172 195 0
170 194 0
171 194 0
170 194 0
170 193 0
171 195 0
172 195 0
170 194 0
172 196 0
170 194 0
170 193 0
173 196 0
168 191 0
171 195 0
173 196 0
172 195 0
170 193 0
167 190 0
172 195 0
168 192 0
169 193 0
169 192 0
167 191 0
170 193 0
171 194 0
169 193 0
169 192 0
175 197 0
171 195 0
166 189 0
170 193 0
172 195 0
172 195 0
172 195 0
172 196 0
168 191 0
170 193 0
167 190 0
169 193 0
169 192 0
173 196 0
172 195 0
169 192 0
169 193 0
169 193 0
168 191 0
168 191 0
170 193 0
164 187 0
168 192 0
167 190 0
172 195 0
170 193 0
167 191 0
171 195 0
169 192 0
168 192 0
168 190 0
167 190 0
167 190 0
171 193 0
167 191 0
166 189 0
169 193 0
171 194 0
162 186 36
109 136 136
62 98 166
62 99 165
61 97 153
62 98 163
63 99 167
61 97 158
63 99 172
61 97 163
62 99 169
62 98 165
62 99 169
62 98 165
61 98 168
62 98 161
62 99 170
62 99 174
62 99 174
61 98 167
61 98 168
62 99 170
63 99 174
61 98 166
62 98 167
62 99 172
62 99 168
62 99 175
62 98 166
61 98 175
62 98 170
62 98 168
61 98 168
63 100 177
62 99 176
63 100 172
61 98 168
62 99 176
62 99 175
63 99 174
63 99 176
62 99 171
62 99 176
62 99 175
62 99 171
62 99 177
62 99 171
62 99 178
62 99 176
62 99 178
63 100 174
61 98 172
63 99 172
63 100 175
62 99 176
62 99 175
61 98 167
62 99 175
62 99 173
62 99 174
62 99 173
62 99 175
62 99 170
61 98 172
63 100 178
62 99 175
63 99 174
62 99 178
62 99 175
62 99 177
62 99 171
63 100 177
62 99 176
62 99 176
62 99 174
63 100 175
62 98 174
62 99 177
61 98 175
63 99 176
62 99 173
62 99 173
62 99 173
62 99 173
62 99 175
61 98 169
62 99 175
62 99 175
63 99 174
62 98 171
61 98 172
62 99 171
62 99 173
62 99 175
62 99 174
62 99 174
62 99 176
63 99 177
62 98 174
62 99 176
62 99 175
62 99 177
63 99 174
62 98 171
63 99 174
62 98 169
62 99 171
62 99 173
62 98 170
62 98 174
62 99 172
62 99 174
62 99 176
62 99 175
62 99 173
62 98 172
61 98 171
62 99 171
62 99 176
62 99 177
62 98 169
62 99 171
63 99 175
62 99 173
63 99 172
62 98 171
62 98 166
63 99 171
63 99 175
62 98 173
62 98 168
62 99 167
62 98 165
62 99 171
62 99 170
62 98 167
61 98 169
62 99 171
62 99 173
63 99 171
62 98 169
63 99 173
62 99 174
61 97 168
63 99 171
62 99 169
62 99 172
61 97 166
62 99 170
62 99 170
61 98 169
62 99 167
62 98 164
63 99 167
63 99 170
62 99 169
62 97 164
62 97 166
61 98 162
60 96 158
61 96 159
62 98 170
61 97 156
61 97 164
61 96 157
61 96 154
61 96 161
60 94 153
60 95 156
61 96 161
59 93 151
60 95 153
60 94 152
60 94 150
59 92 148
59 92 149
58 76 100
56 63 55
56 60 27
54 57 28
61 64 25
52 57 28
55 59 25
58 64 33
67 70 37
70 75 43
64 69 36
73 76 38
77 81 45
76 79 47
78 82 43
88 90 47
94 95 50
85 87 50
95 97 57
94 98 48
103 104 54
109 109 60
109 109 61
117 116 65
102 104 50
112 113 59
119 119 66
118 117 66
120 120 61
115 114 60
122 122 67
126 123 63
130 128 62
130 129 61
127 126 65
137 133 66
135 133 72
144 140 72
132 129 57
143 140 69
140 137 70
141 137 68
145 141 68
145 141 73
143 139 75
153 148 76
147 143 76
144 140 72
147 143 75
148 143 76
147 144 75
154 148 76
147 143 72
155 151 77
157 152 81
160 154 76
158 152 72
158 153 78
166 160 81
161 155 76
163 157 83
160 154 77
161 156 74
160 155 73
162 156 79
159 153 74
160 154 73
168 161 78
161 156 71
157 151 71
168 161 83
162 155 79
167 160 78
160 153 76
161 155 75
163 156 73
162 156 77
158 153 74
162 155 69
164 157 75
163 156 80
163 156 77
162 156 67
161 154 75
156 150 73
164 157 78
159 153 76
165 159 78
157 151 69
158 152 73
155 149 68
163 157 80
164 157 81
165 157 79
156 151 69
148 142 62
157 150 71
158 150 73
158 151 66
161 154 75
149 143 67
153 147 72
156 151 73
151 145 60
154 148 61
148 142 65
154 149 66
142 137 57
152 146 60
149 144 61
150 144 63
143 137 60
151 144 58
149 142 66
137 132 52
147 141 58
144 139 60
147 141 61
142 137 54
146 140 60
140 134 53
137 132 54
129 123 47
132 127 49
141 137 44
140 141 44
144 148 37
140 146 34
150 164 19
158 172 32
161 178 16
164 180 16
168 187 11
170 189 0
170 190 0
168 189 0
171 192 0
170 190 0
171 194 0
172 196 0
171 194 0
170 194 0
172 195 0
172 196 0
171 195 0
172 195 0
167 191 0
168 192 0
172 195 0
170 194 0
172 196 0
171 195 0
175 197 0
170 194 0
171 195 0
172 195 0
171 194 0
172 196 0
173 196 0
170 193 0
174 197 0
172 195 0
172 195 0
170 194 0
169 193 0
169 192 0
170 194 0
172 195 0
169 193 0
170 194 0
173 195 0
174 197 0
170 193 0
168 192 0
173 196 0
170 193 0
171 193 0
170 192 0
170 194 0
169 193 0
166 190 0
172 195 0
171 195 0
172 196 0
173 196 0
169 193 0
172 196 0
170 193 0
169 192 0
168 192 0
169 192 0
173 196 0
170 193 0
169 192 0
168 190 0
172 195 0
168 191 0
168 191 0
171 195 0
172 196 0
169 192 0
169 193 0
168 192 0
169 192 0
170 192 0
172 195 0
167 190 0
172 194 0
171 194 0
168 192 0
167 191 0
172 194 0
166 191 0
170 193 0
168 191 0
167 191 0
171 195 0
168 190 0
167 191 0
163 187 0
168 191 0
168 191 0
167 190 0
164 188 0
155 178 65
105 133 140
62 97 156
62 98 160
61 97 157
63 99 163
61 97 163
62 98 163
62 98 157
62 98 163
62 98 167
62 98 166
61 97 165
62 98 168
61 98 171
61 97 162
62 98 168
61 98 170
63 99 172
62 98 165
62 98 164
62 98 169
63 99 175
62 99 172
62 98 165
62 98 167
62 98 172
62 98 169
61 98 169
62 99 172
62 99 170
63 99 171
61 98 169
62 99 174
62 99 174
61 98 176
61 98 173
62 99 171
63 99 171
63 99 174
62 99 176
62 99 176
62 99 173
62 98 172
62 99 176
61 98 175
62 99 174
61 98 172
62 98 171
62 99 177
62 99 174
62 98 173
62 98 174
62 99 174
63 100 177
62 99 174
62 98 172
62 99 176
62 99 174
62 99 171
62 99 175
62 99 173
61 98 173
62 99 176
61 98 170
62 99 177
61 98 174
62 99 175
62 99 174
62 99 173
62 99 177
62 99 177
62 99 177
62 99 170
62 99 174
62 99 168
62 99 178
62 98 173
62 99 175
62 99 178
62 99 175
62 99 174
62 98 170
63 99 175
62 99 173
62 99 173
62 99 177
63 100 174
62 99 176
62 98 169
62 99 173
63 100 178
61 98 170
62 99 172
61 98 173
62 99 178
63 99 173
62 98 169
62 99 171
62 99 173
63 99 175
62 98 172
63 99 174
62 99 177
62 99 174
62 99 168
62 99 175
62 99 170
61 98 172
62 99 176
62 99 173
62 99 173
62 99 171
62 99 175
62 99 170
62 99 172
62 99 170
62 98 169
62 99 173
63 99 175
62 99 173
61 98 166
61 98 169
62 98 168
62 99 171
63 99 173
61 98 171
63 99 173
62 99 175
62 98 169
62 99 173
63 99 175
62 99 168
63 99 172
62 98 168
62 98 170
62 99 175
62 99 171
62 98 169
63 99 171
62 98 164
62 99 168
63 99 169
61 98 164
63 99 170
63 99 175
62 98 167
62 99 167
62 98 165
63 99 170
63 99 172
62 98 166
61 96 159
62 98 168
62 98 164
62 98 168
62 98 163
61 97 161
61 97 162
62 98 168
61 97 160
61 97 163
61 97 160
61 97 156
61 96 158
61 97 161
61 97 160
62 97 159
59 94 152
61 95 149
61 95 155
61 96 158
59 92 141
59 93 153
60 94 148
58 90 138
56 82 123
56 68 67
49 54 28
44 51 25
48 54 25
56 62 30
61 66 33
59 65 37
62 65 35
65 69 28
65 71 41
75 79 39
69 72 35
88 89 46
89 90 42
79 81 41
94 97 48
90 91 43
86 88 47
95 97 51
83 86 46
103 103 59
98 100 54
115 114 63
115 115 63
110 109 54
118 116 60
115 114 58
123 122 62
126 124 57
119 118 63
132 129 66
119 119 62
128 126 69
128 126 57
136 133 69
132 130 67
135 132 65
132 129 68
135 132 63
135 132 64
143 139 74
130 128 63
143 140 71
137 135 71
144 140 69
148 143 70
142 138 70
143 140 72
156 151 74
146 141 72
150 146 71
147 142 67
156 152 69
149 145 68
162 156 78
157 152 74
151 147 64
156 151 66
157 152 72
158 153 70
162 155 82
153 149 71
164 158 79
155 150 75
161 155 75
160 155 75
169 162 85
160 154 84
168 160 82
161 156 77
160 154 76
166 160 78
169 162 86
156 151 73
163 156 75
163 157 78
165 157 78
160 154 73
169 162 83
166 160 75
160 154 70
159 152 73
165 159 80
162 156 67
163 157 65
155 149 72
157 151 70
165 159 76
162 155 72
156 150 73
156 149 74
160 152 75
156 149 70
153 147 67
156 149 71
155 149 70
158 151 66
155 149 68
150 145 61
156 150 63
161 154 74
162 155 71
157 150 65
157 150 69
149 141 69
149 144 62
154 148 65
156 150 67
148 142 62
147 142 58
144 139 61
154 148 61
147 141 60
145 140 53
141 134 58
148 143 53
142 137 49
132 127 44
145 139 57
126 120 44
132 127 54
126 121 44
124 120 48
124 125 34
136 135 42
134 137 36
141 148 32
149 163 25
155 169 11
166 185 0
167 187 11
168 188 11
167 184 0
171 192 0
169 190 0
170 190 0
170 189 0
171 193 0
171 195 0
173 197 0
173 196 0
170 193 0
172 195 0
173 197 0
173 196 0
171 195 0
174 197 0
173 197 0
171 195 0
172 195 0
172 196 0
173 196 0
171 194 0
174 196 0
172 196 0
166 190 0
170 194 0
172 195 0
167 190 0
172 196 0
172 195 0
172 195 0
171 195 0
173 196 0
167 190 0
171 195 0
171 194 0
172 195 0
171 195 0
173 196 0
168 192 0
170 193 0
172 194 0
172 195 0
172 195 0
172 195 0
170 193 0
169 193 0
170 193 0
170 193 0
171 193 0
171 193 0
168 192 0
173 196 0
168 191 0
168 191 0
163 187 0
170 193 0
173 197 0
170 193 0
170 193 0
173 196 0
165 189 0
166 190 0
169 192 0
171 195 0
169 193 0
170 194 0
167 192 0
170 193 0
167 190 0
172 195 0
167 190 0
171 193 0
169 191 0
168 192 0
166 190 0
168 191 0
172 195 0
165 188 0
171 195 0
168 191 0
167 191 0
165 189 0
168 191 0
168 193 0
165 189 0
168 191 0
167 192 0
168 192 0
171 194 0
169 192 0
165 188 0
155 178 67
83 114 150
61 97 158
61 97 157
62 98 162
62 99 169
62 98 166
62 98 162
62 98 163
61 97 160
62 98 163
62 98 163
62 98 164
62 99 171
61 97 164
63 99 168
62 99 169
63 99 165
61 97 163
61 98 171
62 98 169
62 98 169
62 98 168
62 98 168
62 98 172
63 99 170
62 99 175
62 99 171
62 99 173
62 99 173
63 100 177
62 98 171
61 98 170
62 99 174
62 99 176
62 99 172
62 98 171
62 99 173
61 98 171
62 98 171
62 99 175
62 99 174
62 99 171
62 99 173
62 98 170
63 99 177
63 100 178
63 99 173
62 99 173
62 98 170
61 98 171
62 98 173
62 99 175
62 99 172
63 99 178
62 99 174
62 98 172
62 99 175
61 98 170
62 99 176
62 99 174
62 99 175
62 99 176
62 99 169
62 99 173
62 99 176
62 99 174
63 99 176
62 99 172
62 99 174
62 99 177
62 99 172
62 99 174
62 99 173
62 99 172
62 99 172
63 99 172
62 99 177
63 99 177
62 98 170
62 99 173
62 99 175
63 100 177
62 99 175
62 99 175
62 99 172
62 99 173
62 99 172
61 98 172
62 98 171
62 99 174
61 98 173
62 99 176
62 99 177
62 99 170
62 99 176
63 99 176
62 98 169
62 99 171
62 99 176
63 99 177
63 99 175
62 99 174
63 99 174
62 99 174
62 99 173
62 99 172
62 99 177
62 99 174
62 98 172
62 98 171
63 99 171
62 99 174
62 99 173
62 99 174
63 99 176
61 98 171
61 98 166
62 99 166
62 99 169
62 99 172
62 98 168
62 99 167
61 98 171
62 99 171
63 99 173
62 98 169
61 98 164
63 100 178
62 98 167
62 99 171
62 98 164
62 99 175
62 98 163
63 99 171
62 98 168
62 98 163
62 99 173
62 99 170
62 99 167
63 99 172
62 98 168
62 98 169
62 98 167
61 97 160
62 98 161
62 98 166
63 99 167
63 100 175
62 98 162
62 98 168
62 98 166
62 99 170
61 97 161
61 96 158
61 97 156
61 98 166
62 97 165
61 97 162
60 96 159
61 97 162
62 98 165
62 97 163
61 97 157
62 98 165
61 95 156
61 97 158
61 96 159
61 97 156
60 94 146
61 97 162
61 96 159
60 94 147
59 94 150
60 94 153
58 91 142
55 85 124
55 70 80
48 53 32
53 58 23
56 58 23
61 64 29
61 65 27
74 75 32
61 66 35
63 68 29
74 78 43
69 73 36
85 87 40
79 82 44
74 76 33
76 80 31
78 82 38
79 82 41
97 97 39
95 97 48
100 100 48
99 100 49
97 99 55
103 104 63
105 105 53
98 100 51
117 116 56
120 118 63
119 117 61
128 126 64
134 132 65
136 133 64
122 120 62
125 124 57
124 122 67
134 131 67
138 134 71
124 123 63
133 130 65
133 130 69
140 137 58
135 132 65
147 143 76
135 132 69
137 135 67
146 141 75
146 142 69
148 143 68
147 143 65
150 147 73
146 143 64
155 149 81
147 143 62
158 152 74
158 152 74
159 152 75
156 150 76
152 147 70
157 151 73
161 155 77
160 155 74
164 158 77
165 159 76
158 153 72
161 155 78
158 153 76
162 156 78
156 151 70
162 155 71
160 155 75
160 153 74
160 154 74
163 156 76
159 153 69
167 161 76
166 159 80
164 159 70
165 158 73
155 150 69
163 157 69
162 155 77
158 152 67
163 156 72
154 148 70
158 151 70
161 153 72
159 153 77
156 150 69
156 150 65
161 155 70
152 145 72
157 150 71
165 157 82
156 150 69
166 159 73
155 148 63
149 144 62
150 144 66
153 147 63
157 150 69
159 152 73
155 148 69
152 145 66
152 146 65
148 143 63
151 146 64
156 151 69
151 146 59
152 146 67
152 146 61
145 140 61
148 143 60
145 141 52
149 144 58
142 137 58
138 133 57
142 136 56
140 135 52
132 125 56
141 135 53
134 129 47
130 126 47
134 129 42
134 130 52
144 144 48
140 143 39
140 149 30
157 169 22
146 158 22
156 171 19
168 183 19
164 183 0
169 190 0
172 190 0
167 187 0
168 189 0
168 187 0
169 189 0
172 196 0
171 195 0
171 194 0
170 194 0
173 196 0
172 196 0
171 195 0
174 196 0
169 193 0
169 193 0
172 194 0
171 194 0
169 193 0
173 197 0
172 196 0
172 194 0
172 195 0
172 196 0
172 195 0
170 193 0
171 195 0
170 193 0
166 188 0
171 195 0
171 195 0
170 194 0
171 194 0
174 197 0
171 194 0
167 191 0
169 193 0
168 192 0
169 192 0
172 195 0
169 191 0
172 196 0
168 192 0
169 192 0
173 196 0
171 193 0
169 193 0
169 192 0
172 195 0
169 192 0
172 196 0
167 191 0
174 197 0
168 192 0
170 193 0
170 194 0
169 193 0
171 194 0
168 191 0
173 196 0
172 195 0
171 195 0
169 193 0
170 193 0
170 193 0
171 194 0
169 192 0
173 196 0
172 195 0
172 195 0
172 195 0
164 188 0
169 193 0
170 193 0
170 193 0
172 196 0
168 191 0
170 192 0
170 192 0
168 191 0
171 194 0
169 192 0
170 193 0
169 193 0
164 187 0
170 193 0
171 194 0
173 195 0
168 191 0
171 195 0
165 188 0
163 187 0
138 163 92
74 106 154
62 98 157
62 98 162
62 98 160
61 97 159
61 97 159
62 98 165
62 99 168
62 98 163
61 97 160
62 98 162
62 99 167
62 98 165
61 97 164
62 98 160
62 99 169
62 98 171
62 99 174
62 99 170
63 99 169
61 98 164
63 99 175
63 99 171
62 98 169
62 99 178
62 98 169
62 99 175
62 99 175
62 99 171
62 98 177
62 98 169
62 98 172
62 99 168
62 99 172
62 99 173
62 98 170
62 99 174
63 99 172
61 98 174
62 99 173
62 99 174
61 98 171
61 98 173
62 98 168
62 99 173
62 99 171
62 99 171
62 99 176
62 99 177
61 98 168
63 99 176
63 99 174
62 99 172
62 99 171
61 98 172
62 99 170
62 98 174
62 99 176
62 99 169
62 98 174
62 99 170
61 98 172
63 99 178
62 99 178
62 99 171
62 99 175
62 99 176
62 99 173
62 99 171
62 99 175
62 98 170
62 99 174
62 98 173
63 100 179
62 98 168
62 99 173
63 99 173
62 99 175
62 99 172
62 99 176
61 98 171
62 99 174
63 99 177
62 99 175
62 99 173
63 99 177
62 99 174
63 99 175
62 99 173
62 99 172
61 98 169
62 99 174
62 99 175
62 99 174
62 99 170
62 99 175
62 98 171
62 99 174
61 97 167
62 99 171
62 98 171
62 99 174
62 99 175
62 99 172
62 98 173
62 98 176
62 99 170
63 99 168
62 99 176
61 98 168
63 99 169
62 98 170
62 98 170
62 99 173
62 98 170
62 98 169
62 98 169
62 99 171
62 98 169
63 99 175
63 100 172
62 98 168
62 99 170
63 99 171
62 98 165
62 99 171
62 99 171
62 99 167
63 99 175
62 98 165
61 98 170
61 98 165
62 98 165
63 99 170
62 99 171
62 99 170
62 99 168
61 98 167
62 99 170
63 99 175
62 99 171
61 98 165
61 97 162
62 99 166
63 99 167
62 98 165
62 99 168
61 97 163
62 98 165
62 98 167
62 98 165
62 97 163
61 97 163
61 97 163
62 98 167
62 98 165
62 98 167
61 97 161
60 96 152
61 97 165
60 95 153
61 97 158
61 96 152
62 97 163
62 97 162
61 97 158
62 97 160
60 95 154
60 95 152
60 94 150
60 95 156
61 95 160
59 93 139
59 93 143
58 90 140
55 85 131
59 76 88
64 67 37
63 66 32
58 62 23
64 67 29
67 69 31
56 62 29
64 69 36
73 74 32
66 70 31
79 80 31
75 79 41
82 85 38
71 75 39
79 84 41
90 91 51
92 94 41
88 90 41
104 103 48
94 96 50
102 103 54
103 104 50
103 105 54
110 110 54
111 111 56
113 113 61
123 121 57
129 127 60
118 118 61
128 125 69
122 121 64
126 124 65
129 126 66
139 135 66
129 127 66
130 127 59
135 132 65
132 129 67
144 140 64
133 130 68
136 133 67
142 137 68
148 143 70
149 145 73
145 141 69
141 138 70
146 143 67
146 142 71
151 147 71
148 143 68
150 145 70
142 138 70
141 137 64
144 140 64
156 151 72
156 151 72
157 151 71
151 145 70
163 156 71
149 144 68
160 154 78
157 152 73
161 155 80
158 153 71
157 152 67
158 152 78
163 158 71
162 155 74
156 150 68
165 158 78
161 155 69
165 158 82
163 156 78
157 151 64
164 158 78
162 155 68
161 154 68
159 153 73
162 156 71
159 152 70
159 155 65
161 154 75
160 154 73
158 152 66
159 152 76
158 152 69
162 155 75
161 153 73
154 150 62
162 157 69
153 147 65
155 149 72
155 149 67
158 152 73
156 149 63
160 153 75
161 155 64
155 150 63
157 151 67
154 148 62
156 150 65
158 151 72
151 145 61
153 147 68
145 140 64
158 152 70
143 138 53
139 135 51
138 134 47
147 142 62
138 133 44
135 130 51
139 134 56
134 130 47
143 137 58
133 128 49
135 128 52
138 133 52
131 124 52
140 135 53
136 131 52
126 123 42
143 140 53
135 136 39
138 142 39
144 153 32
148 162 28
160 177 28
161 177 19
162 180 16
165 185 11
171 194 0
166 185 0
170 190 0
172 191 0
168 191 0
169 188 0
172 195 0
173 197 0
172 196 0
171 195 0
172 195 0
174 196 0
173 196 0
171 194 0
171 195 0
171 195 0
170 193 0
172 195 0
169 193 0
172 196 0
173 196 0
169 192 0
168 192 0
172 196 0
172 196 0
173 196 0
171 194 0
170 193 0
172 196 0
170 193 0
170 193 0
171 194 0
169 192 0
169 193 0
168 191 0
173 197 0
168 192 0
168 192 0
166 190 0
170 193 0
173 196 0
171 193 0
171 195 0
168 192 0
170 194 0
172 195 0
170 194 0
168 191 0
166 190 0
172 194 0
170 193 0
170 193 0
172 196 0
167 191 0
169 193 0
168 192 0
166 189 0
167 190 0
174 197 0
170 193 0
170 194 0
170 193 0
168 191 0
166 189 0
171 194 0
170 193 0
169 193 0
171 194 0
167 191 0
168 192 0
166 189 0
168 191 0
169 192 0
169 193 0
166 188 0
170 192 0
167 190 0
171 194 0
167 190 0
169 192 0
166 188 0
169 192 0
166 189 0
169 192 0
170 194 0
167 190 0
168 191 0
162 185 0
167 190 0
172 194 0
168 191 0
168 190 0
126 152 111
63 99 156
62 98 159
63 99 163
62 98 169
62 98 159
61 97 159
62 98 163
61 97 158
61 98 163
62 98 163
63 99 170
62 98 161
62 98 168
61 98 166
61 98 167
61 98 169
63 99 168
62 99 169
61 98 169
63 100 175
62 98 169
61 97 164
62 99 174
62 98 169
62 98 164
62 99 173
62 98 169
62 99 171
63 99 171
61 98 172
62 99 172
61 98 169
62 99 172
62 98 170
62 99 172
62 98 170
62 98 171
62 99 175
62 99 173
62 99 175
62 99 172
62 99 172
62 99 172
62 99 170
62 98 174
61 98 174
62 99 177
63 99 173
62 99 173
62 99 173
62 99 172
62 99 173
63 99 174
62 99 173
63 99 171
62 99 175
61 98 171
62 99 174
62 98 168
63 99 175
62 99 177
63 99 177
62 99 176
62 99 175
62 98 172
62 99 175
63 99 177
63 100 176
62 99 174
62 98 172
62 99 175
61 98 170
62 98 173
62 99 174
61 98 168
62 99 173
62 99 176
62 99 173
63 100 178
63 99 174
62 99 175
62 99 179
63 99 174
62 98 164
62 98 172
62 99 172
62 99 174
62 98 168
62 99 173
62 99 177
62 98 170
62 98 170
63 99 172
62 98 172
62 99 173
62 98 170
62 99 172
62 99 173
63 99 175
62 98 170
62 98 167
62 99 171
62 99 174
62 98 168
62 99 168
63 100 176
62 99 174
62 98 170
62 98 169
62 98 170
62 99 172
62 99 167
61 98 168
62 98 169
62 99 170
62 99 172
63 99 170
63 100 176
61 98 169
62 98 169
62 99 172
62 99 173
62 98 167
62 98 169
62 99 172
62 99 173
62 98 170
62 98 171
63 99 168
63 99 174
62 99 171
62 99 173
62 98 165
62 98 170
63 99 169
63 99 171
63 99 168
63 99 163
62 98 162
63 99 169
61 97 164
62 99 168
62 98 167
62 98 169
62 99 170
63 99 172
63 99 170
62 98 166
62 98 165
62 98 167
61 98 165
61 98 162
62 98 162
62 98 165
62 98 165
62 98 163
62 98 166
62 98 163
62 98 165
62 97 164
60 96 157
61 97 155
62 97 160
61 97 160
61 95 157
62 97 167
60 95 153
61 96 153
60 95 154
62 98 158
60 94 150
60 93 146
59 93 146
61 95 153
60 93 152
59 90 130
60 78 94
46 52 38
51 53 20
53 56 24
58 63 25
51 56 32
55 59 24
67 70 32
65 69 32
73 75 27
80 82 37
82 83 46
84 84 36
80 82 37
76 80 36
84 87 44
94 95 48
106 105 46
88 90 45
100 99 43
100 102 58
104 103 49
113 113 55
103 104 48
102 104 46
106 106 53
109 110 53
115 113 55
121 119 56
121 120 58
131 128 64
124 122 64
121 121 68
131 130 63
127 125 58
131 129 61
133 131 63
132 129 64
143 139 65
139 135 66
136 134 70
134 132 63
138 136 68
147 143 76
148 144 66
155 150 76
140 137 68
141 137 68
154 148 73
151 147 68
154 149 71
146 142 71
149 144 76
158 152 73
150 145 67
151 146 65
157 152 78
154 149 71
162 156 72
162 156 74
151 145 67
160 155 74
165 158 74
153 148 63
155 150 69
163 157 80
158 152 75
158 152 67
156 150 71
161 155 70
158 154 67
162 156 70
160 153 74
160 153 67
162 155 71
159 153 65
163 157 73
157 151 63
156 151 66
154 148 68
160 154 63
165 159 74
157 152 65
157 152 65
161 154 70
152 147 64
159 153 66
162 155 68
150 145 60
155 149 62
155 148 70
158 151 68
154 148 66
157 151 68
158 152 68
152 147 62
158 151 69
157 150 73
150 144 68
153 147 66
144 138 65
142 137 58
144 139 60
157 151 68
145 139 60
147 140 63
150 144 60
147 140 59
141 137 52
146 140 54
139 133 52
144 139 60
139 134 54
138 133 57
135 130 51
138 133 47
134 128 58
138 133 52
129 124 44
130 126 45
133 129 44
132 129 44
125 122 39
140 143 30
148 156 34
150 161 32
159 172 28
161 179 16
162 178 11
166 184 0
166 186 0
162 183 0
165 182 0
171 191 0
169 190 0
169 189 0
167 189 0
173 196 0
169 193 0
171 194 0
170 193 0
172 196 0
171 193 0
172 197 0
169 192 0
169 193 0
170 193 0
171 194 0
173 195 0
171 195 0
172 195 0
172 195 0
174 197 0
167 192 0
173 196 0
173 196 0
169 193 0
169 192 0
171 194 0
170 193 0
170 194 0
171 195 0
169 191 0
166 189 0
172 195 0
167 191 0
172 195 0
173 196 0
171 194 0
171 193 0
173 196 0
169 192 0
169 192 0
171 194 0
170 193 0
175 197 0
169 193 0
169 193 0
171 194 0
170 193 0
172 196 0
172 196 0
172 195 0
170 193 0
165 188 0
172 195 0
171 194 0
171 194 0
169 192 0
170 193 0
171 194 0
168 191 0
171 193 0
167 190 0
172 196 0
172 196 0
169 193 0
171 195 0
172 195 0
167 191 0
170 194 0
169 192 0
171 194 0
165 188 0
165 189 0
171 195 0
169 193 0
167 191 0
166 189 0
167 191 0
169 193 0
169 192 0
171 194 0
165 188 0
170 194 0
171 193 0
168 191 0
168 190 0
167 190 0
171 194 0
167 190 0
173 196 0
164 187 31
93 122 139
61 97 159
61 97 156
61 97 161
62 98 160
62 99 168
62 98 162
62 98 158
62 98 162
61 98 159
62 98 164
63 99 169
62 98 169
62 98 166
62 98 168
62 98 168
62 98 166
62 98 170
63 99 172
61 97 162
62 98 165
62 99 168
61 97 169
62 98 169
63 99 170
63 99 174
63 99 175
63 99 167
62 99 171
63 99 173
61 98 166
62 99 175
62 99 166
61 98 168
62 98 172
62 98 170
62 99 177
61 98 171
63 99 173
62 99 171
63 99 176
63 99 174
62 99 169
62 99 176
62 99 174
62 99 171
63 99 171
62 98 169
62 99 177
62 99 169
62 99 176
62 98 171
62 99 168
62 99 174
62 99 175
62 98 169
62 98 168
63 100 174
62 99 175
62 99 174
61 98 174
62 99 176
62 99 170
62 99 172
62 99 172
62 99 173
63 100 175
62 99 173
62 99 173
62 99 174
62 99 174
62 99 172
62 99 175
62 99 173
63 99 177
61 98 170
62 99 174
62 99 177
62 99 173
62 99 173
62 99 171
62 99 175
62 99 174
62 99 174
62 98 172
62 99 174
62 99 176
62 99 173
62 99 174
62 99 170
62 99 174
62 99 174
61 98 172
62 99 170
62 98 172
62 99 172
61 98 171
62 98 171
62 99 173
62 99 174
63 99 172
62 99 174
63 99 175
62 99 174
61 98 166
62 99 172
62 99 170
63 100 179
61 98 170
62 99 174
62 99 173
62 98 168
62 99 169
62 98 165
61 98 167
62 98 171
61 98 172
63 99 170
62 99 168
61 98 166
62 98 168
63 99 167
62 99 170
63 99 176
62 98 172
61 98 166
62 98 169
62 98 168
62 99 173
62 99 174
63 99 173
63 99 169
62 99 168
62 98 170
63 99 170
63 100 173
63 99 169
63 99 170
61 97 159
62 98 169
62 98 169
62 99 170
62 99 168
63 99 168
62 98 165
61 98 164
63 99 170
61 98 161
62 98 167
61 98 165
61 97 167
60 96 157
62 98 162
61 98 164
61 97 162
61 97 154
62 98 162
62 98 166
62 98 165
61 97 164
62 98 164
61 96 155
60 95 152
62 98 163
61 96 155
61 97 155
60 94 153
61 96 157
61 96 157
61 96 157
61 96 156
61 96 156
59 93 150
60 95 152
60 94 153
58 92 147
58 91 143
60 83 118
53 61 50
42 47 20
62 65 19
62 66 28
56 62 27
67 70 27
74 76 27
74 76 22
68 70 28
70 75 32
73 74 29
79 82 31
81 86 44
92 92 43
86 87 37
87 90 45
90 92 45
86 89 45
88 91 43
100 101 44
105 104 51
103 103 54
106 106 55
108 109 55
106 106 54
116 115 54
118 117 57
111 110 56
124 121 60
127 123 59
131 129 67
130 128 63
137 134 66
134 131 61
128 125 64
134 132 68
141 136 68
127 126 64
143 139 69
139 135 68
137 135 63
135 131 60
136 133 62
132 129 57
145 140 63
143 139 69
152 147 71
150 145 72
150 144 69
155 150 74
155 149 74
154 148 62
153 148 63
156 151 66
155 150 71
157 151 76
154 149 63
154 148 68
153 147 67
163 156 74
157 152 70
149 144 65
158 153 58
157 152 66
150 145 63
157 151 63
159 153 73
159 153 76
157 152 69
159 153 66
162 156 70
159 153 76
157 151 68
155 149 66
156 149 69
166 159 76
155 149 71
159 153 69
158 152 68
159 153 70
158 151 71
153 148 68
164 157 70
164 157 80
160 154 69
158 152 70
155 149 68
153 147 64
148 143 63
152 147 59
154 148 62
152 146 63
156 150 69
153 147 71
149 144 60
152 145 64
153 147 58
148 142 61
148 142 61
157 150 65
155 149 62
151 145 60
149 142 61
151 145 54
147 140 64
141 137 48
131 127 47
143 137 57
147 139 60
147 140 58
151 144 63
138 132 58
142 137 51
145 139 52
135 130 53
139 132 56
137 131 52
135 130 48
138 133 44
133 129 45
142 140 41
140 139 41
141 145 41
146 154 28
152 165 16
153 167 16
166 182 19
165 184 0
167 186 11
167 185 0
169 189 0
166 185 0
166 186 0
170 191 0
166 186 0
168 189 0
172 195 0
171 195 0
171 194 0
175 198 0
171 195 0
173 196 0
170 194 0
166 189 0
170 193 0
170 194 0
169 192 0
172 195 0
170 194 0
173 196 0
172 196 0
169 193 0
171 194 0
171 194 0
171 194 0
171 194 0
170 194 0
172 195 0
171 195 0
171 194 0
171 195 0
167 190 0
170 193 0
173 196 0
170 194 0
170 193 0
171 194 0
171 195 0
170 193 0
172 195 0
170 193 0
169 193 0
171 195 0
170 192 0
171 195 0
173 195 0
168 191 0
172 195 0
172 196 0
170 193 0
166 189 0
168 190 0
169 192 0
172 195 0
167 191 0
173 196 0
169 193 0
167 190 0
171 194 0
167 190 0
167 190 0
171 194 0
169 192 0
170 193 0
172 195 0
171 194 0
171 195 0
166 189 0
172 195 0
170 193 0
168 191 0
168 191 0
172 194 0
168 191 0
171 194 0
170 193 0
171 196 0
166 189 0
166 189 0
169 192 0
166 189 0
165 188 0
168 191 0
169 192 0
167 191 0
169 192 0
166 190 0
166 190 0
166 189 0
166 189 0
168 192 0
158 180 72
93 122 139
61 96 147
61 97 154
62 98 159
61 97 158
62 98 162
62 99 166
62 98 160
61 98 160
63 99 170
62 98 162
62 98 161
62 99 169
62 98 164
61 98 166
62 98 163
62 98 167
62 98 164
62 99 168
61 98 171
61 98 164
62 98 169
62 99 173
61 98 166
62 98 166
62 98 171
61 98 166
62 99 173
61 98 168
63 99 175
61 98 162
62 99 174
62 98 173
62 99 169
61 98 169
62 99 168
61 98 172
63 99 174
62 99 173
62 98 167
62 99 175
61 98 171
62 98 171
62 98 172
62 99 173
61 98 171
63 99 174
62 99 173
62 99 174
62 99 172
62 98 168
62 99 174
62 99 173
62 98 173
63 99 175
62 98 173
63 99 175
61 98 175
63 99 172
63 99 176
63 99 175
62 99 178
62 99 173
62 98 168
62 99 174
62 99 179
62 99 171
62 99 169
63 99 176
62 99 178
62 99 172
62 98 172
62 99 175
62 99 176
63 99 173
62 98 172
62 99 174
62 99 175
62 99 175
62 99 172
62 99 171
62 99 172
62 99 172
61 98 166
63 99 176
62 99 172
62 99 176
62 99 177
63 99 179
62 98 171
62 99 173
62 99 170
63 99 172
62 99 175
62 99 175
63 100 176
62 99 173
62 99 167
61 98 170
62 99 170
62 98 169
62 99 176
62 99 176
62 98 172
62 99 172
62 99 176
62 98 173
62 98 171
63 99 178
62 98 169
62 99 173
62 99 172
62 99 175
62 99 166
62 98 170
63 99 172
62 98 170
62 98 169
62 99 171
61 98 167
62 99 170
63 100 176
62 99 172
62 99 171
62 98 163
62 98 172
63 99 173
62 98 169
63 99 172
62 98 165
63 99 170
62 99 169
62 98 169
62 99 171
63 99 169
63 99 169
62 98 170
62 98 166
62 99 165
62 98 162
63 99 166
62 98 163
62 99 170
61 98 164
62 98 167
63 99 170
61 97 158
61 98 162
61 98 166
62 98 166
62 98 164
61 96 159
63 99 169
63 100 174
63 99 172
62 98 167
61 97 154
61 97 161
61 97 158
62 98 169
61 97 160
62 96 160
61 97 161
62 97 156
61 97 156
60 95 157
61 97 160
62 97 163
62 97 161
61 97 156
60 94 143
61 95 152
60 95 154
61 95 149
61 95 153
58 91 136
58 91 143
60 83 116
60 72 69
53 57 18
63 65 26
53 59 21
69 71 24
71 73 32
73 75 24
77 79 32
66 69 26
79 79 33
66 70 38
73 76 35
90 91 37
92 92 38
88 90 41
92 93 38
86 88 44
95 96 44
99 99 46
104 103 46
95 96 44
101 102 47
113 111 49
111 109 49
114 113 47
114 113 55
113 113 55
113 112 51
130 128 63
121 118 58
120 119 53
126 125 60
123 120 61
135 131 64
130 128 59
133 130 61
139 135 63
128 126 63
136 133 61
139 135 68
136 133 60
144 140 66
144 140 62
151 146 73
146 142 64
144 139 70
148 143 65
152 147 74
150 146 68
153 149 72
148 144 70
150 145 72
157 153 72
159 153 73
151 145 71
156 150 79
162 155 72
153 149 67
152 148 69
154 149 65
158 152 69
155 150 62
155 150 68
156 150 67
153 147 68
159 152 72
158 152 65
152 146 61
165 158 72
156 150 68
159 153 74
162 155 72
158 152 66
162 154 70
162 155 71
162 155 73
152 146 63
160 153 77
157 152 67
159 153 69
156 151 64
159 153 68
156 150 60
155 149 67
155 148 60
153 148 67
160 153 71
158 151 72
156 151 63
154 148 67
154 148 66
155 149 68
154 147 68
154 148 60
154 148 59
160 152 74
161 154 76
150 144 58
148 142 58
147 142 61
144 138 61
142 136 52
140 135 51
153 146 66
141 136 52
146 140 60
145 140 53
144 138 59
144 140 57
144 139 56
132 127 39
138 132 56
140 134 53
141 134 53
135 130 54
126 121 48
140 135 45
124 119 42
133 130 44
133 128 49
128 129 37
139 141 41
144 152 25
154 166 28
155 167 28
160 174 25
165 182 11
165 182 0
167 185 11
167 186 0
169 190 0
167 187 0
164 183 0
171 192 0
168 188 0
170 191 0
168 192 0
172 195 0
171 195 0
173 197 0
173 196 0
171 194 0
174 197 0
172 195 0
172 196 0
173 197 0
172 195 0
172 196 0
170 193 0
171 194 0
172 196 0
171 194 0
173 196 0
173 196 0
172 196 0
173 197 0
173 197 0
172 195 0
166 190 0
172 195 0
168 190 0
170 194 0
171 194 0
171 195 0
170 194 0
167 191 0
170 195 0
170 194 0
167 190 0
171 194 0
171 194 0
167 191 0
169 192 0
170 194 0
170 193 0
171 194 0
171 194 0
170 193 0
170 193 0
171 194 0
167 191 0
171 194 0
169 193 0
169 192 0
171 195 0
172 195 0
169 191 0
171 194 0
171 194 0
170 194 0
170 193 0
170 194 0
169 191 0
168 191 0
166 190 0
170 194 0
169 193 0
171 194 0
168 191 0
170 194 0
170 193 0
171 195 0
168 190 0
170 193 0
169 192 0
172 196 0
169 192 0
169 193 0
169 192 0
168 192 0
166 189 0
168 191 0
167 190 0
167 189 0
165 188 0
168 191 0
167 190 0
168 191 0
168 191 0
166 189 0
170 193 0
156 181 62
82 113 150
62 97 156
62 98 158
61 97 158
62 97 156
62 98 162
62 98 162
61 97 158
61 97 157
62 98 162
62 99 171
61 98 165
61 98 164
62 98 169
61 97 166
62 98 167
63 100 173
62 98 160
62 98 166
62 98 166
62 98 170
62 98 166
61 98 163
63 99 176
61 98 172
62 99 172
62 98 165
62 98 171
61 98 167
63 99 169
63 100 179
62 99 174
62 99 174
61 98 170
62 98 168
62 98 169
62 99 173
61 98 167
62 99 171
62 98 171
61 98 173
61 98 171
62 98 172
61 97 169
61 98 167
61 98 165
62 99 177
62 99 175
62 99 171
62 99 175
61 98 172
61 98 167
62 98 171
62 99 173
62 99 174
63 99 176
62 99 173
62 99 174
62 99 177
62 99 174
62 99 173
62 98 172
62 99 173
62 99 172
62 98 172
63 99 176
62 99 173
62 98 170
62 99 170
61 98 169
62 99 171
62 99 175
62 98 171
62 99 171
62 99 174
62 99 176
62 99 173
63 99 170
63 99 172
62 99 169
62 99 176
62 99 176
62 99 174
62 99 171
62 99 174
62 99 175
63 99 174
62 98 170
62 99 170
63 99 171
62 99 173
63 99 172
61 98 169
62 99 170
63 99 175
62 98 167
62 98 171
62 99 174
62 99 177
61 98 169
62 99 174
62 98 169
62 99 175
63 99 169
63 99 169
62 98 170
62 99 170
62 98 167
62 98 168
63 99 168
62 98 164
62 99 173
62 98 168
62 99 173
63 99 169
62 98 170
62 98 168
61 98 165
62 98 166
62 98 169
62 99 166
62 98 166
61 98 165
62 98 166
62 99 168
63 100 176
62 98 167
63 99 170
63 100 175
62 99 169
62 98 165
62 98 170
62 98 169
62 98 164
62 99 174
62 99 172
61 97 161
62 98 169
62 98 168
61 97 160
62 98 165
62 98 161
62 98 169
62 99 170
63 100 170
62 98 169
61 97 162
63 99 171
62 98 164
62 98 165
62 98 165
62 99 169
63 99 169
61 97 165
62 98 165
62 98 164
62 98 159
61 97 162
62 98 162
62 97 160
62 98 167
62 97 163
61 96 158
61 96 152
61 96 152
60 95 151
62 97 161
61 96 156
61 96 158
61 96 152
60 94 151
60 95 149
60 94 154
60 94 153
59 92 149
59 93 149
58 92 139
59 86 127
59 73 84
64 66 25
57 59 23
61 63 25
69 71 19
62 65 29
63 68 26
76 77 26
51 58 30
80 82 32
80 82 29
73 76 32
80 83 28
85 89 45
90 90 30
88 90 39
95 95 43
95 95 42
83 86 43
97 98 46
109 108 53
111 110 49
104 104 51
107 106 46
110 109 47
121 120 52
115 114 56
105 106 43
127 124 58
124 122 56
117 117 56
117 116 48
117 116 57
132 129 64
127 126 56
132 129 59
137 133 61
139 136 64
130 127 61
139 136 59
130 128 54
135 131 64
141 136 64
150 145 61
146 141 61
143 139 61
142 138 64
143 140 69
145 140 65
149 144 69
144 139 66
146 141 65
148 144 63
152 147 70
149 145 63
150 145 70
151 146 66
156 151 64
153 148 70
158 152 72
154 148 60
154 148 66
158 152 74
155 150 71
156 150 67
165 158 76
158 152 75
155 149 65
160 153 68
155 149 58
157 150 67
153 148 64
161 154 76
161 154 74
152 146 61
156 149 64
151 146 62
155 149 71
154 149 67
157 152 69
153 147 60
167 160 77
155 149 70
155 149 60
160 153 67
154 148 62
150 145 58
156 151 70
156 150 64
147 143 53
150 144 61
153 147 62
155 148 66
154 148 66
151 144 62
147 141 60
153 147 61
145 139 63
149 143 61
151 145 56
154 148 69
147 141 59
148 141 64
153 147 64
152 147 58
146 140 54
151 145 63
154 147 53
147 142 54
143 137 51
142 136 54
145 140 56
138 132 49
127 123 37
137 131 57
128 123 42
131 126 49
127 121 44
126 122 39
123 122 42
147 150 39
132 134 41
153 162 36
158 170 22
158 172 22
159 176 16
168 186 22
169 189 0
170 189 0
165 186 0
167 185 0
169 191 0
166 186 0
168 189 0
170 190 0
165 185 0
171 194 0
168 192 0
172 196 0
172 196 0
172 196 0
172 196 0
171 195 0
168 191 0
169 193 0
172 196 0
172 195 0
173 196 0
171 195 0
171 195 0
173 197 0
171 195 0
171 196 0
169 193 0
169 192 0
170 194 0
171 194 0
171 194 0
171 195 0
170 193 0
169 191 0
170 194 0
172 195 0
172 195 0
170 193 0
171 194 0
171 195 0
166 190 0
173 195 0
168 191 0
171 195 0
172 195 0
171 195 0
169 192 0
171 194 0
170 194 0
171 195 0
166 189 0
173 196 0
170 193 0
171 195 0
170 194 0
171 194 0
173 197 0
171 194 0
170 193 0
169 193 0
169 192 0
168 192 0
167 190 0
167 191 0
170 192 0
168 191 0
170 193 0
167 190 0
169 193 0
168 192 0
165 188 0
169 193 0
170 195 0
166 189 0
169 193 0
169 192 0
169 192 0
170 193 0
168 191 0
170 194 0
169 192 0
171 193 0
169 192 0
164 188 0
170 193 0
170 194 0
164 187 0
164 188 0
169 192 0
167 191 0
169 192 0
170 193 0
165 189 0
164 187 0
150 175 76
71 105 144
61 96 157
61 97 158
62 98 161
59 95 150
62 98 157
61 97 159
63 99 170
62 98 159
62 98 169
62 98 162
61 97 157
62 98 165
62 99 170
63 99 168
61 98 165
62 98 167
62 99 169
61 98 168
62 98 166
61 97 165
61 97 167
61 98 167
62 98 170
62 98 168
62 99 168
62 98 166
62 98 167
62 99 174
62 98 169
61 98 173
63 99 171
62 98 170
62 99 172
62 99 169
62 99 171
61 98 170
62 98 172
62 98 167
62 98 170
62 98 173
61 98 170
63 100 175
62 98 171
62 99 170
62 98 169
61 98 172
61 98 172
61 98 173
62 98 170
62 99 176
62 99 171
62 98 169
61 98 173
62 98 174
62 99 175
63 99 175
61 98 171
62 98 171
62 99 173
63 99 175
62 99 169
62 99 171
62 98 173
62 98 173
63 99 176
63 99 175
62 98 172
63 99 174
62 99 175
62 99 174
62 99 170
62 99 174
62 99 174
62 99 174
62 99 171
61 98 172
63 99 174
61 98 168
61 98 166
63 99 173
63 99 175
62 99 171
62 99 173
62 99 176
63 99 172
62 99 176
62 99 173
62 98 169
62 98 169
62 99 171
62 99 171
62 99 174
62 99 171
62 99 174
62 98 170
63 99 174
62 98 170
63 100 174
63 99 174
61 98 170
62 98 172
63 99 171
62 99 170
61 98 169
62 99 168
62 99 171
63 99 172
62 98 170
62 98 170
63 100 176
62 99 177
61 98 171
62 99 175
62 98 168
62 99 171
62 99 171
61 98 165
62 99 172
61 98 161
62 99 173
62 99 172
62 99 164
62 98 168
62 98 166
62 99 170
62 98 162
62 98 168
63 99 169
62 98 164
63 99 169
62 98 166
62 98 169
61 98 164
63 99 172
62 99 170
62 99 171
61 97 160
62 99 168
62 98 165
62 98 165
61 97 161
62 98 170
62 99 166
62 99 168
62 98 164
63 100 174
62 98 163
62 98 166
61 97 161
61 97 162
63 99 164
60 96 154
61 97 162
62 98 159
62 98 155
61 97 161
62 98 161
62 97 162
61 97 160
61 97 161
62 97 161
60 96 158
61 97 162
61 97 161
61 96 156
61 96 158
61 96 158
61 96 154
60 96 157
62 97 156
60 94 149
60 94 150
59 93 147
59 92 142
58 92 146
61 95 149
56 86 120
57 72 87
70 71 33
72 74 28
62 65 26
79 80 20
82 84 20
67 69 21
73 76 34
67 70 31
68 71 30
75 78 30
72 74 32
88 90 29
81 85 36
87 89 30
85 87 30
85 86 42
103 103 42
84 87 42
86 88 45
104 102 43
102 101 45
113 112 54
105 105 54
122 120 52
121 118 59
116 114 55
117 116 51
129 127 55
114 112 50
121 118 54
132 129 62
127 125 52
131 128 61
128 127 60
127 125 52
122 120 48
124 122 55
136 133 57
143 139 61
131 130 59
142 138 70
134 131 61
130 127 59
146 142 65
143 138 64
145 139 63
141 137 58
151 146 69
144 140 62
148 144 61
159 153 73
146 142 66
149 144 72
155 149 69
149 144 63
154 148 71
153 148 66
151 146 64
144 140 57
156 149 73
157 151 71
156 150 66
157 151 71
155 149 61
158 152 63
158 153 70
154 148 66
159 153 65
154 148 69
150 145 60
153 148 61
149 144 58
162 157 67
162 156 68
163 157 72
158 152 69
160 154 76
159 152 68
153 148 62
154 149 58
157 153 58
154 148 60
159 153 64
148 142 60
147 142 59
152 146 61
154 148 66
151 146 64
157 151 64
156 151 57
161 155 68
150 144 63
156 149 65
152 146 61
151 145 53
147 142 60
143 138 51
148 142 58
149 143 54
150 144 59
141 137 47
150 143 60
144 139 53
137 132 47
149 143 60
138 133 56
147 142 54
141 136 53
136 132 45
141 137 45
133 128 51
141 135 52
135 129 53
137 131 45
133 127 45
126 121 45
143 140 52
137 136 39
138 139 39
134 137 39
134 142 28
157 168 30
154 166 16
161 177 22
163 179 16
164 181 0
166 186 11
167 189 0
168 189 0
166 187 0
170 190 0
166 186 0
166 186 0
171 191 0
170 190 0
167 191 0
170 194 0
172 196 0
169 193 0
171 194 0
170 193 0
171 195 0
170 193 0
171 195 0
171 194 0
173 197 0
169 193 0
170 194 0
171 194 0
169 193 0
174 198 0
170 193 0
173 196 0
168 191 0
172 196 0
172 195 0
172 195 0
172 195 0
170 193 0
170 194 0
171 194 0
170 193 0
169 192 0
168 192 0
171 194 0
172 196 0
169 192 0
171 195 0
168 193 0
170 193 0
171 194 0
171 195 0
169 192 0
170 194 0
169 192 0
169 193 0
166 190 0
172 195 0
170 193 0
169 192 0
168 193 0
169 192 0
171 194 0
170 193 0
171 193 0
170 193 0
169 192 0
171 194 0
173 196 0
169 192 0
171 194 0
167 191 0
169 193 0
171 194 0
168 191 0
167 189 0
168 191 0
168 192 0
167 190 0
171 194 0
169 192 0
166 190 0
168 192 0
167 191 0
169 192 0
168 192 0
172 195 0
168 191 0
173 196 0
167 192 0
173 196 0
165 188 0
167 190 0
170 193 0
168 190 0
168 192 0
168 192 0
167 190 0
169 192 0
169 192 0
139 164 94
64 98 143
60 96 150
62 98 165
62 98 157
62 98 160
62 97 155
61 97 156
61 98 162
62 98 162
62 98 167
61 97 158
62 99 175
62 99 166
62 98 162
61 98 166
62 98 163
62 98 162
63 99 171
62 98 169
61 98 167
62 99 170
61 97 160
62 99 172
62 99 171
62 98 168
62 98 163
63 99 171
61 98 168
61 98 172
61 98 166
63 99 170
62 98 163
62 98 166
63 99 174
62 98 171
62 98 172
62 98 171
61 98 168
62 98 167
62 99 170
62 99 168
61 97 165
62 99 174
61 98 170
61 97 172
62 98 170
62 99 173
62 99 170
63 99 173
62 99 172
62 99 172
61 98 169
62 99 174
62 99 173
61 97 173
63 100 178
63 99 172
62 99 171
63 99 172
62 98 168
62 99 173
62 99 176
62 99 174
61 98 168
62 99 177
62 99 172
62 98 170
62 99 174
63 99 176
63 99 173
62 99 174
62 99 176
62 98 168
62 98 173
63 99 174
61 98 173
63 100 174
61 97 161
62 99 172
63 99 174
62 99 174
63 99 175
62 98 173
62 99 174
62 98 168
62 99 171
62 99 174
62 99 174
62 98 170
62 99 172
62 99 170
61 98 170
62 99 173
62 99 170
62 98 173
62 98 171
62 98 169
62 99 172
61 98 173
62 98 167
63 99 174
63 99 175
63 99 169
62 98 169
62 98 167
62 98 173
63 99 169
63 99 173
62 99 168
62 98 167
62 99 169
63 99 169
62 99 171
62 98 168
62 99 170
62 98 168
61 98 169
62 99 169
61 98 168
62 98 165
62 98 172
61 98 168
63 99 170
61 98 170
62 99 171
62 99 164
63 99 170
62 99 168
62 98 166
62 99 166
62 98 169
62 99 168
62 99 171
62 98 169
62 98 169
62 98 166
62 98 169
61 97 159
62 98 166
62 98 166
61 98 161
63 99 169
62 98 163
62 98 166
62 98 163
62 98 161
62 98 161
62 98 169
63 99 173
63 99 167
62 98 165
61 97 156
63 99 167
61 97 162
62 98 165
62 98 164
62 98 161
61 97 157
61 97 160
62 98 160
61 97 160
61 97 165
62 97 159
61 96 162
61 97 159
61 96 150
61 96 146
61 96 153
61 97 161
61 96 149
60 95 151
60 95 153
59 93 151
61 96 155
59 94 149
61 95 148
58 90 140
61 91 137
57 76 105
71 73 23
69 72 28
63 66 18
66 69 15
71 74 34
70 73 29
68 71 22
73 76 31
73 75 24
71 75 31
93 93 41
83 85 31
87 88 36
82 85 31
86 88 41
92 93 32
88 90 33
95 95 39
104 103 40
103 103 49
104 104 45
105 105 47
105 105 48
108 108 49
114 113 53
110 109 55
116 114 51
126 124 51
128 125 52
132 129 54
129 126 54
117 116 54
131 129 62
131 129 62
133 129 52
136 132 64
136 133 58
132 129 61
145 141 60
138 133 58
142 138 61
136 133 62
143 137 63
149 144 68
145 141 60
148 144 56
142 139 62
148 143 65
145 141 61
145 142 62
142 137 63
146 141 66
146 143 61
145 140 57
153 148 69
149 144 61
146 142 61
151 146 65
155 149 68
155 150 70
152 146 65
154 149 64
152 147 60
153 147 66
158 152 73
155 150 68
158 152 67
153 148 63
159 153 68
153 147 60
156 150 59
156 149 67
152 147 63
155 148 69
159 153 68
156 150 70
159 153 73
161 155 67
153 148 64
158 152 59
163 156 68
152 146 62
158 151 72
157 151 69
152 146 63
157 149 69
151 145 59
153 147 60
151 145 63
156 149 71
153 147 56
148 142 54
147 141 59
146 140 58
161 154 70
151 146 53
154 148 58
154 148 60
143 137 49
141 135 52
147 140 58
152 144 64
140 135 47
145 140 52
147 141 59
140 134 48
137 132 48
145 140 45
138 132 53
150 144 59
139 134 49
141 135 53
134 128 45
137 132 51
127 121 47
125 120 39
132 127 36
130 131 32
137 141 32
139 146 36
153 162 39
149 160 30
155 169 19
160 175 19
160 177 11
163 181 0
167 184 0
167 186 0
166 185 0
165 185 0
169 189 0
168 187 0
169 186 0
169 188 0
167 187 0
171 194 0
170 193 0
169 192 0
170 193 0
172 195 0
170 194 0
169 192 0
174 197 0
172 196 0
169 192 0
172 195 0
175 198 0
170 194 0
167 191 0
170 194 0
172 195 0
172 196 0
166 190 0
170 193 0
170 193 0
172 195 0
169 192 0
171 193 0
171 193 0
171 195 0
171 195 0
172 196 0
170 193 0
170 194 0
171 194 0
169 193 0
171 194 0
171 194 0
168 192 0
171 194 0
169 192 0
171 194 0
171 194 0
174 196 0
169 192 0
170 194 0
168 191 0
171 194 0
171 194 0
167 191 0
172 196 0
168 192 0
165 189 0
169 193 0
169 193 0
166 190 0
168 191 0
170 193 0
170 194 0
172 194 0
170 193 0
170 193 0
168 192 0
172 195 0
171 193 0
169 192 0
170 193 0
165 189 0
170 194 0
165 189 0
167 191 0
171 195 0
168 191 0
171 194 0
168 191 0
164 189 0
166 189 0
167 191 0
170 194 0
166 188 0
165 188 0
169 193 0
169 191 0
168 192 0
169 192 0
168 190 0
167 191 0
167 190 0
165 188 0
168 190 0
125 150 110
62 97 155
61 97 156
61 97 154
63 98 159
62 98 161
61 97 156
62 98 161
62 99 170
62 98 158
61 97 160
62 98 163
62 98 164
62 98 164
61 98 158
62 98 165
62 98 160
61 98 167
62 98 170
61 97 160
62 99 171
61 98 169
62 98 165
61 98 168
62 98 171
62 99 170
61 97 163
61 97 158
61 97 166
62 98 167
61 98 170
62 98 166
61 98 171
63 99 169
61 98 168
61 97 162
62 98 168
62 98 167
62 99 169
61 98 171
62 99 172
62 98 165
61 98 171
62 98 172
61 98 170
62 98 166
62 99 174
62 98 171
62 99 171
62 99 172
62 98 165
63 99 171
62 98 173
63 99 174
62 99 174
62 99 174
62 99 172
62 99 173
61 98 169
62 99 173
62 98 171
62 98 166
61 97 164
62 99 174
62 99 175
61 98 171
62 99 172
62 99 174
62 98 172
62 99 172
61 97 170
61 98 171
63 99 172
62 99 174
62 99 171
62 99 173
62 98 171
63 99 177
61 98 167
62 99 171
62 99 170
62 99 174
62 99 171
63 99 177
61 98 161
62 99 173
63 99 174
63 99 175
62 99 175
62 99 172
62 99 174
62 98 172
62 99 170
62 99 169
62 99 175
63 100 175
63 99 171
61 98 169
62 99 168
61 98 171
62 98 168
61 98 168
61 98 167
62 99 172
62 99 169
61 98 168
62 99 170
62 99 172
61 98 167
62 99 174
62 99 171
62 99 168
62 99 170
62 98 163
62 99 176
62 98 165
62 98 171
62 99 170
61 98 164
63 99 171
63 99 168
62 98 167
62 98 168
62 99 170
61 98 168
62 98 166
62 98 168
62 98 164
62 98 163
62 98 167
62 99 166
62 99 170
62 99 166
63 99 171
62 99 166
61 98 167
62 99 169
63 99 170
63 99 165
62 98 164
62 98 162
63 99 173
62 98 164
62 98 169
63 99 171
63 99 166
63 99 172
62 98 165
63 99 172
63 99 170
61 97 157
62 98 163
62 98 165
61 98 164
62 98 161
62 98 157
62 97 164
62 98 160
62 97 162
61 96 152
61 97 155
62 97 164
62 99 170
62 98 167
61 96 155
61 97 159
60 95 150
60 95 154
62 97 156
61 96 158
60 96 158
62 98 163
60 95 146
60 94 151
60 95 147
61 96 152
60 94 151
59 92 141
56 87 124
64 81 97
61 62 19
64 66 20
72 72 15
56 60 28
72 73 18
74 75 24
65 66 27
70 73 24
71 73 24
76 77 33
62 67 31
92 92 28
88 90 25
82 84 33
93 95 33
93 94 38
93 95 38
92 92 44
100 101 43
104 103 41
106 107 44
96 97 33
117 115 47
104 103 44
116 115 51
107 107 53
110 110 47
129 125 58
118 118 49
121 119 54
121 120 55
112 112 44
117 115 48
129 124 59
123 121 55
136 133 53
132 130 56
137 134 60
147 143 66
133 130 54
137 135 61
131 127 56
139 135 67
140 136 62
137 134 55
145 141 58
141 136 64
149 144 66
151 146 66
140 137 59
148 143 59
149 144 60
150 145 67
146 141 62
150 145 69
151 146 62
150 144 72
147 142 53
156 150 66
160 154 70
148 143 62
157 151 63
150 145 63
153 147 64
153 148 65
158 152 66
154 147 64
154 148 60
156 150 63
156 150 63
162 155 70
158 151 69
154 148 62
160 154 64
151 146 61
153 147 65
159 152 65
156 150 68
161 153 71
152 145 62
156 149 62
152 147 61
155 150 68
154 148 58
153 147 68
157 151 67
149 143 54
152 145 58
155 148 66
152 145 67
148 142 53
155 148 61
154 147 58
145 141 53
150 144 51
142 137 52
148 143 60
151 145 57
146 140 57
150 144 57
141 134 57
143 136 60
145 139 53
136 131 42
135 130 47
146 141 58
144 138 61
142 135 56
136 131 47
138 132 48
127 124 42
138 132 52
134 129 44
125 120 41
126 121 39
128 126 37
135 134 47
141 144 36
134 139 28
146 153 30
147 159 16
160 175 16
163 179 25
163 179 19
163 181 11
163 181 0
167 184 0
167 185 0
164 184 0
168 189 0
168 187 0
168 187 0
168 188 0
166 185 0
169 188 0
173 196 0
170 194 0
170 193 0
171 194 0
171 195 0
171 194 0
174 196 0
169 192 0
171 194 0
169 192 0
174 196 0
173 196 0
169 191 0
172 195 0
170 193 0
172 196 0
171 195 0
168 192 0
171 194 0
170 195 0
171 195 0
170 193 0
172 194 0
170 194 0
169 193 0
172 195 0
170 193 0
171 194 0
170 193 0
170 194 0
169 192 0
175 198 0
172 196 0
171 194 0
167 191 0
167 191 0
173 197 0
172 195 0
172 195 0
169 193 0
173 197 0
175 198 0
167 191 0
167 190 0
170 194 0
168 191 0
173 196 0
169 192 0
169 193 0
169 192 0
172 196 0
170 192 0
167 190 0
171 194 0
166 189 0
169 192 0
164 186 0
168 191 0
170 193 0
163 186 0
169 193 0
168 191 0
167 191 0
167 190 0
169 192 0
171 195 0
170 193 0
169 192 0
168 190 0
168 192 0
168 191 0
165 189 0
170 193 0
168 191 0
163 186 0
165 188 0
169 192 0
166 189 0
171 194 0
168 190 0
168 191 0
169 193 0
166 189 0
169 192 0
160 184 44
111 138 122
61 97 145
62 97 154
62 97 153
62 97 155
61 97 160
61 96 151
61 96 160
61 97 160
62 98 160
61 98 165
61 97 159
62 98 161
61 97 158
62 98 165
62 98 166
62 98 163
61 97 157
61 97 166
62 98 167
61 98 167
63 99 168
61 97 164
62 98 169
62 98 166
62 98 167
62 99 169
63 99 169
63 99 172
61 98 169
62 98 165
61 98 172
61 98 168
63 99 172
62 99 172
61 98 169
62 99 174
62 99 171
62 99 168
62 99 171
61 98 167
62 98 169
62 99 172
62 99 173
62 98 166
62 98 171
62 98 170
62 98 169
62 99 171
63 99 170
63 99 176
61 98 169
62 99 172
62 98 170
62 98 174
62 98 174
63 99 176
62 98 172
61 98 169
62 99 168
61 98 170
61 98 168
62 99 171
62 99 176
62 98 171
62 98 169
62 98 171
62 99 175
62 98 171
62 99 169
62 99 171
62 99 173
62 99 173
63 99 170
63 99 173
62 98 166
62 98 171
62 98 173
61 98 170
62 99 170
62 99 169
62 99 172
62 98 170
62 99 172
62 98 168
62 98 173
62 99 175
63 100 174
62 98 172
63 99 172
61 98 166
62 99 174
62 99 175
62 98 169
63 99 173
62 98 170
62 98 170
61 98 169
62 99 169
61 98 166
62 99 171
62 99 168
62 99 172
62 99 173
63 99 172
62 99 173
61 98 166
62 98 165
62 98 169
63 99 168
62 99 170
63 99 173
63 99 174
63 100 171
61 98 166
63 99 172
62 98 167
62 98 168
62 99 171
63 99 171
62 98 168
62 98 167
62 98 166
62 99 171
62 99 171
62 98 172
62 98 168
62 99 171
61 98 166
62 98 166
62 99 174
62 98 170
61 98 166
62 98 164
62 99 170
62 98 162
62 98 167
62 98 165
63 99 170
61 98 165
62 99 167
62 98 168
62 98 166
61 98 163
62 98 160
62 98 159
62 98 163
63 99 166
62 98 161
62 99 170
62 98 159
62 98 169
62 98 165
61 97 160
61 97 161
62 98 165
62 97 158
61 97 160
62 98 162
61 98 164
62 98 156
60 96 152
61 97 156
61 97 154
61 96 157
62 98 164
61 96 154
62 96 157
62 98 162
61 95 151
61 96 159
59 94 150
60 94 152
61 95 152
61 97 150
60 93 143
60 94 144
58 91 138
60 92 142
66 83 97
68 71 35
71 72 19
63 65 17
70 72 22
70 71 26
63 65 19
86 85 26
64 68 29
72 73 21
91 91 24
78 79 31
82 82 27
85 87 36
79 82 32
94 94 38
94 94 36
93 94 35
100 100 35
99 100 45
92 94 36
110 109 49
102 102 41
108 108 37
103 102 48
113 111 48
100 101 47
111 110 46
125 121 50
117 116 44
121 119 52
124 122 52
132 128 54
136 133 57
133 131 59
127 125 52
123 120 54
136 132 57
125 122 50
126 125 55
133 129 56
139 134 58
123 121 50
138 134 61
138 134 60
146 141 63
145 140 65
148 142 65
152 146 64
149 144 61
147 142 60
141 138 52
145 142 56
138 134 58
147 143 63
145 141 61
152 147 66
145 140 65
148 144 66
151 147 68
158 152 69
151 146 66
150 145 61
158 152 69
153 147 70
156 150 72
153 148 66
154 149 61
149 144 66
150 145 62
158 150 65
153 147 63
155 148 59
155 150 67
149 143 62
150 144 57
148 143 56
148 142 58
148 143 56
159 153 68
156 150 56
155 149 60
155 149 63
149 143 56
156 149 61
153 147 58
153 147 59
154 149 64
157 151 67
154 148 59
157 150 64
144 139 56
148 143 57
146 141 52
136 130 53
141 136 47
144 139 54
152 146 54
148 142 60
148 143 54
141 136 51
143 138 51
141 134 56
144 139 52
136 131 42
141 137 47
135 131 49
143 138 47
134 128 51
132 127 48
138 132 49
131 126 41
133 129 44
133 126 51
124 120 41
125 121 36
126 125 39
129 133 16
136 141 34
139 145 30
143 154 22
158 169 25
158 173 28
163 180 19
164 183 0
167 187 0
169 189 0
168 189 0
169 187 0
165 183 0
169 187 0
162 180 0
167 187 0
167 187 0
171 190 0
167 187 0
171 195 0
172 196 0
172 195 0
169 194 0
174 197 0
173 197 0
171 194 0
168 192 0
169 193 0
168 192 0
172 196 0
172 195 0
173 196 0
169 192 0
171 194 0
167 191 0
173 195 0
167 191 0
172 195 0
171 195 0
171 195 0
171 194 0
170 193 0
167 190 0
171 194 0
168 190 0
173 196 0
173 196 0
166 189 0
168 191 0
171 195 0
168 192 0
171 194 0
169 192 0
172 196 0
173 197 0
173 196 0
170 193 0
169 192 0
168 191 0
169 192 0
171 194 0
168 192 0
168 191 0
170 193 0
170 193 0
170 193 0
171 195 0
167 190 0
170 194 0
170 194 0
170 194 0
165 188 0
169 192 0
170 193 0
165 189 0
165 189 0
169 193 0
175 197 0
169 192 0
167 191 0
168 191 0
170 194 0
172 195 0
165 188 0
167 191 0
168 191 0
168 191 0
170 192 0
168 192 0
167 190 0
170 193 0
168 192 0
166 190 0
169 191 0
169 192 0
169 193 0
167 190 0
168 191 0
166 190 0
166 190 0
170 193 0
167 190 0
170 194 0
162 185 47
98 126 128
62 97 153
61 97 156
62 98 159
62 98 155
61 97 164
61 97 156
61 98 164
61 97 158
61 97 161
61 97 161
61 97 160
63 99 167
61 97 162
62 98 167
62 98 164
62 98 168
61 98 162
62 98 160
62 98 165
62 98 167
62 98 162
60 97 167
63 99 166
61 98 168
61 97 162
62 98 171
62 98 171
62 99 170
62 98 165
62 98 170
62 99 173
62 99 172
61 97 166
61 98 170
61 98 164
62 98 170
62 99 171
62 99 169
61 97 165
63 99 170
62 98 172
62 99 171
62 98 164
61 98 170
62 98 168
62 99 171
62 98 171
62 99 175
62 99 173
62 99 171
61 97 166
61 98 167
62 98 170
62 99 168
61 98 170
62 99 175
62 99 174
61 98 171
62 99 174
63 99 176
61 98 169
62 98 169
62 98 171
62 99 177
63 99 170
62 99 173
62 99 172
63 99 174
62 99 173
63 100 176
62 99 169
62 98 171
62 99 174
62 99 176
62 99 170
62 99 169
63 99 171
62 98 167
61 97 161
62 98 169
62 99 170
62 99 173
61 98 169
62 99 173
63 99 175
62 99 172
62 99 174
63 99 175
61 98 172
62 99 169
63 99 176
61 98 169
62 99 172
62 99 173
62 99 171
62 99 169
63 99 174
62 99 173
62 99 167
62 99 170
63 99 172
61 98 167
63 99 174
62 99 177
62 99 169
62 98 169
62 98 169
62 99 169
62 99 170
62 98 164
61 97 163
62 98 168
63 99 170
63 100 173
61 97 160
62 98 169
62 99 172
62 98 165
62 98 166
62 99 170
62 99 171
61 96 156
62 99 170
63 99 165
62 99 167
62 98 167
63 99 164
62 98 166
62 99 170
62 99 166
63 99 164
61 98 161
62 98 167
62 98 163
62 98 162
62 98 166
62 98 166
62 99 170
62 98 167
62 98 166
63 99 168
62 98 165
61 98 162
62 99 169
62 98 161
61 97 162
62 98 161
62 98 160
62 98 164
62 98 159
62 98 157
61 97 161
62 98 161
62 98 162
63 99 167
62 98 158
61 96 161
62 97 156
62 97 158
62 98 164
62 97 160
62 98 161
62 97 158
62 97 158
60 95 158
61 96 152
60 96 158
60 95 150
61 97 161
62 96 152
60 95 153
61 96 151
60 95 151
61 95 150
60 95 148
59 93 148
60 93 144
58 91 143
64 84 111
58 69 76
77 78 15
72 75 24
62 64 21
68 70 28
70 72 24
71 74 22
66 67 21
86 85 24
78 80 28
76 78 26
90 90 37
72 74 33
88 88 40
81 83 34
90 91 39
98 98 29
90 91 41
96 96 40
92 93 34
95 97 46
116 114 43
105 105 45
101 101 42
99 100 35
116 114 44
104 105 39
120 118 43
120 117 46
114 113 52
125 122 46
129 125 57
120 118 58
131 127 50
126 123 50
133 130 61
129 125 49
132 129 59
127 125 49
134 131 52
135 131 64
136 133 57
137 133 61
142 138 59
144 140 60
129 125 52
145 141 69
133 131 63
146 141 62
139 135 53
140 136 58
143 139 59
156 150 70
147 143 60
147 143 62
144 138 56
149 144 61
154 149 65
151 147 67
144 139 57
149 143 57
154 148 65
154 149 59
150 145 63
157 151 68
156 150 64
154 147 65
154 148 64
151 145 62
152 147 54
142 137 56
151 145 60
148 142 56
156 151 64
152 146 59
153 147 63
152 147 53
150 145 57
156 150 65
152 146 64
150 144 60
157 150 65
160 154 66
155 150 51
150 144 62
152 146 61
137 134 42
152 146 63
150 144 64
144 139 53
153 146 63
150 142 62
146 140 51
146 141 54
149 143 57
149 142 56
147 142 56
154 148 66
141 135 51
141 137 47
145 139 51
139 135 47
139 134 42
134 129 47
143 137 53
148 142 60
141 135 48
137 132 47
133 127 41
128 123 48
133 128 45
137 132 48
115 111 42
133 128 45
137 135 44
134 135 37
141 143 37
140 147 22
153 162 32
152 163 19
162 179 19
162 175 22
166 180 25
165 181 0
168 187 0
156 171 0
166 180 0
168 187 0
166 183 0
165 183 0
168 187 0
166 185 0
168 185 0
164 184 0
166 185 0
173 196 0
172 196 0
171 195 0
169 192 0
173 196 0
172 195 0
171 195 0
168 191 0
172 195 0
170 193 0
171 194 0
172 195 0
173 196 0
171 194 0
171 195 0
171 195 0
169 193 0
171 194 0
170 193 0
172 195 0
170 194 0
170 194 0
167 190 0
172 195 0
171 194 0
173 196 0
172 196 0
173 197 0
171 194 0
167 191 0
170 193 0
168 192 0
170 193 0
170 193 0
171 195 0
173 196 0
171 194 0
173 196 0
170 193 0
170 193 0
168 192 0
170 193 0
167 191 0
168 191 0
170 193 0
169 193 0
170 194 0
169 193 0
170 194 0
167 191 0
172 196 0
166 189 0
168 191 0
169 192 0
170 193 0
171 195 0
165 188 0
168 192 0
164 188 0
166 189 0
168 192 0
168 192 0
166 188 0
168 191 0
170 193 0
164 187 0
169 192 0
165 188 0
168 191 0
167 190 0
168 191 0
164 186 0
167 190 0
167 191 0
164 186 0
167 190 0
164 187 0
166 189 0
167 191 0
166 189 0
168 191 0
164 187 0
163 186 0
163 187 0
158 182 47
92 120 126
60 95 145
62 97 158
61 96 154
62 97 151
62 98 155
60 96 157
62 98 160
62 98 161
61 97 159
62 98 163
62 98 164
61 97 157
62 98 165
61 97 159
62 98 165
61 97 161
62 98 164
62 98 167
62 98 165
62 98 165
62 98 169
61 97 165
62 98 165
62 98 162
62 98 167
62 98 165
62 99 175
62 98 169
62 99 170
62 98 170
61 98 166
62 98 168
62 98 166
62 99 171
62 98 170
62 98 168
61 98 169
63 100 174
62 99 172
62 98 168
62 99 173
63 99 173
62 99 173
62 98 169
63 99 171
62 99 173
62 98 168
62 99 170
62 99 172
61 98 168
62 99 174
62 99 174
62 99 174
63 99 176
62 99 172
62 99 175
63 99 172
61 98 168
62 99 171
62 98 169
62 99 172
62 99 174
62 99 170
62 99 174
62 99 173
62 99 172
62 99 169
63 99 175
62 99 173
62 98 170
61 98 170
62 99 175
62 99 173
62 98 170
62 98 171
61 98 173
62 99 174
62 99 170
61 98 170
62 98 172
62 99 171
63 99 167
62 99 172
62 99 173
62 99 171
62 99 168
61 98 165
62 99 175
61 97 167
62 98 167
62 98 167
61 98 170
63 99 173
62 99 171
62 99 172
62 99 167
62 98 166
62 99 170
62 98 169
61 97 159
62 99 168
61 98 171
62 99 171
62 98 171
62 99 170
63 99 174
62 99 170
62 98 168
62 99 169
62 99 175
62 99 171
63 99 172
61 97 163
62 98 165
63 99 175
63 99 174
63 99 169
62 98 167
62 99 172
62 99 166
62 98 167
63 99 173
61 98 164
62 98 166
62 99 167
61 98 167
61 97 161
61 98 168
62 98 170
63 99 174
63 99 166
62 98 158
61 97 163
62 98 169
61 97 163
61 98 161
62 99 168
62 98 164
61 98 159
62 98 163
62 98 165
63 99 173
61 97 162
62 98 165
63 100 171
62 98 163
62 98 161
62 98 170
62 98 164
62 98 164
62 98 163
61 97 161
61 96 157
62 98 160
61 96 155
61 97 156
60 96 152
62 98 163
61 96 157
61 97 158
61 97 162
61 97 155
61 97 154
60 96 158
61 97 162
62 98 162
63 98 162
59 94 146
60 95 150
61 96 148
61 96 153
61 96 154
62 96 151
62 97 155
59 93 136
59 93 149
58 91 130
59 92 136
58 82 110
65 71 49
81 81 16
71 70 18
72 74 23
72 72 17
71 72 17
66 68 23
81 82 28
71 73 23
90 91 28
72 76 26
73 74 26
80 83 30
81 83 24
89 89 32
95 95 39
90 90 37
95 96 37
98 98 34
97 97 38
100 99 40
86 88 26
110 109 39
115 115 44
113 111 50
114 113 49
117 115 45
111 110 48
128 126 50
116 114 47
124 122 46
116 113 27
128 126 54
125 122 48
127 125 53
132 130 52
131 127 55
127 125 43
132 129 52
135 132 51
139 136 55
136 131 54
130 127 51
138 134 60
149 144 62
138 133 57
140 136 58
136 132 55
143 139 57
149 144 62
148 143 58
141 136 57
144 139 62
153 147 65
150 146 57
145 141 57
148 143 66
145 140 58
145 141 58
150 145 61
150 145 58
146 142 63
148 143 51
154 148 61
152 147 57
160 153 73
155 149 66
155 150 67
161 154 65
149 143 60
156 150 69
156 150 59
149 144 59
154 148 64
157 150 64
158 151 69
148 144 51
154 147 65
153 147 62
145 140 54
153 147 59
143 138 54
150 145 54
151 145 58
149 143 57
152 147 53
142 137 53
143 137 47
155 148 53
143 139 52
145 141 51
146 141 54
144 138 49
143 137 54
147 141 49
144 138 54
140 135 47
145 139 54
152 146 52
145 139 54
134 129 49
137 132 44
140 135 51
135 129 52
145 139 51
138 134 41
136 132 48
140 134 47
140 134 49
129 124 30
133 128 51
140 134 45
129 125 37
142 138 49
133 131 47
136 137 34
138 140 37
144 152 28
140 148 22
156 170 25
155 171 16
164 181 11
166 184 0
164 181 0
163 180 0
169 188 0
162 180 0
166 183 0
167 186 0
165 184 0
170 190 0
165 184 0
166 186 0
167 186 0
163 181 0
172 195 0
170 194 0
169 193 0
171 195 0
172 195 0
171 194 0
171 195 0
170 194 0
172 195 0
170 194 0
169 193 0
172 195 0
171 195 0
172 196 0
172 195 0
169 192 0
169 192 0
168 192 0
171 195 0
169 192 0
169 193 0
171 195 0
169 193 0
172 196 0
169 193 0
172 194 0
169 192 0
170 194 0
169 193 0
169 192 0
170 193 0
170 194 0
167 190 0
174 197 0
171 194 0
172 195 0
168 192 0
169 192 0
171 195 0
169 193 0
172 195 0
170 192 0
170 194 0
169 193 0
168 191 0
170 193 0
169 192 0
168 192 0
165 188 0
167 191 0
172 195 0
167 190 0
169 194 0
165 190 0
169 193 0
169 191 0
169 192 0
166 189 0
166 189 0
166 190 0
161 184 0
169 192 0
169 193 0
169 193 0
167 191 0
169 192 0
168 191 0
166 189 0
168 192 0
167 190 0
171 194 0
163 186 0
166 190 0
169 192 0
164 187 0
165 187 0
166 189 0
168 191 0
167 190 0
165 189 0
168 192 0
166 189 0
169 192 0
169 192 0
154 176 57
93 121 129
62 98 158
62 98 158
61 97 162
61 97 158
61 96 157
62 97 159
62 98 163
61 97 159
62 98 163
62 98 159
61 97 162
61 97 154
61 97 161
61 97 160
61 96 156
62 98 163
62 98 165
62 98 164
61 97 164
62 98 167
63 99 169
61 98 168
62 98 169
62 98 167
61 97 166
63 99 170
61 98 168
62 98 167
62 98 169
62 99 168
62 99 172
62 98 170
61 98 165
61 98 169
61 98 168
61 98 167
60 97 162
62 99 168
62 98 169
62 99 169
62 99 172
62 98 172
62 98 172
63 100 175
62 99 172
61 98 166
62 99 174
62 98 167
62 99 172
61 98 171
61 97 165
62 99 173
63 99 173
62 99 174
62 98 167
62 98 169
61 98 165
61 98 172
62 98 169
62 98 163
62 98 173
62 99 173
62 98 169
63 100 177
63 99 173
62 99 170
62 98 176
62 98 169
62 99 168
62 98 169
62 98 168
62 98 163
62 99 169
62 98 171
62 98 172
62 98 168
62 99 172
63 99 167
62 98 165
62 99 170
61 98 170
62 99 170
63 99 172
62 99 171
62 98 169
62 98 170
62 99 172
62 99 172
62 98 172
61 97 163
62 99 166
62 99 172
62 98 170
63 100 173
62 99 169
63 99 172
62 99 169
61 98 167
62 98 170
61 98 166
62 99 166
62 98 168
63 99 169
62 99 170
63 99 173
62 99 169
62 98 163
62 98 171
62 99 169
62 99 172
62 99 176
62 98 167
62 98 163
61 98 165
63 99 168
62 98 160
62 98 169
63 99 168
62 98 166
62 98 168
62 98 166
62 98 168
62 99 171
62 99 169
62 99 166
62 99 168
62 98 166
62 98 166
62 99 170
62 98 168
62 98 161
61 97 158
63 99 170
62 98 162
63 99 164
62 98 164
62 98 163
63 99 169
62 99 168
62 98 159
62 98 163
62 98 163
62 98 161
62 98 161
60 96 151
62 99 164
62 98 163
62 98 162
62 98 163
63 99 164
62 97 160
62 98 161
62 98 165
62 98 163
62 98 160
61 97 158
63 99 168
62 98 162
61 97 159
61 97 156
62 98 161
61 97 159
62 98 156
62 98 163
63 99 167
62 98 162
61 95 147
62 97 162
61 96 151
62 97 156
61 96 151
61 95 150
61 96 157
60 93 145
61 95 145
60 94 147
59 93 143
59 93 142
55 81 113
74 81 68
74 76 23
76 76 17
59 58 16
81 82 14
71 73 20
74 75 19
80 80 19
75 76 25
80 80 22
82 84 21
82 82 28
86 88 39
86 87 28
81 83 37
96 96 37
85 86 34
95 95 40
108 107 41
96 96 25
111 108 39
100 100 34
109 108 51
115 113 44
118 115 46
117 115 44
99 101 33
113 112 50
121 117 50
122 120 46
121 119 49
109 109 36
124 121 43
126 123 45
132 129 47
127 125 49
133 129 54
124 122 52
139 134 62
130 126 55
130 128 48
136 132 52
130 127 51
138 135 49
145 141 64
136 131 60
140 136 64
144 139 60
144 139 63
136 133 40
150 145 56
146 142 61
143 139 52
142 138 53
140 136 54
143 139 53
146 140 58
139 135 56
141 138 51
154 148 58
154 148 63
151 147 55
155 148 64
152 146 65
146 142 60
148 142 63
147 142 58
147 141 50
154 148 62
155 149 59
155 148 66
154 149 59
149 143 59
155 149 58
147 141 54
154 148 59
157 151 64
147 143 56
148 143 51
144 139 49
153 147 62
144 138 57
152 147 63
156 149 60
153 147 62
150 144 54
153 148 48
152 147 53
144 139 51
150 143 57
142 137 47
151 145 61
150 146 49
145 141 52
149 143 60
148 140 64
148 143 59
149 144 49
142 137 51
142 135 53
143 137 47
142 137 45
135 130 45
131 126 41
138 131 47
137 131 48
137 131 51
130 125 41
138 133 48
133 128 42
128 122 49
140 136 49
124 122 32
142 140 39
140 141 36
142 147 25
155 160 32
141 147 30
150 161 16
155 169 16
158 173 11
162 178 11
163 179 11
168 187 0
163 180 0
168 188 0
166 185 0
167 185 0
170 188 0
170 188 0
167 186 0
168 186 0
169 188 0
166 184 0
164 183 0
170 194 0
173 196 0
173 195 0
171 195 0
171 195 0
173 196 0
173 196 0
169 192 0
169 193 0
172 195 0
171 195 0
169 193 0
168 192 0
167 191 0
168 192 0
172 196 0
168 191 0
171 194 0
174 197 0
169 192 0
172 195 0
170 194 0
171 195 0
172 196 0
167 191 0
168 192 0
175 197 0
167 189 0
169 191 0
169 193 0
169 193 0
170 194 0
169 193 0
172 196 0
175 197 0
169 193 0
170 193 0
167 189 0
166 190 0
167 190 0
168 192 0
170 194 0
167 191 0
169 192 0
165 189 0
170 194 0
171 194 0
168 191 0
170 193 0
171 194 0
170 193 0
167 190 0
167 190 0
163 186 0
167 191 0
169 192 0
169 192 0
169 192 0
172 195 0
167 190 0
167 190 0
170 193 0
166 189 0
168 191 0
169 193 0
171 195 0
167 191 0
169 192 0
168 191 0
169 193 0
167 191 0
168 191 0
168 192 0
166 188 0
168 191 0
166 190 0
168 191 0
164 187 0
165 188 0
168 192 0
168 191 0
169 192 0
165 188 0
166 188 0
152 176 54
78 109 142
62 98 155
61 97 155
60 96 146
61 97 158
62 98 160
62 97 153
61 97 161
62 98 160
61 97 152
61 97 160
61 97 158
62 98 163
61 97 152
61 97 156
61 96 159
61 97 158
62 99 169
62 98 165
61 97 162
62 98 169
61 98 161
61 97 160
62 98 167
62 98 172
62 98 171
62 98 168
62 98 167
62 99 169
61 98 163
62 99 166
62 99 173
62 98 164
62 98 170
62 99 172
62 98 167
62 99 171
61 97 171
61 98 171
61 97 167
62 98 167
62 99 170
62 99 171
61 98 167
62 98 169
62 99 173
62 99 167
63 99 170
62 99 171
61 98 169
62 99 173
62 98 169
61 98 173
62 98 172
62 98 169
62 98 169
62 98 172
62 98 173
62 99 175
62 98 172
62 98 170
62 99 168
62 99 173
62 98 167
62 99 168
62 99 169
62 98 171
61 98 166
61 98 170
62 98 169
63 99 172
62 98 170
62 98 169
62 98 166
62 99 175
62 98 168
61 98 169
63 99 174
62 99 169
62 99 167
61 98 163
62 99 173
62 99 173
63 99 174
62 99 171
61 98 166
61 97 161
62 98 170
61 98 167
62 98 172
62 98 168
62 98 167
62 99 173
62 99 172
62 98 166
62 99 171
62 99 169
62 99 169
62 99 166
62 99 169
62 99 169
63 99 174
61 98 165
62 98 165
63 99 169
63 99 171
62 99 171
62 99 172
62 98 166
62 98 169
62 99 169
62 99 173
62 99 172
62 99 170
63 99 168
62 98 165
62 99 172
62 99 164
62 98 163
62 99 171
62 98 161
62 98 165
62 99 171
61 97 158
62 99 167
62 98 165
62 99 169
62 98 165
62 99 169
62 99 170
62 98 162
62 99 169
63 99 168
62 99 171
61 97 162
62 98 163
63 99 169
62 98 170
62 98 166
62 99 164
62 98 165
63 99 169
62 97 158
64 100 168
62 98 169
63 99 171
63 99 170
62 98 164
62 98 170
61 97 159
62 98 160
62 98 164
62 98 159
61 97 157
62 98 162
61 97 159
63 99 168
62 98 166
63 99 163
61 97 165
62 97 158
61 97 156
60 95 155
62 98 162
61 97 162
59 93 139
62 98 164
61 95 158
61 97 157
60 94 151
60 95 153
61 96 155
60 94 141
60 94 146
60 94 148
59 94 148
60 93 147
58 91 133
58 90 140
64 89 129
64 73 70
67 69 27
77 78 14
67 69 14
79 80 22
85 85 18
77 78 14
76 78 19
90 89 24
76 78 19
77 79 30
99 98 31
91 90 29
97 97 12
96 96 33
87 88 35
95 94 33
89 91 35
98 97 37
105 104 36
93 94 32
104 103 39
98 99 40
106 104 36
110 108 46
107 105 43
119 116 50
122 119 39
112 111 42
106 106 40
129 125 51
116 114 47
131 127 46
120 118 46
131 127 54
121 119 41
136 132 55
119 116 53
136 131 54
131 126 53
126 123 50
128 125 51
143 138 58
141 137 46
134 130 46
137 133 56
142 138 59
135 131 51
147 142 60
138 134 52
148 143 58
140 135 52
144 139 59
148 143 59
145 140 56
151 144 58
149 143 51
148 142 57
153 148 60
152 146 56
149 144 58
143 138 53
147 142 53
155 149 64
144 139 58
151 145 64
150 145 56
141 136 49
146 140 58
148 143 56
147 142 54
137 132 42
157 151 62
153 146 64
149 143 54
158 151 64
148 143 54
160 153 67
151 144 59
150 144 60
150 144 57
147 142 54
149 143 53
149 144 51
142 137 53
149 143 58
144 140 45
145 140 58
145 138 58
145 138 49
141 136 41
147 141 48
144 139 52
138 133 52
143 137 51
138 133 44
135 130 48
144 139 47
144 139 48
144 138 51
138 133 51
137 132 51
137 132 48
146 140 53
132 127 45
131 127 36
139 133 49
129 123 37
136 130 34
130 125 41
133 128 36
118 115 36
130 128 44
122 123 30
143 146 22
134 138 25
149 158 19
155 167 25
157 171 11
155 170 22
163 179 16
164 181 11
171 188 0
165 183 0
164 182 0
163 182 0
165 183 0
168 187 0
166 186 0
168 187 0
164 179 0
165 186 0
163 179 0
168 188 0
171 191 0
170 194 0
174 197 0
171 195 0
174 197 0
171 195 0
172 196 0
172 196 0
169 192 0
170 194 0
169 193 0
171 195 0
172 196 0
172 195 0
172 196 0
168 192 0
170 193 0
169 192 0
166 190 0
168 192 0
169 193 0
170 194 0
169 193 0
169 193 0
171 194 0
166 189 0
173 197 0
170 193 0
169 193 0
171 195 0
169 192 0
169 193 0
167 191 0
171 194 0
170 193 0
168 191 0
171 194 0
164 187 0
170 194 0
170 193 0
166 190 0
173 196 0
166 189 0
170 193 0
169 192 0
170 194 0
172 195 0
174 196 0
165 188 0
164 188 0
166 189 0
168 191 0
169 192 0
170 195 0
167 191 0
171 194 0
168 191 0
167 191 0
166 189 0
168 191 0
167 190 0
165 188 0
168 191 0
167 190 0
168 192 0
170 193 0
166 188 0
168 190 0
165 188 0
165 189 0
163 185 0
163 186 0
172 195 0
169 192 0
167 189 0
167 190 0
167 190 0
167 191 0
166 189 0
168 191 0
167 190 0
165 189 0
162 185 0
167 191 0
170 193 0
145 170 72
80 111 135
62 97 151
61 97 157
61 97 157
61 96 154
61 97 153
62 98 159
60 96 153
62 98 162
61 97 161
61 98 159
62 97 156
61 97 162
61 97 162
61 97 163
61 97 159
61 98 166
61 97 162
62 98 165
61 97 162
61 97 165
62 98 168
62 98 168
62 99 168
61 98 168
62 98 161
62 98 165
61 98 168
61 97 160
61 98 160
63 99 174
61 98 165
62 98 167
63 100 174
61 98 165
61 98 166
62 98 170
62 98 170
62 98 167
61 98 168
62 99 170
61 98 169
62 99 172
62 99 171
62 98 173
63 99 170
63 99 170
62 98 166
62 98 165
61 98 168
61 98 162
61 98 168
61 97 163
61 97 167
61 98 170
62 99 168
61 98 169
62 99 172
62 99 172
62 98 167
61 98 173
62 98 170
62 98 164
61 98 168
62 98 166
62 99 171
62 99 171
63 99 176
62 99 173
62 98 164
62 98 167
62 98 167
62 99 171
62 98 167
63 99 174
62 99 172
63 99 170
62 99 172
62 99 171
62 99 172
62 98 169
61 98 168
63 99 173
62 98 167
63 99 171
61 98 171
62 98 169
62 98 173
63 99 173
61 98 169
62 99 173
62 99 168
63 99 170
63 99 171
62 98 167
62 99 174
62 99 169
62 99 174
62 98 168
62 98 165
63 99 167
62 99 173
63 99 169
62 98 167
62 98 167
62 98 164
62 98 164
62 99 170
62 99 169
62 98 164
62 98 169
62 99 171
62 99 170
62 98 164
61 98 164
62 98 169
61 98 161
62 99 170
62 98 165
62 98 168
62 98 166
62 98 168
61 98 165
62 99 170
62 98 162
62 98 166
63 99 173
62 98 169
62 98 163
62 98 170
62 99 173
62 99 174
63 99 166
63 99 168
62 98 165
63 99 170
62 98 168
62 98 160
62 98 161
62 98 160
61 97 163
62 98 160
62 98 167
62 98 163
61 97 158
62 98 163
62 99 168
62 98 160
61 96 151
62 98 165
62 98 164
61 96 152
62 98 165
61 96 150
61 97 160
62 98 166
61 96 157
62 98 163
62 97 159
62 98 167
62 97 159
60 96 153
62 97 157
63 99 165
61 96 151
61 97 158
62 98 158
62 98 158
60 95 150
60 94 146
62 96 152
60 95 152
60 95 143
61 96 155
60 94 148
60 94 145
59 93 147
58 90 136
59 92 137
56 86 129
74 82 75
76 77 22
74 74 13
73 72 7
88 88 10
71 72 21
83 83 18
70 71 22
75 76 22
79 78 17
78 80 28
72 74 24
89 88 32
80 83 23
93 93 34
88 88 30
97 95 41
99 99 34
103 102 37
98 98 31
103 100 33
103 101 34
113 112 39
104 104 32
103 102 46
116 114 39
113 112 45
114 112 40
120 117 49
115 113 43
120 117 45
122 121 54
125 123 46
121 118 43
125 122 54
127 124 42
128 126 48
137 134 51
126 124 45
125 122 50
127 124 37
141 136 55
130 127 58
135 132 51
137 133 49
135 131 53
139 133 48
142 137 51
140 136 53
142 138 51
143 138 54
138 134 56
148 143 56
144 137 61
147 142 61
143 138 59
144 137 58
145 141 60
145 140 57
152 147 49
151 145 58
143 139 51
149 143 64
146 140 60
149 143 62
144 139 54
135 131 47
144 140 46
148 142 56
154 146 62
145 140 49
157 151 59
146 141 57
143 138 52
146 141 51
149 143 53
147 142 57
153 147 53
153 147 59
141 136 42
143 139 49
145 140 53
150 144 52
142 138 47
148 142 59
149 143 56
140 135 47
149 142 54
136 132 44
147 141 47
138 132 47
144 139 44
147 141 57
140 136 45
146 141 45
136 131 42
144 139 44
144 138 53
141 136 41
143 137 49
132 127 42
133 128 41
137 132 48
146 140 51
138 133 39
134 129 42
129 124 39
133 128 45
129 123 39
132 128 39
125 121 37
127 124 30
131 132 32
144 145 47
143 145 37
148 158 28
145 158 16
154 168 11
161 175 11
159 175 11
164 182 0
167 184 0
165 182 0
166 185 0
167 183 0
165 182 0
168 187 0
168 187 0
170 186 0
164 185 0
167 187 0
166 185 0
163 180 0
167 186 0
163 181 0
169 193 0
174 196 0
172 195 0
167 190 0
169 193 0
171 195 0
171 195 0
171 195 0
171 195 0
170 194 0
171 195 0
170 193 0
169 192 0
168 192 0
169 191 0
174 197 0
171 195 0
166 190 0
169 192 0
169 193 0
173 196 0
165 188 0
171 193 0
169 192 0
174 196 0
172 196 0
171 195 0
172 196 0
168 192 0
166 189 0
171 194 0
169 193 0
169 193 0
171 194 0
171 195 0
169 192 0
167 191 0
171 195 0
170 193 0
169 192 0
170 193 0
170 194 0
168 191 0
166 190 0
166 190 0
171 194 0
171 195 0
166 189 0
169 192 0
168 192 0
169 192 0
169 192 0
168 192 0
169 192 0
164 187 0
165 188 0
169 192 0
168 191 0
170 193 0
163 186 0
164 187 0
172 196 0
171 194 0
169 192 0
169 192 0
167 191 0
166 189 0
169 192 0
169 193 0
170 193 0
171 194 0
164 188 0
168 191 0
167 190 0
167 191 0
167 189 0
166 189 0
166 190 0
169 192 0
166 189 0
162 186 0
169 192 0
167 190 0
173 195 0
150 173 62
77 108 139
61 97 155
61 97 151
61 97 155
62 97 159
62 97 153
62 98 161
61 97 157
60 95 147
62 98 159
62 98 161
61 97 159
62 98 165
61 97 157
61 97 159
61 97 162
62 98 161
62 98 165
62 98 160
61 97 162
62 99 170
62 98 166
62 99 170
62 99 171
62 99 169
62 98 164
61 97 163
61 98 169
61 97 166
62 98 161
62 98 167
62 98 167
61 98 169
62 98 168
61 98 163
62 98 169
62 98 163
62 98 166
61 97 164
62 99 169
62 99 173
61 97 169
62 98 171
62 98 165
62 99 173
62 98 163
62 98 170
62 98 172
61 98 169
62 99 173
62 98 165
62 99 175
62 99 173
62 98 171
63 99 173
61 98 164
61 98 168
62 99 173
62 99 170
62 98 167
62 99 169
62 98 162
62 98 169
63 99 169
62 99 167
62 99 169
62 99 171
62 98 172
61 98 167
62 99 171
62 99 172
63 99 173
62 98 165
62 99 176
61 98 170
62 99 170
62 98 165
62 98 169
62 98 167
63 99 172
62 99 174
62 99 173
62 98 168
62 99 171
63 100 175
62 98 166
63 99 172
63 99 173
63 99 174
63 99 167
62 98 169
62 99 171
62 98 168
62 99 174
62 98 168
62 99 170
63 99 170
62 99 170
62 98 170
61 98 162
61 97 164
62 98 168
62 98 168
62 99 167
61 97 165
63 99 170
62 98 162
62 98 165
63 99 171
63 99 174
62 98 161
62 98 164
63 99 168
62 98 169
62 98 167
61 97 160
62 99 168
62 99 169
62 98 160
62 98 168
63 99 170
62 98 166
62 98 163
62 98 164
62 98 161
63 99 166
63 99 171
61 98 162
62 99 167
62 98 163
63 99 170
62 99 166
62 98 166
61 97 163
62 98 162
61 97 156
62 98 164
62 98 162
62 99 171
63 99 166
62 98 165
61 97 155
62 98 165
62 98 162
62 98 162
61 97 159
62 98 168
62 98 159
62 98 161
62 98 159
62 98 158
62 98 162
62 98 163
61 97 160
63 99 170
61 97 155
61 97 154
63 99 159
60 96 156
62 97 153
62 97 161
62 98 160
60 95 147
61 97 151
60 96 154
60 95 154
61 97 154
61 97 159
62 96 152
61 96 159
60 94 151
60 95 148
61 97 160
60 93 146
61 96 152
60 93 144
61 95 154
59 93 145
58 91 136
59 85 119
59 69 71
74 74 16
76 75 11
69 71 12
83 82 14
87 88 18
74 75 14
73 75 21
72 71 22
67 69 22
87 86 24
81 83 27
91 89 29
85 85 31
82 83 30
90 90 33
85 87 22
88 89 29
98 97 26
96 96 29
102 99 32
93 94 32
98 98 34
111 109 37
115 114 35
104 104 38
116 114 43
116 114 31
116 115 43
115 115 42
110 108 40
115 113 48
124 121 51
118 115 48
122 119 37
127 125 39
125 124 46
122 119 43
134 130 48
126 123 47
139 132 54
127 124 48
132 128 51
143 139 58
132 128 52
141 135 57
146 141 57
132 128 44
139 135 44
143 138 54
140 136 53
147 141 57
144 140 51
147 142 65
141 137 51
147 140 63
138 135 52
148 142 53
141 136 53
143 138 54
150 145 63
143 139 53
149 144 56
151 146 51
149 145 56
143 138 53
144 138 55
152 146 54
145 140 49
150 145 51
143 138 58
146 141 58
147 141 54
146 141 47
146 140 52
145 140 49
154 147 61
154 147 61
151 144 48
153 147 62
152 146 59
148 143 53
148 143 53
148 142 57
143 137 59
151 146 57
144 139 49
144 138 47
146 141 49
146 140 53
141 136 49
148 143 56
147 141 54
136 132 37
148 143 54
145 139 51
145 140 47
140 136 45
141 136 54
141 135 44
140 135 47
138 132 48
137 131 47
130 125 42
137 131 53
132 126 44
136 130 45
131 125 47
134 129 45
129 124 41
146 142 49
126 127 34
139 141 32
135 136 30
143 150 25
147 155 30
145 158 11
157 170 16
161 175 0
162 178 0
166 183 0
166 182 0
167 184 0
165 183 0
166 183 0
170 187 0
165 184 0
169 189 0
165 183 0
165 182 0
162 181 0
167 183 0
168 188 0
166 183 0
169 187 0
169 193 0
172 195 0
169 192 0
171 194 0
170 194 0
173 196 0
171 195 0
170 195 0
165 188 0
174 197 0
171 195 0
171 195 0
172 195 0
172 195 0
172 195 0
172 195 0
172 195 0
172 195 0
169 193 0
171 194 0
172 196 0
170 193 0
169 194 0
167 191 0
167 191 0
167 191 0
167 190 0
168 192 0
167 190 0
172 195 0
170 193 0
168 191 0
165 187 0
170 194 0
170 192 0
172 196 0
168 191 0
169 192 0
166 190 0
173 196 0
165 188 0
169 193 0
169 192 0
169 193 0
167 190 0
170 193 0
168 191 0
168 191 0
166 189 0
165 188 0
169 192 0
167 190 0
170 192 0
173 196 0
166 189 0
164 187 0
167 190 0
168 190 0
165 189 0
167 190 0
166 189 0
165 188 0
169 192 0
166 189 0
167 191 0
163 186 0
167 190 0
167 191 0
166 190 0
167 190 0
167 191 0
168 191 0
166 190 0
167 190 0
167 190 0
166 189 0
167 189 0
162 185 0
169 192 0
170 193 0
162 186 0
167 190 0
167 191 0
167 191 0
147 170 60
76 108 141
61 96 148
61 97 149
61 96 152
61 97 158
61 96 150
62 99 166
62 98 160
61 97 161
62 98 164
61 97 163
61 97 159
62 98 160
60 96 150
61 97 166
61 98 161
61 98 163
61 98 164
61 97 166
62 98 166
61 97 161
61 98 161
61 97 163
62 98 167
62 98 161
61 97 158
61 97 158
62 98 167
61 98 161
62 98 166
62 98 169
62 98 168
61 98 169
61 98 165
62 98 168
62 98 163
62 98 172
62 98 166
61 98 167
62 98 168
62 99 174
62 98 166
61 98 166
61 97 163
61 97 166
61 98 167
62 98 166
61 97 167
61 97 165
62 99 171
61 98 166
62 98 171
62 98 171
62 99 172
62 99 175
63 99 170
62 98 169
62 98 171
62 99 172
62 99 171
62 98 174
62 99 170
62 98 164
62 99 174
62 98 164
62 98 172
62 98 167
61 98 165
61 98 165
62 99 165
63 99 168
62 99 171
62 99 167
61 98 168
62 98 170
63 99 171
63 99 171
63 99 176
62 99 170
62 99 170
62 98 166
63 99 170
62 98 169
61 97 168
62 99 176
62 98 163
62 99 170
62 99 169
62 99 172
62 99 172
62 99 169
62 99 170
62 98 165
62 99 170
62 99 168
62 99 168
62 99 171
62 98 167
62 98 165
62 98 166
61 97 159
63 100 176
62 98 161
62 98 165
61 98 167
63 100 173
62 98 165
61 97 162
62 99 166
62 99 168
62 98 160
61 97 162
63 99 167
62 98 166
62 98 167
61 98 164
61 98 162
62 98 166
62 98 164
62 98 167
62 99 170
63 99 172
62 98 163
62 99 167
63 99 169
62 98 161
62 98 166
63 99 167
63 99 168
62 98 161
62 98 165
63 99 167
61 97 164
62 98 160
63 99 168
62 99 168
62 99 170
62 98 160
62 98 155
63 99 167
62 98 161
62 99 169
62 98 163
63 99 160
63 99 171
62 97 158
62 98 160
62 98 163
61 97 155
62 98 162
62 98 163
63 99 166
62 98 164
61 97 160
63 100 173
62 98 158
61 97 154
62 98 164
62 98 164
61 96 152
61 97 155
62 97 161
62 97 161
62 97 161
60 95 148
61 96 157
61 95 150
61 97 154
61 96 155
59 94 146
61 95 152
61 96 152
60 95 153
61 96 156
61 96 151
61 95 153
60 94 146
60 94 149
57 90 127
58 86 119
70 81 78
75 75 34
73 74 14
69 68 10
84 84 12
82 81 7
80 80 19
74 73 18
77 77 15
82 82 30
85 85 12
84 85 20
86 86 17
78 78 29
100 99 27
90 91 25
89 89 29
100 100 32
96 96 32
105 103 26
97 97 29
95 95 35
87 89 30
113 111 42
111 109 40
111 110 35
111 109 50
113 112 41
114 114 32
112 110 36
112 111 41
113 112 44
121 119 51
117 115 40
128 124 43
128 126 45
128 125 50
134 131 44
114 113 43
133 130 48
138 133 57
133 130 55
136 132 58
139 134 55
130 127 49
145 140 54
142 137 47
138 134 53
137 132 48
134 129 54
139 135 53
144 140 49
144 140 49
136 133 46
142 138 50
142 137 51
146 141 47
142 137 55
144 140 50
150 145 52
154 148 63
145 140 49
142 136 50
139 135 42
156 150 58
139 135 47
139 133 48
145 140 56
148 142 56
151 145 53
146 141 51
153 148 57
142 137 48
144 138 45
148 143 56
147 141 48
145 140 54
140 136 51
149 143 56
149 143 53
148 142 47
147 141 52
144 138 56
150 145 53
142 137 47
137 132 47
146 141 42
146 140 53
147 140 45
151 145 62
147 141 49
141 136 49
142 136 53
141 135 45
129 124 39
151 146 52
138 133 39
146 141 48
146 141 54
134 128 42
133 127 45
130 124 32
138 132 42
128 124 36
133 127 49
144 136 59
135 130 47
129 124 45
126 122 37
130 127 41
130 128 28
138 141 28
137 139 36
146 151 34
141 147 22
156 169 25
151 165 16
160 175 11
157 173 0
164 183 0
168 186 0
166 184 0
168 184 0
164 182 0
168 186 0
166 185 0
164 182 0
168 188 0
164 179 0
167 184 0
162 179 0
165 183 0
166 184 0
169 189 0
166 185 0
171 194 0
170 194 0
171 192 0
164 189 0
170 192 0
174 197 0
174 197 0
170 194 0
166 190 0
168 191 0
169 192 0
167 191 0
169 193 0
171 195 0
170 193 0
171 195 0
171 194 0
170 193 0
172 195 0
172 194 0
170 193 0
170 194 0
170 193 0
168 192 0
170 193 0
169 191 0
168 191 0
167 190 0
168 191 0
173 196 0
170 194 0
170 192 0
173 195 0
174 197 0
171 195 0
170 194 0
168 190 0
171 195 0
169 192 0
170 193 0
173 195 0
167 190 0
170 193 0
168 192 0
170 193 0
169 192 0
169 193 0
168 190 0
166 190 0
173 196 0
169 191 0
169 191 0
167 191 0
169 192 0
170 193 0
172 196 0
168 192 0
172 195 0
170 194 0
168 192 0
169 193 0
168 192 0
170 193 0
172 195 0
166 189 0
167 191 0
167 190 0
168 192 0
172 194 0
167 190 0
166 189 0
165 188 0
168 190 0
166 189 0
164 187 0
166 189 0
164 188 0
169 192 0
166 189 0
167 190 0
163 186 0
165 188 0
162 185 0
166 189 0
142 166 85
65 99 141
61 96 149
61 97 151
61 97 157
60 95 146
61 97 154
61 97 152
61 97 161
61 97 153
62 98 161
62 98 164
61 97 158
61 97 161
61 96 151
62 98 164
61 97 158
61 97 158
61 97 167
62 98 163
62 98 166
61 97 165
61 97 164
61 97 162
62 98 165
61 97 163
61 97 160
62 98 169
62 98 161
61 97 164
62 98 167
62 98 173
62 98 168
62 98 165
60 96 166
61 98 168
61 98 169
61 98 168
62 98 170
62 98 168
62 99 168
61 98 168
62 98 166
62 99 173
62 98 170
62 99 174
61 97 171
62 98 170
62 99 174
63 99 173
62 98 172
61 97 164
62 99 173
62 99 171
62 98 170
62 99 172
61 98 168
62 99 170
62 99 170
62 98 171
62 99 172
63 99 172
61 97 165
62 98 170
63 99 174
61 98 168
61 98 165
63 99 170
61 98 163
61 98 168
61 98 168
62 98 169
62 98 169
62 99 171
62 99 168
63 99 167
62 99 172
62 98 168
62 99 171
61 98 162
62 99 170
62 99 168
62 99 170
62 99 168
62 99 170
63 99 170
62 99 169
62 99 167
62 98 164
62 98 168
63 99 169
62 99 169
62 99 168
63 99 170
62 99 170
62 99 168
62 98 167
62 99 170
62 99 172
62 99 168
62 99 169
61 98 168
63 99 169
62 98 166
62 98 164
62 99 168
61 98 163
62 98 165
62 99 168
62 99 171
62 98 167
62 98 167
62 98 163
62 99 167
62 98 169
63 100 175
62 98 169
62 98 165
61 98 158
62 98 165
63 99 170
62 98 164
61 97 159
62 98 164
62 98 161
62 99 169
61 98 165
62 99 167
62 98 161
63 99 167
62 98 162
63 99 166
62 98 163
63 99 171
62 98 163
62 99 169
62 98 164
63 99 167
62 98 165
62 98 162
62 98 160
62 98 166
62 98 163
61 97 158
62 98 162
61 98 162
61 97 159
62 98 164
61 97 160
62 98 158
62 98 156
61 97 158
62 98 165
63 99 163
62 98 160
62 97 159
61 97 160
61 97 151
62 98 161
62 98 159
61 96 155
61 97 157
61 96 158
60 96 154
61 96 149
61 97 157
61 97 158
61 97 159
62 97 150
61 96 156
61 96 151
60 96 152
62 98 160
60 94 141
60 95 155
59 93 135
59 94 143
59 93 142
59 93 143
59 93 146
61 90 127
69 81 89
71 72 31
84 84 17
65 64 20
84 84 5
68 69 14
72 72 20
81 80 21
92 91 20
63 67 20
89 91 17
88 88 18
83 85 25
79 80 23
83 82 16
93 92 29
97 94 18
90 92 34
109 107 32
97 95 39
96 95 28
96 95 28
97 96 30
104 105 33
109 108 30
113 112 42
102 101 37
115 112 40
104 103 38
113 112 39
121 118 40
126 122 48
115 112 39
117 116 36
131 127 50
126 123 43
122 119 41
125 121 41
136 131 47
134 130 44
131 128 45
129 126 40
125 121 54
135 131 51
132 127 55
129 124 48
136 130 47
134 130 57
127 124 38
140 135 46
142 138 53
131 128 41
137 132 49
142 138 51
131 127 45
145 140 52
140 135 53
138 133 45
147 142 52
139 136 46
147 142 52
144 140 48
140 136 42
144 138 56
139 135 47
147 141 54
142 137 53
143 139 40
152 146 59
140 135 51
141 135 52
149 144 52
141 135 55
134 128 48
149 143 58
136 131 44
145 141 51
147 141 51
137 131 47
146 140 52
154 147 58
148 142 53
139 135 45
137 132 48
147 141 49
146 141 45
145 141 48
147 140 53
141 136 48
147 142 51
146 141 44
133 128 41
141 134 53
141 135 47
147 142 48
141 137 34
128 123 39
135 130 44
134 129 44
140 134 42
124 120 34
134 128 48
133 128 37
135 130 44
131 126 39
131 125 45
128 123 36
128 124 37
135 133 37
131 130 37
136 136 36
142 144 42
145 149 32
150 162 28
147 158 16
155 167 19
160 175 22
160 174 0
164 181 0
167 185 0
163 180 0
167 184 0
167 184 0
162 181 0
167 185 0
160 179 0
166 181 0
169 188 0
170 190 0
168 185 0
167 185 0
166 187 0
168 187 0
166 185 0
168 185 0
169 193 0
170 194 0
168 192 0
168 193 0
172 196 0
172 195 0
171 194 0
169 193 0
169 192 0
167 190 0
170 193 0
174 197 0
174 197 0
170 193 0
173 196 0
172 196 0
172 195 0
171 195 0
170 194 0
171 194 0
170 194 0
170 195 0
169 192 25
170 193 0
171 195 0
170 193 57
170 193 25
169 192 36
168 192 0
171 194 36
169 193 25
173 195 44
173 196 36
171 193 51
171 193 25
167 191 25
171 195 25
171 194 25
173 196 25
171 194 57
169 192 36
167 191 25
170 193 57
171 194 36
171 193 36
172 195 25
166 190 25
168 191 25
173 197 0
167 191 25
172 195 25
170 194 0
169 193 0
168 192 0
172 195 0
168 192 0
169 192 0
166 190 0
165 188 0
167 190 0
163 186 0
165 189 0
166 190 0
167 190 0
168 192 0
165 190 0
169 192 0
166 189 0
168 190 0
164 187 0
167 188 0
167 190 0
160 184 0
166 190 0
167 191 0
172 195 0
162 185 0
165 187 0
164 187 0
168 192 0
168 192 0
159 182 0
166 189 0
166 189 0
139 163 78
70 104 149
61 97 151
60 96 154
61 97 152
61 97 157
61 97 158
61 97 158
60 96 150
62 98 164
62 98 164
60 96 157
62 97 153
61 97 160
62 98 166
62 98 161
62 98 165
61 97 150
61 97 161
62 98 163
62 99 170
62 98 166
62 98 163
62 98 169
61 97 157
62 98 167
62 98 162
62 99 168
61 97 162
62 98 166
62 98 168
62 98 169
61 98 163
62 98 165
62 98 165
62 98 166
62 98 165
61 98 165
62 98 171
61 98 164
62 99 170
61 97 166
61 97 168
62 98 166
62 98 169
62 98 169
61 98 167
61 97 168
61 97 159
61 97 162
61 97 165
62 98 172
62 98 163
62 98 171
62 98 168
62 98 168
62 98 169
62 98 170
62 98 168
62 98 167
62 98 168
63 99 170
62 98 171
62 99 175
62 98 168
62 99 173
62 98 167
62 99 169
62 98 166
62 98 167
62 98 168
62 98 164
61 98 163
62 99 174
62 98 166
61 98 165
61 97 158
63 99 171
62 99 171
62 99 170
63 99 172
61 98 167
63 99 171
63 99 171
61 98 171
62 98 165
63 99 171
62 99 170
60 96 161
62 98 162
62 98 169
61 98 165
62 99 173
62 98 163
62 98 161
61 98 169
61 97 160
62 98 162
62 98 163
61 97 163
62 99 167
62 98 166
61 98 168
62 98 169
62 99 166
62 99 168
62 98 164
62 98 169
61 98 161
62 98 162
62 99 171
61 98 167
62 98 164
61 97 160
62 98 166
62 99 167
62 98 165
62 98 168
62 99 166
63 99 171
61 98 163
62 99 168
62 98 163
62 98 165
62 98 163
61 98 166
62 99 167
63 99 172
61 97 163
63 99 166
61 98 160
62 98 163
61 98 165
62 98 158
61 97 157
62 98 163
62 98 161
62 98 165
62 99 166
62 98 158
61 97 158
62 98 161
62 97 157
63 99 170
62 98 159
61 98 164
61 97 160
61 98 163
62 98 161
62 98 160
62 98 160
62 98 162
62 98 158
63 99 164
62 97 156
61 97 154
61 97 159
61 97 152
62 98 164
62 98 155
60 96 152
61 96 153
61 97 151
61 96 154
61 96 150
61 96 158
61 96 154
61 96 155
61 96 152
62 97 155
60 96 147
61 96 152
61 96 155
59 93 143
59 93 134
58 91 135
59 92 139
59 93 143
60 94 144
59 92 139
64 90 130
74 84 73
81 82 29
94 90 16
84 83 14
76 74 12
76 76 18
85 82 12
78 77 17
84 83 20
76 76 8
71 72 17
88 88 28
93 93 22
90 89 19
88 88 28
81 82 15
86 86 27
85 86 24
100 99 35
89 89 20
106 105 34
111 108 33
105 105 31
108 106 38
108 108 31
108 106 34
112 110 28
115 113 36
110 109 37
114 113 35
118 115 37
102 101 39
120 117 36
109 109 34
124 122 37
125 122 49
136 131 42
125 123 46
122 121 44
124 121 40
127 123 47
130 126 30
114 112 39
121 119 33
125 123 43
140 135 51
134 129 51
133 129 47
134 129 46
139 134 51
142 137 51
137 132 49
142 137 43
145 140 54
138 135 52
139 135 41
134 130 43
148 141 58
146 141 50
145 140 49
141 137 42
147 142 56
139 135 36
144 140 46
144 140 49
147 142 53
145 139 54
139 134 42
147 142 47
141 135 53
142 137 51
145 140 41
143 139 51
141 136 32
145 141 44
144 139 49
145 140 53
144 139 51
141 136 51
143 137 49
136 131 47
151 145 58
145 138 48
140 135 42
140 134 49
146 139 56
145 140 51
143 138 49
140 135 39
134 128 45
140 135 51
143 138 49
141 136 41
140 134 39
139 133 47
146 141 45
133 127 42
135 130 41
142 136 45
136 130 48
139 134 37
131 126 44
140 134 42
129 126 32
124 121 32
123 119 41
131 127 39
125 120 39
125 123 41
126 126 22
130 131 34
149 153 34
141 149 25
151 161 16
152 162 16
158 171 0
160 175 11
163 178 0
162 177 0
166 180 0
163 180 0
166 183 0
168 187 0
163 181 0
161 179 0
166 183 0
164 180 0
167 185 0
166 184 0
167 186 0
165 183 0
166 185 0
165 184 0
165 183 0
167 185 0
171 195 0
172 196 0
172 195 0
171 194 0
172 196 0
173 196 0
171 194 0
169 192 0
171 194 0
169 191 0
171 194 0
172 195 0
171 194 25
168 192 0
171 193 25
168 192 0
173 197 0
168 191 36
171 194 25
171 194 51
176 198 62
173 196 51
170 193 25
172 195 57
174 196 51
171 194 51
172 194 57
175 197 51
173 196 44
174 196 67
174 197 62
169 192 25
176 199 62
174 198 51
173 194 57
171 193 62
172 196 25
169 192 44
172 195 57
170 193 51
171 195 44
176 198 67
170 192 44
170 193 51
174 197 72
167 189 36
172 195 57
172 195 36
170 193 72
171 194 51
165 188 36
168 190 25
173 194 67
170 193 0
168 191 0
170 194 25
164 187 25
168 191 25
169 192 0
168 192 0
166 190 0
163 187 0
169 193 0
169 192 0
167 191 0
166 190 0
166 188 0
168 192 0
167 191 0
166 190 0
166 189 0
163 186 0
167 190 0
170 194 0
164 188 0
170 193 0
162 185 0
165 189 0
169 192 0
158 181 0
165 188 0
163 188 0
162 186 0
162 185 0
147 171 62
71 104 157
60 95 149
62 97 155
61 97 156
61 96 158
61 97 157
60 96 151
61 97 151
60 96 155
61 97 160
62 98 163
61 97 160
62 98 164
61 97 158
60 96 159
62 98 160
62 98 161
62 98 162
62 98 156
62 98 159
61 97 164
61 97 163
62 98 164
61 97 156
62 99 172
61 97 167
61 97 162
61 97 162
61 97 158
61 98 165
62 98 162
62 98 173
62 98 166
61 97 163
61 98 170
62 98 170
62 98 169
62 98 163
62 98 169
62 99 167
62 98 165
61 98 168
61 98 167
62 98 167
62 99 173
63 99 172
62 98 165
62 98 161
61 98 167
60 97 165
61 98 162
61 98 167
61 98 165
63 99 170
63 100 173
62 98 163
62 99 169
61 98 169
62 99 169
62 98 170
62 98 168
62 99 172
62 98 166
62 99 170
63 99 168
62 98 170
61 98 166
61 98 169
62 99 168
62 98 172
62 99 169
62 98 166
62 98 167
62 98 167
62 99 172
62 99 169
63 99 172
62 98 161
61 98 168
62 99 171
62 98 172
62 98 166
62 98 165
63 99 176
62 99 164
63 99 170
62 98 171
61 97 160
62 98 168
62 98 167
61 98 167
62 99 171
62 98 167
62 99 169
62 98 164
62 99 174
62 98 166
62 98 163
62 99 169
61 98 166
63 100 175
62 98 163
62 98 165
62 99 171
63 99 169
62 98 166
63 99 172
61 98 164
63 99 168
62 99 169
62 99 168
62 98 163
62 98 164
63 99 171
62 99 171
62 99 168
62 99 166
62 99 166
62 98 163
62 98 165
61 97 161
62 98 160
62 98 164
62 98 163
62 99 165
63 99 169
62 98 163
62 98 167
63 99 170
62 98 162
62 99 167
61 98 164
63 99 170
62 98 160
62 98 162
62 97 159
62 98 159
62 97 158
62 98 162
62 98 162
61 97 156
63 99 164
62 97 156
62 98 168
62 98 161
62 98 163
62 98 163
63 99 164
62 99 169
62 98 160
62 98 162
61 97 163
63 99 161
62 98 161
62 98 159
62 98 161
61 97 155
61 97 153
61 97 162
62 97 150
61 96 153
61 96 149
62 98 158
61 97 154
61 97 154
61 96 153
62 97 158
61 97 158
61 96 148
62 97 157
61 96 156
62 96 147
62 97 155
60 95 147
60 95 151
61 96 147
59 92 139
59 92 136
60 92 134
66 91 114
82 92 88
84 83 32
76 75 12
77 77 11
80 78 9
86 84 16
84 85 17
87 86 13
87 85 15
86 86 20
86 86 16
83 81 18
83 83 8
96 96 12
87 87 18
96 94 18
95 95 21
91 93 26
97 95 20
95 94 23
97 96 29
106 105 33
103 102 30
103 102 26
105 104 34
110 107 29
113 111 43
111 110 34
108 107 44
101 101 37
124 120 44
117 114 36
118 115 41
123 120 35
125 121 42
123 120 40
124 122 41
122 119 38
136 132 53
131 127 47
140 135 51
124 122 43
142 137 45
128 125 43
120 118 36
117 114 37
144 139 51
136 131 45
130 128 37
136 132 47
139 135 52
137 133 40
138 133 51
136 132 42
137 132 42
145 140 54
147 140 53
139 133 49
140 134 47
140 136 44
143 138 52
143 139 38
131 127 42
141 136 46
145 140 47
143 138 47
143 139 49
148 143 49
143 137 52
142 137 45
143 138 48
141 137 40
141 137 45
151 145 51
140 135 41
149 143 51
141 135 47
146 140 42
147 143 49
134 129 44
137 133 39
145 138 49
147 141 51
145 139 51
142 138 49
144 140 42
143 138 51
148 142 45
144 138 51
140 134 45
143 137 51
139 134 49
139 133 39
126 121 34
127 123 28
131 127 37
138 132 47
132 126 39
138 133 37
135 129 42
125 121 36
131 126 32
133 126 41
134 128 39
128 123 37
135 130 44
130 126 32
130 130 28
135 133 37
132 136 25
141 146 25
148 154 32
148 156 28
159 171 25
162 177 11
155 168 16
158 173 0
166 183 0
163 181 0
167 186 0
164 180 0
167 182 0
168 186 0
161 179 0
164 181 0
167 185 0
165 184 0
164 181 0
164 182 0
161 178 0
168 186 0
167 186 0
168 188 0
170 187 0
164 182 0
167 190 0
170 193 0
169 193 0
170 194 0
173 196 0
168 191 0
171 195 0
171 194 0
173 196 0
168 192 0
171 194 0
173 196 25
170 194 44
170 193 25
171 193 44
172 194 51
173 197 0
171 194 36
175 197 36
170 194 0
173 196 57
173 195 67
173 196 67
171 194 57
178 200 72
175 197 57
172 195 72
173 196 62
172 195 62
176 199 80
176 197 88
179 201 80
170 192 72
173 196 62
176 198 95
173 195 76
174 196 72
174 196 62
175 197 67
176 198 72
172 195 44
170 192 67
177 199 80
170 193 51
175 198 67
176 198 80
168 191 67
172 194 62
172 195 57
173 195 57
171 193 51
172 195 25
175 197 44
174 196 67
170 193 36
168 191 44
172 196 51
173 196 51
169 192 25
168 191 25
169 191 25
170 193 25
163 186 25
169 191 0
164 187 0
165 189 0
168 192 0
164 186 0
163 186 0
165 188 0
167 191 0
165 189 0
167 189 0
166 189 0
169 192 0
164 187 0
165 188 0
169 193 0
167 191 0
165 188 0
169 192 0
166 189 0
167 190 0
168 191 0
142 167 87
74 105 138
62 97 152
62 98 158
62 97 152
61 97 158
61 97 151
62 97 153
61 97 152
61 97 159
62 98 158
61 97 158
62 98 165
62 98 164
62 98 157
60 96 154
60 96 157
61 97 163
61 97 160
61 98 161
62 98 169
62 99 173
61 97 162
62 98 159
61 97 165
62 98 163
62 98 165
61 98 163
62 98 164
62 98 167
61 97 157
61 97 160
61 97 161
62 98 164
62 98 174
62 98 168
62 99 169
61 98 170
61 98 164
62 98 169
63 99 175
62 98 168
61 98 162
62 99 172
62 98 169
61 97 162
62 98 167
61 98 169
62 98 167
62 98 168
62 98 166
63 99 168
62 99 175
63 99 172
62 99 169
62 99 169
62 99 171
63 99 168
62 99 172
63 100 177
62 99 177
61 98 163
62 98 167
62 98 169
62 99 168
61 97 162
61 98 168
62 99 168
62 99 169
62 99 172
62 98 166
63 99 170
62 99 169
61 98 166
62 99 170
62 98 165
62 99 169
62 98 162
62 98 166
62 98 165
62 98 164
62 99 169
62 98 167
62 98 162
61 97 163
62 98 165
62 98 167
61 97 154
62 98 170
62 98 170
62 99 172
61 98 163
62 98 164
61 98 162
62 99 171
62 99 171
62 98 159
61 97 167
62 98 167
62 99 171
62 99 169
61 98 162
62 99 172
63 99 170
62 98 167
62 98 161
62 98 162
62 98 167
62 99 171
62 99 169
62 99 165
62 99 167
61 98 166
62 98 166
62 98 168
61 97 162
62 99 171
62 98 163
62 98 162
63 99 164
62 99 170
62 98 163
62 98 160
62 99 169
62 98 160
62 98 163
62 98 161
62 99 169
62 98 168
63 99 165
62 98 158
62 98 163
62 99 166
62 98 162
61 97 157
61 97 156
62 98 167
62 98 164
61 98 158
61 97 159
63 99 167
62 98 167
62 97 152
62 98 161
62 98 160
61 97 149
63 99 165
63 98 160
61 97 159
61 97 159
62 98 160
62 98 159
62 98 159
62 97 151
62 97 155
62 98 158
62 97 158
62 97 158
62 98 159
61 97 154
62 98 162
61 97 151
60 95 150
62 97 157
62 97 148
61 96 151
61 97 150
62 97 152
61 96 150
62 98 161
62 97 160
61 95 148
60 95 151
59 93 144
61 96 154
58 92 138
61 95 141
60 93 143
59 93 139
57 90 130
61 88 124
83 91 88
91 90 22
57 56 19
90 87 12
79 78 15
83 83 20
76 75 12
82 82 18
81 80 15
89 88 12
86 85 20
76 76 8
86 86 20
92 91 23
90 89 16
99 97 16
86 87 28
86 87 24
91 89 24
101 99 31
100 98 28
104 102 29
104 101 31
110 107 39
98 97 34
114 112 28
99 98 24
115 112 34
110 107 35
118 115 40
109 107 32
122 120 38
124 121 36
119 117 36
118 116 30
124 121 35
124 121 35
119 117 30
123 120 31
131 128 35
142 139 49
127 125 36
137 131 48
125 121 44
136 130 40
130 127 52
136 132 45
126 122 40
139 134 46
131 127 40
126 124 39
139 133 57
144 138 54
139 135 45
136 131 42
131 127 48
135 131 37
141 136 44
142 137 49
136 132 42
138 135 47
144 139 44
145 141 47
142 137 39
134 129 45
150 145 57
144 139 47
138 132 48
147 142 58
148 142 48
143 138 48
139 135 48
141 135 45
138 133 47
144 137 47
146 141 48
142 138 45
139 135 44
138 134 51
141 136 41
143 138 47
140 135 42
140 136 41
145 139 42
142 136 47
145 138 47
137 132 48
144 139 48
138 132 48
136 131 44
136 130 47
139 133 42
135 130 42
139 134 48
139 132 42
139 133 41
139 134 37
135 131 34
134 128 44
134 130 45
135 130 39
132 126 37
126 120 36
126 121 36
135 130 36
129 125 37
129 127 30
133 132 37
134 137 25
135 141 25
142 152 0
145 154 11
150 161 11
154 168 11
160 173 0
160 174 0
159 174 0
161 174 0
165 181 0
164 180 0
167 185 0
162 176 0
162 178 0
167 185 0
163 179 0
168 184 0
167 184 0
164 181 0
166 183 0
169 188 0
166 184 0
163 181 0
165 183 0
170 189 0
166 184 0
170 193 0
170 193 0
174 197 0
174 198 25
172 195 0
171 195 0
171 193 0
172 195 36
172 196 44
174 197 51
174 196 57
173 196 44
172 195 51
170 193 44
172 195 51
174 197 57
172 195 57
175 197 57
174 197 57
176 198 80
173 196 57
174 197 57
170 193 44
174 197 57
176 198 67
177 199 84
174 197 72
176 198 76
175 198 67
172 194 62
181 203 88
175 196 76
173 196 62
177 199 72
175 197 62
172 195 51
174 197 84
171 193 51
172 195 44
172 195 62
176 198 72
171 194 62
178 200 84
174 196 57
174 196 76
175 197 84
175 197 76
171 193 57
173 195 62
178 200 84
170 192 36
177 200 84
175 198 72
170 194 72
178 200 76
174 196 80
169 191 57
169 191 62
168 191 51
171 194 57
169 192 57
163 184 36
165 188 44
169 192 25
167 191 25
165 188 0
167 190 0
172 194 44
168 191 0
170 194 0
164 188 0
168 191 0
165 188 0
166 189 0
164 186 0
164 188 0
161 184 0
165 188 0
162 185 0
159 182 0
164 188 0
160 183 0
165 188 0
166 189 0
141 165 76
69 102 143
61 96 143
60 96 148
62 97 154
62 98 163
62 98 156
61 96 154
61 97 156
61 96 151
62 98 165
61 97 153
61 96 156
62 98 166
61 98 163
61 96 154
62 98 163
61 97 159
61 96 155
61 98 164
60 96 158
62 99 170
62 98 168
61 97 163
62 98 165
62 98 165
61 97 160
62 98 165
62 98 168
62 99 168
62 98 170
61 96 156
62 98 164
62 98 167
62 98 164
63 99 170
62 98 164
62 98 170
62 98 169
61 97 161
61 98 167
62 98 168
61 97 166
62 98 172
62 98 168
62 98 166
61 98 172
61 97 160
62 98 166
62 98 169
62 98 168
61 97 162
62 98 165
62 99 165
61 98 168
61 98 163
63 99 169
61 97 162
61 98 168
61 97 164
61 98 171
62 99 172
63 99 171
62 98 163
61 97 165
62 98 167
61 97 160
61 98 166
62 98 168
63 99 169
61 98 169
62 98 167
62 98 165
63 100 176
62 99 164
62 99 172
62 98 167
62 99 170
62 98 165
62 98 165
62 98 160
62 99 168
63 100 174
62 98 166
62 98 167
62 98 163
62 98 168
61 98 161
61 98 168
63 99 169
62 98 162
62 99 164
61 98 162
62 99 171
62 99 167
62 98 163
63 99 171
62 99 170
62 98 165
62 98 164
62 98 165
62 98 168
61 97 164
62 98 163
62 98 165
62 98 163
62 98 166
62 99 166
62 99 170
63 99 165
62 99 167
62 98 164
62 98 163
63 99 169
63 99 170
63 99 169
62 99 169
63 99 169
63 99 164
62 99 169
62 98 163
63 99 170
62 98 163
62 98 162
62 99 168
63 99 167
62 98 163
62 99 168
61 97 160
63 99 169
63 99 170
62 98 163
62 98 164
62 98 169
62 98 158
62 98 164
62 98 160
62 98 159
63 99 166
61 97 158
62 98 161
62 98 158
62 98 158
62 98 164
62 98 160
62 98 160
62 98 162
62 98 160
61 97 158
61 97 161
62 97 159
61 97 160
63 99 164
62 98 159
62 98 161
61 97 161
61 97 156
61 97 158
62 98 159
62 97 156
61 97 157
61 96 153
61 97 161
60 96 147
62 98 159
62 98 163
61 97 154
61 96 153
60 95 141
62 97 155
62 98 159
61 95 147
59 94 143
61 96 151
60 95 148
59 92 134
61 96 149
60 94 139
60 94 142
60 94 145
58 87 119
78 86 75
70 71 46
77 74 14
88 86 14
77 76 12
76 76 18
87 85 18
81 79 4
75 76 8
82 81 11
87 85 11
86 87 19
94 92 19
89 89 11
91 91 14
86 85 19
88 87 17
88 87 23
100 99 26
86 85 18
105 102 27
99 97 11
101 100 18
112 110 26
106 105 26
108 108 26
105 103 24
116 113 41
100 99 34
123 119 30
124 122 39
112 110 37
114 111 39
115 114 34
124 120 43
126 123 34
120 118 41
114 112 30
116 116 30
132 128 38
126 122 34
137 132 39
130 127 45
133 127 48
129 125 36
132 128 31
133 129 44
130 127 34
134 129 49
131 128 38
135 130 38
137 132 47
137 133 41
145 140 53
135 130 46
135 131 37
136 131 49
139 134 47
141 136 49
137 131 42
149 143 49
136 130 45
138 133 44
138 133 41
140 136 40
142 136 48
147 141 54
138 133 41
149 143 51
139 134 44
146 139 48
141 135 39
135 130 45
144 139 44
148 142 47
144 139 49
138 133 37
137 132 44
139 133 49
141 136 39
143 137 45
137 133 45
136 131 39
139 134 37
137 133 37
141 136 47
141 135 47
136 131 39
134 129 36
132 128 45
137 132 47
137 133 39
139 134 39
143 138 44
132 126 34
137 133 39
127 121 32
126 122 32
128 123 37
128 123 41
127 121 32
132 127 39
120 116 25
121 116 36
118 115 28
120 118 30
125 126 32
132 132 25
129 135 28
142 145 25
150 157 19
147 157 11
152 165 0
153 167 0
167 182 0
160 175 0
165 181 0
164 181 11
166 181 0
165 178 0
166 184 0
165 181 0
161 177 0
166 185 0
165 183 0
168 187 0
164 182 0
165 183 0
168 188 0
166 184 0
170 189 0
170 187 0
166 183 0
158 175 0
164 184 0
171 195 25
171 195 0
169 192 0
173 195 25
174 197 36
171 194 44
172 196 36
173 195 36
168 191 25
171 194 36
173 194 67
175 197 67
171 194 51
174 196 44
173 196 84
180 201 95
174 196 67
174 196 67
174 196 51
170 193 62
174 196 72
178 200 92
174 197 67
176 198 80
177 200 62
177 199 88
175 197 76
177 199 88
174 197 84
173 196 62
176 198 84
177 199 84
179 202 88
176 199 62
173 195 84
174 197 67
175 197 76
180 201 105
181 203 102
176 199 84
175 198 76
175 198 62
170 192 62
176 198 92
177 199 80
174 196 92
172 194 67
180 202 102
173 195 76
174 196 57
171 194 51
171 194 62
179 200 88
174 196 72
171 193 62
174 196 72
168 190 72
174 196 62
170 193 62
169 191 67
171 194 57
173 195 67
171 194 51
168 191 44
172 196 51
168 190 0
165 188 36
173 196 25
166 189 0
162 186 0
171 194 25
165 188 0
166 190 0
161 184 0
166 188 0
167 190 0
170 194 0
164 186 0
163 186 0
167 191 18
168 191 18
164 188 0
163 186 0
170 194 0
146 171 70
67 100 143
61 97 151
61 96 158
60 95 149
60 96 147
62 97 162
61 97 156
62 98 162
60 95 141
60 95 144
60 96 156
61 97 156
61 97 163
62 98 162
62 98 166
61 97 159
60 96 152
62 98 161
62 99 168
61 98 161
62 98 163
62 98 161
60 96 159
62 98 167
60 95 149
61 97 161
61 97 158
61 97 163
61 96 159
63 100 176
61 98 168
62 98 166
61 97 163
61 98 167
62 99 171
61 98 165
60 96 164
62 98 167
61 97 165
62 98 165
61 97 159
61 98 166
62 98 172
61 97 163
61 98 167
61 98 169
61 98 172
61 98 167
62 99 171
61 97 159
61 97 165
62 98 171
62 99 173
62 98 169
63 99 174
63 99 171
62 98 170
62 99 170
62 98 165
62 99 167
62 98 166
62 98 168
62 98 163
62 99 173
60 97 162
62 99 168
62 98 168
62 99 167
62 98 171
62 99 174
63 99 170
63 99 166
61 98 170
62 99 167
62 98 165
62 98 162
62 98 165
62 98 166
62 98 166
61 98 164
61 97 162
62 98 164
62 99 168
63 99 170
63 99 173
62 98 159
61 98 168
63 99 169
62 98 167
61 98 166
62 98 164
63 99 166
62 98 166
63 99 170
62 98 164
62 98 160
61 97 160
62 98 169
61 97 158
63 99 171
62 98 165
62 98 167
62 98 161
61 98 161
63 100 172
61 97 160
62 98 165
61 98 166
63 99 168
63 99 170
62 99 167
62 98 165
61 97 159
61 97 154
62 98 160
62 98 165
63 99 169
61 97 162
61 98 160
61 97 161
62 98 165
62 98 163
62 98 163
63 99 166
62 98 161
62 98 165
62 98 161
61 97 161
62 98 158
62 98 163
62 98 161
63 99 166
62 98 163
62 98 165
62 98 163
61 97 161
60 96 156
62 98 162
62 98 162
62 98 159
63 99 166
62 98 161
62 98 162
62 98 161
62 98 159
62 98 158
62 98 158
63 99 166
62 97 160
63 99 164
62 98 156
62 98 161
61 96 152
62 97 160
62 98 168
62 98 162
61 97 151
61 97 156
62 97 154
61 97 158
62 97 156
61 96 147
61 97 159
62 97 154
60 95 147
61 96 147
62 97 152
62 98 157
61 96 152
61 95 152
61 96 157
62 96 151
60 95 151
61 95 148
60 94 144
61 95 144
60 93 141
59 91 138
58 90 129
59 89 126
77 86 85
74 74 20
88 87 1
72 72 11
74 74 11
87 85 12
85 84 16
65 67 16
82 81 1
86 83 21
78 79 15
79 79 11
99 97 11
84 83 16
90 89 20
87 87 14
82 81 14
94 94 25
95 96 21
92 91 25
95 94 20
103 101 21
108 107 28
89 88 21
102 101 27
92 91 18
108 106 26
111 110 28
101 101 23
116 115 34
113 110 30
120 117 39
116 114 32
118 115 33
114 111 32
115 113 34
131 127 46
121 117 42
118 115 26
131 128 32
125 121 42
127 124 42
124 120 38
117 115 34
125 121 37
125 122 41
135 131 43
133 129 39
127 123 40
135 130 44
129 126 39
134 130 40
133 129 46
149 142 56
134 131 50
137 133 44
127 123 44
137 132 43
137 132 36
138 133 42
131 128 32
136 133 40
145 140 52
137 134 37
138 134 47
131 127 39
139 135 49
136 132 41
138 133 42
142 137 44
131 128 37
141 136 37
136 131 41
135 130 42
129 124 36
143 136 45
133 129 30
136 132 34
135 129 44
137 133 36
137 131 45
135 130 28
135 130 36
128 122 44
137 133 41
137 132 34
140 135 42
142 136 37
148 142 44
138 132 41
144 137 47
128 123 37
135 130 39
136 130 34
128 124 25
131 126 34
133 128 34
132 127 41
134 128 39
127 122 36
118 114 28
122 119 32
123 118 28
123 119 22
132 128 32
131 131 32
135 135 37
142 146 25
141 145 19
141 146 22
149 159 22
159 173 11
157 169 0
162 175 0
164 179 0
161 177 0
162 176 0
160 173 0
156 172 0
164 179 0
164 180 0
162 178 0
167 183 0
159 174 0
165 183 0
164 181 0
160 176 0
166 184 0
163 179 0
169 187 0
168 187 0
166 184 0
166 185 0
165 185 0
164 182 0
169 192 0
166 189 36
171 195 25
174 197 51
173 196 25
174 196 44
172 195 51
176 199 62
177 199 72
173 196 57
172 195 36
174 196 51
176 198 72
177 199 76
180 201 95
174 196 80
175 197 76
176 198 80
172 194 84
174 196 62
180 201 80
175 198 76
179 201 88
173 196 84
177 199 80
180 202 102
178 200 88
176 199 76
179 200 76
176 198 67
175 197 80
174 196 84
178 201 88
182 203 114
175 197 92
180 202 92
177 199 88
177 200 92
180 201 84
178 199 92
179 201 95
179 201 99
179 200 95
177 199 76
173 195 88
175 198 57
176 198 76
181 201 99
173 196 72
171 195 62
178 199 84
179 200 88
177 200 84
175 197 76
175 196 80
172 195 76
179 200 95
171 194 36
172 193 72
169 192 72
177 199 80
173 195 92
176 198 67
172 194 67
175 198 72
168 191 36
174 196 67
172 195 25
171 194 0
168 192 44
166 190 25
170 193 25
167 189 25
164 187 0
172 196 0
166 190 0
166 189 0
163 186 18
162 185 31
156 179 40
165 188 25
167 191 18
163 186 0
160 184 0
145 169 86
71 103 142
62 98 158
61 96 147
60 95 146
61 97 158
61 97 157
60 95 150
61 97 158
61 97 155
61 97 157
62 98 156
61 97 157
61 96 148
62 98 163
61 98 160
62 97 157
62 98 163
62 97 161
62 98 165
61 97 160
59 95 156
61 97 162
61 98 166
62 98 166
61 97 163
62 98 168
61 97 160
62 98 166
61 98 167
61 97 163
62 98 169
61 97 166
61 97 166
61 97 159
62 98 169
62 99 169
62 99 170
61 97 166
62 98 166
61 98 168
61 97 164
62 98 170
61 98 168
61 98 166
61 97 163
61 97 164
62 99 167
61 98 166
62 98 168
61 98 172
61 98 169
62 98 164
62 98 167
62 98 166
63 99 173
62 98 168
62 98 168
62 99 166
62 98 162
61 97 166
62 98 163
61 98 163
62 98 163
62 98 163
62 98 166
61 98 167
62 98 166
61 98 164
62 99 172
62 98 167
62 98 166
62 98 163
61 97 167
61 97 165
61 97 162
62 98 167
61 98 169
61 98 164
62 98 168
62 99 171
61 97 158
61 97 165
62 98 169
62 99 168
62 99 169
62 98 171
62 98 163
62 99 173
61 98 161
61 97 165
61 97 160
63 99 171
61 98 161
61 97 155
62 98 165
62 98 166
61 98 165
63 99 170
62 99 171
62 98 163
62 98 161
62 98 165
62 98 164
61 98 167
62 99 164
62 98 168
61 97 165
61 97 166
62 99 169
63 99 167
62 98 163
62 98 165
62 98 166
62 98 164
62 98 168
62 98 159
62 98 162
62 99 168
62 98 163
62 98 162
62 98 162
61 97 164
61 97 162
62 98 166
63 99 166
61 97 161
62 98 163
62 98 162
61 97 158
62 98 165
61 97 161
62 98 160
61 97 159
62 98 164
62 98 164
61 97 160
62 98 158
62 98 159
62 98 165
62 98 158
62 98 162
62 99 165
62 98 164
61 97 157
62 97 162
63 99 163
62 97 158
62 98 163
61 97 149
62 98 162
61 97 158
62 98 159
62 97 160
61 97 155
61 97 155
62 98 159
61 97 152
62 97 152
61 97 154
62 97 156
61 96 157
61 97 156
62 97 155
61 97 150
61 96 152
60 95 146
62 97 151
61 96 149
60 94 141
61 96 149
60 95 147
62 97 155
59 94 144
61 95 149
60 95 146
59 92 141
60 94 145
59 93 139
57 89 141
63 89 118
82 90 75
86 85 34
88 86 12
91 88 16
80 78 8
81 79 16
73 75 14
86 85 9
82 81 9
83 80 3
86 84 9
74 71 3
92 91 14
88 86 12
94 92 8
93 92 12
99 98 18
99 97 28
93 92 23
90 89 16
103 100 21
84 85 24
106 105 25
112 110 23
98 97 28
105 103 30
105 102 32
103 102 24
109 107 28
112 109 31
119 115 34
106 104 28
117 114 27
114 111 25
112 112 29
128 125 38
129 124 42
114 112 32
128 124 37
117 117 36
123 119 34
130 126 37
133 129 43
130 126 37
127 122 42
125 120 36
130 125 39
122 118 43
134 129 45
126 122 41
133 128 45
125 121 35
131 128 41
142 137 51
142 138 44
137 132 45
136 131 45
140 135 42
131 128 39
142 137 48
134 130 34
142 137 53
140 135 39
133 129 41
135 131 40
151 144 52
124 120 30
139 134 37
138 132 48
144 137 49
136 130 45
131 127 28
143 138 47
131 126 42
141 134 51
138 134 37
133 129 34
134 130 44
133 128 39
138 132 39
139 135 41
140 135 37
134 129 37
140 135 42
139 135 37
136 131 41
143 137 47
136 130 49
136 129 37
133 128 39
131 127 41
125 120 42
130 123 41
137 131 36
133 129 30
119 115 28
134 129 39
125 121 30
127 122 36
124 119 32
132 127 36
123 120 30
127 126 19
125 124 19
133 130 28
130 132 11
140 146 16
128 133 16
147 152 16
151 163 11
152 164 0
152 166 22
164 178 16
159 174 0
161 175 0
160 174 0
168 183 0
162 178 0
164 180 0
163 182 0
164 178 0
165 183 0
165 182 0
163 179 0
162 179 0
167 185 0
168 185 0
167 182 0
164 180 0
166 184 0
168 184 0
165 182 0
167 183 0
163 181 0
167 185 0
175 198 62
169 192 25
170 194 36
173 195 62
172 195 44
175 198 72
177 199 72
178 200 92
175 198 72
178 200 76
179 200 92
175 198 67
174 197 57
178 199 88
176 197 80
175 198 80
176 198 80
179 200 92
177 200 67
180 201 88
180 202 92
179 201 76
180 202 88
176 198 99
176 199 92
175 198 67
177 198 76
178 199 92
172 195 51
177 199 80
180 202 105
179 201 102
181 202 105
172 196 67
179 200 108
171 193 62
176 198 72
185 206 114
174 197 84
180 202 108
179 201 88
182 203 102
180 202 92
178 200 76
177 200 72
178 200 99
181 202 99
179 200 99
177 200 80
175 197 80
179 201 99
173 196 67
175 198 62
176 197 88
176 199 84
178 200 92
178 201 84
175 196 80
176 199 72
176 198 99
176 199 72
173 195 72
174 197 76
174 197 72
173 195 67
175 197 80
169 192 44
172 196 57
170 192 36
168 191 51
171 193 51
166 190 36
166 189 0
171 193 36
168 191 51
166 188 25
168 191 0
166 189 25
163 187 31
162 186 36
158 182 44
155 178 51
159 183 51
148 171 40
146 169 67
77 108 143
62 97 145
62 97 151
61 96 148
61 97 158
62 98 164
61 97 156
61 97 155
61 97 161
61 96 156
62 98 161
61 97 160
61 97 156
61 97 157
61 97 162
61 97 156
62 98 164
61 97 156
62 97 161
61 98 162
61 97 160
61 97 164
61 97 168
61 98 163
62 98 163
61 96 160
62 99 171
60 95 151
62 98 164
61 97 160
61 98 169
61 97 159
62 98 165
62 99 164
61 97 161
61 97 156
62 99 167
62 98 171
63 99 166
62 98 161
62 98 166
62 98 166
61 97 165
60 96 159
61 98 164
62 98 169
60 96 158
61 97 168
61 98 165
61 98 168
61 98 170
62 99 169
61 98 168
61 97 162
61 97 163
63 100 173
63 99 170
61 97 165
62 98 169
62 98 168
61 98 165
60 97 164
62 98 165
62 99 168
63 99 173
61 97 168
61 97 162
62 98 168
62 99 168
62 98 156
62 98 170
62 98 164
61 97 165
62 98 166
62 98 163
61 98 164
62 99 169
62 98 160
63 99 171
63 99 170
62 99 169
62 99 169
62 98 166
62 98 161
62 99 169
63 99 165
62 99 172
62 98 162
61 97 160
62 98 165
62 98 164
62 98 164
62 98 159
62 98 164
62 98 161
60 97 163
62 98 166
61 98 165
63 100 174
62 98 164
62 98 167
62 98 168
62 98 171
63 99 165
62 98 167
62 98 167
61 97 162
63 99 170
63 99 169
62 98 161
61 98 161
62 98 161
62 98 164
62 98 162
62 98 165
62 98 164
62 98 160
62 98 166
62 98 162
62 98 166
63 99 169
62 98 159
62 98 164
63 99 168
62 98 161
62 98 167
63 99 167
62 98 164
61 97 160
62 98 166
61 97 160
62 98 163
62 97 154
62 98 161
62 99 166
61 97 158
62 98 160
62 98 161
62 98 160
62 98 163
61 97 157
62 98 162
62 98 159
63 99 160
61 96 149
61 97 161
63 99 165
61 97 155
63 99 163
62 98 159
62 98 158
62 97 157
63 98 162
62 98 162
62 98 156
62 99 166
61 97 154
62 97 154
61 96 149
61 96 151
61 96 153
63 98 160
62 98 156
61 97 154
61 96 152
60 95 147
61 96 154
61 96 149
61 96 156
61 97 159
62 97 154
60 95 148
61 95 149
61 95 152
59 93 139
59 94 137
58 91 125
59 92 142
56 89 122
61 88 113
85 90 65
79 76 14
98 94 11
78 77 9
79 78 14
82 80 18
93 91 9
81 81 14
80 80 8
84 82 8
79 78 16
75 73 2
90 88 3
94 92 12
85 85 12
92 90 16
100 99 14
96 94 14
90 90 18
105 103 16
98 96 14
99 99 28
103 101 21
90 90 23
98 98 18
101 100 25
102 100 19
103 101 21
104 103 23
105 101 25
106 105 29
109 107 25
110 109 27
111 109 24
115 112 29
119 116 31
123 121 35
118 116 37
103 99 24
128 123 36
128 125 30
127 124 30
122 119 40
128 125 37
121 118 33
136 132 42
129 126 26
122 119 32
132 129 38
134 130 37
126 123 32
132 129 35
137 132 44
135 130 42
125 122 35
138 134 43
134 130 36
133 129 39
131 128 37
139 136 36
139 134 42
130 126 39
139 134 32
135 129 41
129 124 32
130 126 36
132 128 29
141 136 42
138 134 37
153 147 49
131 127 42
136 131 32
140 133 44
141 135 37
134 130 39
137 132 42
144 139 41
143 137 51
129 124 39
132 127 39
133 128 37
132 128 37
139 134 45
135 129 47
133 129 30
130 125 41
135 130 34
133 129 37
129 124 32
138 133 41
127 123 32
139 132 39
128 124 28
136 131 37
133 129 28
130 124 34
123 118 25
124 119 37
118 113 30
128 123 37
116 113 22
120 114 32
134 135 25
129 130 34
136 135 34
142 149 19
146 152 25
146 150 22
149 159 11
157 167 25
157 167 16
161 176 0
160 174 16
162 177 0
161 175 0
160 174 0
156 171 0
159 175 0
161 175 0
159 172 0
165 179 0
161 176 0
162 177 0
161 177 0
162 178 0
167 185 0
165 183 0
165 181 0
168 185 0
169 187 0
165 182 0
167 185 0
164 183 0
169 188 0
164 183 0
175 197 72
177 199 67
173 196 36
172 195 51
174 198 51
178 201 84
173 196 57
174 197 76
178 200 102
178 200 67
181 203 95
173 195 51
179 201 72
178 201 84
179 201 92
173 195 67
168 191 44
174 197 57
173 196 67
182 203 102
176 198 72
176 198 88
176 199 76
179 202 84
177 199 84
176 199 80
176 197 84
177 199 88
181 203 102
178 200 102
179 201 80
180 202 92
182 203 108
180 203 99
180 202 108
178 200 84
184 204 117
177 200 88
178 200 80
177 199 88
180 202 105
181 203 102
180 201 95
176 199 67
177 198 108
171 193 88
179 201 92
174 197 80
176 198 80
179 201 88
177 199 92
176 199 76
176 199 84
178 200 84
175 198 88
175 196 88
176 198 80
180 202 99
173 194 76
178 201 95
177 198 84
172 195 67
176 198 76
174 197 76
175 198 67
174 196 84
167 190 51
174 196 72
173 195 84
172 193 88
170 192 62
166 189 57
170 192 51
171 194 51
171 193 51
169 191 62
162 186 44
159 183 60
163 186 47
156 180 74
155 178 51
149 173 72
155 179 60
159 182 44
153 177 70
80 111 140
66 100 140
60 95 142
65 99 145
61 97 153
61 96 151
61 96 147
61 97 149
61 96 155
61 97 149
61 96 156
60 95 147
62 98 161
61 97 165
61 96 157
62 98 160
61 97 158
61 96 156
60 96 154
60 96 155
61 97 158
62 98 157
61 97 153
60 96 155
61 96 153
60 96 163
61 96 160
62 98 165
60 96 158
61 97 163
62 98 166
61 97 163
62 98 166
62 98 164
61 97 160
61 97 161
61 98 167
61 97 169
62 98 169
62 98 169
61 98 167
61 97 164
62 98 169
62 98 170
61 97 166
62 98 167
61 97 165
61 97 162
60 96 159
62 98 164
62 98 166
62 99 172
62 98 170
62 98 168
62 98 166
62 98 167
61 97 164
63 99 173
61 97 170
61 97 166
62 99 171
62 99 169
62 98 167
62 98 164
63 99 165
61 98 165
61 98 166
61 97 165
62 99 167
63 99 168
62 99 170
62 98 170
62 99 171
63 99 168
62 98 172
62 98 167
62 98 164
62 99 172
61 98 163
62 98 166
61 98 161
61 98 164
62 98 164
62 98 161
62 99 171
63 99 171
61 97 164
62 98 166
62 98 166
62 98 167
63 99 173
62 98 162
62 98 170
62 98 167
62 99 170
61 97 159
62 98 163
62 99 168
62 98 167
62 99 172
61 97 159
62 98 161
62 98 166
62 98 164
61 98 164
62 99 168
61 98 162
62 99 168
62 98 163
62 98 162
61 97 165
61 97 159
63 99 169
61 97 159
62 98 164
61 97 157
62 98 160
62 98 165
63 98 163
62 98 160
62 99 167
63 99 163
62 99 167
62 98 161
62 98 161
62 98 159
62 98 159
61 97 155
61 97 155
63 99 163
61 97 164
62 98 161
62 98 158
63 99 167
62 98 165
63 99 168
61 97 162
61 98 159
61 97 159
62 98 157
62 98 161
62 98 157
62 97 158
62 98 162
61 97 156
62 98 164
62 98 156
62 98 161
62 98 164
61 96 147
61 97 157
61 97 153
61 97 160
62 98 159
61 97 151
61 97 152
62 98 162
61 96 151
61 97 154
60 96 151
61 97 154
61 97 148
62 97 152
59 95 144
61 97 154
61 96 151
62 98 158
61 96 153
59 94 140
62 97 155
60 95 147
60 94 141
61 95 142
60 94 148
60 94 146
59 93 143
60 94 141
60 93 140
59 93 143
62 85 107
84 93 74
89 86 9
86 84 21
76 75 8
84 81 19
85 82 18
87 85 12
82 79 0
88 83 14
85 84 8
97 94 9
90 86 4
87 86 8
90 88 8
91 91 8
96 92 12
93 92 14
84 84 14
95 92 16
96 94 16
88 87 11
90 90 14
105 103 29
102 99 25
97 94 22
109 106 27
94 94 24
114 112 27
102 100 24
101 101 6
112 111 33
116 113 24
113 111 28
121 117 29
118 116 37
114 112 34
119 117 28
115 111 30
114 111 29
124 119 38
120 116 31
125 122 32
123 121 31
129 126 30
121 118 38
123 119 30
135 131 33
136 130 40
131 128 34
126 123 30
128 124 25
132 128 32
124 120 32
135 132 37
134 130 28
127 123 37
128 124 36
131 128 31
133 128 37
131 127 35
134 130 36
134 130 35
135 130 39
136 131 45
138 134 36
133 128 44
142 138 41
136 131 42
135 131 37
144 139 42
145 140 46
127 123 36
135 129 36
144 137 45
132 127 36
138 133 42
130 125 39
137 131 37
137 130 45
137 132 41
133 127 39
141 135 41
141 135 44
135 130 30
132 127 22
130 125 32
137 132 41
130 125 28
129 124 32
137 132 34
133 129 25
137 130 45
132 125 39
125 119 32
129 124 34
131 125 34
123 119 30
119 113 32
123 118 19
131 128 36
128 126 32
110 107 19
131 127 37
125 123 25
141 143 32
136 139 19
140 148 11
149 159 0
152 164 11
151 159 16
164 176 11
156 168 0
157 171 0
160 171 0
161 175 0
163 178 0
167 183 0
163 178 0
165 178 0
162 177 0
167 185 0
164 181 0
163 178 0
163 179 0
170 185 0
160 175 0
166 184 0
161 177 0
164 183 0
168 187 0
166 184 0
165 184 0
161 177 0
164 181 0
166 184 0
176 198 62
173 196 62
173 195 72
178 199 88
182 203 108
180 202 84
176 199 72
174 197 80
178 200 76
175 198 80
176 197 84
177 200 76
176 199 84
176 198 72
176 199 76
182 203 102
177 199 88
178 199 92
182 203 99
178 199 92
180 201 92
179 200 95
179 202 99
183 203 111
182 203 122
180 201 105
182 203 108
186 207 137
180 202 105
183 204 120
182 204 105
183 205 114
188 208 137
183 205 111
185 206 122
185 206 128
189 208 135
185 206 114
184 205 128
181 203 105
184 204 120
191 210 151
183 204 108
184 206 114
180 202 108
183 204 120
185 206 120
179 201 95
178 200 62
181 203 114
178 200 92
179 201 95
181 203 99
177 199 95
181 202 105
177 200 80
178 200 95
179 201 88
176 198 88
179 201 88
178 199 102
174 197 67
176 198 92
171 193 72
179 201 95
174 197 62
172 194 62
178 200 80
174 196 80
175 197 80
174 196 62
175 197 57
174 196 76
171 193 72
167 191 36
164 187 44
167 190 47
163 186 70
156 179 76
152 175 80
150 174 80
160 183 54
143 167 78
157 180 44
149 172 72
81 112 133
73 105 143
68 102 145
71 104 143
61 96 148
63 98 154
62 98 160
62 98 167
61 96 154
61 97 153
61 97 154
62 98 161
62 98 163
63 99 166
62 98 159
61 97 158
61 97 159
62 97 160
61 97 158
61 97 159
61 97 160
62 98 164
61 97 159
62 98 164
62 98 168
61 97 159
62 99 167
62 98 163
61 97 164
60 96 163
62 98 161
61 97 164
61 97 163
61 97 159
62 98 171
61 97 156
61 98 164
62 98 164
61 98 164
62 98 167
61 97 164
62 99 167
61 97 151
61 97 167
61 98 170
62 98 162
63 99 169
62 98 167
61 97 165
62 98 169
62 98 165
61 98 164
62 99 173
61 97 162
62 98 169
61 97 160
62 98 169
62 98 165
62 99 169
62 99 170
62 98 167
61 98 167
62 98 165
61 97 160
62 99 168
61 98 164
61 97 166
61 98 165
61 98 161
62 98 165
62 98 164
62 98 164
62 98 167
62 99 168
62 98 167
62 98 164
61 98 162
62 98 165
61 97 157
62 98 170
62 98 161
62 98 163
63 99 168
62 98 163
62 98 162
62 98 166
62 98 163
61 97 159
62 97 160
62 98 163
62 98 166
62 99 165
63 99 169
62 99 168
64 100 176
62 98 165
62 99 171
61 97 159
62 98 161
62 98 165
62 98 165
62 98 163
62 98 163
61 97 159
62 98 166
63 99 168
61 97 155
61 97 160
61 97 160
63 99 166
63 99 168
62 98 162
62 98 166
62 98 165
62 98 165
62 98 167
63 99 169
61 97 154
61 97 155
61 97 162
61 97 160
62 98 158
61 97 162
63 99 168
62 98 161
62 98 160
62 98 160
62 98 162
62 99 168
61 98 163
63 99 165
61 98 164
61 97 157
63 99 166
62 98 163
62 98 157
61 97 159
61 96 152
61 97 159
62 97 156
62 98 163
62 98 164
61 97 155
63 99 161
61 97 155
62 98 160
62 98 162
61 96 154
62 97 155
62 98 160
62 98 157
62 98 161
62 98 156
61 97 159
62 98 157
61 97 155
63 99 163
61 97 153
61 96 154
61 97 155
62 98 160
59 94 147
61 97 151
61 96 151
60 95 151
60 95 148
61 96 140
60 94 147
60 95 145
60 95 149
61 95 141
60 95 144
60 94 144
61 95 144
60 94 142
60 95 139
60 94 145
59 93 130
59 92 135
63 86 104
87 93 56
90 88 16
93 88 11
79 76 0
87 84 21
73 73 16
87 84 11
87 84 0
82 80 3
84 84 8
86 84 11
86 84 8
87 85 14
82 81 8
90 87 11
87 86 3
96 92 11
99 96 18
90 91 14
104 102 23
103 100 16
98 97 14
91 91 27
90 90 9
106 103 21
106 103 22
103 102 26
102 100 21
107 105 21
99 99 20
114 111 26
108 106 29
106 105 23
117 114 27
106 104 19
113 110 30
122 119 24
108 106 13
108 106 24
105 102 24
115 113 29
124 120 34
110 107 33
126 123 37
130 126 26
126 122 35
120 118 35
127 124 24
128 124 34
132 128 45
123 120 28
122 120 24
131 126 37
143 138 42
135 130 39
126 122 37
131 126 39
132 127 30
137 131 38
133 129 36
132 126 37
139 133 40
129 125 25
140 135 36
136 132 30
131 127 22
139 133 37
126 122 30
123 119 22
132 129 32
133 129 37
127 123 28
135 130 41
132 127 30
129 124 44
134 129 37
128 123 34
133 128 32
136 131 44
135 131 30
130 124 39
130 124 37
134 128 37
137 132 30
131 125 32
134 130 28
133 126 37
129 123 32
132 126 39
131 126 30
127 122 34
127 123 34
117 113 19
115 108 22
126 121 28
128 123 32
126 120 32
124 121 22
119 117 25
126 125 22
135 132 22
125 123 16
121 119 22
132 136 16
145 148 22
147 153 25
145 152 16
145 155 0
150 161 11
153 165 11
163 179 0
156 168 0
166 182 0
161 176 0
165 181 0
164 182 0
165 180 0
162 179 0
163 177 0
163 181 0
162 180 0
161 174 0
164 180 0
169 184 0
162 179 0
164 181 0
167 184 0
161 176 0
168 185 0
166 183 0
167 184 0
165 184 0
170 189 0
169 189 0
168 187 0
175 198 80
174 196 67
176 198 67
170 193 76
174 197 72
175 197 72
177 199 80
177 200 76
182 204 99
177 199 84
178 199 95
180 202 88
177 200 84
180 202 105
179 201 99
181 203 105
183 204 111
179 201 99
184 205 120
184 205 114
183 204 117
187 207 133
186 206 130
186 206 128
191 211 147
188 209 137
187 208 128
189 209 147
188 208 135
192 211 144
190 211 147
191 211 149
187 207 135
191 210 155
190 210 144
192 211 153
189 209 147
186 206 130
190 210 151
185 206 114
190 209 140
188 209 140
187 208 140
189 209 142
190 208 147
189 209 144
185 206 135
186 206 142
185 205 125
187 207 137
183 204 120
183 204 117
184 205 122
176 198 88
180 202 102
185 206 122
181 202 117
180 202 95
180 202 105
177 199 84
179 201 88
180 202 92
181 202 108
178 200 99
172 194 67
177 199 84
178 201 92
179 200 102
178 200 105
178 199 88
170 193 67
171 193 57
171 194 62
177 200 84
171 194 72
168 190 72
165 187 76
160 181 94
153 177 72
146 169 95
137 161 92
147 170 88
143 169 80
152 176 70
147 170 70
106 132 120
73 106 144
81 112 143
74 106 143
67 101 143
61 96 149
61 96 149
61 97 149
61 96 144
61 97 159
61 97 162
61 96 155
62 97 163
60 95 154
60 95 157
60 96 153
62 98 161
61 97 153
61 96 153
61 97 158
61 97 156
59 95 149
61 97 165
61 98 161
61 98 162
61 97 156
61 98 165
60 96 159
61 97 163
62 99 170
61 97 168
62 98 165
62 98 165
62 98 168
62 99 172
61 97 159
61 97 162
60 96 167
61 97 166
62 98 163
62 98 174
61 96 153
62 98 164
62 98 165
61 97 159
62 99 172
61 96 160
62 98 168
62 98 170
61 98 162
61 98 165
62 98 167
62 98 163
62 99 169
61 97 165
61 98 165
62 98 160
62 98 169
62 99 168
62 99 168
62 98 170
61 98 166
62 98 163
62 98 164
62 98 163
61 97 163
62 98 162
61 97 158
62 98 164
62 98 167
62 98 163
62 98 165
61 97 167
62 98 170
62 98 166
62 98 164
62 98 163
62 98 162
62 98 163
62 99 170
62 98 163
62 99 167
61 97 162
62 98 159
62 98 163
62 98 165
62 98 165
62 98 165
62 99 171
63 99 169
62 98 164
62 98 163
63 99 163
61 97 158
62 98 163
62 98 165
62 98 166
61 98 166
62 97 161
62 98 166
62 98 161
62 98 164
61 97 163
61 97 161
62 98 166
62 98 161
61 98 164
62 98 167
62 98 164
62 98 170
62 98 161
62 98 162
63 99 168
63 99 166
62 98 162
62 99 166
63 99 165
63 99 164
62 99 167
62 99 166
62 98 156
62 98 162
62 99 169
62 98 160
62 97 156
61 98 160
62 98 156
62 98 162
62 98 162
61 97 157
62 98 157
62 98 161
62 98 167
62 99 167
62 98 164
61 97 156
61 97 160
62 98 161
63 99 165
61 97 157
62 98 162
63 99 161
61 97 155
62 97 156
61 97 160
62 98 160
62 97 157
60 96 149
62 98 155
62 98 154
60 96 151
63 99 165
62 98 158
62 98 156
62 97 157
62 98 160
62 97 151
61 97 153
62 98 160
62 98 161
60 96 151
61 96 149
61 96 150
61 97 152
61 96 152
61 97 157
61 96 148
61 96 149
60 95 148
61 97 152
60 95 142
59 92 133
60 95 145
59 93 137
60 94 138
61 95 145
59 93 131
58 91 136
58 91 138
62 84 101
81 87 75
96 98 22
92 89 1
89 86 0
92 88 14
85 80 0
89 86 3
84 81 8
84 80 16
80 78 8
84 82 0
87 85 8
90 86 2
93 89 11
95 92 8
96 94 14
99 95 8
91 89 8
92 88 8
88 85 11
97 96 14
86 87 14
100 98 21
98 95 19
91 91 16
91 90 16
112 109 23
105 103 22
108 105 29
110 107 26
102 101 16
121 117 32
105 102 21
109 106 24
112 109 25
106 104 26
124 121 37
123 119 11
113 110 23
123 118 29
129 125 30
129 126 36
125 122 28
120 117 22
130 125 26
128 124 33
123 120 26
114 110 23
129 124 39
124 120 25
126 122 32
128 124 27
113 109 19
137 132 39
135 131 37
141 135 43
131 127 42
135 130 31
133 129 41
130 125 30
136 131 39
130 126 40
133 128 31
127 123 19
137 133 30
137 131 39
135 130 37
126 121 35
135 130 34
141 136 32
135 130 34
131 125 34
129 126 28
128 124 32
131 127 32
128 123 28
131 127 42
130 124 32
142 136 41
130 124 39
129 124 25
131 127 25
126 119 28
133 128 39
128 124 19
130 124 37
132 127 34
123 119 30
116 113 30
129 122 30
126 120 32
121 117 32
132 127 36
111 106 34
120 113 22
124 120 25
124 120 32
127 123 30
117 118 22
128 124 28
126 125 32
127 126 22
138 142 25
139 146 22
150 159 16
143 155 11
150 158 22
163 176 16
161 175 11
158 169 16
157 172 0
158 173 0
160 173 0
159 172 0
162 177 0
161 173 0
164 178 0
161 176 0
163 178 0
163 180 0
164 181 0
162 179 0
165 182 0
163 177 0
161 177 0
168 185 0
158 174 0
163 181 0
168 185 0
165 180 0
163 179 0
163 181 0
169 185 0
165 182 0
169 186 0
176 197 88
177 200 95
181 203 108
179 202 84
179 200 105
182 204 114
183 204 108
181 202 105
177 200 76
176 198 88
183 205 111
184 205 105
180 202 95
186 207 130
186 207 133
184 206 120
184 205 114
181 202 99
190 210 147
186 207 130
183 204 125
192 212 155
185 206 130
192 211 149
187 208 137
191 211 153
195 214 163
193 213 163
195 214 167
190 210 151
192 212 153
196 215 171
195 214 165
197 215 175
195 215 171
191 210 155
195 215 167
194 213 169
194 213 163
191 211 151
192 212 153
194 213 167
193 212 161
194 214 163
194 213 161
186 205 140
193 213 157
191 210 147
190 210 147
190 209 153
191 211 151
188 209 133
184 205 122
186 206 133
187 208 133
190 210 144
186 207 125
184 204 120
183 204 108
178 199 92
178 200 99
180 202 88
179 201 99
178 201 84
180 201 99
174 197 72
175 197 80
172 196 76
174 197 84
175 198 67
174 196 67
174 197 72
172 194 51
174 196 67
174 196 72
170 192 74
164 186 72
147 170 107
138 162 100
148 172 95
137 160 92
132 157 95
134 158 108
141 166 92
135 159 86
99 126 126
89 118 136
80 111 131
75 106 134
76 107 148
64 99 147
69 102 147
74 107 155
64 99 152
61 96 153
60 96 150
60 95 145
61 96 154
60 95 148
62 98 161
62 98 165
61 96 155
62 98 159
61 97 157
59 95 149
61 97 153
61 96 160
61 98 167
61 98 163
60 96 159
62 97 164
62 98 168
62 97 165
62 98 166
61 97 158
61 97 161
61 98 164
61 97 163
61 97 156
61 97 164
62 98 164
63 99 171
60 97 163
61 97 162
61 97 168
61 97 162
62 98 163
61 98 165
62 98 161
62 98 166
62 98 165
62 98 165
62 98 163
61 97 157
61 97 158
62 98 166
63 99 174
62 99 170
62 98 166
62 99 174
62 98 165
61 97 161
62 98 160
62 98 164
60 96 157
61 97 165
62 98 169
61 98 165
62 98 165
62 99 173
62 98 162
61 97 159
62 99 168
63 99 171
62 98 164
62 98 164
62 98 170
62 98 168
61 97 161
63 99 174
62 98 164
61 97 157
63 99 164
62 98 167
62 99 172
63 99 170
62 98 161
62 99 166
63 99 170
60 97 159
62 98 160
61 97 162
62 99 164
62 98 161
61 97 162
62 98 161
61 97 161
62 98 162
62 98 164
61 98 167
62 98 158
61 98 165
62 99 168
62 98 165
61 97 162
62 98 163
62 98 165
62 99 170
62 98 163
61 97 157
62 98 165
62 98 167
62 98 161
62 98 160
62 98 165
61 97 158
62 98 160
61 97 158
61 97 164
61 98 162
62 98 165
61 97 159
62 98 164
61 97 159
63 99 167
61 97 163
62 98 165
61 98 159
62 99 166
61 97 159
62 98 162
62 98 158
63 99 165
62 98 161
61 97 155
61 97 160
61 97 157
62 98 155
63 99 160
61 98 164
62 97 157
61 97 155
61 97 152
62 98 156
62 98 162
61 97 156
61 97 150
62 98 153
61 97 155
62 98 157
61 97 158
62 98 162
62 98 155
62 98 157
62 98 157
61 97 157
62 98 162
61 97 155
61 97 160
61 97 157
62 97 154
61 96 151
62 98 157
63 99 166
61 97 156
62 98 156
60 95 144
59 94 148
61 95 146
61 96 144
61 97 152
61 96 154
61 96 154
62 97 156
61 96 152
61 96 157
60 95 146
59 93 144
59 93 133
59 93 142
59 92 135
58 92 139
57 90 129
62 93 133
70 88 93
86 93 41
95 98 24
102 102 11
86 86 11
98 96 0
83 81 12
87 86 8
81 76 8
74 72 11
87 85 8
87 86 2
94 90 8
80 79 3
88 86 16
90 87 3
90 87 12
91 89 0
81 80 8
99 96 8
90 88 14
96 95 16
91 89 11
109 105 16
100 98 0
108 105 18
102 98 16
100 98 16
102 101 25
116 113 18
100 97 21
111 108 16
109 107 18
112 109 21
107 105 14
115 113 23
101 98 18
118 116 21
112 111 25
117 114 31
116 112 31
118 114 22
111 109 23
110 110 21
121 119 26
129 125 28
126 122 33
118 114 26
110 107 21
126 120 32
120 116 22
126 121 26
124 120 28
130 125 34
126 122 36
118 113 21
131 126 25
132 126 32
129 126 25
131 126 37
140 134 43
132 127 36
126 122 19
122 119 25
131 126 39
132 126 32
135 131 28
129 126 30
134 130 30
119 115 25
130 125 28
130 126 32
129 124 36
129 123 37
125 121 36
126 122 28
130 125 30
134 127 39
129 124 36
125 121 25
134 130 30
126 122 30
137 131 41
122 119 22
127 122 32
128 124 28
127 121 37
127 121 25
133 128 34
139 134 32
116 112 22
129 124 32
116 111 30
131 124 39
118 114 25
113 109 22
129 126 34
123 120 25
130 127 28
128 126 22
123 123 19
139 140 34
136 143 19
152 159 11
144 150 16
146 155 0
153 164 16
154 164 11
156 168 0
157 169 0
155 166 0
158 171 0
165 179 0
161 175 0
157 171 0
161 175 0
162 176 0
162 178 0
160 173 0
160 177 0
161 176 0
164 180 0
164 181 0
166 184 0
166 183 0
163 178 0
164 180 0
168 185 0
162 177 0
161 179 0
165 182 0
163 179 0
159 177 0
164 182 0
166 185 0
166 185 0
180 202 92
172 195 80
180 202 114
177 200 72
176 198 84
179 200 95
179 200 102
178 199 105
180 203 99
180 202 99
185 206 130
185 205 125
184 205 120
180 202 92
189 208 149
191 210 144
189 209 140
189 209 142
197 216 169
193 212 155
191 211 149
194 213 161
196 215 167
196 216 175
191 211 157
193 213 161
196 215 165
201 218 189
199 217 179
197 216 177
202 219 188
193 212 159
199 217 181
198 217 179
197 216 177
198 217 175
199 217 179
197 216 179
196 215 179
199 217 182
196 215 175
202 220 193
196 214 171
196 214 181
197 216 171
198 216 173
197 216 181
194 213 167
195 214 163
195 214 165
195 214 161
194 214 161
195 214 171
194 214 163
187 208 140
188 208 137
188 208 140
185 205 133
185 206 130
182 203 122
182 203 120
182 203 114
181 202 99
183 204 111
178 201 92
177 199 102
178 201 80
175 198 72
177 198 92
174 197 80
176 199 88
177 199 84
172 194 67
176 198 80
174 196 76
173 195 74
156 177 111
147 170 114
148 171 118
132 155 120
138 161 110
128 153 110
129 154 105
135 159 95
134 158 99
106 133 130
89 117 125
87 117 129
91 120 130
87 117 149
74 106 143
72 104 145
66 100 145
64 98 155
67 100 147
62 98 157
61 96 149
62 98 164
61 97 164
61 96 147
61 97 160
61 96 155
60 95 155
60 96 159
61 97 160
60 97 160
61 98 163
61 97 155
62 98 162
61 97 157
61 96 155
61 98 164
61 97 160
61 97 156
61 97 166
61 98 167
62 98 165
62 98 164
61 97 161
61 97 164
60 96 159
61 98 164
62 98 165
61 97 160
60 96 160
61 97 154
60 96 163
61 97 160
60 97 165
61 97 164
61 97 163
61 97 160
61 97 161
61 97 159
60 97 159
62 98 169
62 98 168
61 97 160
62 98 167
62 98 165
61 97 165
62 98 167
62 99 169
61 97 159
62 98 163
61 97 160
62 98 168
62 98 173
62 98 168
63 99 170
62 98 168
62 98 171
61 97 162
62 98 165
62 98 169
61 98 162
61 97 164
61 97 160
62 98 162
63 99 169
61 97 157
62 98 164
62 99 171
62 98 162
62 99 170
62 98 166
62 98 166
61 98 162
61 98 162
61 97 159
62 99 164
62 98 164
62 98 166
62 98 162
62 98 163
62 99 167
61 98 164
62 98 165
62 99 167
62 98 166
62 98 166
61 97 160
62 98 165
62 98 160
61 97 155
61 97 161
62 98 161
63 99 168
62 98 159
61 98 161
62 98 163
61 98 158
61 98 165
62 98 164
62 99 164
61 97 154
62 98 161
62 98 163
63 98 162
62 98 161
62 98 162
62 98 164
62 98 158
61 97 161
62 99 168
62 97 162
61 97 156
61 97 157
62 98 159
62 99 165
62 98 163
63 99 165
62 98 161
61 97 156
61 97 156
61 97 155
61 97 157
62 98 160
62 97 154
62 98 160
62 99 167
62 98 159
62 98 165
62 98 157
62 97 158
61 97 158
62 98 162
62 98 159
62 98 156
62 98 166
61 97 153
61 97 153
62 97 154
61 97 153
62 98 159
60 96 148
62 97 154
61 97 159
60 95 135
61 97 154
62 97 150
61 97 149
61 96 148
61 97 155
61 96 151
61 97 152
61 96 142
62 97 156
61 96 150
62 97 154
61 96 147
61 96 150
61 96 150
59 94 136
62 97 154
60 95 149
59 94 147
59 93 136
62 97 158
59 93 137
61 95 145
58 92 134
58 90 127
58 91 137
75 93 97
104 112 61
109 108 21
103 104 0
100 100 0
103 102 0
79 80 0
87 82 11
89 84 11
88 83 11
83 80 0
85 83 8
91 85 0
96 91 8
86 82 3
81 81 3
97 93 8
91 88 0
85 83 19
92 91 8
101 98 8
101 100 14
97 95 14
100 98 14
95 91 21
88 87 14
103 98 14
99 97 14
96 96 8
115 112 16
100 98 0
104 101 14
110 108 18
105 104 25
111 110 18
99 95 14
112 109 21
117 113 24
117 114 28
107 104 11
113 109 25
117 115 16
132 128 30
117 113 30
113 110 11
120 116 24
118 114 24
119 116 21
123 120 28
126 122 23
135 130 22
128 124 29
120 117 19
121 118 31
122 117 30
125 120 30
133 129 30
131 126 34
131 126 37
133 128 32
129 125 30
128 124 30
128 124 30
136 132 28
121 117 25
132 127 30
131 126 32
132 127 30
137 132 28
131 127 36
132 128 37
131 125 42
131 126 34
129 125 28
115 111 34
132 127 34
128 124 22
126 120 30
129 125 25
126 120 37
124 119 32
131 126 30
125 119 22
124 119 25
130 125 19
122 118 19
116 111 25
117 114 25
116 111 32
125 118 25
127 123 32
116 111 28
119 114 34
122 116 28
123 118 25
122 120 16
129 125 32
127 126 19
124 124 19
131 134 32
134 134 25
128 132 16
148 153 16
147 158 11
148 157 0
151 163 11
152 161 0
160 171 0
155 166 0
151 162 0
151 163 0
163 179 0
161 174 0
161 173 0
162 178 0
161 175 0
166 180 0
165 181 0
162 178 0
158 173 0
166 180 0
166 185 0
159 172 0
161 174 0
169 184 0
163 179 0
167 184 0
163 179 0
166 183 0
163 180 0
160 176 0
171 190 0
163 180 0
162 178 0
166 185 0
167 185 0
179 200 105
177 199 92
176 199 88
180 201 88
183 205 111
184 205 117
182 204 111
185 207 128
186 206 128
190 210 133
190 210 144
188 209 133
194 213 159
191 211 149
190 210 153
195 214 165
193 212 159
197 215 179
200 217 181
195 214 171
198 217 179
198 216 177
200 218 186
198 216 186
196 215 175
194 213 165
192 212 159
198 217 181
194 212 169
199 217 188
199 217 186
199 218 188
204 222 201
200 218 186
197 216 182
201 219 191
200 218 186
199 217 188
204 222 203
202 220 194
205 222 207
208 225 217
203 221 198
201 219 191
198 216 181
205 222 201
203 221 199
199 218 186
196 214 163
202 220 194
196 215 171
200 218 181
194 214 167
197 215 173
194 213 163
201 219 188
196 214 165
189 209 142
193 212 157
187 207 142
193 212 159
190 210 149
185 206 120
190 210 142
185 205 122
188 208 125
186 207 117
183 205 117
180 201 102
182 204 117
180 201 102
174 197 72
179 201 99
175 196 88
176 198 90
169 191 111
155 177 137
149 172 113
132 156 130
127 151 124
121 146 125
111 137 121
117 142 115
117 143 116
124 149 125
102 130 127
98 126 127
93 122 134
85 115 134
80 110 143
86 116 137
89 118 139
72 104 145
70 103 150
67 100 148
63 98 148
68 102 156
61 97 159
61 96 154
63 98 159
60 96 153
61 97 164
61 97 157
61 97 156
61 96 158
59 95 151
61 97 161
60 96 155
60 96 160
61 97 158
61 96 155
60 95 148
61 97 165
61 97 156
60 96 162
62 98 160
61 97 166
61 97 163
61 97 163
61 96 158
61 97 160
61 98 163
62 98 163
62 99 175
61 97 162
62 98 167
61 98 159
61 97 166
61 97 164
62 98 167
62 98 167
61 98 167
62 98 164
61 97 163
61 98 161
62 98 170
62 98 168
62 98 166
61 97 166
61 98 162
62 98 169
61 97 159
61 97 167
62 98 169
61 97 161
61 98 167
62 98 167
62 98 166
61 97 164
62 98 161
61 97 163
62 98 166
62 98 165
61 97 163
62 98 164
62 98 160
61 98 166
62 99 166
62 98 165
62 98 166
63 99 170
61 97 161
63 99 171
62 98 160
61 98 165
62 99 169
62 98 166
62 98 163
63 99 165
60 96 157
62 98 166
62 98 165
62 98 165
61 97 156
61 97 161
62 98 166
62 98 163
63 99 165
62 98 162
61 97 158
62 99 164
62 98 166
62 98 164
62 99 167
62 98 161
61 97 157
62 98 162
61 98 162
61 97 157
62 99 165
62 98 164
63 99 168
62 98 162
62 98 160
62 98 159
62 98 158
62 98 166
62 98 163
62 98 161
62 98 165
62 98 166
62 98 163
62 98 160
61 97 155
63 99 167
62 98 160
62 97 156
62 98 159
62 98 155
62 98 163
62 98 158
62 98 161
63 99 170
61 97 154
62 98 156
61 97 158
62 98 157
62 98 164
62 97 161
61 97 156
61 97 158
62 98 157
62 98 158
61 97 155
62 98 159
62 97 158
62 98 164
62 98 162
61 96 159
61 97 152
61 97 155
61 97 161
62 98 163
62 97 160
63 99 167
61 97 148
62 98 155
61 96 152
62 97 155
60 96 150
62 98 158
61 97 147
62 97 156
62 97 153
61 96 145
62 98 157
62 98 155
61 96 147
61 97 150
60 96 152
61 96 152
60 94 147
60 95 146
60 94 142
61 96 145
61 96 144
60 95 140
61 96 143
60 96 143
60 94 145
59 93 139
60 94 143
56 88 117
56 88 122
83 99 98
100 106 46
122 127 16
105 106 0
89 90 8
97 95 0
94 93 14
97 97 16
84 83 0
88 84 16
87 84 0
80 76 11
83 79 12
84 83 0
86 83 8
94 92 14
96 95 1
79 78 8
92 91 8
90 88 12
90 87 14
89 87 0
80 79 8
106 103 18
106 103 11
98 94 0
95 94 14
111 108 8
103 101 16
91 89 14
110 106 18
104 104 31
98 97 21
111 108 19
107 104 14
111 110 21
117 114 18
118 115 21
101 98 24
115 110 25
113 110 16
113 109 16
107 105 21
115 110 29
127 123 29
111 108 18
113 110 16
117 112 19
124 121 28
113 110 28
128 123 30
122 118 25
122 118 28
120 117 16
124 119 26
122 119 30
127 122 22
130 126 28
128 122 28
133 129 32
124 119 16
121 117 24
131 128 22
132 127 32
128 124 31
126 120 28
123 120 16
134 130 28
121 118 25
138 134 30
133 127 28
126 121 19
121 116 32
124 118 32
132 128 32
124 119 25
124 122 22
128 124 30
130 123 25
125 121 25
128 123 34
123 117 16
130 126 28
116 110 30
127 123 28
124 119 25
119 116 25
136 131 28
121 118 25
126 119 22
128 123 19
129 124 32
119 114 22
126 122 30
121 119 16
126 124 19
136 135 19
137 135 28
129 131 25
132 133 16
139 145 0
141 148 16
141 148 0
144 152 19
151 160 0
150 157 16
155 167 11
158 169 0
160 172 0
157 169 0
160 173 0
159 173 0
162 176 0
157 170 0
158 172 0
161 174 0
161 174 0
168 185 0
164 180 0
164 180 0
161 175 0
165 181 0
162 179 0
158 171 0
163 179 0
159 174 0
162 178 0
166 182 0
162 180 0
166 183 0
166 183 0
163 178 0
165 183 0
165 184 0
162 180 0
164 182 0
179 201 105
183 204 111
182 203 108
184 205 120
188 209 137
188 209 133
188 208 140
188 208 135
189 209 147
191 211 147
193 212 155
188 209 144
196 215 173
193 213 163
196 214 171
200 218 182
195 215 169
200 218 189
202 220 191
199 218 186
202 220 194
203 220 199
200 218 193
201 219 184
196 215 181
206 223 211
203 221 201
202 220 196
202 220 196
202 219 194
207 224 215
201 219 194
204 221 201
206 224 214
206 223 211
208 225 220
208 225 217
205 222 211
206 223 212
202 219 199
201 219 194
205 222 211
208 225 215
207 224 214
206 224 212
203 221 203
207 224 211
205 222 207
202 220 198
202 220 203
203 221 196
201 220 194
201 219 188
202 220 193
201 219 188
201 218 186
194 213 173
197 216 177
198 216 177
193 212 165
192 212 155
195 213 155
190 209 151
193 212 157
189 209 144
190 210 149
187 207 128
186 207 130
184 204 117
183 204 120
181 202 102
179 201 88
179 201 102
175 197 107
169 192 74
158 181 129
142 165 124
134 158 131
124 148 149
138 162 135
122 145 145
120 145 136
105 132 144
112 138 134
102 129 130
104 131 129
102 129 130
91 120 121
88 117 132
91 119 133
85 116 143
69 102 135
78 109 139
71 104 152
79 109 146
67 100 150
63 98 154
63 98 155
66 100 157
61 96 156
61 96 158
62 98 164
60 96 152
62 98 161
61 97 157
60 95 152
61 97 160
61 98 163
61 97 164
61 97 160
62 98 165
60 96 154
61 97 162
61 97 157
60 96 152
61 97 157
60 97 162
61 97 159
61 98 164
62 97 162
61 96 157
61 97 159
61 97 159
61 97 159
62 97 162
61 97 164
62 98 162
61 97 160
61 97 166
62 99 172
61 96 162
61 97 158
61 97 162
62 98 167
61 97 167
62 97 160
60 96 157
62 98 168
60 96 161
61 97 167
61 97 164
62 99 169
61 97 162
62 98 165
61 98 168
61 97 163
62 99 175
62 98 166
62 98 165
61 97 158
61 98 165
61 98 166
62 98 163
62 98 168
61 96 163
61 98 163
62 98 160
61 98 163
61 97 164
61 97 165
62 98 164
62 98 165
62 98 163
62 98 165
61 98 161
62 98 165
62 98 163
62 98 165
61 97 158
62 98 162
62 98 164
60 96 156
61 97 159
61 98 159
62 98 163
61 98 162
62 99 164
61 98 164
62 98 162
62 99 169
62 98 162
62 98 162
62 99 168
62 98 165
63 99 169
62 98 167
61 98 162
61 97 159
62 98 162
62 98 164
62 98 163
61 97 161
63 99 160
61 97 155
61 97 153
62 98 159
62 98 168
62 98 165
62 98 161
61 97 159
62 99 166
62 98 164
62 98 162
61 97 160
62 98 165
63 99 164
62 98 164
62 99 166
61 97 156
62 98 164
61 97 159
62 98 156
61 97 160
62 98 158
62 98 158
62 98 161
61 97 154
61 98 160
62 97 157
61 97 154
61 98 159
62 98 158
62 98 161
62 98 154
62 98 158
61 97 156
61 97 159
61 96 144
62 98 154
62 98 156
61 97 157
62 98 160
62 97 156
61 97 154
60 96 141
61 98 158
61 97 155
62 97 153
61 97 154
61 96 147
61 97 153
62 97 155
60 95 148
61 96 156
62 97 154
62 97 154
61 97 145
60 96 148
61 96 146
60 95 142
62 98 158
60 95 145
60 95 141
61 95 145
61 96 154
61 96 148
61 95 144
58 92 142
61 96 150
61 95 141
60 94 139
60 93 137
58 91 137
57 89 119
88 105 93
117 123 40
108 111 8
114 117 11
110 111 0
113 115 11
107 108 0
99 96 11
94 90 11
86 80 16
79 78 11
86 83 3
84 81 11
87 84 8
80 77 0
90 85 8
80 76 8
89 85 8
92 87 8
93 88 14
88 85 8
82 82 11
92 88 14
90 87 0
100 97 8
98 95 14
97 93 12
98 95 0
96 94 12
103 99 11
103 99 14
102 98 11
108 107 8
117 114 18
107 105 23
95 94 18
122 119 21
116 115 16
100 97 8
106 104 14
112 109 25
111 107 19
107 105 16
111 106 28
115 111 22
115 112 22
117 112 26
117 114 18
116 111 22
113 109 11
122 118 25
121 117 32
108 105 22
131 126 29
133 129 34
118 113 29
126 122 22
126 123 25
127 123 24
131 126 26
126 120 30
127 125 28
137 132 34
128 124 28
126 120 39
127 121 30
128 123 28
130 125 36
135 131 32
121 116 25
129 124 19
133 127 19
131 125 19
124 118 22
132 128 28
132 127 28
124 118 28
138 131 34
131 126 25
130 125 25
122 117 25
127 122 30
120 115 28
125 120 32
117 113 19
121 116 22
123 118 34
121 114 28
122 117 25
118 114 25
128 123 25
123 118 25
118 116 16
122 118 22
120 118 16
126 123 22
127 125 22
132 132 22
137 142 11
135 138 11
147 155 0
138 147 0
154 160 11
150 161 0
156 166 11
151 163 0
157 168 0
159 170 0
159 173 0
159 167 0
156 168 0
161 175 0
153 166 0
162 178 0
161 176 0
159 170 0
162 178 0
158 170 0
164 180 0
161 174 0
165 182 0
158 173 0
162 178 0
166 181 0
165 180 0
162 176 0
165 183 0
164 182 0
161 174 0
163 180 0
163 179 0
164 179 0
170 188 0
166 183 0
162 180 0
167 186 0
183 205 111
181 203 108
186 206 133
184 205 128
183 204 102
191 210 149
192 212 151
194 213 161
193 213 165
193 213 159
197 216 177
195 215 173
196 214 171
198 216 181
198 217 181
198 217 179
201 219 186
200 218 188
202 219 193
199 218 189
203 220 198
199 217 184
204 222 201
204 222 206
205 223 207
203 221 199
207 224 214
207 224 212
208 226 221
201 220 203
206 223 209
204 222 209
202 220 201
210 227 226
207 225 223
210 226 226
209 226 227
204 222 203
206 223 212
205 223 211
209 226 223
210 227 227
208 225 218
204 222 209
206 224 212
204 222 204
205 223 207
207 224 224
206 223 211
206 223 214
208 225 214
207 224 211
202 220 199
201 219 194
205 222 207
202 219 193
202 220 194
202 220 194
198 216 179
199 217 188
199 217 181
200 218 182
196 214 167
193 212 159
189 209 140
192 212 153
193 212 157
185 205 128
187 207 135
187 207 128
184 204 120
181 203 95
182 202 118
174 197 97
173 194 121
148 171 136
144 166 161
126 151 152
125 149 152
128 151 140
115 140 144
104 130 134
111 138 154
105 132 139
111 136 131
102 129 130
104 131 135
94 123 136
95 124 139
89 119 149
92 121 139
81 111 147
83 113 142
80 111 148
70 103 149
72 105 149
72 105 153
74 106 149
65 99 149
67 101 151
61 96 156
60 95 145
60 96 158
61 97 158
60 95 155
62 97 155
62 98 166
60 97 161
61 97 166
61 98 167
61 97 159
62 98 168
62 98 160
61 97 162
61 97 164
61 97 165
61 97 162
61 96 156
61 97 160
61 97 160
60 96 159
61 97 163
61 98 168
61 97 159
61 97 162
62 98 162
62 99 170
60 96 162
62 98 165
60 96 157
61 96 157
61 98 162
61 97 159
62 98 166
61 97 162
61 97 160
62 97 152
61 97 159
61 98 163
62 98 159
62 99 167
61 97 163
62 98 167
61 97 161
60 96 161
62 98 165
61 97 161
61 98 166
61 97 160
62 98 162
61 98 163
62 98 163
61 97 162
62 99 167
62 99 166
61 97 160
63 99 171
62 98 159
62 98 167
62 98 159
62 98 162
63 99 167
62 98 165
62 98 169
62 98 162
61 97 164
62 98 158
61 97 157
62 98 159
62 98 165
61 97 158
62 98 163
62 98 166
61 98 160
61 97 161
62 99 167
62 98 157
62 98 164
62 98 164
61 97 157
62 98 162
61 97 167
62 98 158
61 98 163
62 98 161
62 97 158
62 99 165
62 98 164
62 98 163
61 97 157
61 97 160
61 97 158
61 97 157
63 99 165
61 97 158
62 98 166
61 97 159
62 98 165
62 98 162
62 98 160
62 98 162
62 99 172
62 98 163
62 98 162
62 97 151
61 97 159
62 98 164
62 98 159
62 98 159
63 99 166
61 97 158
62 98 163
63 98 163
63 99 160
62 98 163
62 98 157
62 98 159
62 98 162
62 98 157
62 98 160
62 97 158
61 97 144
60 96 148
61 97 157
62 98 163
62 98 158
62 98 160
61 97 154
61 97 154
62 98 156
61 97 154
62 98 154
61 97 151
61 97 154
61 96 147
62 98 160
62 98 156
61 96 154
60 96 150
61 96 147
62 97 155
60 96 153
62 97 158
62 98 157
61 96 147
61 95 142
61 97 153
62 97 158
61 97 158
61 96 148
62 98 149
61 96 148
61 97 150
60 95 145
60 94 139
59 93 146
60 94 143
59 94 139
60 94 144
58 91 137
60 93 141
58 91 129
60 93 135
60 92 133
97 111 96
108 114 44
121 122 0
105 108 0
117 122 0
104 105 0
104 106 0
100 104 11
106 109 11
94 93 11
83 83 14
88 86 0
82 79 0
79 75 0
82 79 3
75 70 3
83 80 8
87 84 11
82 80 8
81 78 0
87 84 8
79 78 8
94 90 0
94 91 8
97 95 0
94 92 12
89 87 8
94 92 0
103 100 11
86 84 11
108 103 12
109 105 3
105 100 11
102 99 12
107 105 16
106 104 14
113 110 0
111 108 3
102 100 16
108 104 11
106 103 22
102 100 14
116 113 14
114 110 16
112 109 22
116 113 16
119 115 21
119 114 25
111 108 16
123 120 31
125 121 19
131 126 25
125 120 25
117 112 22
126 120 28
128 123 28
126 121 32
133 129 37
125 122 26
122 118 24
130 125 28
121 117 16
119 115 25
124 120 22
125 120 30
122 117 19
125 122 19
128 124 30
125 120 19
126 123 19
117 114 22
124 120 22
124 121 22
127 122 16
124 118 22
125 118 19
127 122 34
130 125 30
130 125 16
126 120 34
119 114 28
117 112 19
126 121 28
116 111 25
115 110 22
121 117 28
115 111 25
123 115 22
117 113 28
124 118 19
117 113 22
122 118 16
123 123 16
124 121 28
134 134 19
119 120 19
125 126 16
133 135 28
141 147 0
138 145 11
144 154 11
143 150 11
157 167 11
155 165 0
151 162 0
151 160 0
153 165 0
154 166 0
162 175 0
159 170 0
158 172 0
159 171 0
164 177 0
166 181 0
160 174 0
162 177 0
160 174 0
160 172 0
159 173 0
158 169 0
162 178 0
160 175 0
166 180 0
163 180 0
167 186 0
163 179 0
163 180 0
163 182 0
161 178 0
162 178 0
165 181 0
166 185 0
163 178 0
167 186 0
163 177 0
163 178 0
183 204 117
191 211 149
191 211 144
193 212 159
196 215 173
189 209 153
194 214 165
191 210 157
197 216 177
194 213 167
201 219 191
195 214 169
199 218 188
201 219 193
202 221 201
202 220 198
203 220 198
202 219 188
204 222 203
203 221 199
206 223 209
201 219 191
202 220 203
203 221 198
212 229 234
208 225 220
208 225 215
206 224 214
209 226 221
209 226 220
210 227 226
211 228 230
210 227 228
210 227 230
207 224 215
206 224 220
209 226 221
209 226 224
208 225 221
210 227 228
209 226 226
210 227 224
208 225 218
210 227 227
210 227 230
206 223 214
209 226 227
208 225 218
208 225 218
207 224 215
211 228 228
207 224 215
210 227 223
206 223 211
206 223 211
204 221 209
206 223 211
202 220 196
199 218 184
203 221 198
202 220 191
203 220 201
199 218 182
194 213 163
197 216 179
194 213 167
198 216 173
194 213 159
189 209 142
191 210 147
189 210 140
192 211 151
188 208 135
179 200 134
157 179 140
139 163 147
135 158 158
128 152 160
114 138 170
115 141 156
99 127 151
110 136 153
98 125 145
106 132 142
104 131 145
98 125 135
93 122 149
94 123 141
91 119 133
99 127 142
89 118 140
81 113 151
80 111 147
81 112 143
84 113 146
72 105 152
71 104 149
76 108 147
69 102 151
65 100 151
64 99 157
66 101 158
65 99 155
60 95 148
61 97 158
59 94 154
60 96 163
61 97 165
62 98 161
61 97 161
61 98 161
61 96 160
60 96 158
60 96 160
60 96 162
61 97 157
61 97 162
60 96 160
61 98 165
62 98 168
60 95 154
61 98 162
62 98 163
62 98 168
60 96 162
61 97 164
62 98 162
62 97 162
60 96 162
62 98 167
62 98 159
62 98 168
62 97 161
62 98 169
60 96 154
62 98 164
62 98 163
61 97 162
61 97 162
62 98 159
61 97 161
62 99 170
61 97 159
61 98 163
61 98 163
62 98 164
60 97 158
62 98 160
62 98 164
61 98 165
62 98 157
62 98 169
61 97 156
61 97 169
62 98 165
61 97 160
62 98 161
61 98 167
61 97 155
62 98 165
61 97 160
61 97 159
62 99 170
61 98 159
61 97 164
62 98 164
61 98 164
61 97 164
62 98 166
61 98 166
61 98 162
62 98 162
62 98 163
61 97 157
62 98 165
61 97 161
61 97 156
61 97 154
61 98 158
63 99 167
63 99 167
61 97 157
61 98 159
62 98 164
62 98 164
62 98 164
63 99 166
62 98 162
61 97 161
62 98 161
61 98 161
62 98 160
62 98 160
62 98 158
63 98 159
61 97 162
62 98 162
62 98 167
62 97 156
61 97 157
62 98 159
62 98 161
62 98 161
61 96 152
62 98 163
62 98 163
62 98 156
62 98 156
62 98 161
62 98 160
62 97 156
62 98 154
61 97 156
61 97 160
60 96 151
62 98 160
62 98 161
62 97 151
62 98 158
61 97 159
61 97 156
62 98 162
62 98 152
61 97 149
61 97 151
62 97 155
62 98 153
61 97 151
61 97 154
61 97 153
61 97 158
62 98 158
61 96 151
62 97 160
61 97 153
62 98 153
61 97 156
62 98 154
62 97 150
61 97 157
61 97 153
61 97 152
61 97 151
61 95 148
61 97 155
61 97 155
61 97 152
59 94 140
61 96 143
60 94 147
61 96 145
62 97 151
61 96 149
60 94 141
59 93 146
60 94 142
60 95 140
59 93 134
60 94 146
59 93 128
57 90 133
60 93 137
60 93 139
62 88 108
103 118 79
113 117 26
110 115 0
110 112 0
114 118 0
114 119 0
95 96 0
106 112 11
94 94 14
88 89 11
89 87 0
95 91 22
82 78 11
87 85 11
97 91 11
81 77 14
94 88 11
87 82 16
101 97 14
82 80 0
94 92 0
95 88 0
98 92 0
97 93 8
86 83 0
95 94 3
92 88 18
99 95 8
80 77 8
103 99 3
96 93 0
106 103 11
110 107 19
107 103 11
112 109 14
100 98 11
118 114 11
100 97 14
107 105 12
105 102 8
116 114 11
118 113 27
106 102 16
115 111 19
112 108 11
117 113 14
117 113 19
117 111 21
118 113 19
121 117 25
121 115 24
111 109 11
116 112 11
128 124 25
125 120 22
126 121 28
125 122 22
119 114 19
127 123 16
119 115 11
126 121 19
119 115 28
117 112 11
127 122 28
136 130 28
121 117 19
121 117 28
129 125 22
118 114 22
124 120 16
124 119 25
121 118 19
115 110 19
117 112 22
127 122 19
120 115 16
128 123 19
122 117 34
124 120 25
123 118 22
113 109 25
120 114 19
127 121 22
115 110 25
124 119 19
123 116 25
119 114 25
115 110 0
126 121 19
116 111 22
121 117 16
112 110 0
124 123 16
132 134 25
127 125 28
137 137 25
135 141 19
128 131 19
149 156 19
143 148 0
152 158 11
144 151 0
146 156 11
153 163 0
155 168 0
152 162 0
151 162 0
156 168 0
157 167 0
157 168 0
160 173 0
151 163 0
159 172 0
152 165 0
158 171 0
163 179 0
164 179 0
163 178 0
161 177 0
167 184 0
163 179 0
165 181 0
165 181 0
161 174 0
159 177 0
163 181 0
162 179 0
165 182 0
164 180 0
161 179 0
165 182 0
164 180 0
162 180 0
165 181 0
163 180 0
163 179 0
188 208 135
189 209 153
189 209 142
195 215 167
196 215 171
196 215 171
204 221 199
195 214 173
200 218 186
204 222 204
200 219 193
202 220 198
203 221 204
205 222 204
202 220 203
205 223 207
203 221 203
210 226 223
207 225 220
205 223 212
210 227 227
204 223 211
210 227 227
211 227 228
206 224 218
209 226 227
212 229 236
210 227 230
208 225 220
209 226 227
213 230 241
212 229 237
214 231 244
214 230 244
210 227 233
210 227 231
212 229 238
212 229 240
212 229 237
212 229 237
213 230 238
212 229 234
212 229 237
213 229 237
209 226 227
210 227 230
213 229 238
210 227 228
209 226 227
212 229 234
209 226 228
213 229 236
208 225 217
210 227 231
210 226 224
212 228 231
208 225 218
204 222 204
206 223 211
206 223 212
205 222 201
204 222 203
206 223 209
201 219 189
204 222 203
201 219 193
201 219 191
197 216 177
194 213 163
201 219 186
192 211 157
187 207 137
189 208 142
178 198 142
164 185 164
138 159 176
122 146 173
115 140 171
112 137 174
107 133 166
99 126 167
101 128 162
107 132 160
84 114 149
85 115 151
85 115 151
85 115 154
84 114 144
84 115 152
92 122 137
96 123 140
88 117 145
79 110 141
85 115 141
81 111 138
84 114 140
72 105 148
68 102 148
69 102 151
68 102 155
69 102 148
69 101 152
63 98 149
63 97 155
60 96 156
61 96 147
60 96 158
59 95 155
61 97 155
60 96 160
61 98 161
61 97 160
60 95 153
60 96 155
61 96 159
62 98 162
61 97 158
61 96 162
60 96 158
62 98 164
61 97 165
62 98 165
60 96 160
61 97 157
62 98 165
61 97 164
62 98 159
61 97 163
61 97 160
61 97 162
61 97 160
61 97 161
60 95 152
61 97 161
61 97 161
61 97 158
61 97 158
63 99 167
61 97 162
61 97 165
62 98 167
62 99 168
62 98 166
61 98 163
62 98 165
61 97 162
63 99 167
61 97 158
61 97 168
62 98 161
61 96 153
62 98 164
62 98 163
62 98 161
61 97 162
61 97 159
61 97 164
61 98 160
62 98 161
62 98 164
62 98 165
63 99 169
62 98 165
61 97 159
62 98 166
61 97 165
62 98 160
61 97 159
62 98 164
62 99 168
62 98 163
61 98 160
62 98 166
62 97 159
62 98 161
61 97 155
62 98 162
61 97 157
61 97 156
62 98 162
61 97 161
62 98 164
61 97 162
61 97 161
61 97 162
62 98 161
62 98 165
61 98 162
61 97 157
63 99 164
61 98 161
62 98 164
62 98 167
62 98 158
61 98 161
62 98 163
61 97 154
61 96 153
62 98 157
63 99 167
63 99 166
63 99 165
62 98 160
62 99 163
62 98 159
62 99 166
62 98 164
62 98 162
62 97 160
61 97 160
62 98 162
63 98 161
61 97 160
61 97 150
62 97 154
61 97 158
61 96 149
61 97 152
61 97 156
62 99 165
61 97 151
62 97 154
62 98 163
62 98 160
62 97 152
61 97 156
62 98 160
62 97 156
62 98 160
61 96 156
61 96 154
61 96 153
61 97 150
61 97 158
62 98 162
62 98 159
60 96 151
62 97 150
62 97 157
62 98 156
61 97 156
62 98 156
61 96 150
62 97 158
63 98 161
61 96 143
60 95 147
61 97 158
60 96 147
61 96 145
60 95 148
61 96 149
61 95 146
61 96 152
59 94 137
61 96 142
61 95 139
59 94 141
59 92 133
60 94 142
60 94 140
58 91 133
57 89 129
66 91 109
98 115 73
122 124 31
112 117 0
116 120 0
121 126 0
110 113 0
117 121 11
104 105 0
99 100 11
102 105 0
92 91 11
106 106 11
79 77 0
87 82 11
88 87 0
80 78 0
79 76 8
99 93 0
75 74 8
79 77 0
91 87 8
91 87 8
88 84 8
92 89 11
87 83 3
97 93 14
92 87 8
97 93 0
96 93 0
97 94 8
85 82 18
100 96 0
101 98 11
98 93 0
90 87 11
108 104 14
101 101 8
112 107 11
103 101 16
108 104 0
114 110 0
103 102 8
120 115 14
110 106 11
106 103 18
113 110 11
109 106 11
117 111 19
118 114 16
113 108 19
121 119 21
114 110 0
113 108 19
123 120 19
120 116 28
120 114 24
126 122 21
121 117 16
126 122 22
124 119 25
129 124 25
116 111 19
123 118 19
115 110 25
124 119 25
117 112 16
118 114 28
122 119 11
125 119 22
125 121 19
117 111 16
113 108 16
122 117 16
118 112 22
121 115 16
121 114 19
121 116 30
118 113 16
121 116 22
112 108 16
117 111 11
118 114 22
126 119 25
119 113 19
127 122 22
118 114 22
125 120 22
116 113 19
114 109 28
120 118 25
124 125 16
131 132 16
123 122 11
134 137 11
127 127 0
141 144 0
139 146 16
150 159 0
141 152 0
139 144 16
155 164 0
152 162 0
153 162 0
150 159 0
150 162 0
150 159 0
159 170 0
152 164 0
157 166 0
156 167 0
159 173 0
154 163 0
164 178 0
152 162 0
158 173 0
159 174 0
161 177 0
161 174 0
158 173 0
160 174 0
159 174 0
163 178 0
160 176 0
163 178 0
161 176 0
160 177 0
163 179 0
164 179 0
162 179 0
168 186 0
166 184 0
167 186 0
167 184 0
162 180 0
166 186 0
167 184 0
195 214 161
195 214 165
198 216 182
200 219 188
200 218 181
199 217 186
198 217 177
201 219 189
202 220 194
207 224 214
206 223 209
208 225 218
207 225 218
206 224 215
210 227 226
207 224 218
209 226 221
206 224 214
208 225 218
211 228 234
209 226 223
211 228 237
210 228 233
211 228 233
211 228 236
211 228 237
214 231 245
211 229 238
212 229 240
212 229 238
212 229 238
213 230 242
214 231 245
212 229 240
211 229 238
212 229 238
211 228 238
211 229 238
214 231 245
211 229 240
213 230 248
215 231 249
213 230 245
214 231 248
213 230 241
214 230 245
212 229 236
213 230 242
213 229 241
210 227 231
211 228 233
210 227 231
212 229 237
213 229 234
215 231 244
215 231 244
213 229 234
210 227 227
212 229 234
211 228 228
212 228 231
209 226 220
204 222 206
207 224 214
208 224 212
203 220 198
203 221 194
200 218 189
200 219 188
201 219 189
197 215 169
192 211 155
195 213 181
175 195 155
162 181 179
130 151 188
121 145 182
105 130 179
100 126 174
93 120 161
90 119 171
95 122 161
92 121 164
93 120 167
83 114 148
71 105 163
88 117 157
83 113 152
83 113 154
95 124 140
82 113 153
84 113 134
81 112 157
88 117 144
77 109 151
81 112 148
77 108 147
80 111 147
69 103 157
78 109 145
69 103 156
63 98 155
59 94 149
63 98 154
61 97 159
61 95 153
64 99 159
61 97 164
61 96 152
61 97 159
60 96 156
60 96 157
60 96 155
60 96 162
61 97 167
60 96 152
60 96 156
60 96 157
61 97 157
61 97 159
61 97 162
61 97 162
61 97 164
61 97 160
61 96 157
61 97 159
61 97 163
60 96 157
61 97 161
62 97 164
61 98 166
61 97 162
61 98 168
61 97 159
61 97 164
62 98 167
60 96 158
61 97 162
61 97 159
61 97 154
60 97 160
62 98 164
62 99 169
62 98 162
62 98 169
62 98 167
62 98 159
62 98 160
61 97 166
62 98 163
62 97 158
61 97 158
61 96 152
62 98 158
61 98 161
61 97 161
62 98 161
63 99 169
61 97 156
61 98 159
60 96 156
61 97 160
63 99 167
61 97 160
62 97 158
61 97 162
61 98 162
63 99 167
62 99 166
62 98 160
62 98 158
62 98 161
62 98 162
61 98 165
62 97 158
62 97 156
61 97 158
63 99 166
62 98 159
60 96 152
60 96 155
62 99 166
62 98 161
61 97 161
62 98 159
62 98 158
62 98 161
62 98 161
61 97 159
61 97 156
62 97 155
61 97 157
61 97 156
61 98 160
62 98 160
61 97 156
60 96 153
61 97 159
61 97 159
61 97 154
62 98 162
62 98 159
61 97 153
62 98 160
62 98 159
61 97 156
61 97 152
62 98 160
62 98 157
61 97 153
60 96 142
62 97 152
62 98 162
61 96 154
62 98 156
62 98 162
62 98 163
62 98 163
61 96 152
61 97 158
62 98 163
60 96 150
62 97 153
62 97 155
61 97 154
62 99 167
61 97 147
62 98 162
63 99 162
62 98 156
61 97 155
62 98 161
61 97 153
61 96 152
61 97 149
60 95 147
62 98 157
62 97 145
60 95 148
60 96 149
61 97 152
60 95 146
61 96 149
62 97 151
62 98 160
60 95 143
61 96 143
61 97 147
60 95 149
61 96 150
61 96 152
60 94 133
61 96 142
60 95 146
60 95 142
59 93 129
61 96 144
61 96 149
60 94 145
58 92 141
60 93 134
59 92 133
60 91 133
74 98 122
109 117 47
115 120 18
121 126 0
98 103 0
123 128 0
131 137 0
108 109 0
116 121 0
103 105 16
96 98 0
92 93 11
107 106 0
90 90 11
99 98 0
108 107 11
96 95 0
91 88 0
87 84 11
90 87 8
91 87 0
92 88 0
104 97 0
91 87 0
88 86 0
88 83 3
88 85 0
103 99 0
102 97 0
90 86 8
101 98 11
96 92 16
106 101 8
90 87 8
104 100 0
101 98 0
106 102 14
109 105 0
104 100 0
103 103 11
106 103 0
102 99 14
108 104 11
109 106 19
113 108 14
108 104 8
120 116 16
121 116 16
119 115 16
111 107 8
110 107 18
111 107 16
113 110 18
118 112 21
115 111 19
122 118 16
113 110 16
120 117 18
122 117 0
114 111 16
111 107 19
116 111 11
118 113 16
119 115 16
116 112 11
117 113 11
117 111 19
118 115 16
121 116 25
123 118 16
116 111 11
119 115 19
117 113 16
123 119 19
121 114 22
125 121 25
116 111 19
125 120 11
121 116 19
119 115 19
124 119 25
116 108 25
111 106 19
117 112 16
107 104 11
118 113 11
125 122 22
109 104 16
118 115 16
133 130 19
114 112 16
126 128 16
130 130 16
136 138 19
129 130 0
139 142 11
139 146 11
144 152 0
141 146 0
142 147 0
145 153 0
160 172 0
155 166 0
156 167 0
150 160 0
151 158 0
157 166 0
160 172 0
156 168 0
161 173 0
158 171 0
158 169 0
162 176 0
161 176 0
160 172 0
159 172 0
160 173 0
163 178 0
161 178 0
158 173 0
161 173 0
167 181 0
160 173 0
163 179 0
159 173 0
165 179 0
165 182 0
162 176 0
168 186 0
162 178 0
166 183 0
164 180 0
167 183 0
165 182 0
164 182 0
168 186 0
165 184 0
195 215 177
200 218 189
201 219 188
200 219 189
202 219 201
203 221 203
207 224 212
202 220 201
201 220 196
205 223 207
207 224 220
208 226 223
206 224 217
210 227 230
210 227 227
211 228 233
209 226 230
210 227 231
209 227 230
213 230 242
211 228 238
210 228 234
212 229 240
214 231 248
214 231 246
213 230 245
212 229 242
213 230 246
214 231 249
214 231 248
213 230 249
213 230 248
212 229 245
214 231 252
214 231 249
215 232 252
214 231 249
213 231 249
214 231 250
213 230 248
215 232 250
215 231 250
215 232 252
212 229 245
215 232 252
216 232 252
215 231 250
215 231 248
217 233 255
213 230 244
214 231 246
214 231 246
214 230 246
216 232 248
212 228 238
214 230 240
214 230 242
214 230 242
212 229 236
212 229 237
214 230 237
207 225 221
213 229 234
211 227 226
207 225 217
209 226 220
209 225 215
205 222 206
207 224 211
209 225 215
199 218 188
200 218 186
195 214 180
189 207 194
150 170 183
133 155 189
116 140 181
110 135 178
108 133 181
101 128 182
96 123 174
85 115 172
89 118 173
89 118 158
90 119 171
77 109 156
68 102 154
69 103 164
79 109 145
76 109 156
74 106 156
68 102 157
72 105 153
88 118 152
75 107 147
77 109 151
86 116 149
70 104 151
74 106 145
85 116 144
74 106 144
69 102 144
63 98 159
67 101 148
60 95 151
64 99 148
60 95 153
61 96 158
60 95 154
61 97 160
59 94 147
60 96 159
61 97 163
60 96 153
59 94 148
60 96 157
59 95 151
60 95 152
61 97 156
61 97 162
61 97 155
60 96 159
61 97 160
61 97 162
61 97 166
61 97 166
61 97 159
61 98 165
60 96 155
60 96 157
61 97 158
62 98 166
62 98 164
62 98 163
62 98 169
62 98 167
61 96 159
62 98 160
62 98 165
62 98 157
62 98 167
61 98 166
62 98 169
62 98 166
61 97 157
61 98 165
62 98 167
63 99 166
61 97 159
61 97 160
61 97 159
61 97 161
61 97 163
61 97 161
61 97 157
61 97 159
61 97 157
62 99 166
61 97 160
62 98 164
61 98 165
61 97 157
61 97 158
63 99 168
61 97 159
60 96 154
62 98 159
62 98 163
61 97 155
62 98 162
61 98 161
61 96 156
62 98 165
62 98 159
61 98 160
61 98 163
62 98 157
61 97 156
62 98 163
62 98 161
63 99 166
61 97 160
62 98 164
61 97 160
62 98 163
62 98 163
62 98 163
61 97 153
62 98 159
62 98 160
62 98 162
62 97 159
61 97 155
61 98 162
62 98 161
62 98 160
61 97 156
62 97 157
62 98 167
62 98 164
61 97 159
61 97 152
61 97 157
62 98 162
62 98 161
61 97 160
61 97 159
62 98 155
62 98 159
62 98 161
61 97 151
62 98 157
61 97 158
62 98 158
62 98 158
61 96 154
61 97 155
62 98 153
61 97 158
62 98 158
61 97 152
62 97 159
62 98 159
62 98 158
62 97 156
62 98 158
61 97 158
61 97 156
61 96 148
61 97 149
61 96 153
62 98 160
62 97 154
62 98 157
61 96 140
60 95 147
62 97 150
62 97 152
61 97 153
61 97 147
62 97 151
60 95 136
61 96 147
61 96 152
61 96 150
61 96 150
61 96 145
61 96 152
62 97 151
61 95 142
62 96 149
60 95 143
60 94 134
60 95 138
60 94 141
59 93 141
61 95 151
59 92 138
60 94 142
59 93 136
59 92 130
60 93 135
59 89 118
80 99 94
116 125 45
115 123 18
121 125 0
103 110 0
115 122 0
124 130 0
109 113 0
108 109 0
113 117 0
106 111 0
119 120 0
95 91 0
99 97 0
109 107 11
98 99 11
96 93 12
93 90 11
85 81 0
81 79 0
87 84 0
82 78 11
86 82 0
69 65 0
101 97 3
92 88 8
88 85 0
85 81 0
97 94 3
89 85 11
102 98 0
84 80 8
98 94 0
99 94 0
90 87 8
99 95 8
106 103 8
111 104 8
103 99 3
103 99 8
103 101 8
99 97 0
112 107 8
105 100 0
111 108 11
121 116 0
113 108 0
107 102 11
119 115 8
113 111 0
114 109 0
118 113 16
106 103 0
110 106 11
120 115 11
107 103 16
107 104 14
114 112 0
111 108 0
120 115 16
119 114 22
115 109 16
111 105 16
120 115 11
115 111 0
121 117 16
122 117 22
119 114 11
125 121 22
110 106 0
119 114 19
118 114 16
128 122 19
115 110 0
107 104 11
116 110 16
116 111 19
113 108 16
125 120 22
118 114 0
130 125 22
118 114 0
116 109 0
117 111 22
112 106 0
117 115 19
121 117 22
128 123 11
121 120 19
127 127 25
120 123 16
124 125 16
128 131 0
141 147 0
137 143 16
144 151 0
149 156 11
143 149 11
151 161 0
150 156 11
157 169 0
149 156 0
151 164 0
156 167 0
157 168 0
155 165 0
158 170 0
156 168 0
158 171 0
156 169 0
159 171 0
156 168 0
154 167 0
160 172 0
159 169 0
159 173 0
160 171 0
158 170 0
164 180 0
165 181 0
162 176 0
165 180 0
163 176 0
168 187 0
157 171 0
166 183 0
164 178 0
164 179 0
163 182 0
166 184 0
163 181 0
161 175 0
166 182 0
160 175 0
161 178 0
158 175 0
163 181 0
202 220 198
203 220 196
202 220 198
204 221 198
203 221 206
207 224 218
204 222 206
207 224 215
210 227 226
208 225 220
207 225 221
209 226 228
208 225 223
207 225 224
210 227 230
213 230 242
208 226 228
212 229 242
213 231 248
214 231 249
211 229 240
213 230 248
213 230 244
214 231 250
212 230 246
214 231 252
215 232 252
213 231 249
214 231 250
213 230 252
214 231 254
211 229 248
213 230 249
214 231 254
214 231 250
213 230 248
213 230 249
213 230 250
215 232 255
215 232 254
212 230 249
213 231 250
213 230 250
214 231 253
214 231 252
212 230 249
212 230 248
211 229 245
213 231 252
214 231 249
215 232 252
215 232 253
215 232 253
214 231 249
214 231 249
214 231 249
215 232 249
213 230 245
215 231 244
217 233 252
212 229 237
214 230 242
216 232 245
214 230 238
213 229 234
209 226 221
210 227 226
212 228 231
208 225 217
209 226 220
206 223 209
206 223 209
202 219 202
182 201 196
156 176 200
147 167 196
130 152 194
109 133 184
103 128 177
100 127 181
96 124 172
96 123 165
94 122 168
88 117 169
90 119 175
73 107 167
77 109 170
68 102 153
72 105 161
70 103 159
60 96 151
74 106 145
71 103 151
68 102 157
81 112 145
79 110 136
81 112 146
84 114 140
80 111 147
77 108 139
76 108 143
79 110 147
77 109 147
64 99 157
63 98 151
62 98 160
66 100 150
62 97 153
60 95 150
60 95 151
61 97 161
61 96 163
61 97 156
60 96 155
60 96 155
60 96 155
60 95 157
61 97 160
62 98 160
61 97 157
61 97 160
61 97 161
61 96 156
62 98 165
60 96 159
60 96 153
61 96 158
61 98 164
60 95 158
61 97 160
62 98 165
62 98 168
61 97 157
59 95 157
62 98 165
61 98 167
60 97 159
61 97 166
61 97 163
61 97 162
61 97 157
62 98 166
62 98 170
62 97 158
61 97 161
61 97 164
61 97 164
61 97 158
61 97 156
62 98 169
61 97 161
61 97 160
62 98 162
63 99 169
62 98 160
62 98 166
61 97 156
62 98 168
61 96 153
61 97 160
62 98 165
62 98 166
61 97 158
62 98 159
62 98 166
61 98 159
62 98 161
62 98 160
61 98 162
60 96 153
61 98 163
61 97 159
62 98 162
61 97 161
60 96 147
61 97 158
62 98 160
62 98 165
61 97 150
61 96 150
61 97 160
62 98 166
62 98 157
62 98 165
62 99 167
61 97 164
61 98 161
61 98 165
62 98 163
62 98 156
62 98 163
62 98 161
62 98 162
62 98 157
62 98 167
62 98 165
61 97 155
62 98 155
62 97 154
60 96 151
62 98 161
62 99 167
62 98 156
62 98 157
61 97 154
62 98 154
62 98 160
61 97 158
61 97 153
62 98 153
61 96 150
61 97 155
62 99 164
61 96 147
62 98 158
64 99 164
62 98 159
63 98 159
60 96 149
62 98 160
61 97 158
61 97 154
61 97 156
62 98 155
61 97 151
61 96 147
61 97 154
62 97 151
62 98 159
62 98 158
61 97 149
61 96 148
61 97 152
62 97 152
61 96 147
61 97 155
61 97 153
61 97 149
60 95 148
61 97 150
61 97 150
61 97 151
60 96 153
61 97 148
61 96 147
61 96 149
61 96 146
61 96 142
62 97 152
60 95 147
61 96 147
60 95 144
61 96 152
61 96 145
61 96 145
60 95 140
60 95 147
60 94 147
60 94 133
61 96 142
58 90 131
60 94 140
72 98 116
87 104 89
110 117 36
126 133 0
122 130 0
123 127 0
119 124 0
117 121 0
110 114 0
113 117 0
113 117 0
113 115 11
104 107 0
113 115 11
101 98 0
92 91 0
90 91 0
93 91 0
96 96 0
95 94 0
85 84 0
93 93 8
77 74 0
97 93 19
92 88 0
94 91 0
86 84 11
95 93 11
85 82 8
104 99 11
101 95 0
93 89 11
93 90 11
95 91 8
82 78 0
88 85 0
100 97 0
91 88 0
112 105 0
107 101 0
93 90 0
104 98 11
108 103 0
105 101 0
117 110 8
109 104 0
101 97 0
111 108 0
108 102 11
111 106 19
108 105 12
107 102 16
111 106 11
115 110 11
106 103 11
115 110 16
118 113 22
117 112 11
112 108 11
110 104 11
121 116 16
118 112 11
109 106 19
120 115 16
118 112 16
121 118 11
119 114 0
116 110 11
111 106 16
127 121 30
120 116 16
110 104 16
110 105 16
123 118 16
115 109 16
117 111 19
110 104 11
119 114 16
115 110 19
121 114 28
120 115 19
113 107 11
122 118 11
112 109 19
116 114 0
121 118 11
116 115 19
132 130 22
122 119 16
120 122 0
130 130 22
119 119 19
142 145 16
131 132 11
131 134 11
141 145 0
142 147 0
149 155 0
146 154 11
144 153 0
156 165 0
156 167 0
156 167 0
152 163 0
153 162 0
156 166 0
149 159 0
160 170 0
157 168 0
158 169 0
151 163 0
159 170 0
154 165 0
157 170 0
162 176 0
164 180 0
157 168 0
163 177 0
160 173 0
165 180 0
159 174 0
160 175 0
161 174 0
163 178 0
160 177 0
159 173 0
164 179 0
163 181 0
164 181 0
163 178 0
166 184 0
164 179 0
166 182 0
161 178 0
161 180 0
164 178 0
170 187 0
166 184 0
202 220 194
201 219 196
203 220 204
203 221 207
206 224 215
209 225 224
210 227 230
208 225 218
209 226 228
212 229 236
210 228 233
207 225 223
211 228 234
211 228 236
213 230 241
210 228 238
211 228 240
211 229 241
212 230 245
213 230 250
213 230 248
213 230 246
212 229 245
213 231 253
212 230 245
213 231 252
211 229 252
211 229 246
213 231 253
213 231 252
210 229 248
213 231 250
213 231 252
213 231 252
211 229 248
212 229 246
213 231 253
211 229 245
211 229 245
212 229 245
210 228 244
208 226 242
213 231 253
212 229 244
213 230 248
212 230 246
211 229 242
213 230 250
212 229 248
212 229 249
214 231 253
214 231 250
215 232 253
214 231 250
212 230 244
213 230 250
214 231 249
215 231 249
216 232 252
215 232 253
216 232 250
217 232 252
217 233 254
217 232 250
214 230 242
215 231 242
212 229 236
212 228 236
215 230 238
209 225 220
210 227 223
208 224 214
204 221 221
195 212 223
163 182 212
154 173 211
136 157 196
107 133 183
117 142 189
104 130 182
95 123 176
84 114 168
88 118 176
79 111 170
87 116 171
81 112 163
83 113 171
66 101 163
84 114 173
70 103 161
63 98 157
74 106 161
67 101 159
66 100 154
65 100 157
71 105 151
73 105 150
75 107 154
77 108 152
70 103 149
71 104 151
74 107 150
73 104 144
73 105 150
69 103 164
65 99 141
61 96 153
64 99 152
63 98 155
61 97 153
64 99 150
62 98 165
62 97 158
60 96 159
60 96 158
60 95 155
59 95 147
60 96 162
62 98 163
61 97 160
62 97 159
61 97 167
61 97 162
61 97 162
60 95 152
61 97 153
60 96 160
61 97 164
61 98 164
61 97 160
60 96 160
62 98 163
61 97 161
60 96 151
61 97 162
61 97 160
61 97 159
62 98 161
61 97 159
61 97 155
62 98 165
61 97 160
62 98 160
62 98 164
62 98 160
62 97 159
62 98 162
61 97 156
61 97 158
61 97 154
61 96 157
61 98 162
61 97 160
62 98 161
61 97 159
61 97 158
61 97 153
61 98 165
61 97 160
62 98 161
63 99 164
62 98 163
62 97 153
62 98 160
62 98 160
62 98 163
62 98 162
62 99 168
61 97 157
62 98 161
61 97 159
62 98 157
62 98 158
61 97 153
62 98 162
62 98 160
61 97 156
61 96 153
63 99 167
62 98 160
62 98 164
62 98 161
62 99 165
62 98 157
63 99 163
62 98 163
62 98 164
62 98 162
61 97 160
62 98 159
61 97 157
62 98 157
62 98 159
61 97 157
62 98 160
62 98 158
61 96 151
62 98 166
61 98 160
61 97 149
61 97 157
62 97 160
62 98 161
62 98 162
62 98 158
62 98 161
62 98 160
61 97 150
62 98 162
61 97 159
61 97 155
63 99 162
62 98 157
62 98 163
62 98 157
62 97 151
62 97 152
61 97 158
62 98 160
62 97 159
62 98 158
62 98 154
62 98 155
61 97 153
61 96 152
62 97 153
61 96 153
61 97 153
61 97 156
62 98 160
61 96 150
61 97 149
61 96 153
62 98 154
62 98 158
61 96 153
61 97 153
63 98 156
61 96 149
60 95 147
62 98 153
62 97 158
61 97 150
60 95 146
61 96 145
60 95 149
61 95 137
61 96 150
62 97 156
61 96 142
60 96 148
60 95 141
62 97 156
59 93 140
60 93 134
59 93 133
59 94 138
60 94 135
60 94 133
59 92 134
59 93 134
59 93 135
68 94 112
93 107 84
114 122 31
111 113 0
111 116 0
110 116 0
102 108 0
111 118 0
129 135 0
109 114 0
109 111 0
112 116 0
108 109 0
107 107 0
110 111 11
109 111 0
105 103 0
98 98 0
103 104 0
90 91 0
91 88 0
72 70 0
84 80 0
92 88 11
91 88 0
87 83 0
93 90 0
86 83 0
91 87 0
90 86 8
77 74 0
85 81 0
103 98 0
94 91 8
100 94 8
95 92 0
87 85 0
102 95 0
98 94 8
102 96 0
90 86 0
101 98 0
112 108 0
105 100 8
105 101 0
108 103 0
113 109 0
101 97 0
110 105 0
116 112 0
112 109 8
104 98 0
110 104 8
106 101 16
114 111 0
114 108 11
107 103 11
110 105 16
109 104 0
109 104 0
117 113 11
110 106 0
118 113 16
117 112 0
118 114 11
119 115 0
115 110 16
113 109 16
110 105 11
112 106 0
116 112 0
113 108 11
114 107 19
117 112 19
117 111 11
109 104 11
114 107 0
109 104 0
117 111 11
113 108 16
104 99 16
111 107 11
118 115 19
109 106 16
114 111 16
130 133 11
126 121 11
126 127 11
129 131 0
125 127 0
130 134 0
140 140 19
143 145 19
128 132 0
142 144 0
143 149 0
150 158 11
149 157 0
153 163 0
148 153 0
155 163 0
152 161 0
147 156 0
159 170 0
157 166 0
150 161 0
159 169 0
159 169 0
153 164 0
159 171 0
154 164 0
156 168 0
160 171 0
161 176 0
157 169 0
163 174 0
163 176 0
162 175 0
159 171 0
163 177 0
159 171 0
158 172 0
155 169 0
161 177 0
155 167 0
156 171 0
154 167 0
161 175 0
160 176 0
159 172 0
162 178 0
160 177 0
161 177 0
164 179 0
162 179 0
167 186 0
168 187 0
167 186 0
200 219 198
204 222 204
211 228 233
205 223 214
211 228 231
206 224 217
210 227 233
210 228 234
212 229 240
209 227 230
212 229 241
212 229 240
211 228 240
213 230 248
211 229 242
211 228 244
212 230 248
212 230 249
212 230 246
213 230 250
212 230 250
211 229 246
213 230 250
214 231 252
209 227 241
212 230 248
210 228 244
212 230 250
212 230 246
208 225 240
212 230 246
211 229 245
207 225 240
209 227 242
209 227 234
213 230 250
211 228 242
210 228 237
208 226 237
208 226 237
212 229 248
213 230 245
211 229 244
208 225 238
212 229 246
211 228 241
209 227 237
212 230 248
209 227 238
211 229 244
213 230 248
211 228 245
212 229 246
213 230 249
211 229 244
212 230 245
212 230 245
213 230 249
214 231 249
215 231 250
215 231 254
215 231 249
217 233 254
215 231 248
216 232 250
216 232 250
213 229 238
214 230 241
215 231 241
216 232 245
212 228 233
208 224 225
205 222 218
195 212 226
183 200 227
146 166 203
119 142 190
117 141 194
107 133 188
99 125 178
110 135 188
93 121 175
84 114 174
86 115 167
88 117 174
87 116 168
79 110 172
89 118 177
77 109 168
72 105 171
68 102 164
73 106 157
60 95 145
67 102 163
67 101 152
72 105 155
67 100 154
72 105 153
73 105 147
68 102 151
77 108 147
78 109 141
69 102 145
82 112 144
70 103 155
66 100 153
66 100 154
63 98 154
64 99 155
59 95 152
60 96 154
63 98 157
59 95 156
60 96 149
59 94 151
61 97 157
61 96 153
60 95 157
60 96 157
61 97 159
62 98 163
61 96 151
60 96 153
60 96 162
60 97 159
61 97 166
62 98 161
60 95 153
60 96 157
60 96 154
62 98 162
60 96 153
60 96 155
60 96 160
60 96 158
62 98 166
60 96 157
61 97 159
61 97 157
62 98 164
60 96 158
61 97 162
61 97 156
61 97 155
62 98 160
61 98 162
61 97 157
61 97 160
62 98 157
61 97 156
62 98 165
62 97 164
61 97 157
62 98 167
61 97 161
62 98 160
61 97 161
62 98 158
62 98 159
62 98 162
62 98 161
61 97 156
61 97 157
61 97 158
61 97 158
61 98 168
62 98 165
61 98 163
61 97 154
62 98 160
62 98 161
62 98 165
61 97 159
62 98 163
61 97 154
61 97 158
62 98 161
62 98 164
62 97 159
61 97 150
62 99 165
61 97 154
61 97 163
62 98 161
62 98 157
62 98 164
62 98 166
62 98 164
63 99 165
63 99 165
63 99 162
61 98 159
63 99 162
61 96 155
62 98 160
61 97 154
61 98 160
62 97 153
62 98 161
61 97 160
61 97 155
61 98 160
61 96 154
61 97 151
62 98 164
60 95 145
62 98 155
61 97 147
61 97 156
62 98 161
61 97 157
62 97 157
61 97 153
62 98 165
60 96 148
62 98 156
62 97 156
62 97 151
62 98 156
61 96 148
61 96 148
61 97 158
62 98 153
62 98 154
61 97 159
62 97 150
61 97 149
62 97 152
60 96 151
60 96 150
62 98 154
62 98 161
63 98 157
61 97 152
61 97 150
62 97 157
62 97 155
62 98 157
60 95 152
62 97 148
61 97 143
61 96 148
62 97 155
61 96 153
60 95 138
61 96 145
60 94 140
61 96 148
61 96 144
62 97 149
61 96 144
59 94 133
61 96 147
60 94 143
60 95 139
60 94 137
60 94 134
59 93 137
60 94 140
60 94 136
59 93 128
59 92 139
71 95 113
101 113 60
109 114 25
103 107 0
116 124 0
111 117 0
114 119 0
111 116 0
112 116 0
107 110 0
107 112 0
104 107 0
120 123 0
116 119 0
91 92 0
102 103 0
111 114 0
111 109 0
106 106 0
103 102 0
95 91 0
104 103 0
99 98 0
98 97 0
88 85 0
95 92 0
92 89 16
88 84 0
82 79 0
89 84 0
89 86 0
102 98 11
93 87 0
91 87 0
93 88 0
97 92 8
94 92 0
102 96 0
99 95 0
106 101 0
85 79 0
96 91 0
102 97 11
103 99 11
100 97 0
112 107 11
103 98 0
95 93 0
96 93 0
110 106 0
103 98 3
110 107 11
105 101 16
107 102 0
106 101 0
114 110 11
110 108 0
113 109 0
114 109 11
117 112 0
103 98 11
118 112 16
116 112 16
109 104 16
107 101 0
108 103 11
109 105 0
116 112 11
113 110 11
116 111 11
117 112 11
102 98 16
110 104 19
122 115 19
115 110 11
110 105 11
112 105 19
113 110 0
112 107 16
106 101 11
113 108 0
116 113 0
120 116 16
116 113 11
123 122 0
121 119 11
126 126 11
124 123 22
126 127 0
135 137 11
135 138 0
148 153 19
132 134 0
147 154 0
148 155 11
142 150 0
143 151 0
148 156 0
142 150 0
145 149 0
149 159 0
155 166 0
151 162 0
154 163 0
153 160 0
153 164 0
157 166 0
153 164 0
153 164 0
155 166 0
154 169 0
154 168 0
154 166 0
156 166 0
166 179 0
157 171 0
157 172 0
165 179 0
160 172 0
163 180 0
158 171 0
164 180 0
154 166 0
163 179 0
166 182 0
161 176 0
163 180 0
158 172 0
163 181 0
163 179 0
161 176 0
160 178 0
163 180 0
164 180 0
160 176 0
161 177 0
161 180 0
163 179 0
207 224 217
210 227 226
207 225 220
207 225 223
209 227 231
212 229 241
215 231 248
210 227 233
213 230 242
212 230 244
213 230 249
213 230 245
212 230 246
213 231 250
213 230 249
212 229 246
212 229 245
213 230 248
211 229 248
211 229 246
210 228 241
210 228 246
209 227 240
208 226 238
211 229 246
211 229 244
209 227 240
211 228 240
212 229 242
208 226 233
209 227 234
210 227 237
207 225 228
211 228 244
207 225 234
208 226 237
211 229 245
211 228 242
209 227 231
210 228 241
205 223 224
210 228 241
207 225 230
207 225 230
207 225 226
211 229 240
209 227 234
209 226 236
209 227 237
207 225 230
210 228 240
207 225 234
211 229 244
211 229 241
211 229 238
207 225 234
212 230 246
211 229 244
211 228 242
213 230 248
213 230 250
215 231 250
215 231 253
215 232 253
216 232 253
215 232 250
216 232 250
215 231 245
218 233 252
215 231 246
215 231 244
216 231 244
211 227 236
191 208 224
179 197 224
159 178 216
137 158 198
117 141 192
106 131 184
88 117 179
96 124 182
100 128 181
97 124 180
95 123 175
91 120 180
84 114 170
85 115 167
79 110 170
76 109 164
69 103 166
67 100 155
76 108 164
68 102 162
66 100 153
65 100 163
63 98 161
65 99 153
63 99 166
62 97 148
75 107 138
70 104 145
79 109 148
70 102 147
73 105 147
73 105 142
62 97 153
65 99 156
63 98 149
63 97 146
66 100 156
62 96 152
64 98 158
64 99 159
60 95 152
60 96 147
60 97 153
60 96 150
61 98 166
59 95 148
60 96 150
59 94 150
61 96 155
60 96 156
61 97 162
61 96 155
62 97 159
60 96 160
62 98 162
60 95 154
60 96 153
61 98 164
62 98 163
60 96 154
61 97 162
61 97 163
62 97 155
61 97 158
61 96 155
61 97 160
62 98 162
62 98 161
61 97 153
61 97 157
61 97 163
62 98 159
61 97 161
61 97 158
61 96 150
61 97 163
61 97 162
62 98 162
62 98 167
61 97 156
62 98 159
62 98 159
61 96 160
62 98 165
61 97 157
62 98 162
62 97 157
61 97 155
62 98 161
62 98 161
61 97 157
62 98 162
61 97 156
62 98 165
61 97 159
62 98 163
61 97 157
62 98 161
62 98 165
61 97 160
61 97 156
62 98 155
62 98 159
63 99 165
61 97 155
63 99 163
63 99 168
62 97 158
62 98 163
62 97 156
61 97 150
62 97 160
61 97 156
61 97 159
62 98 154
61 97 157
63 99 167
62 98 158
62 98 164
62 99 162
63 99 160
61 96 152
61 97 160
61 97 156
61 97 160
62 98 155
62 98 163
61 97 152
61 97 158
62 98 156
61 96 150
61 97 157
62 98 160
61 97 154
61 96 153
60 96 148
63 99 164
61 97 156
62 98 160
60 95 148
63 99 165
61 97 157
62 98 161
61 97 151
61 97 150
61 97 155
62 98 161
61 96 152
62 98 157
61 97 151
61 97 151
62 98 155
61 97 151
62 97 151
61 96 149
61 96 150
62 98 157
61 97 151
61 96 147
62 97 152
61 96 145
60 96 147
63 98 156
62 98 157
62 98 156
61 96 148
61 97 153
61 97 149
61 96 145
62 97 144
61 96 151
61 96 145
60 94 141
61 97 151
60 95 135
60 95 140
60 95 140
60 95 142
60 95 140
60 94 141
60 95 138
60 94 137
59 93 139
60 93 139
60 94 139
60 94 133
60 93 133
59 93 132
57 90 126
84 104 110
115 126 47
115 123 0
114 121 0
121 129 0
119 125 0
118 123 0
119 125 0
110 113 0
121 126 0
116 122 0
109 114 0
113 116 0
103 106 0
107 106 0
109 111 11
114 117 0
117 120 11
94 94 0
100 102 0
99 101 0
96 94 11
88 84 0
109 108 0
101 100 11
88 85 11
83 81 0
93 90 0
90 86 0
99 94 0
102 98 8
100 97 0
101 96 0
86 83 0
92 87 0
88 81 0
90 84 0
98 93 0
107 101 0
92 87 0
87 83 0
94 89 0
106 101 0
96 93 0
106 100 0
91 87 0
96 91 0
99 97 0
108 102 0
104 99 0
100 96 0
103 100 0
108 102 0
110 105 0
107 102 11
103 99 0
114 110 0
109 104 0
104 97 0
112 104 0
115 108 11
105 100 0
103 97 11
112 105 0
106 101 19
106 103 19
114 108 11
115 109 0
110 104 0
110 104 11
108 104 0
108 102 16
116 113 11
108 102 11
115 110 11
109 105 16
110 105 0
128 123 16
121 119 16
120 118 16
120 119 0
126 123 11
117 112 0
121 122 11
126 124 22
138 139 16
134 133 11
123 122 0
137 138 0
141 145 11
137 140 0
144 151 0
140 146 0
140 147 0
148 154 0
151 158 0
151 159 0
147 157 0
151 159 0
150 158 0
155 165 0
153 162 0
156 166 0
150 160 0
161 172 0
157 169 0
157 167 0
153 166 0
158 169 0
158 172 0
158 170 0
154 164 0
155 166 0
155 170 0
158 172 0
159 168 0
156 170 0
162 175 0
160 173 0
158 171 0
158 170 0
154 168 0
156 170 0
160 174 0
163 180 0
165 179 0
159 175 0
167 186 0
160 177 0
161 177 0
163 178 0
166 184 0
169 187 0
163 179 0
164 180 0
169 185 0
165 182 0
167 184 0
212 229 237
210 228 233
210 227 233
212 229 242
212 229 241
211 229 240
211 228 237
212 230 245
212 230 245
212 229 249
213 230 250
211 229 246
212 230 248
212 229 244
211 229 246
210 227 245
210 227 242
211 228 245
208 226 238
208 227 240
208 226 238
209 227 236
209 227 236
210 227 241
206 224 230
209 227 237
211 228 241
209 226 237
209 226 233
209 226 237
208 225 237
208 226 234
209 227 236
211 228 238
206 223 223
208 226 231
210 227 233
204 222 224
207 225 223
210 228 242
205 223 223
206 223 228
209 226 234
209 227 231
204 222 223
202 220 217
209 226 233
205 222 230
210 227 234
209 226 231
206 224 227
206 224 226
209 227 238
206 224 223
209 227 234
211 228 241
208 225 236
212 229 241
210 227 234
209 226 233
212 229 242
209 227 236
211 228 249
209 226 241
215 232 253
213 230 246
215 231 250
214 230 248
217 233 253
217 233 253
215 231 251
216 232 248
215 231 248
211 226 246
187 204 233
185 202 228
154 174 214
151 171 207
110 135 191
104 130 184
97 125 181
89 118 175
92 120 181
79 110 168
94 122 181
91 119 170
78 110 174
83 114 176
85 115 175
74 106 164
78 109 167
67 101 167
76 107 166
66 101 166
69 102 151
64 99 154
68 102 169
61 97 162
65 100 159
68 102 160
65 100 156
76 108 147
68 102 159
73 104 140
72 104 147
72 104 149
62 97 149
66 99 151
66 100 155
63 98 165
62 96 140
70 102 148
62 98 163
62 97 154
61 97 156
60 96 164
60 95 153
60 95 151
61 97 157
61 97 158
60 96 157
60 96 153
60 96 158
61 97 161
59 95 150
60 96 160
60 97 163
61 97 157
61 97 159
61 98 162
61 97 161
62 98 164
61 97 158
60 96 157
62 97 158
61 97 153
61 97 160
60 95 153
60 96 156
62 99 172
61 97 157
63 99 166
60 96 160
61 97 158
61 97 157
60 96 157
61 97 159
61 97 157
61 97 159
61 97 153
62 98 165
61 96 158
61 97 155
61 98 163
61 97 157
60 96 154
61 97 160
61 97 154
60 96 160
62 98 157
61 97 158
61 97 161
61 97 155
61 97 157
61 98 164
61 96 154
61 98 164
61 97 155
60 96 154
61 97 156
62 98 160
62 98 163
63 99 163
62 98 159
61 98 160
63 99 166
61 96 149
61 96 155
61 96 151
62 98 158
60 96 154
62 97 156
61 97 154
62 98 159
62 97 155
61 97 160
62 97 157
62 98 164
61 97 162
62 97 157
61 97 160
63 99 168
62 97 156
62 97 154
62 98 159
61 97 157
62 98 159
61 96 147
62 98 156
61 97 154
62 98 160
62 98 161
61 97 148
61 97 150
61 97 148
62 98 158
61 97 153
63 99 158
61 96 150
62 98 158
62 98 159
62 97 149
62 98 160
62 98 157
62 97 156
60 96 145
61 96 143
62 97 153
61 96 145
61 97 152
61 97 156
61 97 150
62 98 155
61 97 152
61 97 156
62 98 157
61 97 154
61 97 147
62 97 155
61 97 152
62 97 150
61 97 145
61 97 154
62 97 155
62 97 150
61 96 145
61 96 147
62 97 151
62 97 154
60 94 136
61 96 147
61 96 144
60 95 144
61 96 153
61 97 147
60 95 145
60 95 148
60 95 148
61 96 146
61 97 146
60 95 135
61 95 142
59 93 134
61 96 142
61 96 146
59 93 139
60 94 143
59 93 132
58 92 128
60 94 135
59 92 137
59 91 123
93 110 91
108 118 54
118 123 0
124 132 0
113 120 0
118 121 0
123 127 0
112 117 0
113 119 0
116 123 0
104 110 0
113 117 0
111 115 0
100 100 0
109 113 0
113 114 0
100 100 0
103 105 0
99 98 0
98 97 0
104 107 0
110 111 3
96 94 0
106 104 0
100 103 0
92 89 0
82 80 0
86 85 0
102 98 11
97 95 0
93 90 0
91 87 0
81 81 0
85 82 0
84 80 0
102 97 0
101 96 0
94 88 0
94 89 0
106 100 0
87 80 0
101 97 0
95 90 0
100 95 0
94 89 0
102 97 0
85 80 0
95 91 0
102 99 0
106 100 0
107 103 0
97 94 0
95 91 0
109 103 0
106 102 0
100 95 0
113 107 0
97 92 0
100 96 0
110 105 0
119 113 16
107 102 0
109 105 11
110 105 0
102 99 0
109 104 11
106 102 0
108 103 11
107 103 0
120 116 0
109 103 16
107 103 0
117 111 0
117 112 11
121 119 11
125 121 16
111 113 11
120 119 11
115 113 0
125 124 11
126 123 11
115 113 0
132 130 16
136 137 0
139 142 16
138 140 11
130 132 0
137 144 0
137 139 11
145 150 11
148 153 16
143 147 0
145 152 11
143 148 0
149 158 0
144 151 0
149 154 0
149 156 0
149 158 0
153 162 0
156 167 0
154 165 0
156 165 0
152 162 0
157 169 0
149 159 0
159 172 0
158 170 0
159 170 0
157 169 0
153 164 0
156 167 0
161 175 0
161 175 0
157 171 0
161 172 0
158 171 0
158 173 0
160 172 0
165 180 0
156 172 0
163 177 0
159 174 0
158 172 0
164 179 0
164 181 0
166 181 0
166 183 0
163 179 0
158 173 0
161 177 0
162 178 0
164 179 0
166 184 0
166 185 0
168 186 0
167 185 0
157 174 0
213 230 241
212 229 238
209 227 236
213 230 245
212 229 242
212 229 246
211 229 240
213 230 249
213 230 245
212 230 248
210 227 245
212 230 248
210 228 244
212 229 245
210 228 242
209 227 240
208 226 234
210 228 242
211 229 244
210 228 236
210 228 242
208 225 227
208 226 231
207 225 228
207 225 230
204 222 226
208 226 234
212 229 244
208 225 228
208 226 234
206 224 220
205 223 217
207 224 231
204 222 218
207 224 227
204 222 214
201 220 212
203 221 209
201 219 204
206 224 230
207 224 226
203 221 214
201 219 211
201 219 198
205 222 211
203 222 215
205 223 221
204 222 221
202 220 211
201 219 211
208 226 227
207 225 226
209 226 233
205 224 220
208 225 236
205 223 223
209 226 231
205 223 224
208 225 233
211 228 241
208 225 231
207 225 233
207 224 233
210 227 242
210 227 234
214 230 245
210 227 237
215 232 252
213 230 246
213 230 248
216 232 253
215 232 252
215 231 253
212 228 251
193 210 236
176 194 228
156 176 214
145 166 208
136 157 201
130 153 199
112 138 193
111 136 190
78 110 178
78 110 180
90 119 180
79 111 176
78 110 169
92 120 179
79 111 171
76 108 169
77 109 173
79 110 172
73 106 170
70 103 159
75 107 161
70 104 164
67 101 153
62 98 161
64 99 158
67 101 154
65 100 161
71 103 147
69 103 158
68 101 151
73 105 145
71 104 159
74 105 147
65 100 162
70 102 147
66 99 145
64 98 155
60 96 153
61 97 160
65 100 150
61 97 159
60 96 155
60 96 158
60 96 159
60 95 153
59 94 148
60 96 160
59 95 155
60 95 147
61 97 155
61 97 163
61 96 153
62 98 157
61 97 155
61 97 162
61 96 155
61 97 158
61 97 160
60 97 157
62 98 163
60 96 160
61 97 153
61 97 152
62 97 158
62 98 157
61 97 156
61 97 162
61 97 158
59 95 150
62 98 160
61 96 160
61 97 163
60 96 152
60 96 154
62 98 164
61 96 153
61 97 156
62 98 164
61 97 161
62 98 166
61 97 150
62 98 161
62 98 159
61 96 151
61 97 157
61 97 158
62 98 166
62 99 164
62 97 153
61 97 165
61 97 154
62 99 167
62 98 165
61 98 161
62 97 158
62 98 163
62 98 163
61 98 168
61 97 153
61 97 158
61 97 158
60 96 152
62 98 158
61 97 159
61 97 156
62 98 157
62 98 157
62 98 161
61 97 153
61 96 150
63 99 164
61 97 153
61 97 153
62 98 164
62 98 156
61 97 155
61 97 159
62 98 161
63 99 162
62 98 157
61 97 156
62 98 161
62 97 158
62 98 164
62 98 157
61 97 149
62 98 156
61 97 145
61 97 154
62 98 158
62 97 158
62 98 157
62 98 153
61 96 150
61 97 154
61 97 153
63 98 160
62 98 156
61 97 154
61 96 153
62 97 151
62 98 159
62 98 156
61 97 149
62 97 151
61 96 150
62 97 152
62 97 155
62 98 158
61 97 152
61 97 154
62 97 149
61 96 149
61 97 152
61 97 151
62 98 159
62 97 150
62 98 157
62 98 157
62 97 151
61 96 149
61 96 149
61 97 156
60 95 143
62 98 158
62 98 157
60 94 136
60 95 136
61 96 139
62 97 148
61 97 150
60 95 140
61 96 147
60 95 141
61 96 146
60 94 135
61 96 145
61 95 149
60 95 140
59 92 133
59 94 137
61 95 144
60 94 139
59 93 134
60 94 136
59 92 136
59 92 132
73 97 110
86 99 82
101 110 36
127 136 0
118 124 0
118 125 0
100 106 0
115 120 0
110 115 0
113 116 0
109 113 0
113 115 0
112 116 0
104 109 0
114 119 0
111 116 0
111 112 0
105 106 0
110 115 0
108 108 0
112 111 0
117 116 0
97 100 0
100 100 0
99 101 0
98 99 0
99 97 0
100 101 0
97 96 0
102 100 0
97 94 0
84 82 0
101 98 0
86 84 0
99 96 0
93 88 0
99 94 0
98 94 0
93 87 0
99 90 0
106 101 0
101 96 0
100 92 0
105 99 0
103 96 0
98 93 0
101 96 0
105 99 0
101 98 0
92 86 0
94 87 0
107 100 0
98 92 0
105 99 0
103 98 0
101 97 0
107 101 0
94 90 0
115 109 0
99 94 0
101 95 11
115 109 11
112 110 0
107 103 0
108 105 0
111 106 11
107 102 11
114 111 0
116 114 0
106 100 11
100 96 19
115 109 22
108 102 0
114 113 0
117 113 11
112 107 11
127 125 11
120 119 11
115 110 11
113 109 0
129 129 0
123 123 0
127 128 0
129 128 0
123 125 0
132 136 0
127 129 0
135 137 0
145 151 0
144 151 0
150 158 0
144 152 0
148 156 0
147 154 0
147 155 0
148 155 0
148 155 0
147 155 0
151 157 0
151 159 0
151 158 0
158 169 0
157 166 0
154 162 0
147 156 0
154 168 0
154 165 0
158 167 0
156 169 0
155 167 0
157 168 0
155 167 0
157 168 0
157 168 0
146 155 0
158 172 0
165 179 0
157 170 0
164 179 0
160 173 0
162 175 0
161 175 0
162 176 0
158 174 0
165 180 0
164 180 0
163 176 0
160 176 0
159 174 0
160 176 0
160 176 0
163 179 0
165 181 0
162 179 0
161 176 0
164 180 0
166 184 0
167 184 0
162 177 0
211 228 238
210 228 240
210 228 240
212 230 249
212 230 248
211 229 245
212 230 245
215 232 254
211 228 246
211 229 242
211 228 245
211 229 244
210 228 240
208 225 233
212 229 244
210 228 236
208 226 228
207 225 230
207 224 233
207 225 228
208 226 237
208 226 234
208 225 233
203 222 211
203 221 220
207 225 223
205 223 215
201 219 212
206 224 221
200 219 206
200 218 199
201 220 204
199 218 194
202 221 209
197 217 198
192 212 179
200 219 201
199 217 193
198 217 186
198 217 186
195 215 181
196 216 186
196 216 189
201 219 199
196 215 186
192 213 173
197 216 186
197 215 186
197 215 194
198 217 201
200 219 196
201 220 207
197 215 194
200 218 201
206 223 220
203 222 211
199 218 204
203 221 212
208 226 230
206 223 226
206 223 220
206 224 227
209 226 231
209 227 234
206 223 224
210 228 238
207 225 227
209 227 236
211 228 240
214 230 249
212 228 250
212 229 248
210 226 250
210 227 250
194 211 237
185 203 233
175 193 228
164 183 219
148 168 211
145 166 209
115 139 192
111 136 191
91 120 179
96 124 184
87 117 183
89 118 177
76 108 169
69 103 170
81 112 175
84 114 170
79 110 174
87 116 173
86 116 170
71 105 174
74 107 175
71 104 166
64 99 166
67 102 166
67 101 159
62 98 161
63 98 161
60 96 160
60 96 151
68 101 151
69 102 154
75 107 150
72 104 146
67 100 149
58 93 141
66 99 151
60 96 154
64 99 155
62 97 152
60 95 148
63 99 162
60 96 150
59 94 144
62 97 150
60 96 155
61 97 157
61 97 160
60 95 150
60 96 156
61 96 158
60 96 159
60 96 158
60 96 157
62 97 163
61 97 154
61 96 154
61 96 155
60 96 163
60 96 158
60 95 148
61 97 158
61 97 154
59 95 151
62 98 165
60 96 161
61 97 161
61 97 154
61 97 160
60 96 158
62 98 162
62 98 159
61 97 162
61 97 157
62 98 162
61 97 163
61 97 160
62 98 160
60 96 159
62 98 160
60 95 153
61 96 154
61 96 160
62 98 164
61 97 155
61 97 158
61 96 151
62 98 162
61 97 163
62 98 156
61 97 155
62 98 163
62 98 162
61 97 155
62 98 160
61 97 155
62 97 158
61 97 153
62 98 157
61 97 151
63 99 168
62 97 156
62 98 158
62 98 163
62 98 162
60 96 155
62 97 158
60 96 155
61 97 154
61 97 153
62 98 158
62 98 155
61 97 160
62 97 156
62 98 159
62 98 163
61 97 159
61 97 157
61 96 152
61 97 151
63 99 160
61 96 150
62 98 159
61 96 154
61 97 154
62 98 157
62 98 156
62 97 159
61 97 154
62 97 156
62 98 156
61 97 158
61 96 153
62 98 162
61 97 155
63 99 164
63 99 161
63 98 158
61 96 156
63 99 163
62 97 157
61 96 151
62 97 154
62 97 152
62 98 158
61 97 148
62 98 155
61 97 150
62 98 154
61 96 149
61 97 152
61 97 152
61 96 148
62 97 152
62 98 155
61 97 153
62 98 153
62 97 150
60 95 141
62 98 157
61 97 148
61 97 155
61 96 148
61 96 151
60 96 150
61 96 150
60 95 149
62 97 152
61 97 150
60 96 142
61 96 151
60 95 142
60 96 142
61 97 147
59 94 132
61 95 145
62 98 151
59 94 138
61 95 142
61 95 147
60 94 138
58 92 131
60 95 140
60 95 140
59 92 125
58 91 124
59 93 132
59 93 125
79 104 117
105 114 54
116 124 18
133 144 0
113 122 0
105 110 0
106 111 0
111 117 0
125 132 0
110 115 0
107 113 0
110 114 0
113 118 0
110 116 0
118 121 0
111 117 0
119 125 0
117 121 0
93 91 0
109 111 0
113 116 0
108 110 0
107 109 0
110 111 0
114 114 0
108 110 0
112 113 0
96 94 0
92 94 0
84 82 0
104 103 0
103 101 0
86 83 0
97 97 0
107 103 0
98 97 0
104 101 0
92 88 0
96 95 0
95 91 0
93 91 0
103 99 0
96 89 0
92 87 0
102 100 0
85 81 0
105 99 0
93 88 0
95 90 0
93 91 0
93 89 0
113 106 0
93 88 0
100 95 0
110 109 0
107 102 0
108 101 0
100 95 0
99 93 0
109 103 0
105 101 0
110 105 0
105 101 0
99 91 0
105 101 11
109 108 0
103 98 0
107 103 11
108 105 11
113 110 0
109 106 0
118 114 0
117 117 16
116 114 0
115 113 11
111 108 0
113 109 16
117 118 0
128 126 0
123 125 0
118 118 0
123 124 0
130 130 0
133 136 11
141 145 0
134 137 0
136 138 0
135 141 0
141 143 0
147 156 0
147 154 0
149 156 0
149 154 0
144 148 0
141 149 0
147 159 0
150 158 0
151 162 0
148 157 0
149 159 0
154 164 0
154 163 0
153 162 0
160 170 0
156 167 0
159 169 0
156 165 0
158 171 0
157 168 0
160 172 0
156 168 0
163 178 0
159 173 0
159 172 0
160 175 0
160 174 0
158 170 0
164 178 0
159 172 0
160 175 0
162 176 0
163 178 0
164 181 0
157 169 0
165 179 0
161 175 0
162 177 0
161 177 0
162 176 0
158 174 0
161 176 0
162 179 0
161 176 0
159 174 0
166 183 0
165 182 0
165 182 0
163 179 0
162 180 0
213 230 245
211 229 240
213 231 250
212 229 246
212 229 244
213 230 249
209 227 241
210 228 241
209 227 237
209 227 237
209 227 240
212 229 241
208 225 231
207 225 226
208 226 234
206 224 226
209 227 231
209 226 233
207 225 230
209 226 224
203 221 212
199 218 206
203 221 217
203 221 211
196 215 193
198 218 191
192 212 175
194 214 182
201 220 207
192 212 175
196 215 191
196 216 186
194 214 182
198 217 189
191 211 175
191 211 167
195 214 177
192 212 169
199 217 191
187 208 151
195 215 177
193 213 173
188 209 155
195 213 177
195 214 177
194 215 182
191 211 155
197 216 193
191 211 163
186 207 142
193 213 179
193 213 173
198 217 186
196 216 184
196 215 189
195 214 184
196 216 181
201 220 204
198 217 193
201 219 203
202 220 198
204 222 214
205 222 214
206 224 218
209 226 234
202 221 220
210 227 237
207 225 230
212 229 238
209 226 243
206 223 239
209 225 243
206 223 240
209 225 248
208 225 248
194 211 237
187 204 235
170 189 224
149 170 214
146 167 214
123 146 194
110 136 191
105 131 188
92 120 182
87 116 176
81 112 176
68 103 174
90 119 181
85 115 176
73 106 170
62 98 167
72 105 176
67 102 170
65 100 170
78 109 173
68 102 164
65 100 168
65 100 169
61 97 160
61 97 168
64 99 155
63 99 167
60 96 150
61 97 157
65 99 157
69 102 154
72 104 145
70 102 149
68 101 150
76 108 151
67 100 152
68 102 149
65 99 147
62 97 151
59 95 149
61 95 154
61 96 156
60 96 165
61 96 150
60 95 158
60 96 155
60 96 149
59 94 153
60 95 157
60 95 159
61 97 158
61 97 160
60 95 153
60 96 150
61 97 161
60 95 161
61 97 158
60 96 154
61 97 161
61 96 156
61 96 155
61 97 151
62 98 158
61 97 164
61 98 164
61 97 157
61 97 160
61 97 157
60 96 153
61 97 155
61 96 157
60 96 153
62 98 161
62 98 161
61 96 155
61 97 161
61 97 161
62 98 165
61 97 158
61 96 156
61 96 153
61 97 155
61 97 162
62 98 162
61 98 158
63 99 162
62 97 165
61 97 159
62 98 160
61 97 157
61 97 152
62 98 164
62 97 158
61 97 158
62 97 161
61 97 156
61 97 161
61 96 151
60 96 155
61 98 164
61 97 155
62 98 160
61 97 149
62 98 159
61 97 155
62 98 162
60 95 147
60 96 149
62 98 161
62 98 160
62 98 157
61 97 152
61 97 155
62 98 156
61 97 157
61 97 155
61 97 153
62 97 157
62 97 158
61 97 158
61 96 151
60 96 153
61 97 157
62 98 156
61 97 154
62 98 159
61 97 149
60 96 147
60 96 144
62 97 151
62 97 158
62 97 156
62 97 153
62 98 155
62 97 152
61 96 145
61 97 152
61 97 152
61 97 152
62 98 153
62 98 154
61 97 149
60 95 145
62 98 159
62 98 156
61 96 152
61 96 145
62 98 159
60 97 159
62 98 156
61 96 149
61 97 152
62 98 156
61 97 151
61 97 154
61 97 145
62 97 153
60 95 140
62 98 154
62 97 150
60 95 140
62 98 155
62 97 152
60 95 148
61 96 152
61 96 143
62 97 150
59 94 134
60 95 136
60 95 145
62 97 154
61 96 142
61 96 144
60 95 136
60 95 140
60 95 139
62 97 155
59 93 135
61 96 150
60 94 132
59 94 132
60 94 133
60 94 135
59 93 137
57 89 129
60 92 128
84 104 89
108 118 60
115 123 31
120 127 0
111 119 0
111 117 0
112 118 0
120 127 0
120 126 0
104 109 0
112 121 0
110 113 0
101 104 0
110 116 0
111 117 0
110 114 0
112 116 0
106 106 0
100 102 0
110 114 0
112 114 0
100 103 0
108 111 0
101 100 0
94 95 0
101 103 0
100 101 0
87 86 0
103 100 0
105 106 0
102 102 0
97 97 0
104 103 0
92 91 0
105 103 0
84 80 0
88 86 0
96 92 0
93 90 0
93 89 0
94 93 0
95 91 0
109 104 0
98 96 0
94 90 0
98 92 0
97 93 0
93 88 0
99 96 0
101 97 0
103 97 0
103 99 0
99 95 0
99 93 0
103 98 0
107 103 0
98 93 0
104 100 0
101 99 0
104 100 0
109 104 11
105 101 11
110 105 0
102 97 0
104 102 0
100 98 11
118 116 0
97 93 0
113 105 0
112 109 0
106 102 0
110 108 0
117 112 0
123 122 0
115 116 0
132 132 11
114 113 16
127 126 0
129 131 0
125 128 0
137 140 0
131 132 0
138 139 0
135 139 0
141 143 0
134 136 0
138 142 0
141 145 0
144 146 0
150 156 0
149 153 0
147 154 0
148 156 0
149 157 0
141 144 0
150 157 0
147 152 0
157 166 0
156 162 0
155 165 0
153 163 0
156 166 0
157 168 0
158 169 0
157 165 0
153 163 0
157 168 0
152 164 0
155 167 0
154 166 0
155 166 0
156 169 0
158 173 0
161 175 0
160 173 0
155 168 0
160 176 0
165 181 0
156 170 0
162 178 0
161 174 0
157 168 0
166 181 0
160 175 0
160 172 0
164 180 0
160 173 0
160 175 0
164 179 0
164 181 0
167 183 0
162 177 0
167 185 0
161 177 0
166 182 0
164 182 0
164 182 0
162 181 0
165 184 0
212 229 242
212 229 242
210 227 241
211 228 242
212 229 242
211 229 242
210 228 238
210 228 241
209 227 237
211 228 238
211 228 238
204 222 226
206 224 226
207 225 228
204 222 223
205 223 220
207 225 226
205 223 212
202 220 206
199 218 201
199 219 201
198 216 182
199 217 191
195 213 189
194 214 171
198 217 193
194 214 175
191 211 163
194 212 181
195 215 181
189 209 157
191 211 163
188 209 153
190 210 155
188 209 153
189 210 161
187 208 147
184 205 144
186 207 137
187 208 147
187 208 135
184 205 140
187 208 142
187 207 151
186 207 128
183 204 137
183 205 137
189 209 171
188 208 149
181 204 133
187 208 151
187 208 151
183 206 147
188 208 157
191 211 157
191 211 161
195 214 175
193 212 177
192 213 169
191 210 163
201 219 201
191 211 163
200 219 193
200 219 196
199 217 193
201 219 206
200 218 204
206 224 221
200 218 207
198 216 214
194 212 217
198 215 236
198 215 236
203 220 236
205 221 243
197 215 242
186 204 233
186 204 234
164 184 223
146 167 212
131 154 202
122 146 199
109 134 190
98 126 188
95 124 187
98 126 188
78 110 171
86 116 175
80 111 176
79 111 176
71 104 171
75 108 175
73 106 168
83 113 178
74 106 169
71 105 173
74 107 171
69 103 168
65 100 168
63 98 161
63 98 160
64 99 164
61 97 162
67 101 155
64 98 148
71 104 153
65 100 161
64 98 158
74 106 152
74 107 152
66 100 148
65 98 149
64 98 148
61 97 155
65 100 158
63 98 151
60 95 149
62 98 153
61 96 157
60 96 154
59 95 163
60 96 154
61 97 156
61 96 150
60 96 159
61 97 160
60 96 154
60 96 158
62 97 160
61 96 157
60 96 152
61 98 159
61 96 156
61 97 155
61 97 159
61 96 160
61 97 161
61 97 161
60 96 158
61 97 151
61 97 160
61 97 160
61 97 158
62 98 164
61 97 158
61 97 158
61 96 156
61 97 155
61 96 156
62 98 165
60 96 154
61 97 156
62 98 161
61 97 160
61 97 156
62 97 158
62 98 163
61 97 160
61 96 150
61 97 156
61 97 163
61 97 158
61 97 154
62 98 160
61 97 154
62 98 158
61 97 159
62 98 162
62 97 152
60 96 151
61 97 150
61 97 156
61 97 157
61 97 160
61 97 153
61 97 161
61 97 153
61 97 154
62 98 158
60 96 152
61 97 154
61 97 157
62 98 162
61 96 147
62 98 161
60 96 148
62 98 163
61 97 156
60 95 145
63 99 163
62 97 156
62 98 159
62 98 162
60 96 144
60 96 151
61 97 155
62 98 161
62 98 158
62 98 158
60 96 151
63 99 163
61 96 153
61 96 149
61 97 152
61 97 150
61 97 153
61 97 158
61 97 157
60 95 152
61 96 150
61 96 152
61 97 157
60 95 148
62 97 152
61 96 143
61 97 155
62 98 158
61 97 154
62 98 155
61 97 148
62 98 154
61 97 151
63 98 160
62 98 156
62 98 150
60 96 148
62 98 159
61 96 149
61 96 150
62 98 151
61 96 148
61 96 152
60 96 139
61 96 147
61 96 147
62 97 152
62 97 152
61 97 155
62 98 157
60 94 144
61 97 151
60 95 141
60 95 140
60 95 142
62 97 145
59 93 139
61 96 145
60 95 136
59 93 137
59 94 139
61 95 144
59 94 132
61 95 144
60 94 134
59 93 125
59 93 139
59 93 128
59 92 136
60 94 136
59 92 128
61 92 115
90 107 85
101 110 44
109 117 0
113 120 0
123 132 0
109 116 0
112 120 0
120 128 0
113 120 0
102 109 0
109 114 0
117 122 0
103 111 0
115 120 0
104 109 0
110 115 0
110 114 0
111 114 0
118 122 0
113 119 0
106 106 0
103 104 0
111 113 0
108 110 0
111 116 0
101 102 0
111 113 0
107 111 0
101 102 0
110 110 0
105 104 0
100 102 0
104 103 0
101 100 0
107 105 0
95 92 0
100 98 0
101 99 0
100 100 0
99 95 0
94 91 0
97 96 0
94 91 0
107 104 0
102 99 0
107 103 0
100 97 0
96 92 0
97 93 0
101 96 0
107 101 0
112 106 0
101 98 0
98 92 0
102 96 0
97 93 0
103 97 0
93 87 0
107 104 0
105 101 0
105 99 0
95 93 0
108 104 0
114 113 11
115 111 0
111 108 0
118 115 0
111 108 0
119 118 0
124 124 0
115 114 0
118 116 0
115 114 0
117 118 0
116 116 0
121 124 11
116 115 0
128 132 11
134 137 0
134 135 11
127 126 0
135 136 0
151 155 0
143 149 11
139 142 0
143 149 0
137 141 0
141 144 0
143 147 0
144 150 0
146 152 0
151 159 0
143 149 0
148 154 0
151 163 0
144 153 0
152 158 0
153 163 0
148 157 0
150 158 0
147 156 0
152 159 0
150 157 0
146 154 0
148 160 0
159 171 0
152 164 0
147 156 0
155 167 0
157 170 0
160 173 0
160 173 0
158 172 0
158 170 0
157 168 0
159 173 0
161 174 0
158 172 0
161 176 0
168 186 0
155 167 0
161 176 0
156 171 0
162 177 0
162 177 0
161 175 0
164 179 0
165 183 0
160 173 0
161 177 0
163 179 0
163 178 0
165 181 0
161 177 0
168 188 0
163 180 0
164 181 0
161 176 0
164 181 0
211 228 244
211 229 245
210 228 240
211 229 242
208 226 234
208 226 234
210 227 238
206 224 230
208 226 234
206 224 227
205 224 223
208 226 228
205 223 218
206 224 220
202 220 207
196 215 186
200 220 201
198 216 194
191 211 171
196 216 181
194 213 182
194 214 175
190 211 171
194 214 181
187 208 149
189 209 155
185 206 135
186 207 144
189 209 157
187 208 135
183 204 125
181 202 128
182 203 117
185 205 135
183 204 137
185 207 144
181 203 108
181 203 122
188 208 149
184 205 135
180 202 102
182 204 102
186 207 133
180 202 111
177 199 105
183 204 133
180 203 111
182 204 120
175 198 102
182 203 128
179 201 117
176 197 114
183 204 130
184 206 128
181 202 114
184 206 140
181 202 133
192 212 161
186 208 140
191 211 151
185 206 147
187 208 147
189 210 165
193 213 173
193 213 179
194 214 177
198 217 191
195 214 196
196 214 195
194 213 209
190 209 210
177 196 214
182 201 215
188 206 231
184 202 221
190 208 229
187 205 229
179 197 229
163 183 219
159 179 218
136 159 203
134 157 205
125 148 197
123 147 199
101 128 188
79 111 178
84 115 177
92 121 186
92 121 181
84 115 176
82 112 175
87 116 176
73 106 169
78 110 169
77 108 171
68 102 168
74 107 175
67 101 158
66 100 161
73 105 163
65 100 164
69 104 164
63 99 162
63 98 158
69 102 154
64 99 156
61 97 153
65 98 140
68 102 158
69 102 148
66 99 151
69 101 144
62 97 153
68 101 141
64 99 150
66 101 157
60 96 155
62 98 158
59 95 156
59 94 151
58 93 145
61 97 159
58 93 142
61 97 157
61 96 155
61 96 158
59 94 153
61 97 157
60 96 158
61 97 155
61 97 152
61 97 160
61 97 154
62 99 166
61 97 163
62 99 167
60 96 151
60 96 155
61 96 155
62 99 167
60 96 159
61 96 149
61 97 160
60 96 155
62 98 162
61 97 156
62 98 161
62 97 156
61 97 157
62 98 155
61 98 161
61 97 157
60 96 151
60 95 148
61 97 158
61 97 155
61 97 152
61 97 154
61 97 154
60 96 143
61 97 159
61 97 155
61 96 148
62 98 163
61 97 153
61 97 154
62 98 160
61 97 155
61 97 157
61 97 155
62 97 154
62 98 161
61 96 151
61 97 159
61 96 148
61 97 161
62 97 154
61 96 156
61 97 154
62 98 161
62 98 161
62 98 159
62 98 159
61 97 156
61 97 156
62 98 155
62 97 156
61 97 157
62 98 159
62 98 158
61 96 147
61 96 150
62 97 154
62 98 162
62 97 158
62 99 163
61 97 153
62 97 155
61 97 159
61 97 153
62 98 164
62 97 152
62 97 153
61 97 157
61 97 150
61 97 152
62 97 155
61 97 148
62 98 155
61 97 151
63 98 158
61 97 152
62 98 156
61 97 147
62 97 157
61 97 152
62 97 156
59 94 135
61 96 149
62 97 148
60 96 144
62 97 152
61 97 147
62 98 152
61 96 151
62 97 151
61 96 143
60 95 140
60 95 143
62 98 158
61 96 151
62 97 154
61 97 149
61 96 140
61 97 145
62 97 152
60 94 143
60 95 142
60 95 136
61 96 148
60 95 142
60 95 148
60 95 139
60 95 141
62 97 152
59 94 134
60 94 136
59 94 135
61 96 150
60 94 137
61 96 145
60 95 135
59 93 132
60 94 145
60 94 143
61 96 144
60 94 142
58 92 124
59 92 125
58 91 126
72 99 113
101 113 65
108 117 18
106 114 0
115 123 0
108 116 0
113 119 0
102 108 0
112 121 0
113 118 0
112 119 0
116 124 0
105 110 0
108 113 0
100 104 0
114 118 0
106 110 0
95 97 0
122 126 0
114 119 0
104 106 0
111 113 0
104 106 0
110 116 0
97 101 0
103 105 0
97 99 0
110 110 0
107 107 0
105 107 0
106 104 0
99 98 0
112 117 0
102 105 0
105 106 0
104 105 0
103 102 0
106 107 0
109 110 0
110 106 0
96 96 0
102 100 0
100 95 0
95 93 0
97 93 0
102 97 0
99 93 0
100 98 0
101 99 0
101 99 0
100 99 0
103 99 0
110 107 0
113 111 0
105 107 0
100 99 0
111 109 0
99 96 0
101 97 0
111 110 0
112 108 11
106 103 0
107 106 0
116 114 0
106 103 0
112 110 0
110 106 0
123 125 0
118 113 0
115 110 0
113 115 0
127 127 0
122 124 0
133 135 0
126 125 0
124 125 0
126 126 0
126 131 0
132 133 0
133 135 11
135 136 0
131 130 0
138 144 0
135 139 0
131 135 0
137 140 0
142 148 0
140 145 0
146 151 0
145 151 0
144 153 0
144 149 0
143 153 0
149 157 0
146 152 0
149 156 0
150 158 0
146 154 0
145 152 0
152 162 0
154 165 0
152 164 0
157 168 0
155 166 0
149 159 0
161 173 0
149 162 0
154 165 0
149 161 0
158 169 0
157 169 0
159 170 0
156 168 0
156 167 0
159 173 0
161 176 0
156 172 0
154 167 0
164 179 0
159 171 0
157 172 0
160 175 0
162 178 0
166 184 0
159 172 0
159 173 0
164 178 0
164 180 0
162 178 0
167 184 0
158 172 0
164 180 0
167 184 0
162 178 0
165 182 0
158 174 0
166 183 0
163 181 0
168 187 0
158 174 0
211 229 242
212 229 245
211 228 241
210 227 233
206 224 227
208 226 234
207 225 231
204 222 223
204 221 221
202 221 207
200 218 206
200 219 207
199 217 199
197 217 193
194 214 188
194 213 184
192 212 167
193 213 173
190 211 165
188 209 155
194 213 171
189 210 159
181 203 135
185 206 140
189 210 153
186 207 147
182 205 128
182 203 120
181 203 122
178 201 117
176 198 105
183 205 125
174 197 80
183 204 125
181 203 114
181 202 108
182 204 99
179 202 114
178 201 114
180 202 120
177 200 88
177 199 95
177 199 105
178 201 95
178 200 88
179 200 88
177 200 80
178 201 80
180 202 99
178 201 95
180 202 99
175 197 95
180 202 108
181 203 105
176 199 88
174 196 92
180 202 122
179 201 111
178 200 108
181 203 128
186 207 144
183 204 128
187 208 144
187 207 142
182 203 140
189 209 153
187 208 150
184 205 159
182 202 172
173 192 184
163 183 197
160 181 194
168 188 207
173 193 211
186 204 224
184 203 225
192 210 233
179 198 229
161 180 211
158 179 217
145 166 210
138 160 208
129 152 203
119 143 199
100 128 188
94 122 186
89 119 182
82 113 181
82 113 174
80 111 167
74 106 176
74 107 176
79 110 171
80 111 172
65 100 168
66 101 170
74 107 171
68 102 166
67 101 169
69 103 169
68 102 166
66 100 162
69 102 155
65 100 158
67 102 157
69 103 161
62 97 149
62 96 155
64 99 152
64 99 155
68 101 148
72 105 150
66 100 147
66 99 150
59 94 148
63 97 141
60 96 153
62 97 158
59 94 145
58 92 136
61 96 163
60 95 155
60 95 148
59 95 157
60 95 151
59 95 151
60 96 150
61 97 152
60 96 154
60 96 151
60 95 150
61 96 149
61 96 157
60 96 153
60 96 155
60 96 155
60 95 151
61 96 156
61 96 148
61 96 150
61 97 159
60 96 154
61 97 155
61 97 156
60 96 156
60 95 151
60 96 155
60 96 156
61 97 154
61 97 155
60 96 151
60 95 150
60 96 154
61 96 152
61 97 160
61 97 155
62 98 162
61 97 159
61 97 165
61 96 154
61 97 157
61 97 162
60 96 152
62 97 156
61 97 157
61 97 153
61 97 154
62 98 159
62 98 159
61 97 155
61 97 154
62 98 156
62 98 162
61 97 156
61 97 155
60 96 150
60 96 151
60 96 150
62 98 158
61 96 141
61 96 151
62 98 159
62 98 160
62 97 157
61 96 148
61 97 155
62 98 153
62 98 160
61 96 148
61 96 156
59 94 141
61 96 149
61 96 156
62 98 162
60 96 152
61 97 152
61 97 155
61 97 152
60 95 149
62 98 159
61 97 150
61 97 151
62 98 154
61 97 159
61 97 157
61 97 147
61 97 157
62 97 155
61 96 145
61 97 149
61 97 151
62 98 159
61 97 155
62 97 150
61 97 145
60 96 144
61 96 153
61 96 147
62 98 162
61 97 158
62 97 151
62 98 156
61 96 141
61 97 151
59 94 142
61 96 147
62 97 154
62 97 156
60 95 145
61 96 154
61 97 153
60 95 144
61 96 143
61 96 149
60 95 143
60 95 147
61 96 150
61 96 148
61 96 145
61 95 140
62 97 149
61 95 147
61 95 146
61 96 147
61 96 143
60 94 136
62 97 151
62 97 150
59 94 140
60 95 138
59 93 129
61 96 141
61 96 136
60 95 142
60 95 134
59 92 131
60 95 135
58 91 133
58 90 123
60 92 123
77 98 96
98 110 51
113 122 0
123 128 0
120 125 0
117 126 0
122 133 0
126 135 0
112 119 0
109 116 0
119 126 0
109 115 0
106 109 0
110 114 0
104 108 0
116 123 0
118 123 0
115 120 0
108 116 0
104 106 0
108 116 0
121 123 0
109 114 0
114 119 0
111 113 0
111 114 0
110 113 0
105 110 0
95 95 0
110 109 0
101 104 0
110 110 0
111 115 0
109 111 0
103 103 0
97 99 0
121 124 0
110 106 0
103 103 0
105 102 0
98 96 0
104 102 0
96 94 0
99 92 0
97 96 0
99 96 0
98 94 0
105 104 0
104 103 0
106 104 0
100 98 0
105 102 0
97 93 0
105 101 0
117 116 0
105 103 0
113 111 0
109 105 0
101 97 0
108 106 0
122 120 0
105 106 0
107 104 0
119 118 0
119 119 0
123 122 11
123 123 0
124 123 0
111 109 0
123 123 0
129 130 0
117 116 0
123 121 0
130 130 0
137 142 0
129 132 0
144 150 0
133 136 11
133 137 0
140 143 0
137 138 0
133 138 0
140 144 0
140 145 0
145 149 0
141 146 0
145 150 0
150 155 0
149 156 0
143 150 0
147 154 0
146 152 0
149 159 0
148 153 0
143 149 0
146 155 0
149 157 0
155 162 0
153 162 0
150 158 0
151 161 0
156 170 0
155 163 0
154 164 0
153 163 0
150 161 0
152 161 0
152 162 0
154 164 0
154 166 0
158 169 0
157 170 0
155 167 0
160 172 0
158 167 0
161 175 0
155 168 0
158 171 0
157 173 0
157 171 0
164 180 0
160 176 0
159 174 0
160 174 0
166 180 0
160 177 0
158 174 0
158 172 0
165 181 0
160 175 0
164 179 0
161 176 0
165 182 0
162 179 0
161 177 0
160 176 0
162 178 0
166 184 0
161 177 0
164 181 0
211 229 241
211 229 242
210 227 233
207 224 227
206 224 224
206 224 223
204 222 212
197 216 199
198 217 198
200 218 194
198 218 189
199 218 199
196 215 182
193 213 167
194 213 179
189 208 155
195 215 175
187 208 144
187 208 147
187 208 135
188 208 142
179 201 108
183 205 122
184 206 135
182 204 122
180 202 114
183 204 105
177 199 99
178 200 99
179 201 111
183 205 120
178 200 80
176 200 84
176 198 80
179 201 95
175 199 92
176 199 72
174 198 84
176 199 67
177 200 92
172 195 62
174 197 99
176 200 92
174 198 72
177 200 72
175 197 84
172 196 76
176 199 84
175 198 80
174 197 76
176 199 80
176 199 67
173 196 92
173 197 80
177 200 88
178 201 111
178 200 84
177 199 105
178 200 111
173 196 76
172 194 95
183 205 114
180 203 114
180 201 105
180 201 117
185 207 125
182 203 131
178 199 147
167 188 152
163 184 168
147 168 178
153 173 191
157 177 198
152 173 201
176 195 208
175 194 219
168 187 211
163 183 208
165 184 216
148 168 208
144 165 201
136 158 205
118 142 192
112 138 188
101 129 190
111 137 193
106 133 191
92 121 185
82 113 177
67 102 177
93 121 179
77 109 176
79 111 172
70 104 174
79 110 176
68 101 165
77 109 179
71 104 174
68 102 164
79 110 170
64 99 166
64 100 163
72 105 162
70 103 162
64 99 161
63 99 160
64 99 154
63 98 155
62 98 162
63 97 144
62 98 157
67 101 157
65 98 154
66 100 155
63 97 144
68 101 153
68 101 158
64 98 150
61 96 156
60 96 159
60 96 153
60 96 155
59 95 153
60 96 158
60 95 151
60 96 152
59 94 149
60 96 153
60 96 156
61 96 157
61 97 156
61 97 158
60 95 148
61 96 149
61 96 156
62 98 162
61 96 154
60 96 161
60 96 152
60 96 154
59 94 149
60 96 154
61 97 158
61 96 151
60 96 155
61 97 157
62 98 161
62 98 161
61 96 153
62 98 160
61 97 149
61 97 155
61 97 157
60 96 147
61 97 159
61 97 156
61 97 157
61 97 154
62 98 160
62 97 160
61 97 150
61 96 151
60 96 144
60 96 152
61 96 155
62 97 154
61 97 152
60 95 148
61 97 155
60 95 148
62 98 161
61 96 147
61 97 156
61 96 145
62 97 154
61 97 156
62 97 155
61 97 149
62 97 154
60 96 150
60 96 151
61 97 154
61 97 154
62 97 158
62 97 154
61 97 151
61 97 150
60 96 154
61 97 153
60 96 151
61 97 151
62 98 159
62 98 164
62 98 161
62 98 158
62 98 158
62 98 157
61 97 157
61 97 153
62 97 154
62 98 154
59 94 142
62 97 157
61 97 157
61 97 159
62 97 153
61 97 152
62 97 156
62 97 158
61 97 150
62 97 153
61 97 155
61 97 155
62 98 152
62 97 149
62 97 153
60 96 149
61 97 147
62 97 149
61 97 152
62 97 154
62 97 151
61 97 147
62 98 155
62 98 151
61 97 149
62 98 154
60 95 131
62 97 152
62 98 156
61 96 150
61 97 152
61 96 141
61 96 149
61 97 151
60 94 131
61 96 144
61 96 143
61 96 147
61 96 148
61 96 145
62 97 149
61 96 146
60 95 139
60 95 142
61 96 150
61 95 142
60 95 142
60 95 137
59 94 133
62 96 150
60 95 138
60 94 141
59 93 135
60 94 134
59 93 135
60 94 134
57 89 119
57 90 131
61 90 108
95 110 85
105 117 36
115 122 0
103 109 0
104 114 0
107 117 0
123 130 0
108 113 0
110 115 0
109 117 0
118 125 0
114 122 0
117 124 0
111 118 0
103 110 0
120 126 0
114 118 0
105 108 0
111 119 0
116 121 0
112 117 0
104 106 0
118 124 0
117 123 0
118 123 0
104 107 0
104 107 0
113 118 0
106 108 0
109 110 0
110 112 0
103 106 0
101 105 0
113 116 0
108 110 0
102 103 0
104 104 0
104 107 0
96 94 0
99 99 0
108 108 0
112 113 0
111 110 0
102 101 0
108 109 0
107 111 0
104 103 0
108 108 0
122 121 0
105 104 0
98 97 0
103 103 0
107 109 0
103 99 0
113 113 0
110 110 0
109 108 0
110 110 0
115 112 0
117 118 0
116 114 0
114 113 0
113 114 0
116 119 0
118 119 0
125 126 0
117 116 0
121 122 0
117 118 0
132 132 0
123 125 0
127 127 0
132 134 0
130 134 0
134 136 0
130 130 0
133 134 0
134 140 0
134 140 0
133 133 0
141 143 0
131 134 0
147 154 0
136 141 0
137 140 0
139 143 0
139 146 0
148 154 0
140 146 0
141 146 0
145 151 0
143 145 0
153 161 0
147 154 0
148 155 0
150 159 0
144 151 0
145 152 0
155 164 0
151 160 0
153 164 0
150 159 0
155 167 0
147 156 0
151 163 0
153 161 0
150 159 0
152 162 0
154 163 0
154 165 0
157 170 0
158 170 0
157 170 0
158 171 0
159 172 0
151 163 0
156 171 0
160 175 0
158 171 0
157 173 0
159 173 0
159 173 0
156 169 0
162 175 0
164 178 0
159 176 0
152 166 0
159 176 0
165 181 0
164 179 0
165 184 0
162 179 0
163 177 0
160 172 0
162 179 0
161 178 0
161 178 0
166 183 0
165 185 0
156 173 0
209 227 234
208 225 230
205 223 223
202 220 209
204 222 217
202 221 204
202 221 206
196 216 194
195 214 186
192 212 169
194 214 179
194 213 179
188 209 149
189 210 157
184 206 137
184 206 130
187 208 144
186 207 135
180 201 130
180 202 108
183 204 120
179 202 102
177 200 102
180 203 105
183 205 114
178 199 108
176 199 92
175 199 92
173 196 57
178 200 72
173 197 67
175 198 80
175 198 84
176 200 88
176 199 84
177 200 76
175 197 80
176 199 88
171 194 51
172 195 62
173 197 44
175 198 80
174 198 76
173 197 72
173 197 76
172 197 67
175 199 67
175 199 95
173 197 67
178 200 62
175 198 84
173 197 76
174 198 67
173 196 67
175 199 72
175 197 57
178 201 92
173 197 72
175 198 76
175 198 84
178 201 80
178 201 105
175 198 95
174 197 72
181 204 105
177 200 95
179 201 108
178 199 128
166 187 139
148 170 165
131 154 160
133 156 170
127 150 178
143 165 182
137 159 181
159 180 203
155 175 199
159 179 204
156 176 205
145 167 204
143 165 201
122 146 197
126 149 198
109 135 188
112 137 190
100 128 190
104 131 192
86 116 180
89 118 184
79 111 177
71 105 174
76 109 174
74 107 177
66 101 177
79 111 173
71 105 174
71 104 170
82 112 174
65 100 168
68 102 170
75 107 164
63 99 160
65 101 169
61 98 168
63 98 159
66 101 160
68 102 159
63 97 153
69 103 157
67 101 160
66 100 159
63 98 149
65 99 148
69 103 140
70 103 148
64 98 153
60 95 154
58 93 140
61 96 160
61 97 162
63 97 151
61 97 157
60 96 153
59 94 150
61 96 157
60 95 154
60 95 153
60 95 149
60 95 150
59 95 139
59 94 150
61 97 161
60 96 149
61 97 163
61 97 161
60 96 152
62 97 154
60 95 153
60 96 156
60 96 156
60 95 149
60 96 161
61 97 153
60 95 149
61 97 155
60 96 150
60 95 148
60 96 154
61 97 160
60 96 154
60 96 152
61 97 154
60 96 160
61 97 156
60 96 154
60 96 154
61 96 146
61 96 149
62 98 161
61 96 158
61 97 158
62 98 157
61 97 157
62 97 160
62 97 155
61 97 153
60 96 158
62 98 160
61 97 153
61 97 157
60 95 144
62 98 159
61 97 157
61 97 154
61 96 148
62 97 153
62 98 157
61 96 159
62 98 160
61 97 158
61 97 157
63 98 157
61 97 154
62 98 155
62 97 156
62 98 157
62 98 162
62 97 149
61 97 151
62 97 154
61 97 151
62 98 161
62 97 151
61 97 155
62 98 153
61 96 145
61 97 158
62 98 155
62 98 158
61 97 154
60 96 147
62 98 155
61 97 153
62 98 155
61 96 149
61 96 149
61 97 154
60 96 151
62 97 157
59 94 134
61 97 149
60 95 143
61 97 150
61 96 148
62 98 156
61 96 143
61 97 150
59 94 140
60 96 143
61 96 145
61 96 144
61 96 150
61 97 153
61 97 153
62 97 145
62 97 150
62 98 155
59 94 144
61 96 148
61 96 152
62 97 153
62 97 147
61 96 149
62 97 150
60 95 144
61 96 141
60 95 142
61 96 142
61 96 144
60 94 139
61 96 143
61 96 141
62 97 153
60 95 141
62 97 147
60 94 137
61 95 142
60 94 132
60 94 140
60 95 139
61 95 139
59 94 129
58 91 134
59 94 132
59 93 135
60 94 133
58 91 133
58 90 121
57 89 121
65 92 110
100 112 63
110 121 36
112 120 0
123 135 0
123 134 0
111 120 0
116 125 0
122 132 0
105 112 0
122 129 0
96 103 0
115 119 0
110 117 0
111 115 0
107 113 0
122 130 0
103 110 0
117 122 0
112 117 0
113 118 0
113 118 0
114 122 0
119 124 0
116 123 0
114 119 0
115 115 0
98 100 0
98 100 0
100 102 0
100 101 0
111 114 0
104 105 0
112 114 0
113 114 0
115 119 0
101 104 0
108 109 0
101 103 0
112 115 0
114 114 0
112 113 0
106 104 0
113 111 0
106 105 0
120 121 0
104 103 0
99 98 0
108 107 0
110 111 0
116 114 0
109 110 0
109 110 0
113 111 0
104 105 0
114 112 0
104 104 0
115 114 0
110 112 0
123 126 0
117 115 0
116 116 0
120 121 0
126 127 0
126 128 0
122 123 0
117 117 0
127 128 0
126 129 0
129 132 0
134 134 0
138 141 0
135 139 0
137 142 0
134 135 0
139 139 0
133 135 0
134 138 0
128 131 0
134 135 0
139 141 0
131 134 0
148 153 0
141 144 0
145 151 0
137 143 0
141 148 0
149 154 0
144 151 0
145 151 0
150 160 0
143 150 0
145 150 0
146 151 0
147 154 0
150 158 0
146 157 0
144 152 0
147 157 0
158 169 0
150 159 0
155 164 0
157 170 0
155 167 0
160 171 0
155 165 0
155 165 0
158 169 0
148 159 0
149 160 0
157 168 0
156 168 0
160 173 0
153 166 0
160 172 0
161 176 0
153 167 0
158 170 0
165 178 0
164 179 0
162 176 0
161 175 0
162 179 0
164 178 0
158 170 0
162 178 0
155 170 0
161 178 0
161 176 0
158 172 0
159 174 0
165 181 0
163 180 0
162 177 0
162 178 0
166 184 0
168 185 0
165 181 0
157 173 0
159 174 0
163 181 0
203 221 211
203 221 212
204 223 220
202 221 207
199 218 196
192 212 175
196 215 179
195 215 175
194 213 171
191 212 161
185 206 144
185 205 151
190 210 151
186 207 137
179 202 125
183 204 117
182 204 128
179 201 105
174 198 92
179 202 102
180 202 105
175 198 76
174 198 76
173 196 80
181 204 111
177 201 84
175 198 72
173 196 72
174 197 80
174 197 51
171 195 76
176 199 57
171 195 44
173 197 88
175 199 72
175 197 76
174 197 51
177 200 92
173 197 62
172 196 76
173 196 67
169 193 57
173 196 62
171 194 62
174 197 62
172 196 76
173 197 88
171 195 80
174 197 72
173 196 80
171 195 57
175 197 62
171 194 92
176 199 67
172 196 57
171 194 72
175 199 62
176 198 67
175 198 67
175 198 80
172 195 72
172 196 84
175 198 72
177 200 76
174 197 76
176 200 84
175 198 92
166 188 105
147 171 135
125 150 137
125 149 158
124 149 149
121 145 158
128 152 161
127 150 177
125 149 171
149 171 192
151 172 192
143 165 191
153 173 204
121 145 187
128 152 186
116 141 191
110 136 184
106 133 186
99 127 181
88 118 179
79 111 182
84 115 182
89 118 181
84 115 182
82 113 181
77 109 178
91 120 181
77 109 179
88 117 178
76 108 169
71 105 178
67 101 168
71 104 170
74 107 175
68 102 162
70 104 162
69 103 168
62 98 164
63 98 156
63 98 160
63 99 166
63 98 159
63 98 158
64 99 158
66 100 145
63 98 156
64 99 155
67 101 151
67 100 148
63 98 151
64 98 151
63 97 147
59 95 150
61 96 152
61 96 153
61 96 150
59 95 153
59 94 144
59 95 149
60 96 156
61 96 154
61 97 160
60 95 154
60 96 161
60 95 151
59 95 147
60 96 156
62 97 148
61 97 154
61 96 155
60 96 147
60 96 144
60 95 157
60 96 151
61 97 159
60 95 151
61 96 156
60 96 145
62 98 161
61 96 155
61 97 153
60 95 154
61 97 158
61 96 156
62 98 163
60 96 161
60 96 148
61 97 156
61 97 161
61 96 158
60 95 145
61 96 154
62 98 160
61 96 156
60 95 154
61 97 156
61 97 158
60 96 153
61 97 153
62 97 156
61 97 156
61 97 159
61 97 157
60 96 151
60 95 141
62 97 150
61 97 152
61 96 153
61 96 153
62 97 153
62 97 160
60 96 152
61 96 152
61 97 152
62 97 154
62 97 149
61 96 149
60 96 150
62 98 161
60 96 151
62 98 158
62 97 152
61 97 156
61 97 154
63 98 154
61 97 154
61 97 151
60 96 143
62 98 162
60 96 147
61 97 154
60 95 151
62 97 157
62 98 158
61 97 154
61 96 154
60 95 142
61 97 151
62 98 154
61 97 148
62 97 154
62 97 154
61 97 151
61 96 147
60 96 149
61 96 147
60 96 142
62 98 160
62 97 150
62 98 161
61 97 144
61 97 150
62 97 149
61 96 144
61 97 154
60 95 145
62 97 155
61 96 142
60 95 145
61 97 151
61 97 153
61 96 148
62 97 150
60 96 145
62 97 155
60 95 137
62 97 151
60 96 145
60 95 137
60 95 141
60 94 139
61 96 147
59 94 130
61 96 150
61 96 145
60 95 139
60 95 132
61 95 138
60 94 133
60 95 142
60 95 137
58 92 123
60 94 137
59 94 136
60 94 134
60 95 136
61 95 137
58 91 120
56 89 118
60 93 132
58 91 127
59 92 123
83 105 94
99 110 57
112 121 25
118 130 0
122 133 0
122 132 0
106 114 0
113 121 0
118 126 0
117 125 0
121 129 0
121 130 0
104 110 0
114 120 0
111 120 0
111 117 0
113 118 0
119 127 0
120 125 0
119 124 0
117 123 0
108 116 0
116 120 0
119 124 0
103 107 0
110 116 0
114 118 0
115 120 0
103 108 0
119 123 0
108 111 0
106 110 0
117 117 0
114 115 0
109 113 0
103 102 0
105 108 0
102 104 0
108 110 0
116 119 0
114 115 0
110 111 0
105 104 0
120 124 0
114 116 0
111 114 0
115 115 0
113 115 0
112 111 0
121 121 0
129 135 0
123 123 0
121 121 0
115 115 0
119 121 0
114 113 0
119 120 0
116 116 0
115 114 0
129 132 0
117 117 0
122 126 0
119 118 0
129 132 0
124 121 0
130 131 0
128 131 0
124 125 0
129 132 0
128 130 0
137 138 0
134 137 0
134 136 0
120 123 0
140 143 0
140 145 0
130 134 0
134 137 0
146 151 0
134 137 0
141 147 0
137 139 0
142 147 0
146 152 0
144 149 0
143 148 0
142 148 0
141 143 0
145 150 0
141 147 0
138 141 0
143 148 0
144 151 0
155 165 0
151 156 0
146 157 0
141 147 0
146 154 0
160 171 0
150 159 0
154 164 0
147 158 0
151 163 0
155 167 0
156 168 0
157 170 0
159 172 0
156 168 0
160 172 0
154 166 0
155 165 0
158 170 0
154 164 0
158 172 0
156 170 0
160 173 0
157 171 0
154 166 0
158 171 0
160 176 0
158 173 0
160 172 0
156 171 0
162 177 0
159 174 0
155 170 0
161 176 0
163 179 0
166 182 0
161 177 0
163 179 0
164 182 0
157 174 0
166 183 0
162 179 0
165 181 0
165 181 0
158 172 0
165 182 0
166 185 0
158 176 0
202 220 209
200 218 194
195 215 177
200 219 199
196 215 188
190 210 167
187 208 144
195 214 167
190 211 165
182 203 122
185 208 151
184 206 133
181 203 125
181 202 99
181 203 111
184 206 133
181 202 120
180 202 105
177 200 76
175 198 88
177 199 84
176 199 76
177 200 76
176 199 80
173 197 62
175 198 76
173 197 67
170 193 92
173 197 62
174 197 67
174 196 51
173 197 62
172 197 57
174 198 76
174 198 72
177 201 108
174 198 67
174 197 67
171 195 62
173 196 72
174 197 72
170 192 76
172 195 72
174 198 67
173 196 84
173 196 84
170 194 36
173 197 84
173 197 51
175 198 51
170 193 80
173 197 67
173 197 67
171 194 62
172 196 62
173 197 51
175 198 76
173 196 72
172 195 80
175 198 80
174 197 57
173 196 76
172 195 67
175 198 80
175 198 72
172 194 62
176 199 76
163 187 72
149 173 121
127 152 136
110 137 154
112 138 148
108 135 150
91 119 151
116 141 173
121 145 169
114 139 159
122 146 175
127 150 174
130 153 182
134 157 181
127 151 186
100 127 178
109 135 181
95 124 176
93 122 181
96 124 181
78 110 176
81 113 182
83 114 178
80 111 180
87 116 179
84 115 181
87 117 182
79 111 175
82 113 181
77 109 178
74 107 175
79 110 169
80 112 181
64 99 166
64 100 165
65 100 164
68 102 167
65 100 168
61 97 159
65 100 155
61 97 163
67 101 159
64 99 161
63 97 153
65 100 157
62 97 157
63 97 148
69 103 155
68 101 153
72 104 143
64 98 151
67 100 154
65 100 152
60 95 156
63 97 146
59 94 150
61 96 150
60 96 150
61 97 153
61 97 160
59 94 149
61 97 153
59 95 149
60 96 153
60 95 149
61 97 161
62 98 158
59 95 147
60 96 156
60 95 149
60 96 152
61 96 150
61 96 150
61 96 150
60 95 145
59 94 151
60 96 149
61 96 158
60 96 156
61 96 147
60 95 151
61 96 155
60 96 155
61 96 155
61 96 153
61 97 161
61 96 147
62 97 157
59 94 140
60 96 154
61 97 156
61 96 151
61 96 150
62 98 156
61 96 153
61 97 156
61 97 160
61 96 153
63 98 161
62 97 150
62 97 156
61 97 153
62 98 154
60 95 147
62 97 156
62 98 158
61 96 151
61 97 150
62 98 156
62 97 151
61 97 157
62 98 155
62 97 155
62 98 156
62 98 159
61 97 154
61 96 152
61 96 147
60 96 147
61 96 152
60 96 147
62 98 157
61 97 155
61 96 151
61 97 154
61 96 150
61 97 152
62 99 167
61 96 149
60 96 143
61 97 153
61 97 152
62 98 157
61 96 152
62 98 155
61 96 151
61 96 152
61 96 150
62 98 156
62 97 152
62 97 148
61 96 147
61 97 148
62 98 158
62 98 152
60 95 141
62 97 157
60 95 139
61 96 153
61 97 152
61 97 151
61 97 151
60 95 147
61 96 147
60 96 149
60 95 140
62 98 153
60 94 135
60 95 141
61 96 140
61 96 144
61 96 143
61 96 149
61 97 150
60 96 142
61 96 147
62 97 152
61 97 149
62 97 150
59 94 137
61 96 145
61 96 147
61 95 139
60 95 143
59 94 131
62 97 151
61 95 142
61 96 147
62 97 147
59 93 135
60 95 140
60 95 146
59 93 132
60 94 132
60 94 131
59 93 128
60 94 139
60 94 137
57 90 116
58 91 134
59 93 130
62 91 111
92 109 73
116 127 36
117 128 0
110 119 0
124 135 0
109 119 0
107 117 0
123 130 0
115 126 0
121 130 0
118 125 0
115 122 0
110 118 0
111 118 0
117 125 0
109 116 0
117 124 0
107 114 0
109 115 0
118 126 0
109 115 0
114 119 0
112 115 0
115 117 0
115 122 0
116 123 0
115 119 0
118 123 0
125 131 0
110 114 0
111 114 0
109 112 0
111 114 0
107 109 0
112 117 0
108 109 0
115 119 0
101 101 0
112 115 0
123 127 0
106 110 0
114 116 0
118 123 0
106 109 0
115 115 0
123 125 0
111 113 0
115 118 0
108 108 0
110 111 0
116 119 0
116 118 0
112 112 0
114 115 0
111 113 0
118 118 0
114 115 0
117 119 0
123 126 0
120 124 0
130 132 0
120 120 0
123 123 0
121 123 0
129 133 0
123 125 0
128 128 0
135 139 0
137 140 0
127 128 0
128 128 0
135 136 0
131 134 0
140 144 0
144 150 0
133 136 0
130 130 0
142 146 0
140 144 0
138 142 0
137 137 0
146 152 0
144 153 0
133 137 0
134 136 0
145 151 0
148 157 0
142 144 0
151 161 0
144 151 0
145 151 0
147 154 0
148 154 0
138 145 0
153 163 0
150 162 0
148 158 0
154 163 0
142 149 0
147 155 0
153 165 0
153 162 0
156 166 0
146 155 0
142 148 0
153 162 0
154 166 0
155 166 0
154 166 0
156 168 0
154 165 0
156 167 0
155 168 0
152 161 0
163 179 0
151 165 0
164 178 0
154 167 0
163 179 0
156 166 0
163 176 0
158 172 0
162 179 0
161 179 0
163 178 0
162 177 0
165 181 0
161 178 0
165 181 0
161 176 0
164 179 0
165 182 0
161 178 0
161 178 0
160 174 0
164 180 0
163 179 0
162 181 0
164 183 0
159 174 0
164 181 0
197 217 189
191 210 175
190 210 163
190 211 157
188 209 144
188 208 161
185 207 137
182 203 135
184 206 144
183 205 125
179 201 99
177 199 88
178 200 95
181 203 105
177 199 80
176 199 76
175 197 67
179 201 95
177 201 92
174 197 76
179 202 99
176 198 25
176 199 95
174 198 67
174 197 57
171 195 76
174 197 57
173 196 51
173 196 44
175 198 62
173 197 72
176 199 67
173 197 67
173 197 72
174 197 62
175 198 72
173 196 67
171 196 67
174 198 72
171 196 62
175 198 57
173 196 62
174 198 80
174 197 80
174 197 72
171 195 57
171 195 51
176 199 76
174 197 57
173 197 80
172 196 62
175 198 62
170 194 51
175 199 92
168 192 44
175 198 76
173 197 67
174 198 57
171 195 76
175 199 84
172 195 76
173 197 92
173 196 62
175 199 72
172 195 67
173 196 84
173 196 76
171 194 97
161 184 115
114 140 134
104 132 153
100 128 157
109 135 157
105 133 150
98 126 160
105 132 159
124 149 156
121 146 168
121 144 159
131 154 174
121 145 173
121 145 166
100 127 165
100 127 172
101 129 174
99 127 182
73 107 172
82 113 172
73 106 177
81 113 181
70 104 171
77 109 178
76 109 178
71 105 181
70 104 173
68 103 170
74 107 176
77 109 179
65 101 172
67 102 164
71 105 171
67 101 161
68 102 164
71 103 160
61 97 159
61 96 160
64 100 165
63 98 160
64 100 166
66 101 157
63 99 164
61 97 162
64 98 158
61 96 156
68 102 156
65 99 146
73 105 149
71 103 154
62 96 139
64 97 151
65 100 148
62 97 148
66 100 148
62 97 151
60 95 148
60 96 151
59 94 144
60 96 161
60 95 149
60 95 148
59 95 151
60 96 151
60 96 157
60 96 151
61 97 157
61 97 160
61 97 154
60 95 148
60 95 151
60 96 155
60 96 155
61 96 150
61 96 157
60 96 151
60 96 149
60 96 147
60 96 148
60 96 151
61 97 154
61 96 149
61 97 160
61 97 159
60 95 151
61 96 143
60 95 143
62 97 153
60 95 144
62 98 163
62 98 157
61 97 155
60 95 149
58 93 139
61 97 151
61 96 155
62 98 162
62 97 156
62 97 157
61 97 153
62 97 153
61 97 156
61 97 160
61 96 153
61 97 156
62 97 154
61 97 155
61 96 151
61 96 150
62 98 158
60 96 148
61 97 153
61 97 149
61 96 154
60 96 143
62 98 156
61 97 152
61 97 150
61 97 152
61 97 156
61 96 150
62 97 157
61 97 153
62 97 154
62 97 154
62 97 156
62 97 157
61 96 153
62 97 154
61 97 143
59 95 143
60 96 150
63 99 163
60 96 153
61 96 151
60 96 148
61 97 151
63 99 159
63 98 159
61 97 149
61 96 145
61 96 147
61 96 142
61 96 148
60 96 144
62 98 156
61 96 145
61 96 148
60 96 150
61 96 151
61 97 154
60 95 143
61 97 158
61 95 144
61 96 150
60 95 141
61 96 139
61 97 151
61 96 143
61 97 154
61 97 145
60 95 142
60 95 144
61 96 144
60 95 133
61 96 142
62 97 143
61 97 153
61 97 149
61 96 141
62 97 143
60 95 137
60 95 140
60 95 134
62 97 147
60 95 141
61 96 143
60 95 136
59 94 133
60 94 139
60 94 133
59 93 135
59 94 126
59 93 129
59 94 134
59 92 126
58 91 121
59 92 127
58 91 125
57 89 118
70 94 105
109 123 57
116 128 25
122 132 0
107 117 0
117 127 0
115 126 0
115 125 0
119 129 0
121 129 0
102 107 0
116 124 0
110 119 0
122 132 0
124 130 0
116 126 0
118 123 0
113 118 0
116 123 0
113 122 0
113 116 0
123 127 0
117 122 0
107 112 0
113 119 0
113 120 0
114 120 0
122 130 0
122 127 0
128 137 0
112 117 0
114 120 0
110 115 0
103 106 0
115 116 0
110 113 0
107 110 0
114 116 0
114 115 0
107 109 0
116 119 0
110 113 0
116 118 0
110 112 0
122 128 0
120 118 0
112 114 0
106 109 0
110 111 0
123 127 0
118 123 0
117 119 0
113 115 0
123 125 0
112 113 0
126 127 0
114 112 0
123 123 0
119 123 0
131 136 0
127 132 0
119 119 0
135 140 0
123 122 0
119 121 0
108 110 0
138 142 0
127 126 0
124 125 0
143 147 0
127 130 0
126 130 0
134 141 0
134 136 0
133 138 0
142 146 0
139 145 0
136 140 0
142 146 0
141 149 0
147 152 0
137 141 0
146 152 0
137 143 0
141 146 0
131 134 0
141 148 0
138 144 0
142 146 0
150 156 0
152 162 0
151 159 0
155 166 0
147 156 0
147 155 0
148 156 0
153 163 0
146 155 0
155 164 0
148 158 0
151 161 0
147 157 0
144 152 0
152 161 0
150 162 0
156 168 0
155 168 0
151 163 0
160 172 0
155 166 0
160 170 0
162 176 0
160 173 0
158 173 0
160 172 0
158 172 0
156 170 0
151 164 0
163 177 0
162 175 0
162 178 0
160 176 0
157 171 0
163 179 0
159 173 0
158 172 0
159 176 0
158 174 0
160 175 0
159 176 0
159 175 0
166 183 0
159 175 0
166 184 0
163 179 0
163 179 0
162 179 0
157 171 0
158 175 0
167 183 0
168 185 0
169 186 0
192 212 163
191 211 155
184 206 142
183 205 135
185 205 147
184 206 151
182 203 133
182 204 122
179 201 105
178 201 99
176 199 95
177 199 95
179 201 92
176 199 84
178 201 92
176 199 95
175 199 88
171 195 72
174 198 67
175 198 57
176 199 80
176 199 72
173 196 84
174 196 67
174 198 67
171 195 72
174 197 67
175 198 72
173 197 105
171 195 72
174 198 67
173 197 88
176 199 72
175 198 72
171 194 51
171 196 72
175 199 62
175 199 92
175 199 95
172 196 67
173 198 84
172 195 62
173 196 67
176 200 92
174 198 88
171 195 51
173 197 62
175 199 76
173 196 84
174 197 88
172 196 62
170 193 62
173 196 62
171 195 67
174 198 84
173 196 80
174 197 80
170 194 51
174 197 84
174 197 72
176 199 72
172 195 72
173 196 67
170 194 72
171 195 57
175 198 95
171 194 72
174 198 60
151 175 100
128 153 143
106 133 145
102 130 152
102 129 136
111 138 154
117 143 162
91 120 158
105 132 152
111 137 143
103 130 157
99 126 165
113 139 157
119 144 166
114 140 167
102 130 171
106 133 169
87 116 167
94 123 170
89 119 179
83 114 179
95 124 182
80 112 174
76 108 178
76 109 178
80 111 181
84 115 182
89 118 177
84 114 178
73 106 175
70 104 170
72 105 168
75 107 165
72 105 173
68 102 166
70 104 169
62 98 170
65 99 158
65 100 167
61 96 156
63 99 162
62 98 164
61 96 150
64 99 152
63 98 159
59 94 149
62 97 157
61 95 143
63 98 153
70 102 146
71 104 150
64 98 143
62 97 148
59 94 149
58 93 150
61 96 149
60 95 151
59 94 146
60 95 146
59 94 145
60 96 147
60 95 147
60 95 151
60 95 141
60 96 153
60 96 148
60 95 150
61 96 149
60 95 153
60 95 149
60 96 153
61 96 150
62 97 156
60 95 154
61 96 149
61 97 153
59 94 145
62 98 160
61 97 151
61 97 160
61 96 148
60 96 151
61 97 157
60 95 143
62 98 154
61 96 155
61 97 151
60 96 145
61 97 154
61 97 153
61 97 155
62 98 160
60 95 144
62 97 155
61 97 155
61 97 160
61 96 143
61 97 151
60 95 145
61 97 152
61 96 149
62 98 161
61 97 157
61 97 152
62 98 157
60 96 154
61 97 149
60 95 142
61 97 148
62 98 163
62 98 158
61 96 149
61 97 152
60 95 147
61 96 147
61 97 150
61 96 143
62 97 157
61 97 145
60 96 152
61 96 143
62 98 153
62 97 157
62 97 160
61 96 142
62 97 159
62 97 154
62 97 144
61 96 148
61 97 150
63 98 158
62 98 155
62 98 158
62 97 155
62 98 160
61 96 147
61 97 153
62 98 155
60 95 142
60 95 149
62 98 156
62 97 154
60 96 144
61 96 149
62 97 153
60 95 140
62 98 156
62 97 150
60 95 144
60 95 142
60 95 139
61 97 148
62 98 155
61 96 151
61 96 145
61 97 148
61 96 149
62 98 154
61 96 140
60 96 148
61 97 149
61 96 143
60 94 134
61 96 150
61 96 149
61 96 139
61 97 144
61 96 143
62 97 149
59 94 135
61 96 147
60 95 141
60 95 136
60 94 139
60 95 140
60 95 143
62 97 145
61 95 145
60 94 134
60 95 136
61 95 147
58 93 137
60 94 140
59 93 134
60 94 131
58 92 125
59 92 124
58 92 120
58 91 115
59 90 116
93 113 97
101 115 45
112 122 18
117 124 0
118 126 0
126 137 0
111 120 0
122 130 0
114 124 0
113 121 0
114 123 0
118 127 0
123 133 0
115 123 0
108 115 0
113 121 0
120 129 0
123 130 0
116 125 0
118 127 0
117 125 0
113 121 0
115 121 0
107 113 0
103 111 0
108 113 0
121 127 0
104 109 0
113 118 0
114 118 0
115 121 0
110 114 0
106 110 0
122 128 0
121 128 0
120 123 0
123 128 0
115 119 0
105 110 0
120 123 0
112 112 0
114 119 0
114 118 0
115 115 0
115 115 0
120 122 0
119 123 0
123 127 0
124 127 0
117 121 0
121 121 0
122 125 0
130 132 0
124 127 0
124 126 0
118 120 0
123 126 0
128 130 0
128 133 0
111 113 0
121 123 0
129 132 0
130 135 0
130 133 0
125 127 0
132 136 0
132 133 0
127 132 0
137 141 0
132 139 0
132 137 0
131 135 0
138 143 0
135 141 0
129 133 0
135 140 0
137 142 0
136 142 0
142 146 0
141 149 0
137 144 0
145 153 0
144 150 0
138 141 0
132 137 0
144 151 0
145 152 0
154 164 0
141 146 0
144 150 0
143 154 0
150 159 0
145 152 0
152 162 0
153 162 0
153 163 0
144 151 0
151 159 0
150 160 0
145 155 0
146 157 0
158 171 0
149 160 0
149 158 0
149 161 0
159 170 0
161 174 0
155 168 0
148 158 0
156 168 0
161 174 0
164 177 0
160 170 0
158 172 0
159 174 0
162 177 0
158 170 0
162 174 0
153 167 0
160 174 0
156 171 0
164 180 0
157 172 0
157 171 0
160 177 0
166 181 0
163 178 0
162 179 0
163 181 0
158 173 0
164 181 0
162 177 0
162 179 0
163 181 0
162 178 0
162 179 0
164 179 0
163 178 0
164 181 0
162 179 0
162 181 0
158 175 0
186 207 153
183 205 137
189 210 153
185 207 135
181 203 120
183 205 144
181 204 111
178 199 105
178 201 99
174 197 88
175 198 95
175 199 76
176 200 80
172 196 57
175 199 95
172 195 62
175 198 72
172 196 67
175 198 80
174 198 92
173 197 76
173 197 57
173 197 80
176 199 76
175 199 80
173 196 72
172 196 67
174 197 57
174 197 57
171 196 72
175 198 80
173 196 80
168 192 62
173 197 72
174 198 99
175 199 76
175 198 44
172 196 76
173 197 67
172 196 72
173 197 62
171 195 57
172 196 57
171 195 92
168 192 72
174 197 57
171 195 72
174 198 57
173 196 72
173 196 84
174 198 80
171 194 76
172 194 72
170 194 57
172 195 72
171 196 88
172 195 72
170 193 72
171 194 76
176 199 72
170 193 72
174 196 80
169 193 62
171 194 62
174 197 67
172 196 72
172 196 80
173 197 88
152 176 86
125 150 139
118 144 144
100 127 140
96 124 151
98 126 148
105 132 157
108 135 154
114 140 158
98 126 149
111 138 155
107 134 158
104 131 143
104 131 159
117 142 166
95 124 158
102 130 171
97 125 172
84 114 163
95 124 167
82 113 172
81 112 170
85 114 170
89 119 175
73 106 175
88 118 182
87 117 181
76 108 172
77 109 171
74 107 174
68 103 177
78 110 176
67 102 168
73 106 173
71 105 167
68 102 168
65 100 167
61 96 157
61 97 156
60 96 160
65 99 162
61 96 156
61 97 155
62 97 154
61 97 160
63 97 154
63 98 160
60 95 148
65 99 153
65 98 145
62 96 141
60 95 150
61 96 151
62 97 155
59 94 145
59 94 137
62 97 151
60 95 156
59 94 145
60 95 150
60 95 160
60 96 154
60 95 148
61 96 149
59 95 150
61 97 157
61 97 155
61 97 154
59 94 144
59 94 149
60 96 154
61 96 148
60 96 156
61 97 156
60 95 147
60 95 142
61 97 158
61 96 148
62 97 158
61 97 153
60 95 143
60 95 143
60 96 155
60 96 147
59 95 142
60 96 148
61 97 153
61 96 148
61 96 152
60 96 151
61 96 155
61 97 155
60 95 141
60 95 142
62 97 161
61 97 157
61 96 149
61 97 156
61 97 149
62 97 156
61 97 151
61 97 156
61 97 157
63 99 163
61 96 144
61 97 159
62 97 157
60 96 154
61 97 152
61 97 156
60 96 147
62 97 153
60 96 143
61 96 144
60 96 150
63 98 160
61 96 148
61 97 154
62 98 158
61 97 154
61 97 150
60 96 150
61 97 157
61 97 155
61 96 148
61 97 150
61 97 151
61 97 150
61 97 156
61 96 145
61 96 149
62 98 153
61 96 149
61 97 143
61 97 156
61 96 149
62 97 156
60 96 144
62 97 155
60 96 144
61 97 150
62 97 155
61 96 144
62 97 153
61 97 148
62 97 152
60 94 137
61 96 148
61 96 144
62 98 153
61 97 151
62 98 155
61 97 149
60 95 143
60 95 140
61 96 141
63 98 153
62 97 153
61 95 139
62 97 153
61 96 143
62 97 152
61 96 143
61 96 147
61 96 145
61 96 148
59 94 134
61 96 143
61 95 138
61 96 145
61 96 143
60 95 137
61 96 139
60 94 133
62 97 150
59 93 125
59 93 129
60 95 133
60 94 140
61 95 140
59 94 136
59 93 130
61 95 139
59 93 125
59 94 131
59 93 130
58 91 129
58 91 126
57 90 121
67 93 98
89 107 82
107 119 18
122 133 0
120 130 0
115 126 0
117 126 0
106 116 0
111 121 0
110 119 0
122 135 0
116 123 0
112 119 0
115 122 0
111 118 0
122 130 0
123 130 0
118 125 0
114 122 0
113 119 0
114 122 0
117 125 0
123 132 0
107 116 0
114 122 0
118 123 0
116 123 0
118 125 0
118 122 0
124 131 0
114 120 0
125 130 0
128 135 0
114 120 0
115 120 0
108 114 0
119 124 0
116 121 0
126 129 0
121 129 0
112 115 0
112 116 0
113 115 0
112 113 0
122 128 0
120 125 0
121 127 0
123 127 0
126 130 0
120 124 0
126 131 0
123 127 0
122 122 0
131 132 0
116 121 0
122 126 0
115 115 0
130 131 0
118 123 0
126 132 0
124 127 0
128 131 0
126 131 0
121 123 0
118 122 0
134 138 0
125 129 0
132 137 0
131 132 0
134 136 0
128 129 0
130 134 0
136 137 0
143 147 0
130 134 0
136 143 0
134 140 0
138 142 0
133 138 0
136 140 0
136 140 0
144 150 0
141 146 0
144 151 0
145 151 0
143 152 0
142 149 0
147 154 0
136 140 0
138 146 0
143 150 0
148 155 0
141 148 0
147 156 0
154 164 0
146 154 0
152 162 0
143 151 0
155 164 0
159 171 0
154 164 0
154 166 0
147 154 0
149 161 0
151 161 0
157 168 0
147 157 0
156 168 0
151 162 0
155 167 0
156 169 0
158 169 0
161 176 0
153 167 0
156 169 0
159 173 0
148 161 0
149 161 0
160 172 0
159 173 0
158 172 0
158 175 0
154 170 0
163 177 0
158 173 0
157 174 0
162 174 0
159 175 0
162 176 0
163 178 0
161 176 0
165 185 0
166 183 0
160 176 0
162 178 0
160 177 0
163 179 0
160 178 0
167 184 0
167 186 0
164 180 0
168 186 0
167 186 0
186 207 137
185 206 130
180 202 120
181 204 117
181 203 108
176 199 88
174 198 95
179 203 102
178 201 95
175 198 72
171 195 76
175 200 84
172 196 62
175 199 76
172 195 72
175 199 80
168 192 44
175 199 80
175 198 72
169 193 67
170 193 36
175 198 76
174 198 76
173 196 62
173 196 57
173 197 67
173 196 72
172 196 67
174 197 72
173 197 84
174 198 57
173 197 51
173 196 51
174 199 80
173 197 67
174 197 76
174 198 62
175 199 92
172 195 57
174 197 57
173 197 92
171 195 80
172 195 51
173 197 84
173 196 36
169 191 62
169 192 76
172 195 36
169 192 72
170 194 76
175 198 76
174 198 92
176 199 88
170 195 67
174 198 67
172 194 80
171 194 88
171 194 51
171 195 67
169 193 72
174 198 76
174 196 36
169 192 51
171 194 62
172 196 62
172 195 72
172 196 92
172 196 92
170 193 84
148 173 115
116 141 140
102 129 142
105 132 155
91 120 147
96 124 157
93 122 155
109 136 157
110 137 150
104 131 151
100 127 145
113 140 156
104 131 149
118 143 164
110 135 149
102 129 157
102 129 149
96 125 160
75 107 159
78 110 168
94 123 168
92 121 169
83 114 178
81 112 175
82 113 174
68 103 172
76 108 173
74 107 176
72 105 172
79 111 176
77 109 174
65 100 172
74 106 170
71 104 174
69 103 170
71 105 171
61 97 160
64 100 166
67 100 161
61 97 159
61 97 159
61 97 158
61 97 160
61 97 158
61 96 157
60 96 154
60 95 149
60 94 149
62 96 147
64 98 145
70 103 149
65 100 158
65 98 133
66 99 136
60 95 151
59 94 148
60 95 151
61 96 141
60 95 146
61 96 158
60 95 150
59 94 141
60 95 154
61 96 155
59 95 148
61 97 153
59 94 148
60 96 153
61 96 153
61 97 155
60 96 154
61 97 160
61 97 159
61 96 149
60 95 145
62 98 156
61 97 164
61 96 149
60 95 143
60 96 151
60 95 150
61 97 158
62 97 153
62 98 161
61 97 151
61 97 156
62 98 158
61 96 150
61 97 147
60 96 150
61 97 151
60 95 143
61 97 157
61 97 147
61 97 149
61 97 150
61 96 152
61 97 155
60 96 150
62 98 154
61 96 153
61 97 154
61 97 154
61 96 152
61 97 151
60 95 139
62 98 157
61 97 153
62 98 161
63 98 158
61 97 160
62 97 153
61 97 153
61 96 147
62 98 156
60 95 139
60 96 145
60 95 144
61 97 151
60 96 142
61 96 147
60 96 149
62 98 153
62 97 150
61 96 144
61 97 147
61 96 151
62 98 158
61 97 150
61 97 153
61 97 152
62 98 159
60 95 137
61 97 156
62 97 148
61 97 155
60 95 145
60 96 148
61 97 153
61 97 149
61 97 152
60 95 139
62 98 153
62 97 151
60 95 137
62 97 157
61 96 145
62 97 149
61 96 142
61 97 152
60 95 144
60 94 133
60 96 151
61 97 149
61 97 150
60 95 140
61 96 149
60 95 133
60 95 140
61 96 139
60 95 139
61 97 148
61 97 144
60 95 137
61 96 142
60 95 137
61 97 143
61 96 137
60 95 141
60 95 140
62 97 151
61 96 142
59 94 133
60 95 140
60 94 139
60 95 144
62 97 143
60 94 131
60 95 142
59 93 136
59 93 125
59 94 133
59 92 132
57 91 131
58 92 123
58 91 128
59 93 134
57 89 113
87 108 99
109 123 62
114 124 31
111 119 0
118 129 0
122 132 0
127 138 0
120 129 0
118 130 0
107 117 0
107 116 0
115 124 0
114 126 0
112 119 0
124 133 0
102 109 0
130 139 0
115 122 0
117 123 0
104 111 0
115 121 0
122 132 0
118 123 0
111 119 0
120 128 0
113 119 0
109 114 0
127 134 0
109 115 0
119 124 0
119 126 0
117 124 0
118 124 0
111 116 0
129 138 0
123 128 0
124 130 0
119 124 0
118 121 0
114 118 0
120 122 0
120 124 0
117 121 0
117 120 0
121 127 0
122 127 0
127 134 0
112 113 0
127 130 0
117 119 0
117 118 0
120 121 0
125 127 0
121 124 0
130 136 0
133 137 0
125 128 0
120 124 0
117 121 0
123 128 0
123 127 0
133 139 0
128 133 0
136 139 0
110 113 0
120 123 0
127 132 0
136 141 0
135 141 0
132 134 0
140 145 0
131 134 0
138 143 0
139 144 0
132 137 0
133 138 0
146 153 0
144 152 0
142 150 0
144 151 0
133 138 0
136 142 0
145 153 0
147 153 0
151 157 0
141 148 0
151 161 0
138 145 0
145 153 0
153 164 0
143 151 0
148 155 0
148 157 0
150 160 0
145 153 0
139 147 0
144 153 0
146 156 0
153 163 0
146 157 0
150 163 0
153 165 0
150 160 0
149 161 0
158 170 0
154 164 0
156 171 0
154 165 0
158 173 0
151 162 0
156 169 0
154 165 0
155 168 0
155 168 0
156 167 0
159 176 0
159 174 0
154 169 0
160 175 0
163 180 0
156 171 0
160 174 0
159 174 0
156 172 0
158 171 0
161 177 0
157 173 0
158 174 0
160 176 0
158 174 0
160 178 0
163 180 0
165 182 0
157 173 0
164 178 0
165 183 0
163 179 0
161 177 0
162 180 0
164 182 0
163 180 0
166 183 0
158 176 0
181 203 108
176 199 88
181 204 125
175 198 76
177 199 92
176 199 80
173 196 72
175 199 92
173 196 88
174 197 57
171 195 67
175 199 76
173 197 84
172 194 51
172 196 76
175 198 80
173 197 62
169 192 62
175 199 80
175 198 76
173 197 80
172 196 84
174 198 92
174 198 84
171 195 67
173 197 62
172 195 72
175 198 76
173 197 76
168 193 57
174 198 72
173 196 76
172 196 62
169 192 51
170 193 44
175 199 84
171 195 67
175 199 95
174 198 84
172 196 67
174 197 57
173 197 88
174 197 72
171 195 88
172 196 80
171 195 72
170 193 36
173 197 62
173 196 76
176 199 57
171 194 44
174 197 72
170 193 72
170 193 76
172 196 67
171 194 84
173 196 51
168 192 72
174 197 72
171 194 44
170 193 62
171 194 92
173 196 95
170 193 62
175 198 67
171 195 88
169 192 51
171 193 44
170 194 78
150 174 117
128 152 117
101 128 145
97 124 147
100 128 153
98 126 154
97 125 156
94 123 142
106 133 156
104 131 155
107 133 145
100 128 165
96 124 136
104 129 145
107 133 143
100 128 142
112 138 157
96 124 158
100 128 161
93 122 166
91 120 168
86 116 164
78 110 168
82 114 179
84 114 174
74 107 175
79 111 172
84 114 179
86 116 178
77 109 175
77 109 176
79 110 175
74 107 174
77 109 173
70 103 166
67 100 158
61 98 169
62 98 168
68 102 166
63 99 162
61 97 158
61 97 160
61 97 162
63 98 159
60 96 157
61 96 154
64 99 157
60 95 148
62 97 151
69 101 145
67 101 159
65 99 147
65 99 151
64 97 139
61 96 148
59 95 153
61 95 145
59 94 156
61 95 141
60 96 152
60 95 150
60 95 147
59 94 145
60 95 151
60 95 150
59 95 145
61 96 151
59 94 141
59 94 150
60 95 148
61 96 152
59 95 149
60 96 151
59 94 140
61 97 155
62 98 157
58 93 139
62 97 153
61 96 151
59 94 144
60 95 153
61 97 160
61 96 154
60 95 148
62 98 158
62 98 159
61 97 156
62 98 157
61 97 148
61 96 150
60 96 157
61 97 158
60 96 150
62 98 156
60 95 148
61 97 163
61 97 155
61 96 149
62 97 158
60 96 150
61 97 148
61 97 151
59 94 135
61 97 151
61 96 147
62 98 159
61 97 153
61 97 155
60 96 150
62 98 163
61 96 149
62 97 153
61 96 149
61 97 153
60 95 139
60 96 154
61 97 143
62 97 157
61 97 143
61 97 153
61 97 148
60 96 148
60 95 142
62 98 156
61 97 156
62 98 153
59 94 147
60 96 143
61 97 150
62 97 150
60 95 150
62 97 150
61 97 153
59 95 142
61 97 153
61 97 148
61 96 149
61 96 141
61 97 152
61 97 155
61 96 145
62 97 151
61 96 143
60 95 139
61 96 141
61 96 143
60 95 145
61 96 147
60 95 145
61 96 142
60 95 143
60 96 147
61 96 145
61 97 153
59 94 135
61 96 145
61 97 143
61 97 148
62 96 147
60 96 142
60 96 145
61 97 148
61 96 147
60 94 140
60 94 136
61 95 147
60 95 137
60 95 145
59 93 131
61 96 144
60 95 142
58 92 135
61 96 149
60 95 141
59 93 133
59 93 129
60 95 135
60 95 139
59 94 133
58 92 123
58 92 130
59 92 133
59 93 129
59 92 126
58 91 120
59 93 125
56 88 110
72 99 107
83 101 72
120 133 36
125 136 18
113 122 0
110 121 0
118 128 0
117 126 0
116 129 0
118 127 0
114 124 0
117 126 0
128 138 0
116 128 0
115 125 0
132 141 0
124 132 0
118 126 0
117 126 0
110 116 0
114 123 0
125 134 0
122 129 0
116 124 0
114 120 0
122 129 0
126 134 0
115 123 0
110 117 0
110 115 0
123 130 0
125 133 0
110 113 0
115 122 0
117 124 0
113 117 0
116 119 0
112 117 0
116 120 0
120 127 0
123 130 0
123 130 0
117 120 0
129 135 0
118 123 0
125 130 0
117 121 0
112 114 0
123 126 0
125 131 0
108 110 0
116 122 0
117 122 0
138 143 0
133 139 0
118 119 0
130 132 0
119 123 0
133 137 0
126 130 0
130 134 0
122 127 0
136 140 0
128 133 0
135 138 0
138 143 0
133 138 0
141 147 0
134 137 0
130 136 0
138 142 0
131 136 0
136 141 0
139 144 0
132 140 0
133 137 0
137 144 0
138 141 0
135 143 0
141 144 0
141 148 0
134 140 0
136 142 0
143 148 0
142 150 0
142 150 0
151 156 0
146 152 0
139 147 0
148 156 0
136 142 0
152 163 0
145 153 0
148 158 0
142 152 0
148 155 0
151 159 0
150 161 0
157 169 0
153 163 0
145 155 0
148 159 0
152 163 0
152 161 0
156 169 0
157 167 0
158 167 0
158 169 0
157 168 0
152 165 0
155 166 0
148 160 0
157 170 0
157 173 0
156 170 0
155 168 0
151 165 0
148 159 0
163 179 0
155 171 0
156 167 0
158 174 0
156 171 0
155 169 0
159 175 0
158 172 0
158 174 0
160 177 0
159 173 0
159 176 0
161 178 0
161 177 0
158 173 0
166 183 0
166 183 0
169 185 0
163 179 0
168 186 0
165 182 0
161 178 0
168 187 0
168 186 0
168 186 0
164 182 0
181 203 108
177 199 88
175 199 80
177 200 80
176 199 80
174 198 80
176 199 99
173 196 57
173 197 72
174 198 72
171 195 76
174 198 57
176 199 62
171 196 67
175 198 67
173 197 62
174 198 76
173 196 80
169 192 76
171 196 72
173 197 57
169 194 67
175 198 67
173 196 72
174 198 76
171 195 80
174 197 80
171 195 92
173 197 88
173 197 62
174 199 95
174 198 76
170 193 88
174 197 80
172 196 72
170 194 62
173 197 88
174 197 80
174 197 92
172 196 95
172 195 51
172 196 76
173 198 80
171 195 84
169 193 51
175 199 88
170 194 84
169 193 76
169 192 62
171 194 72
169 193 67
170 193 51
168 191 51
170 193 84
169 193 72
168 192 51
171 195 67
165 188 57
172 196 80
171 194 62
170 193 44
167 191 72
172 197 67
173 196 67
170 194 36
165 188 51
170 193 67
174 197 72
167 191 62
170 194 84
143 167 102
125 150 129
95 123 150
91 120 156
88 117 150
102 130 160
103 130 144
89 118 145
96 123 143
98 126 152
96 124 154
106 133 155
95 123 147
92 120 156
104 131 149
102 130 151
85 116 151
104 131 160
92 121 160
88 117 166
96 124 168
92 121 167
81 113 173
88 117 168
81 112 174
79 110 172
80 112 181
79 111 177
76 108 176
86 116 180
82 113 180
82 113 175
68 103 169
80 111 174
67 101 160
71 104 171
71 104 167
60 97 162
67 101 161
67 101 160
61 97 158
61 97 158
61 96 152
61 97 157
61 97 154
62 98 161
60 96 151
62 97 152
63 97 151
66 99 139
62 97 150
68 101 139
63 98 151
61 96 140
62 96 143
60 94 132
62 97 149
59 94 145
59 94 150
58 93 145
59 94 148
59 94 141
59 94 140
60 95 151
59 94 148
59 95 149
60 95 149
61 96 155
59 94 144
60 95 146
60 95 146
60 95 147
61 97 155
59 95 146
61 97 155
61 96 156
60 96 154
60 96 151
60 96 152
61 97 148
61 96 151
61 96 148
62 98 157
59 95 144
60 95 147
62 97 151
61 96 152
61 97 157
61 96 159
60 96 155
60 96 145
61 96 149
62 98 159
61 97 153
61 96 148
62 98 156
60 96 153
61 96 151
61 97 151
60 95 145
62 97 153
60 95 149
62 97 151
61 96 148
61 96 144
59 94 143
60 95 142
62 97 150
60 96 149
61 96 150
59 94 148
61 96 151
61 97 149
61 97 153
62 98 155
62 98 156
61 97 154
61 96 147
61 96 144
62 97 159
61 97 153
62 97 153
60 95 148
63 99 159
60 95 141
59 94 141
61 96 147
61 97 155
62 97 150
61 96 144
61 96 152
60 95 144
62 97 151
61 97 151
62 97 152
61 97 150
60 95 137
61 97 150
62 97 150
62 98 158
62 97 143
61 96 152
61 96 151
62 97 153
61 97 145
61 96 142
61 96 151
61 97 144
60 95 136
61 96 148
61 97 148
61 96 144
61 97 151
60 95 147
61 96 145
62 97 151
61 96 144
59 93 140
62 97 145
61 96 144
60 94 135
60 96 144
61 96 147
61 96 143
61 96 137
60 95 140
60 95 139
61 96 141
61 96 143
61 97 145
61 96 144
60 95 143
59 93 133
59 93 130
60 95 149
60 94 133
59 92 132
60 94 132
59 92 130
60 94 135
58 92 124
58 91 133
59 93 131
58 92 115
59 92 121
55 87 106
81 104 88
102 118 60
111 120 25
124 134 0
129 137 0
116 127 0
119 130 0
112 123 0
110 118 0
121 133 0
112 122 0
121 133 0
120 129 0
118 126 0
121 129 0
116 123 0
117 124 0
111 120 0
115 121 0
115 123 0
128 136 0
121 131 0
122 131 0
114 123 0
113 122 0
125 134 0
113 119 0
121 130 0
125 136 0
127 135 0
117 122 0
125 130 0
125 131 0
119 130 0
117 120 0
123 131 0
130 138 0
126 133 0
125 132 0
126 134 0
122 127 0
117 122 0
125 130 0
123 131 0
132 140 0
124 128 0
124 128 0
122 129 0
116 121 0
121 125 0
127 133 0
130 135 0
131 137 0
126 128 0
125 130 0
119 122 0
137 143 0
125 130 0
122 125 0
125 133 0
135 139 0
132 136 0
124 128 0
127 132 0
133 136 0
127 131 0
137 144 0
122 128 0
141 147 0
136 139 0
132 137 0
136 140 0
138 144 0
144 151 0
128 133 0
131 137 0
135 140 0
150 159 0
135 140 0
148 153 0
135 139 0
136 143 0
128 130 0
144 151 0
135 142 0
148 155 0
139 145 0
146 152 0
137 142 0
145 153 0
147 153 0
141 147 0
150 160 0
154 164 0
148 158 0
149 160 0
150 160 0
155 167 0
153 162 0
149 160 0
151 161 0
150 160 0
154 164 0
153 163 0
150 161 0
155 166 0
156 169 0
154 165 0
152 163 0
157 171 0
160 175 0
155 166 0
155 167 0
157 168 0
163 175 0
156 169 0
157 170 0
164 180 0
154 167 0
154 169 0
161 176 0
158 171 0
162 177 0
155 168 0
165 182 0
159 178 0
161 176 0
156 172 0
161 177 0
164 180 0
162 178 0
154 169 0
158 170 0
161 179 0
162 180 0
162 176 0
160 177 0
159 173 0
165 182 0
160 178 0
166 186 0
168 187 0
157 175 0
161 176 0
176 200 92
175 198 88
173 197 67
175 198 76
173 197 84
174 197 62
173 196 72
174 197 62
172 196 72
175 199 84
174 197 62
173 197 72
178 201 102
175 198 72
173 197 76
170 194 62
174 198 76
171 195 62
172 195 72
174 198 76
173 197 57
171 195 57
171 195 57
173 196 62
171 195 72
172 196 62
172 196 62
173 197 72
174 197 84
170 194 67
170 194 72
173 198 67
172 196 67
173 197 76
173 197 76
173 196 88
170 194 67
175 198 57
170 193 67
169 193 84
174 197 72
172 196 51
173 196 92
171 195 67
173 197 95
172 195 67
169 193 62
171 194 67
172 195 67
171 195 76
175 198 67
171 194 84
172 195 62
174 198 76
171 194 62
178 201 102
167 190 51
166 189 62
167 190 67
172 196 88
174 198 84
171 194 67
172 196 72
171 195 84
171 194 80
167 190 72
168 190 62
172 195 80
174 196 84
166 189 74
151 175 107
123 148 120
101 128 134
98 126 147
85 114 135
98 126 150
95 123 142
86 116 150
89 118 155
105 133 157
108 134 152
111 138 161
106 132 144
100 127 151
96 124 165
107 133 159
87 117 155
99 126 142
107 133 148
93 122 160
92 121 158
82 113 158
89 118 156
85 115 160
85 116 174
85 115 171
81 113 175
80 112 175
73 105 168
79 111 174
79 110 174
72 105 176
84 114 168
62 98 166
68 103 168
79 110 172
69 103 172
68 101 162
68 102 170
62 98 161
62 99 168
61 96 159
62 97 160
60 96 156
60 96 151
61 97 156
61 96 159
63 98 153
64 99 150
62 96 148
66 100 151
61 95 143
66 100 141
66 100 147
72 103 144
66 99 141
61 96 149
60 94 144
61 96 142
58 92 142
59 93 146
60 95 148
58 93 140
60 95 153
61 96 150
61 96 146
59 94 141
61 96 150
59 94 147
59 94 145
59 95 149
61 96 150
59 94 143
61 96 149
60 95 141
60 95 150
60 96 149
59 94 141
61 96 150
60 96 149
60 95 133
59 94 139
60 95 142
61 97 159
60 95 147
60 95 154
61 97 154
62 97 158
61 97 159
61 97 156
61 97 148
62 97 149
61 97 152
60 96 145
61 96 147
60 96 148
60 95 146
60 96 143
61 96 153
62 98 157
60 96 145
61 97 151
61 97 150
62 98 156
61 97 152
62 97 155
61 96 150
61 97 153
61 97 153
60 95 148
61 97 158
61 97 150
60 96 153
60 96 149
62 98 152
61 96 148
61 97 159
61 97 153
61 96 148
62 97 145
60 95 144
62 97 156
62 97 149
61 96 145
61 97 151
61 96 153
60 95 141
60 95 134
60 95 141
62 98 156
62 97 150
61 97 149
61 96 145
61 96 145
61 96 144
62 97 144
61 96 142
61 97 148
61 96 150
60 96 141
61 96 148
60 94 141
61 97 143
61 96 149
61 96 145
61 97 154
61 96 151
61 97 148
61 96 151
61 96 149
61 96 140
60 96 140
61 97 145
60 95 147
62 97 148
60 95 137
61 96 142
61 96 148
59 93 135
61 96 147
60 95 137
61 96 147
60 95 143
60 96 139
61 96 136
60 94 135
59 93 137
61 96 149
60 96 142
61 95 134
60 95 139
59 94 121
60 94 133
61 95 145
60 95 136
59 93 125
60 93 134
59 93 128
58 92 118
58 92 128
58 91 125
59 94 130
59 94 131
58 92 129
57 90 118
71 97 101
87 102 85
102 115 45
110 119 0
122 135 0
109 118 0
119 131 0
124 134 0
117 128 0
109 120 0
128 140 0
127 141 0
122 132 0
110 119 0
127 137 0
115 124 0
127 138 0
110 119 0
122 131 0
124 136 0
126 135 0
118 127 0
119 126 0
120 128 0
110 119 0
119 129 0
115 124 0
115 121 0
115 125 0
127 136 0
121 130 0
122 132 0
128 134 0
126 133 0
128 135 0
127 135 0
117 122 0
116 119 0
127 133 0
124 130 0
122 131 0
116 121 0
105 112 0
125 133 0
126 131 0
130 137 0
119 124 0
120 126 0
120 123 0
133 139 0
132 136 0
121 126 0
129 135 0
125 129 0
132 137 0
126 133 0
129 135 0
128 135 0
127 134 0
133 137 0
137 141 0
139 146 0
131 138 0
134 141 0
129 135 0
132 137 0
134 138 0
136 142 0
129 136 0
136 142 0
132 136 0
132 139 0
129 133 0
141 150 0
132 135 0
141 148 0
136 141 0
148 156 0
140 145 0
139 143 0
142 150 0
135 141 0
145 152 0
141 148 0
141 149 0
149 156 0
137 144 0
140 148 0
144 151 0
139 147 0
143 150 0
145 155 0
146 157 0
147 154 0
151 162 0
153 165 0
154 164 0
147 159 0
148 159 0
147 156 0
150 161 0
146 155 0
150 162 0
151 161 0
148 159 0
154 164 0
150 161 0
158 171 0
159 172 0
151 162 0
158 167 0
155 167 0
147 158 0
150 162 0
162 174 0
154 169 0
161 175 0
163 179 0
160 174 0
155 170 0
160 174 0
155 169 0
158 171 0
156 172 0
166 182 0
156 171 0
164 180 0
164 178 0
154 168 0
164 179 0
161 177 0
162 180 0
160 177 0
165 178 0
161 179 0
166 184 0
160 175 0
164 180 0
159 177 0
160 176 0
160 177 0
161 179 0
161 177 0
164 183 0
164 183 0
175 199 80
173 196 72
175 199 62
176 199 80
174 197 62
173 198 84
174 198 80
176 199 76
172 196 72
174 196 62
174 198 72
177 201 111
173 196 76
173 198 62
174 197 62
173 196 67
171 195 62
175 199 80
173 197 51
174 198 62
175 199 72
175 199 72
172 196 76
173 196 57
169 193 57
173 197 72
173 196 62
173 196 67
172 196 67
176 200 72
168 192 72
168 190 44
172 196 88
174 198 72
174 198 95
172 196 62
165 189 67
172 196 72
171 195 62
173 196 67
171 194 51
172 196 72
174 198 92
173 196 44
167 191 76
167 190 62
170 193 67
166 190 88
169 193 76
172 196 84
173 197 84
173 196 44
171 194 80
168 192 72
170 194 84
170 194 84
170 194 62
173 196 76
173 197 67
174 198 67
172 196 102
169 192 51
169 193 76
173 196 92
171 195 76
169 192 84
172 196 84
174 197 62
173 195 80
168 191 51
167 190 65
147 171 117
113 139 141
110 137 153
103 130 158
85 115 154
98 125 152
109 135 143
87 116 151
106 133 158
100 128 161
103 130 155
107 133 159
100 128 153
114 139 159
115 141 153
101 127 144
99 127 143
105 132 153
100 128 153
95 123 163
100 127 154
78 110 162
78 109 161
86 115 165
77 109 169
88 118 177
83 113 169
78 110 171
82 114 179
74 107 174
73 106 174
77 109 173
73 106 164
82 113 180
74 107 174
82 113 174
77 108 169
64 99 160
65 100 165
68 102 166
63 98 169
62 98 161
59 95 158
61 96 149
61 97 162
61 97 159
65 99 150
66 100 154
61 96 144
67 100 145
60 96 139
65 99 150
64 98 147
67 100 141
65 99 143
64 97 143
63 98 147
62 96 147
63 98 153
59 94 144
60 95 156
59 94 140
60 95 152
60 95 144
59 94 143
60 96 149
60 95 150
60 96 150
60 96 142
59 94 136
60 95 149
62 98 160
61 96 149
60 95 141
60 95 146
61 96 143
60 96 148
59 95 147
60 95 143
60 96 148
62 98 157
60 95 149
61 96 158
60 95 145
61 97 153
60 95 149
60 96 144
62 98 158
61 96 145
61 96 143
61 96 150
60 95 153
61 96 141
60 95 147
61 97 151
60 95 146
61 96 150
60 96 149
60 94 137
61 96 144
61 96 148
61 97 150
60 96 144
61 97 157
59 95 140
61 96 148
61 97 154
60 95 149
62 97 156
61 97 148
61 97 151
60 95 140
62 97 154
61 97 150
62 97 152
61 97 151
61 97 145
62 97 153
61 97 153
62 98 155
61 96 147
61 96 144
61 96 145
60 96 142
61 96 143
60 96 143
61 96 144
60 96 144
61 96 147
62 98 153
63 98 155
61 96 150
61 96 141
60 95 141
60 95 148
61 96 143
61 96 148
61 97 152
61 97 145
60 95 136
60 95 140
60 96 144
61 96 140
61 96 148
61 96 141
61 97 147
59 94 141
61 97 151
60 95 143
61 96 145
61 96 147
60 95 145
60 95 140
61 96 141
61 97 147
61 96 141
62 97 153
60 95 134
60 96 141
61 96 141
60 95 137
60 95 133
61 96 144
59 94 130
61 96 137
59 93 133
59 93 129
60 95 139
61 96 148
60 94 125
59 93 131
59 94 131
60 95 133
60 94 133
60 94 135
58 92 120
60 94 133
60 94 132
58 92 123
59 92 137
56 89 116
60 94 124
58 91 111
59 93 124
78 105 116
108 124 54
120 134 26
106 116 0
129 141 0
130 142 0
120 130 0
120 130 0
121 134 0
119 132 0
113 124 0
121 133 0
122 136 0
116 126 0
128 139 0
120 132 0
122 134 0
119 128 0
116 126 0
121 133 0
124 136 0
124 136 0
120 130 0
117 125 0
126 134 0
121 131 0
121 131 0
128 137 0
120 127 0
128 135 0
127 137 0
121 131 0
123 131 0
115 123 0
123 130 0
121 126 0
119 123 0
124 131 0
128 134 0
123 128 0
125 133 0
120 126 0
120 124 0
123 130 0
121 126 0
126 133 0
120 125 0
128 134 0
118 123 0
120 126 0
124 131 0
128 135 0
115 122 0
127 133 0
131 136 0
129 134 0
124 129 0
129 137 0
132 140 0
138 143 0
136 142 0
136 142 0
127 131 0
128 134 0
137 145 0
134 141 0
129 134 0
146 154 0
142 151 0
137 142 0
134 141 0
136 142 0
134 141 0
135 144 0
138 144 0
135 142 0
140 148 0
134 141 0
144 149 0
138 145 0
139 148 0
140 146 0
141 149 0
148 155 0
148 155 0
139 144 0
147 156 0
139 148 0
144 152 0
149 157 0
153 164 0
143 152 0
144 154 0
146 157 0
149 157 0
155 166 0
147 155 0
152 163 0
152 162 0
150 160 0
151 160 0
158 170 0
148 160 0
150 160 0
146 159 0
157 170 0
154 168 0
159 174 0
157 170 0
156 168 0
155 169 0
155 168 0
157 169 0
155 165 0
159 172 0
154 168 0
162 177 0
163 179 0
160 174 0
163 177 0
163 178 0
158 174 0
162 178 0
163 179 0
160 174 0
165 181 0
157 173 0
162 178 0
160 175 0
161 177 0
160 175 0
166 182 0
162 180 0
168 185 0
160 177 0
166 184 0
157 173 0
163 181 0
165 181 0
161 178 0
166 182 0
160 177 0
165 182 0
164 182 0
165 184 0
173 196 62
178 201 92
175 198 84
174 198 62
174 197 67
173 198 72
175 199 67
170 193 51
175 198 76
173 196 57
173 196 51
172 196 76
174 197 67
173 196 57
172 195 62
173 197 84
174 197 67
174 198 67
173 196 72
170 194 67
170 193 67
172 196 36
170 195 67
173 196 67
173 197 67
172 196 88
175 198 99
172 196 67
173 198 72
171 194 67
173 197 80
174 197 62
174 198 84
171 195 67
172 196 80
174 198 72
170 194 62
173 196 62
167 191 51
171 195 67
169 192 76
170 194 57
168 191 80
170 193 72
174 197 67
166 189 51
174 197 67
170 194 72
170 194 62
168 193 80
172 194 67
168 191 51
170 194 72
169 192 72
168 192 72
168 192 44
172 195 76
167 191 51
168 192 57
165 189 36
170 193 67
173 196 84
171 195 72
166 190 67
167 189 62
171 194 51
173 197 88
171 195 92
170 193 72
167 191 62
170 193 60
149 172 78
128 153 111
105 131 133
92 121 150
99 127 143
98 126 152
102 130 154
81 111 151
102 129 155
94 122 140
102 129 149
96 124 148
93 121 150
99 125 149
106 133 153
107 133 159
102 128 157
87 116 151
97 125 153
97 125 147
95 123 150
95 122 155
101 128 159
75 106 164
93 122 169
77 109 164
74 107 165
73 106 170
73 106 170
79 111 174
82 113 176
87 116 177
82 112 167
78 109 173
68 102 169
72 106 168
61 98 164
71 104 167
65 100 167
65 100 167
64 100 166
60 95 152
60 95 154
62 97 156
60 96 151
61 96 149
63 98 150
60 96 154
64 99 164
64 99 146
68 101 141
64 99 139
64 98 143
66 99 143
61 95 147
61 96 152
59 94 150
58 93 138
59 94 148
59 95 147
61 95 139
59 93 138
61 97 152
60 95 144
59 94 145
61 96 150
61 96 154
61 97 156
59 94 149
59 95 147
59 94 147
61 96 150
59 94 147
61 96 158
61 97 156
61 96 154
59 94 134
59 94 143
61 96 153
60 95 145
60 95 145
61 95 142
60 95 146
60 95 152
60 95 150
60 96 144
60 96 147
61 96 147
60 96 147
61 96 151
61 96 143
59 95 145
61 96 148
61 96 150
61 96 149
60 95 142
61 97 149
61 96 154
61 96 150
60 95 143
60 95 145
61 96 150
61 96 150
61 96 143
61 96 147
60 96 149
61 96 147
61 96 144
61 97 155
61 97 148
61 96 148
61 97 150
61 96 150
61 96 149
61 96 151
61 97 153
62 98 158
62 98 160
61 96 147
61 97 150
62 97 149
61 96 147
61 96 141
61 96 145
60 95 147
60 95 148
61 97 150
62 97 154
61 97 149
61 96 145
62 97 147
62 98 153
60 96 144
61 96 148
61 97 154
61 97 155
61 96 147
61 96 143
60 95 145
61 96 150
60 95 139
61 96 147
61 96 149
60 96 135
60 95 137
61 97 145
60 95 141
59 94 141
61 96 144
60 94 137
61 96 147
62 97 153
60 95 149
61 96 140
60 95 135
60 95 136
60 95 145
61 96 144
59 93 130
60 95 135
61 95 141
60 95 135
60 94 136
61 96 143
60 95 140
59 94 134
60 94 135
62 97 144
61 95 142
59 93 129
59 92 128
59 93 134
59 93 126
60 95 130
59 92 128
58 92 128
59 93 126
58 92 130
59 92 130
59 93 130
59 92 125
58 91 115
57 91 120
64 94 113
81 99 65
112 127 44
124 136 0
119 133 0
126 139 0
117 132 0
112 125 0
122 132 0
117 131 0
112 122 0
120 131 0
124 135 0
126 137 0
118 127 0
124 134 0
123 133 0
120 128 0
126 137 0
125 134 0
124 134 0
117 128 0
120 131 0
124 135 0
128 138 0
126 134 0
114 121 0
126 138 0
119 128 0
118 124 0
125 137 0
117 125 0
123 131 0
117 128 0
114 120 0
119 129 0
122 128 0
126 132 0
130 138 0
120 128 0
133 143 0
131 139 0
126 132 0
132 138 0
120 127 0
120 127 0
130 136 0
122 131 0
130 137 0
123 128 0
128 134 0
123 130 0
119 127 0
118 125 0
132 139 0
120 125 0
124 130 0
136 143 0
127 135 0
117 122 0
140 147 0
129 134 0
138 147 0
129 137 0
135 142 0
140 149 0
129 135 0
139 145 0
132 140 0
137 145 0
138 146 0
133 140 0
141 149 0
133 138 0
145 152 0
143 149 0
139 146 0
139 150 0
137 143 0
137 144 0
139 148 0
136 140 0
144 153 0
146 158 0
140 151 0
147 155 0
137 147 0
148 156 0
150 161 0
148 158 0
144 155 0
147 158 0
150 163 0
151 164 0
152 160 0
152 164 0
149 158 0
149 158 0
155 168 0
157 170 0
151 162 0
151 161 0
157 171 0
159 172 0
154 165 0
149 159 0
154 167 0
161 173 0
157 169 0
155 167 0
155 168 0
160 174 0
159 173 0
155 169 0
157 169 0
160 175 0
152 165 0
157 172 0
154 166 0
152 165 0
161 175 0
161 178 0
157 176 0
161 176 0
154 169 0
159 174 0
160 175 0
156 172 0
163 178 0
167 185 0
160 175 0
161 178 0
163 178 0
163 180 0
162 179 0
164 182 0
168 184 0
165 182 0
166 183 0
153 169 0
160 178 0
163 179 0
160 179 0
166 185 0
167 186 0
161 178 0
174 197 84
175 199 92
176 199 80
175 198 80
172 197 80
174 197 67
176 199 76
175 199 95
175 198 84
175 199 80
173 197 51
173 196 51
175 198 67
172 196 67
174 198 84
171 194 76
170 194 72
173 196 62
171 194 62
170 194 62
173 197 67
170 194 72
170 194 51
173 197 62
174 198 95
172 195 72
169 193 72
171 195 72
170 194 67
174 197 76
169 194 84
172 195 44
170 195 84
171 195 57
173 197 67
171 195 84
173 197 88
170 194 67
174 198 62
173 197 84
174 198 80
170 193 62
170 194 72
171 194 62
170 193 57
166 189 62
168 190 51
172 196 76
171 195 57
170 194 76
171 195 95
169 192 51
167 190 57
167 190 62
174 197 80
168 191 84
172 196 62
172 196 84
173 197 80
167 191 72
172 195 57
167 191 88
166 190 67
168 192 72
174 197 67
171 195 84
169 193 67
170 193 62
169 192 67
166 188 76
171 193 76
163 185 84
140 164 111
116 142 134
86 114 143
99 127 163
96 124 153
83 112 135
94 121 145
107 133 154
97 125 156
87 116 148
95 123 155
100 127 157
96 123 155
92 120 155
101 128 158
113 139 153
101 128 147
99 126 149
103 130 136
102 129 146
90 119 153
99 127 152
93 121 161
87 116 170
86 116 164
85 115 169
71 105 171
89 118 171
72 104 166
76 108 169
85 115 173
74 107 174
82 113 175
82 113 173
68 101 164
71 104 166
60 97 160
71 104 167
68 102 167
66 101 172
61 97 161
61 97 156
61 97 163
60 96 155
60 96 152
62 97 156
61 96 157
65 99 143
60 95 149
62 97 151
63 96 140
62 96 146
62 96 143
64 98 150
61 96 135
59 94 150
60 95 150
59 94 138
60 95 151
59 94 138
59 94 147
60 95 145
60 95 142
59 94 150
60 95 150
60 95 149
59 94 138
59 95 148
60 95 150
60 95 146
60 96 153
59 95 149
60 95 145
61 96 152
59 94 149
60 95 145
62 97 155
61 96 154
61 96 155
62 97 160
59 94 150
59 94 139
59 95 144
59 94 143
61 97 159
59 94 135
61 97 150
61 97 154
61 97 150
62 98 161
61 96 146
61 97 152
61 96 150
61 97 152
61 97 150
60 96 145
60 95 142
61 96 147
61 96 151
60 95 136
60 96 150
59 94 140
61 96 153
61 96 153
60 95 137
60 96 148
61 97 151
60 96 144
61 96 145
61 97 153
61 96 147
61 96 145
60 95 139
61 97 151
60 95 137
60 96 145
60 95 147
60 95 144
61 97 142
59 94 136
61 96 148
59 94 136
62 97 154
60 95 143
61 97 145
61 96 148
61 96 145
61 97 149
61 97 147
61 96 149
60 96 148
60 95 142
61 96 149
60 95 135
61 97 152
61 96 152
60 96 151
60 96 141
60 96 142
61 96 143
61 97 147
59 94 134
60 95 134
60 95 131
60 96 145
61 95 130
61 96 142
61 97 144
60 95 130
60 96 142
60 95 137
61 95 139
61 96 150
61 96 144
59 93 133
61 96 143
59 95 135
59 94 139
61 95 142
61 96 144
59 94 136
61 96 141
60 95 134
61 96 143
60 95 139
60 95 131
57 90 128
60 94 133
60 94 136
60 94 126
60 94 129
59 93 126
60 94 125
59 93 133
60 94 135
59 93 130
58 92 117
59 94 131
59 93 129
57 90 120
58 91 116
59 92 126
83 104 79
98 116 70
109 120 36
122 135 0
120 131 0
116 127 0
124 136 0
113 123 0
120 129 0
118 129 0
116 128 0
111 121 0
117 127 0
127 137 0
117 130 0
121 132 0
126 138 0
116 129 0
126 138 0
114 124 0
127 134 0
121 132 0
120 131 0
123 135 0
121 131 0
120 130 0
119 127 0
122 133 0
127 137 0
123 132 0
126 135 0
123 134 0
118 126 0
124 132 0
119 125 0
131 141 0
119 128 0
114 119 0
120 128 0
122 134 0
127 136 0
122 128 0
127 136 0
122 131 0
129 136 0
119 126 0
133 142 0
129 137 0
127 134 0
132 140 0
127 136 0
132 140 0
130 138 0
128 134 0
129 137 0
128 136 0
142 150 0
133 137 0
125 131 0
132 140 0
131 137 0
134 142 0
132 139 0
135 142 0
133 137 0
125 131 0
127 134 0
140 148 0
140 147 0
132 141 0
135 143 0
146 155 0
136 145 0
138 145 0
140 147 0
141 146 0
150 161 0
137 145 0
139 147 0
141 151 0
142 149 0
145 155 0
145 157 0
144 155 0
148 158 0
140 149 0
152 163 0
149 157 0
142 151 0
145 153 0
154 164 0
149 159 0
142 147 0
152 160 0
152 163 0
154 164 0
156 166 0
147 159 0
157 170 0
148 160 0
152 160 0
151 162 0
152 160 0
156 170 0
150 162 0
157 170 0
155 164 0
155 168 0
159 174 0
155 166 0
153 163 0
154 167 0
153 166 0
162 175 0
157 171 0
152 165 0
157 171 0
164 177 0
154 169 0
160 174 0
156 171 0
153 169 0
159 173 0
159 174 0
158 175 0
156 169 0
164 180 0
155 172 0
157 173 0
160 175 0
159 175 0
169 186 0
163 182 0
163 180 0
159 178 0
165 182 0
159 176 0
163 180 0
162 179 0
155 172 0
164 181 0
163 180 0
165 182 0
166 184 0
163 183 0
162 181 0
169 192 62
171 195 62
173 196 76
175 198 76
175 199 72
172 196 72
174 197 76
172 195 67
173 196 62
173 197 72
176 200 67
172 196 57
170 194 67
174 198 62
173 196 67
170 194 72
170 195 76
174 197 84
170 194 51
174 197 76
177 201 92
173 197 80
173 197 80
169 192 57
171 194 76
170 195 62
166 191 67
171 194 76
171 195 76
170 194 62
168 192 72
174 198 99
173 197 80
171 195 62
172 197 76
170 194 57
168 193 80
169 194 67
172 196 84
172 196 80
173 196 72
174 197 76
173 197 84
167 191 80
167 191 57
166 190 62
168 192 72
171 193 62
170 195 57
168 191 36
172 195 62
170 193 62
170 194 72
169 192 76
169 193 51
172 195 72
164 187 62
173 196 72
169 194 80
166 189 62
171 193 72
167 191 62
166 189 72
168 191 76
168 191 57
166 190 57
170 193 72
168 191 62
166 189 67
169 193 67
173 196 72
169 191 57
150 174 90
114 139 120
110 137 141
90 119 155
88 116 147
95 122 139
85 114 137
95 122 134
94 121 139
103 130 138
105 132 151
98 125 158
97 124 154
104 130 156
93 121 154
100 127 151
105 131 144
99 126 148
102 129 149
98 126 149
97 125 151
95 123 159
97 126 162
91 120 161
87 116 151
88 117 160
84 114 172
86 116 164
71 105 164
77 109 173
77 109 164
78 110 167
77 109 175
77 109 172
74 106 173
85 115 178
68 103 173
68 102 162
74 106 168
70 103 160
64 99 158
63 98 147
61 97 158
61 98 165
60 95 158
60 95 153
60 95 151
60 96 149
62 97 144
61 96 145
66 99 149
69 100 137
60 95 155
62 96 144
64 97 140
64 98 147
57 91 141
64 98 134
62 97 148
59 95 140
59 93 143
60 95 144
59 94 137
60 95 148
59 94 142
60 95 142
61 97 155
58 92 142
59 94 145
60 95 151
61 97 160
60 95 141
61 96 143
61 97 153
61 97 148
61 96 150
61 97 148
60 95 150
60 95 137
60 96 153
60 95 152
60 95 144
61 97 155
60 96 141
62 98 156
61 97 152
61 96 148
60 95 143
61 96 152
61 96 151
62 98 157
61 96 150
61 97 147
61 97 147
60 95 144
61 96 151
61 96 150
61 96 154
61 97 153
59 94 139
61 97 154
60 96 149
61 96 142
62 97 153
61 96 149
60 95 150
61 96 150
60 96 147
61 96 148
60 95 139
61 97 152
61 96 145
62 97 157
60 96 143
59 94 136
60 96 144
59 94 136
61 96 140
61 96 149
61 97 150
62 98 155
61 96 142
60 95 143
60 95 138
62 97 148
61 96 141
62 98 159
61 97 150
61 96 142
61 96 147
61 97 150
62 97 145
62 98 153
61 96 142
60 95 143
60 95 141
62 97 144
60 95 141
60 95 139
61 97 148
60 96 143
60 94 125
62 97 145
60 95 143
60 94 139
60 95 131
61 96 145
61 95 142
60 95 143
61 96 142
60 95 143
61 96 150
62 97 149
60 95 133
61 96 133
61 96 148
61 96 143
60 95 137
61 95 139
59 94 134
58 92 125
60 95 140
60 94 130
58 92 122
59 93 136
59 94 136
61 97 148
60 95 133
60 95 133
59 93 132
60 94 132
60 95 131
60 94 133
59 93 129
60 94 122
60 95 136
60 94 134
59 93 127
56 89 105
57 90 120
57 90 118
60 90 105
94 112 77
115 130 44
115 127 0
119 129 0
123 133 0
111 121 0
118 132 0
125 137 0
121 133 0
124 136 0
125 138 0
118 130 0
119 129 0
119 130 0
123 132 0
134 148 0
125 136 0
124 134 0
123 132 0
119 127 0
136 148 0
116 126 0
124 133 0
116 125 0
115 124 0
125 136 0
117 127 0
128 138 0
121 130 0
129 139 0
121 130 0
125 135 0
113 122 0
123 131 0
131 142 0
116 125 0
130 139 0
132 142 0
127 137 0
127 133 0
129 137 0
128 137 0
126 135 0
144 155 0
129 137 0
123 130 0
132 142 0
130 136 0
128 137 0
135 143 0
139 148 0
134 142 0
130 138 0
128 137 0
136 142 0
130 140 0
131 140 0
126 133 0
130 137 0
133 141 0
134 142 0
131 138 0
135 143 0
140 148 0
131 142 0
127 136 0
129 137 0
132 137 0
137 144 0
135 145 0
138 145 0
144 153 0
130 138 0
143 154 0
146 152 0
144 152 0
142 150 0
140 151 0
143 153 0
144 153 0
150 160 0
146 157 0
142 151 0
151 161 0
150 161 0
151 161 0
141 154 0
144 155 0
153 163 0
149 160 0
150 159 0
148 158 0
150 158 0
145 154 0
153 165 0
149 161 0
144 154 0
149 158 0
158 171 0
156 168 0
151 162 0
152 164 0
148 160 0
155 169 0
156 168 0
149 160 0
153 167 0
156 169 0
151 166 0
157 169 0
152 164 0
152 166 0
156 171 0
152 164 0
158 172 0
161 175 0
156 169 0
155 168 0
156 170 0
163 179 0
162 177 0
159 174 0
156 171 0
155 171 0
156 170 0
159 173 0
160 176 0
160 176 0
160 176 0
158 169 0
162 179 0
163 181 0
161 178 0
164 182 0
161 178 0
158 175 0
163 182 0
169 185 0
163 182 0
164 183 0
162 181 0
164 182 0
167 185 0
164 181 0
164 181 0
167 183 0
177 200 92
174 197 62
173 197 72
176 199 62
169 193 67
174 197 67
171 194 76
173 197 67
173 197 92
173 196 57
173 197 72
174 197 92
173 197 76
172 196 84
173 197 80
172 197 84
171 195 72
173 197 88
170 193 62
174 199 62
171 195 84
173 196 76
169 192 67
174 198 72
172 195 67
168 191 44
172 196 80
171 194 84
169 193 76
174 197 88
167 191 84
171 195 67
173 196 95
172 195 76
166 190 72
173 197 76
170 195 80
171 194 72
170 194 76
170 195 76
173 195 44
170 194 76
168 191 51
168 192 72
172 196 72
172 195 62
174 197 76
171 193 67
172 196 92
170 193 72
171 195 62
168 192 62
169 192 72
170 193 76
168 192 62
167 190 62
167 191 76
170 193 72
166 190 80
167 189 62
166 191 72
168 191 92
167 191 57
166 189 72
170 194 88
167 190 67
167 190 44
164 187 57
165 189 72
169 192 76
167 190 72
165 188 67
163 187 84
141 165 108
105 132 124
89 118 140
86 116 153
86 115 144
88 116 136
82 112 144
90 119 145
89 117 142
92 120 150
84 113 137
85 115 142
91 120 143
97 125 157
106 133 163
105 131 155
101 128 156
114 139 155
97 124 147
95 123 146
92 121 152
97 125 156
99 126 158
98 125 145
95 123 162
82 112 162
96 124 158
88 117 169
74 107 171
86 115 169
84 115 171
76 109 173
79 110 164
82 112 173
68 102 165
85 115 175
61 97 167
68 102 165
68 102 160
74 106 165
70 103 157
61 97 153
61 97 157
61 97 158
60 96 156
60 95 153
63 98 154
60 96 154
61 96 148
64 98 151
66 100 151
60 95 151
61 96 143
59 94 140
65 99 148
63 97 139
64 98 141
63 97 147
62 95 141
57 92 141
59 94 144
62 96 143
60 95 141
59 94 143
59 95 145
59 94 134
60 95 142
61 95 148
60 95 144
60 94 155
61 96 143
60 94 134
60 95 139
60 96 157
59 95 145
60 95 145
61 96 145
61 96 151
60 96 142
60 95 150
61 97 152
61 97 152
60 96 154
60 95 146
60 96 144
61 96 146
61 96 150
61 97 148
60 95 147
61 96 150
60 96 153
61 97 151
61 96 145
61 97 145
61 97 148
60 95 143
61 96 144
61 96 144
62 98 151
61 96 147
62 97 156
61 96 143
61 96 143
61 96 142
60 95 149
61 97 154
61 96 150
61 96 149
62 97 149
61 97 145
61 96 145
62 97 154
60 95 139
60 94 144
60 95 137
60 96 142
61 96 140
61 97 157
59 94 141
61 96 144
60 95 144
61 96 150
60 95 147
61 97 151
61 96 145
61 96 145
62 97 149
61 96 150
59 94 133
60 95 136
60 95 143
62 97 149
61 97 152
60 96 143
61 96 143
61 97 145
60 95 135
61 97 152
62 97 150
61 96 142
60 95 145
61 95 140
60 95 136
61 96 139
62 97 148
60 95 136
61 96 148
60 96 148
61 96 140
61 96 148
61 96 148
59 94 131
60 95 142
61 96 147
60 95 137
60 95 134
61 96 142
60 94 129
58 92 125
59 93 135
60 95 136
60 95 141
59 94 128
59 94 130
60 94 131
59 93 137
60 94 130
61 97 144
61 95 137
60 95 135
60 95 134
59 93 128
59 93 133
58 92 122
57 90 128
58 92 114
56 90 110
57 90 117
57 90 111
60 92 117
79 101 99
102 118 65
125 139 31
119 131 0
121 133 0
123 137 0
114 123 0
120 130 0
128 143 0
121 133 0
123 134 0
113 124 0
121 132 0
127 139 0
120 130 0
119 130 0
110 122 0
110 119 0
121 134 0
127 138 0
125 134 0
125 135 0
126 140 0
127 138 0
131 143 0
119 129 0
115 126 0
126 137 0
120 129 0
121 131 0
128 138 0
125 136 0
111 118 0
124 131 0
120 128 0
122 130 0
124 134 0
130 140 0
129 137 0
126 134 0
113 121 0
134 144 0
125 134 0
125 133 0
126 134 0
141 151 0
126 136 0
132 140 0
128 135 0
130 140 0
139 148 0
128 136 0
127 134 0
135 143 0
125 130 0
122 127 0
131 139 0
139 147 0
123 133 0
130 136 0
141 149 0
130 136 0
134 144 0
131 136 0
135 144 0
132 141 0
139 147 0
136 142 0
136 144 0
147 157 0
133 139 0
128 135 0
137 142 0
137 146 0
139 144 0
142 150 0
128 135 0
143 154 0
140 147 0
137 146 0
130 137 0
143 155 0
142 149 0
153 162 0
152 161 0
145 154 0
147 159 0
149 161 0
145 153 0
140 148 0
149 159 0
144 155 0
145 154 0
147 157 0
144 155 0
152 164 0
150 160 0
148 160 0
148 160 0
141 151 0
149 161 0
149 161 0
144 156 0
159 170 0
156 171 0
156 167 0
155 169 0
152 166 0
152 164 0
156 170 0
157 170 0
152 165 0
156 166 0
154 165 0
160 175 0
162 174 0
158 174 0
160 175 0
163 178 0
157 173 0
157 174 0
157 170 0
156 171 0
155 169 0
157 172 0
160 178 0
165 182 0
156 172 0
164 181 0
163 181 0
165 183 0
164 181 0
160 177 0
161 179 0
161 179 0
165 184 0
163 180 0
163 181 0
163 181 0
163 180 0
164 181 0
159 177 0
164 181 0
165 183 0
163 182 0
158 175 0
164 182 0
174 197 84
172 196 76
172 196 76
172 196 72
175 198 80
171 194 62
173 197 72
175 199 88
173 196 88
175 198 62
173 196 67
173 198 62
173 196 67
173 197 80
173 196 80
170 193 57
170 194 62
173 198 72
167 191 62
171 195 44
172 196 72
172 196 80
169 193 62
172 196 57
172 195 72
171 195 72
172 196 88
170 195 80
172 196 67
172 196 80
172 196 80
170 194 57
168 192 95
169 192 67
170 194 80
170 194 76
172 196 57
167 190 57
172 196 80
170 194 51
169 193 84
171 194 80
167 191 57
170 194 36
169 192 67
170 193 36
172 196 72
168 191 57
171 195 88
172 196 57
168 192 72
169 193 67
171 195 76
168 191 102
172 196 84
168 191 44
166 189 80
171 195 67
165 188 84
171 195 80
172 195 84
172 197 92
170 192 76
170 193 57
165 187 62
170 192 76
163 185 72
166 189 72
168 191 76
168 189 57
165 187 80
165 188 57
169 192 95
146 170 103
135 159 120
89 117 139
98 125 150
85 115 153
92 120 144
86 114 141
98 125 148
95 123 143
102 129 143
94 121 147
103 129 150
98 125 145
98 126 149
101 127 150
86 116 154
99 126 147
99 125 147
106 133 157
98 125 147
97 125 143
105 132 162
92 120 151
90 119 154
90 119 160
84 114 159
93 121 158
80 111 174
88 116 168
76 108 175
77 109 167
78 110 173
86 115 169
79 110 170
75 107 169
73 105 161
71 104 170
71 105 170
78 109 160
60 96 153
65 100 164
59 95 156
64 99 157
60 96 154
61 96 149
59 95 143
60 96 153
62 98 164
63 98 151
59 95 145
65 99 152
63 97 151
65 98 136
61 95 144
63 97 145
63 96 141
64 97 136
64 98 137
59 94 135
59 94 147
61 96 147
60 95 150
58 93 135
60 94 142
59 94 145
60 95 152
59 94 147
59 94 139
59 94 137
60 96 149
61 96 153
60 96 147
59 94 142
61 97 149
61 97 154
61 96 148
61 97 150
60 96 147
58 93 136
60 95 141
60 96 148
61 96 149
61 97 155
61 96 149
61 96 143
60 96 148
61 96 150
61 96 142
60 95 146
59 93 136
60 96 151
60 95 141
61 97 151
61 96 143
61 96 145
61 97 160
60 95 139
61 97 145
61 96 145
60 95 146
61 96 143
61 96 141
59 94 140
60 95 141
62 97 143
62 97 148
61 96 147
60 95 148
61 97 150
61 96 144
59 94 141
62 97 154
60 95 140
61 96 141
61 97 153
61 97 151
59 94 136
61 96 147
60 96 149
60 96 140
60 95 145
61 96 149
61 96 147
61 96 148
61 96 143
60 95 143
60 95 140
61 96 145
59 94 140
60 95 142
61 96 141
59 94 142
61 96 144
61 97 153
61 96 140
60 95 140
61 96 136
60 95 139
60 95 147
60 95 141
62 97 148
61 96 139
62 97 151
60 95 140
61 95 137
61 97 143
61 96 141
59 94 129
60 95 136
60 94 131
61 96 143
61 96 142
60 95 141
59 94 135
62 97 147
58 92 124
60 94 129
60 94 136
58 92 128
61 96 143
60 95 130
59 93 121
59 93 130
60 94 131
59 92 133
59 94 121
60 94 142
59 93 118
59 93 128
60 95 134
61 95 133
59 93 130
59 93 122
56 89 118
59 93 134
58 91 124
58 91 123
56 89 113
57 90 125
69 99 107
82 102 72
98 114 40
125 140 0
126 138 0
121 132 0
124 139 0
119 133 0
110 124 0
118 130 0
121 135 0
114 126 0
126 139 0
122 135 0
122 136 0
127 140 0
110 121 0
118 128 0
119 129 0
116 128 0
124 136 0
136 150 0
132 141 0
126 137 0
129 139 0
121 128 0
133 141 0
125 135 0
119 131 0
131 144 0
125 133 0
113 123 0
125 135 0
119 129 0
131 143 0
127 136 0
126 136 0
139 149 0
135 145 0
133 143 0
133 143 0
135 148 0
128 137 0
132 139 0
128 134 0
132 142 0
124 134 0
134 142 0
130 137 0
133 143 0
130 139 0
128 138 0
131 141 0
134 142 0
144 154 0
138 145 0
137 146 0
127 134 0
135 143 0
141 152 0
134 144 0
136 144 0
140 148 0
132 141 0
141 151 0
140 147 0
142 152 0
130 141 0
139 149 0
140 147 0
133 143 0
142 152 0
139 147 0
135 142 0
138 147 0
147 157 0
141 148 0
137 145 0
144 153 0
137 144 0
144 153 0
137 146 0
144 153 0
142 151 0
149 162 0
135 143 0
152 164 0
135 143 0
152 163 0
147 157 0
149 162 0
147 157 0
151 163 0
151 162 0
152 162 0
152 161 0
148 158 0
158 171 0
150 163 0
157 171 0
154 166 0
160 176 0
146 159 0
150 159 0
150 163 0
150 164 0
152 165 0
155 166 0
153 166 0
159 174 0
158 171 0
154 169 0
152 165 0
151 162 0
159 174 0
159 174 0
158 174 0
163 179 0
159 175 0
158 174 0
160 176 0
154 169 0
162 177 0
161 174 0
159 173 0
160 174 0
165 181 0
159 176 0
161 179 0
156 171 0
159 174 0
161 176 0
163 179 0
161 179 0
162 180 0
164 181 0
161 178 0
167 185 0
163 181 0
165 181 0
164 183 0
161 177 0
158 174 0
162 180 0
169 189 0
165 183 0
165 185 0
165 184 0
173 197 72
172 196 76
172 195 72
173 196 57
172 196 67
174 198 76
173 197 67
170 195 62
174 198 72
171 194 67
172 197 88
173 196 57
169 193 72
170 194 72
173 197 57
171 194 51
171 196 92
174 197 76
173 196 80
169 193 67
172 196 62
173 196 88
171 194 51
173 196 76
171 194 57
170 194 67
170 195 67
174 197 67
172 196 67
173 196 84
172 196 84
173 197 76
169 192 57
172 196 95
170 195 88
170 194 62
169 192 51
169 193 95
171 195 72
174 198 95
170 195 72
169 193 76
172 197 95
169 193 76
167 191 76
170 194 67
169 194 84
170 194 72
167 190 67
173 197 76
166 189 51
165 189 67
171 195 72
171 195 76
159 182 57
170 194 105
166 189 57
170 194 92
169 192 57
169 192 80
163 187 76
168 192 57
172 195 67
168 190 72
166 189 76
169 193 80
170 193 67
171 195 84
166 190 76
163 186 80
164 188 62
164 188 92
164 186 62
161 184 74
144 168 107
109 134 126
92 119 140
91 119 147
102 129 156
101 128 145
91 119 142
100 126 140
101 127 146
89 118 143
82 111 139
88 117 145
101 128 150
96 124 157
103 128 153
99 126 151
102 128 155
93 121 145
99 127 148
108 134 136
106 132 149
98 126 153
97 124 147
99 126 151
89 118 153
92 121 156
88 117 156
94 122 165
80 111 165
78 109 171
77 109 167
88 117 176
73 106 170
82 112 176
77 109 171
76 108 166
68 102 166
78 110 175
62 98 162
61 97 157
65 100 162
61 96 158
62 97 157
61 97 162
60 95 153
60 96 153
61 96 157
62 96 154
62 97 148
64 97 143
64 97 144
70 103 138
59 94 143
65 99 151
64 98 134
68 100 141
67 101 141
61 95 133
62 97 148
59 94 150
61 96 151
60 94 140
60 95 151
59 94 138
58 93 143
59 94 146
59 93 141
59 94 148
60 95 144
59 94 134
61 96 149
59 94 140
60 95 137
60 95 147
59 94 147
60 95 140
61 96 147
60 95 141
60 94 136
60 96 145
61 96 146
60 95 146
59 94 145
59 95 145
60 95 145
59 95 150
61 97 150
60 96 148
60 95 140
60 95 144
61 96 140
61 96 149
60 95 143
59 94 140
62 97 151
59 94 143
60 95 148
59 94 141
61 96 149
61 97 150
61 96 151
60 95 140
60 95 139
60 96 142
60 95 149
62 97 151
60 96 147
60 95 147
61 96 151
61 97 150
61 96 149
60 96 142
61 97 155
61 96 141
62 98 153
61 96 151
60 95 144
60 94 144
61 97 149
61 96 143
61 96 147
59 94 135
61 96 142
60 95 147
62 97 150
61 96 150
61 96 145
61 97 149
62 98 150
59 95 137
61 96 148
60 95 135
60 95 145
61 96 142
61 96 147
61 96 149
61 96 142
61 96 145
60 96 144
60 95 142
60 95 135
61 97 150
61 96 147
60 95 135
61 97 149
60 95 137
61 96 143
61 96 143
60 95 133
61 97 151
60 94 130
61 96 141
61 96 143
59 94 128
61 96 142
59 93 131
61 96 143
60 94 135
59 94 130
61 96 140
59 94 136
59 94 134
60 94 137
60 95 137
60 94 131
59 94 133
60 94 128
59 93 124
59 92 125
60 94 128
60 94 135
59 93 124
58 91 117
59 93 130
60 93 130
59 93 128
58 91 121
58 89 90
81 102 96
110 127 54
131 145 0
127 140 0
111 123 0
121 136 0
114 128 0
125 137 0
115 127 0
125 138 0
120 133 0
127 139 0
120 132 0
107 120 0
116 127 0
121 130 0
126 136 0
126 138 0
132 146 0
125 137 0
126 137 0
118 130 0
125 136 0
121 132 0
124 136 0
131 146 0
114 125 0
124 137 0
123 132 0
114 127 0
130 142 0
126 138 0
140 152 0
131 141 0
113 121 0
125 135 0
133 144 0
126 134 0
137 146 0
120 130 0
125 136 0
134 146 0
129 138 0
129 136 0
128 137 0
130 141 0
131 139 0
131 141 0
130 142 0
129 139 0
124 133 0
130 137 0
129 139 0
141 149 0
142 151 0
126 137 0
134 142 0
133 141 0
128 138 0
134 144 0
139 149 0
130 141 0
141 150 0
138 147 0
133 143 0
140 149 0
135 138 0
139 150 0
131 140 0
132 142 0
146 156 0
136 143 0
142 150 0
136 145 0
137 145 0
146 156 0
139 149 0
148 156 0
141 147 0
148 160 0
144 155 0
143 154 0
141 152 0
144 156 0
139 148 0
150 161 0
150 162 0
151 166 0
142 153 0
148 158 0
150 159 0
154 165 0
148 160 0
150 161 0
150 157 0
150 160 0
155 167 0
150 161 0
156 167 0
154 168 0
150 162 0
155 167 0
150 161 0
153 167 0
150 160 0
154 166 0
159 173 0
155 168 0
154 167 0
163 178 0
154 169 0
155 169 0
155 165 0
158 173 0
154 166 0
155 169 0
159 176 0
155 170 0
157 170 0
164 181 0
160 174 0
157 173 0
162 180 0
160 174 0
160 175 0
159 172 0
159 176 0
165 181 0
155 172 0
162 179 0
159 174 0
161 177 0
165 182 0
159 176 0
158 174 0
164 180 0
163 181 0
165 184 0
160 177 0
160 177 0
165 184 0
163 182 0
166 183 0
168 188 0
167 184 0
162 180 0
158 175 0
160 175 0
174 197 88
174 198 72
171 194 57
177 200 80
171 195 44
169 194 76
174 198 62
173 197 80
173 196 84
174 198 72
170 194 57
173 197 88
173 197 80
169 193 80
170 194 67
172 195 62
172 196 76
174 198 72
171 195 67
171 196 95
172 195 57
170 193 62
172 196 76
170 193 57
168 192 62
170 195 76
169 193 95
173 197 80
173 196 76
170 193 72
165 189 84
171 194 51
170 195 76
172 196 95
167 192 76
168 193 80
172 196 80
170 194 67
171 195 62
169 193 72
169 193 92
166 190 62
168 192 62
166 190 72
166 190 84
171 194 57
172 195 84
168 192 80
168 192 62
165 189 76
169 194 80
173 198 92
168 192 62
167 191 67
168 191 72
170 193 72
170 194 84
170 194 88
169 193 72
168 191 80
166 190 72
165 188 72
166 189 51
171 194 72
166 190 95
167 191 76
168 191 51
170 193 72
165 189 62
167 189 51
166 189 76
166 188 62
168 191 84
161 184 67
155 178 65
137 161 130
95 123 140
91 119 140
92 120 144
101 129 152
91 119 150
95 123 147
95 123 150
99 126 152
96 123 155
94 122 157
106 133 162
91 119 151
102 128 155
93 120 142
89 118 147
104 131 148
97 124 147
108 134 143
105 131 151
105 131 143
101 128 151
98 126 156
95 123 157
94 122 155
94 122 155
81 111 151
76 107 165
82 112 157
75 107 157
73 106 173
78 109 171
70 104 168
80 110 162
74 106 169
79 109 165
71 104 166
79 110 170
64 98 160
71 104 161
61 96 155
62 98 164
61 96 148
62 97 152
62 96 147
61 97 156
60 95 140
66 100 155
65 100 152
62 97 146
59 94 151
63 97 145
59 93 144
68 100 137
66 99 147
70 102 136
63 96 140
62 96 144
60 93 139
63 97 133
61 96 139
60 95 144
59 94 145
59 94 139
59 94 133
59 94 139
59 95 147
60 95 148
59 94 142
60 94 145
59 94 147
59 94 141
60 95 144
59 94 137
60 95 147
61 96 149
60 95 142
59 94 140
60 94 135
59 94 136
61 96 148
59 94 139
59 94 133
60 95 151
61 96 145
61 96 148
60 96 155
61 96 148
61 95 148
60 95 150
60 96 143
62 97 142
61 96 147
60 95 143
60 95 148
62 97 155
61 97 151
61 97 144
60 94 146
62 97 153
60 94 142
60 95 143
61 97 150
60 95 141
61 97 144
60 95 142
60 96 139
60 95 135
60 95 140
60 94 137
60 96 141
60 96 143
59 94 135
60 94 134
60 95 139
60 96 142
60 95 144
60 96 141
61 95 145
60 95 141
60 95 147
60 95 142
61 95 142
62 97 149
62 97 149
61 96 141
60 96 141
60 95 140
61 96 152
60 95 133
61 96 141
60 95 142
61 96 149
60 95 141
61 97 145
61 96 145
59 94 141
61 96 143
61 95 148
62 97 149
61 96 140
61 96 144
60 94 141
59 94 130
61 96 144
60 95 137
62 97 144
60 95 142
61 96 142
60 95 137
61 96 144
58 92 126
60 96 142
60 95 137
60 95 130
61 96 141
59 94 130
62 97 149
59 94 133
60 95 140
60 95 141
59 92 133
60 95 140
59 92 123
60 95 139
58 91 125
59 93 131
59 93 130
60 95 135
58 92 128
58 92 121
58 91 125
57 90 124
58 92 120
58 91 128
59 93 121
73 98 96
101 120 70
114 128 31
126 139 19
123 135 0
123 135 0
122 137 0
115 129 0
117 130 0
116 129 0
119 132 0
130 143 0
132 146 0
125 140 0
119 133 0
125 137 0
117 128 0
121 134 0
123 134 0
117 130 0
123 130 0
120 130 0
119 132 0
136 149 0
125 138 0
126 137 0
119 127 0
120 132 0
123 135 0
125 136 0
114 122 0
131 146 0
120 130 0
137 146 0
131 144 0
138 151 0
126 136 0
129 139 0
127 138 0
124 135 0
125 134 0
129 141 0
122 131 0
121 130 0
122 132 0
131 142 0
119 130 0
127 136 0
140 151 0
132 139 0
128 138 0
127 138 0
150 163 0
136 145 0
136 148 0
131 140 0
130 141 0
133 143 0
134 142 0
147 159 0
129 138 0
138 149 0
139 150 0
135 146 0
142 155 0
138 146 0
134 145 0
132 140 0
145 155 0
137 146 0
148 160 0
135 143 0
136 145 0
134 146 0
143 155 0
143 154 0
139 150 0
140 151 0
146 157 0
144 154 0
145 155 0
139 148 0
150 162 0
144 156 0
139 148 0
147 158 0
139 150 0
152 163 0
153 165 0
147 157 0
151 162 0
147 158 0
144 154 0
140 149 0
141 153 0
146 160 0
149 161 0
145 156 0
152 164 0
156 169 0
156 169 0
151 167 0
152 165 0
149 163 0
147 163 0
159 173 0
151 164 0
152 166 0
159 172 0
149 164 0
156 170 0
147 160 0
158 172 0
159 173 0
158 173 0
151 165 0
159 174 0
159 172 0
160 174 0
157 173 0
157 172 0
159 174 0
160 176 0
158 174 0
158 175 0
158 175 0
160 175 0
157 172 0
155 170 0
160 178 0
160 176 0
157 172 0
161 177 0
160 175 0
164 179 0
160 176 0
164 182 0
165 181 0
160 175 0
160 178 0
166 184 0
163 181 0
163 180 0
158 176 0
160 175 0
164 184 0
161 181 0
165 184 0
165 183 0
171 195 76
173 197 95
173 197 76
173 197 67
172 195 67
171 195 76
169 193 67
173 196 57
173 196 72
172 195 72
170 194 72
168 192 80
175 199 102
170 194 76
171 194 57
168 192 76
171 195 51
172 197 105
171 195 57
173 197 80
173 197 95
171 196 88
171 194 67
168 191 72
170 195 102
167 190 62
169 193 67
171 194 80
167 192 76
166 190 76
169 193 80
168 191 76
171 195 72
169 194 84
170 193 80
168 193 76
168 192 80
166 190 84
166 189 62
167 191 62
172 195 80
168 193 88
169 194 84
169 193 57
170 194 88
167 191 67
168 191 51
172 196 76
167 190 51
168 192 67
163 188 88
167 191 80
172 196 57
167 191 76
171 193 62
167 191 57
165 189 62
162 186 80
172 196 76
166 189 67
161 185 72
168 191 72
170 194 76
169 193 84
163 187 92
166 189 80
165 189 80
164 187 88
168 191 72
165 188 62
166 189 80
169 192 84
166 189 67
165 188 76
165 188 67
144 167 86
111 137 115
89 117 130
100 127 143
90 118 144
113 138 161
95 123 141
92 119 139
105 131 151
77 108 141
72 103 137
84 113 134
95 122 137
97 125 161
84 114 137
91 119 148
101 127 151
96 124 158
99 125 149
94 121 145
106 132 153
90 119 138
94 122 156
110 136 150
97 124 157
98 125 141
99 126 158
78 109 152
77 108 162
93 121 161
87 116 163
85 115 168
83 113 176
86 116 169
71 105 168
68 102 168
82 112 173
68 102 165
68 101 157
71 104 167
64 99 160
61 96 150
61 96 158
61 96 156
61 96 151
62 97 156
64 99 153
60 96 155
62 96 145
60 95 147
66 99 144
62 96 141
65 99 149
65 98 136
65 99 137
66 99 139
73 104 128
65 98 137
63 97 135
62 96 149
59 94 145
58 93 144
61 96 148
61 96 143
60 96 148
60 95 143
59 94 140
58 92 139
59 94 143
61 96 150
60 95 145
60 95 149
60 95 144
59 94 139
59 94 139
61 95 148
60 95 141
61 97 151
61 96 153
60 95 143
61 97 152
59 93 140
62 97 154
60 95 150
60 95 147
61 96 141
61 96 140
59 94 135
60 95 146
61 96 144
61 96 150
60 96 143
61 96 142
60 96 144
60 95 148
62 97 152
60 95 140
60 95 137
61 96 145
61 96 145
61 96 149
62 97 151
60 95 139
61 96 140
61 96 144
60 95 144
61 96 141
61 96 144
61 96 140
60 96 143
60 95 144
61 96 144
61 96 142
61 96 145
60 95 136
60 95 141
60 95 151
61 97 153
61 96 141
60 95 140
61 96 144
61 96 141
62 97 148
61 96 145
61 96 147
63 99 160
61 97 143
60 94 140
62 97 151
60 95 142
61 96 140
59 94 133
61 96 141
61 96 145
60 96 149
60 95 133
60 94 130
59 94 121
60 95 134
59 94 130
60 95 141
60 94 131
59 94 134
61 95 137
61 96 144
60 96 139
62 97 151
59 94 140
60 95 135
62 96 140
61 96 143
59 94 134
59 93 129
60 95 135
61 96 140
59 94 137
58 92 125
60 94 139
59 93 130
61 95 142
59 93 120
59 93 125
60 94 130
60 95 135
58 92 125
58 92 125
59 94 130
58 91 116
59 92 129
59 93 130
57 91 126
59 92 130
58 92 120
58 92 124
58 91 114
58 87 102
82 101 80
99 115 67
119 131 25
111 124 0
126 141 0
123 134 0
128 139 0
119 133 0
133 144 0
128 140 0
121 133 0
123 137 0
134 149 0
121 133 0
124 137 0
122 137 0
123 136 0
122 134 0
120 132 0
129 141 0
131 144 0
128 143 0
131 143 0
136 151 0
123 135 0
120 132 0
130 142 0
139 151 0
126 139 0
124 133 0
120 129 0
113 124 0
118 130 0
117 129 0
132 144 0
125 135 0
124 135 0
126 138 0
131 144 0
129 140 0
126 138 0
142 154 0
115 126 0
121 129 0
129 140 0
128 140 0
131 143 0
128 137 0
138 148 0
140 154 0
139 150 0
128 138 0
131 143 0
132 140 0
141 153 0
141 154 0
129 138 0
126 136 0
127 135 0
139 149 0
145 157 0
132 141 0
140 149 0
135 148 0
137 148 0
141 151 0
134 140 0
143 154 0
136 146 0
143 154 0
134 147 0
142 152 0
147 158 0
142 155 0
131 140 0
142 155 0
140 148 0
140 151 0
141 151 0
139 150 0
149 161 0
139 148 0
143 152 0
138 149 0
152 161 0
145 156 0
144 155 0
143 150 0
143 155 0
150 162 0
154 167 0
152 164 0
145 155 0
147 158 0
146 158 0
144 154 0
154 170 0
152 165 0
147 159 0
149 160 0
152 166 0
149 164 0
154 166 0
148 159 0
155 170 0
151 164 0
154 167 0
155 170 0
160 174 0
149 161 0
161 176 0
160 175 0
158 173 0
161 175 0
155 170 0
158 171 0
159 175 0
154 169 0
158 173 0
159 175 0
159 175 0
157 171 0
156 172 0
152 168 0
162 176 0
159 176 0
160 177 0
161 177 0
162 177 0
158 173 0
161 180 0
154 169 0
159 177 0
159 174 0
161 178 0
159 175 0
160 178 0
158 174 0
166 184 0
161 177 0
159 176 0
157 173 0
165 183 0
164 181 0
165 183 0
162 182 0
159 175 0
160 178 0
156 172 0
173 197 76
171 195 80
171 194 57
173 197 67
175 198 84
175 199 80
172 196 62
173 197 57
174 198 80
173 197 88
171 196 62
167 191 25
174 197 72
172 197 62
174 198 84
170 194 84
170 194 67
173 197 80
173 196 67
169 193 67
169 192 62
174 198 108
168 192 80
170 194 88
172 196 67
170 193 92
169 193 92
169 191 51
172 197 92
170 194 88
171 195 51
164 189 76
166 190 88
173 197 80
171 195 76
172 196 88
169 193 84
171 195 88
166 191 72
172 196 76
172 196 95
167 191 57
168 192 72
173 197 72
165 190 72
166 190 80
169 192 51
171 195 80
169 193 76
170 194 88
170 193 67
166 189 67
170 193 72
164 187 80
168 193 72
165 190 57
165 189 72
167 190 67
165 189 62
165 188 76
167 190 67
169 193 76
165 189 72
165 189 62
165 189 76
167 190 72
169 192 80
166 189 62
168 191 51
160 184 88
165 189 67
165 188 76
167 190 80
162 185 80
163 185 57
163 188 84
132 156 103
106 131 128
97 124 137
100 128 157
90 118 135
101 126 141
96 122 143
91 119 144
96 122 140
87 115 133
101 127 148
87 115 143
96 123 155
94 122 149
94 122 148
97 124 147
107 133 149
87 116 154
96 123 157
100 126 134
107 134 157
93 120 141
94 121 136
81 111 143
101 128 160
100 127 154
87 116 156
83 113 153
89 117 161
92 121 171
69 103 163
79 110 172
77 109 168
78 109 171
77 108 170
76 108 167
79 110 164
73 105 162
66 99 161
64 99 166
64 99 159
67 100 157
64 98 158
60 95 151
62 98 162
60 96 154
67 101 149
62 97 145
60 95 151
60 96 148
63 99 157
65 97 137
62 96 145
65 99 149
67 100 140
61 95 141
66 99 140
59 94 141
63 97 140
59 95 141
59 94 140
60 95 148
60 95 141
59 94 136
60 94 143
60 95 141
60 95 144
59 94 141
58 92 124
60 94 143
59 94 139
60 94 148
61 96 144
61 96 140
61 96 140
60 94 143
60 95 143
60 95 151
60 95 141
60 96 141
60 95 139
60 95 147
61 96 150
61 97 154
61 96 142
60 95 144
61 96 148
59 93 129
61 96 144
60 95 148
60 96 144
60 95 144
61 96 144
61 97 151
62 97 153
61 96 147
62 97 156
60 94 137
61 96 141
62 98 158
61 96 141
61 95 143
60 95 142
61 96 143
60 95 144
61 96 147
60 94 131
61 97 147
60 95 144
60 95 141
61 96 143
61 96 149
62 97 148
61 97 147
61 96 145
61 97 147
61 96 140
61 96 139
61 96 147
60 95 142
61 96 145
60 94 133
61 96 144
60 95 134
60 95 140
60 95 141
61 96 135
60 95 131
61 96 150
59 93 130
60 95 149
61 96 142
60 94 129
60 95 141
61 96 142
60 95 141
60 95 141
60 95 141
60 95 137
61 96 142
60 95 142
60 94 126
62 97 149
61 96 147
59 94 137
61 96 144
60 95 131
62 97 149
61 96 139
60 95 135
61 95 136
60 94 135
58 92 126
61 96 141
60 94 133
61 96 136
60 94 137
60 95 144
59 94 128
60 95 133
60 94 130
60 94 131
59 93 133
58 92 128
59 94 133
60 94 125
58 91 112
60 94 125
58 92 128
56 88 117
57 90 107
57 91 114
57 90 120
64 93 113
77 101 95
100 115 54
110 124 31
122 136 0
121 135 0
117 128 0
116 129 0
117 130 0
119 132 0
126 138 0
111 124 0
110 121 0
118 130 0
119 128 0
133 149 0
121 134 0
119 132 0
120 134 0
120 134 0
126 138 0
123 135 0
119 133 0
120 132 0
116 131 0
122 135 0
128 139 0
131 143 0
129 141 0
122 135 0
122 132 0
125 138 0
119 132 0
127 140 0
124 134 0
122 131 0
115 126 0
130 141 0
137 145 0
121 132 0
122 132 0
132 144 0
125 135 0
139 151 0
131 143 0
125 139 0
129 140 0
139 151 0
136 147 0
135 146 0
134 143 0
139 151 0
130 140 0
126 135 0
132 142 0
134 145 0
135 146 0
140 147 0
131 141 0
137 149 0
124 135 0
128 137 0
138 148 0
133 141 0
128 137 0
146 159 0
138 147 0
145 157 0
133 144 0
135 144 0
138 146 0
148 159 0
143 153 0
139 150 0
145 154 0
148 160 0
141 152 0
146 160 0
141 149 0
151 163 0
146 158 0
143 154 0
139 147 0
144 154 0
139 150 0
146 156 0
149 162 0
145 157 0
154 168 0
149 162 0
145 155 0
147 159 0
151 165 0
149 161 0
151 164 0
151 165 0
153 164 0
148 161 0
153 164 0
148 161 0
145 154 0
154 166 0
150 164 0
160 174 0
153 166 0
150 160 0
153 167 0
152 165 0
153 166 0
158 172 0
159 173 0
148 162 0
154 168 0
152 165 0
154 168 0
160 173 0
161 176 0
159 174 0
156 171 0
154 170 0
158 174 0
153 167 0
160 178 0
157 174 0
164 180 0
158 174 0
155 172 0
159 176 0
163 180 0
159 177 0
158 175 0
164 180 0
162 179 0
163 182 0
162 180 0
161 177 0
163 182 0
163 182 0
164 182 0
159 178 0
163 180 0
164 181 0
160 178 0
163 181 0
162 178 0
164 182 0
166 184 0
163 180 0
164 182 0
161 179 0
164 184 0
171 195 57
171 195 80
171 194 44
172 195 72
174 198 84
171 195 72
172 196 72
169 193 44
169 193 57
173 197 72
169 192 57
168 192 80
173 197 84
171 195 57
171 194 57
170 194 92
172 196 80
170 193 84
167 191 62
174 197 67
169 193 80
173 197 92
174 197 76
164 188 57
169 193 80
170 194 62
170 195 102
171 195 80
172 196 80
171 195 76
166 189 72
167 192 72
173 198 84
167 190 62
168 192 57
167 191 62
163 187 62
164 187 72
165 189 67
171 195 72
169 192 72
169 192 57
172 195 62
165 189 72
170 194 84
173 197 67
167 191 80
167 191 72
170 195 99
168 192 72
166 190 72
167 190 76
170 194 88
162 186 72
168 191 67
168 192 62
168 191 72
166 190 62
167 191 88
170 194 88
162 186 51
167 191 76
167 191 72
164 187 72
167 191 88
170 194 62
163 187 62
164 189 84
164 188 67
165 189 62
171 193 72
165 188 62
163 186 76
162 185 80
163 185 72
159 183 95
157 180 92
113 139 117
106 132 141
86 115 142
92 120 158
103 130 148
90 117 130
94 121 137
85 113 139
94 121 153
99 126 157
97 125 153
100 127 155
92 120 163
95 122 137
81 111 153
101 127 143
93 121 143
104 129 155
91 119 144
99 126 147
92 120 145
101 129 152
109 135 136
93 121 149
92 119 148
93 120 154
91 120 169
81 111 157
86 116 167
82 112 161
83 114 170
70 103 156
79 110 169
76 108 168
73 106 161
68 102 163
74 105 161
70 103 168
63 98 158
67 101 155
63 98 158
62 97 151
60 95 153
62 98 167
63 99 154
60 96 161
61 97 152
60 95 149
66 99 142
62 96 145
62 97 145
61 96 142
64 97 140
60 94 136
61 95 147
71 103 144
58 93 137
60 95 148
62 95 132
58 93 124
58 92 126
58 93 135
60 95 137
59 94 136
60 95 142
59 94 136
60 95 147
60 95 139
60 95 152
61 96 143
59 93 139
59 94 144
59 94 151
59 94 136
60 95 150
60 96 147
61 96 144
61 96 145
61 96 146
59 94 141
60 95 141
60 95 143
59 94 142
60 95 143
60 95 134
59 95 145
61 97 154
58 93 140
60 96 147
59 94 144
60 95 139
60 96 149
61 96 143
61 96 143
60 95 141
61 97 151
61 96 143
59 94 141
59 94 134
61 96 155
60 94 137
61 96 142
60 94 136
60 95 136
60 94 128
61 96 142
61 96 145
60 95 142
61 96 143
62 97 150
62 97 147
61 96 150
60 95 143
61 96 141
60 95 142
61 96 140
62 97 153
60 96 143
61 97 147
60 94 130
60 96 144
61 95 151
61 96 142
60 95 136
60 96 143
60 95 136
61 96 148
60 95 135
60 95 141
61 95 135
61 96 144
60 94 122
61 96 141
61 96 141
59 94 136
60 95 136
60 95 145
61 96 136
60 95 133
60 95 136
59 93 126
59 94 131
61 96 140
61 96 143
61 95 139
59 94 125
60 95 130
59 93 128
59 93 122
60 95 137
59 93 133
59 94 118
60 94 125
60 95 134
59 94 120
58 92 120
59 93 124
59 93 134
61 96 140
59 94 120
59 94 128
59 93 125
58 91 128
58 92 113
59 94 129
60 94 135
59 92 131
58 90 124
58 92 123
57 91 114
58 91 122
60 93 117
71 95 101
96 116 87
113 128 40
124 139 0
121 136 0
126 139 0
109 121 0
118 132 0
114 127 0
114 128 0
112 125 0
120 134 0
124 138 0
118 131 0
115 129 0
127 139 0
121 135 0
122 135 0
121 134 0
119 130 0
128 143 0
129 141 0
130 140 0
130 144 0
127 139 0
116 128 0
127 139 0
133 146 0
114 126 0
129 143 0
123 136 0
123 137 0
133 145 0
128 140 0
139 151 0
134 147 0
129 141 0
134 148 0
128 141 0
137 148 0
127 138 0
126 135 0
133 143 0
133 145 0
139 151 0
140 153 0
137 149 0
131 143 0
130 142 0
119 129 0
138 147 0
137 149 0
142 155 0
130 144 0
131 142 0
139 151 0
137 150 0
136 148 0
128 139 0
133 144 0
142 152 0
136 148 0
131 143 0
131 140 0
135 146 0
139 152 0
136 145 0
138 149 0
143 154 0
148 160 0
145 157 0
140 153 0
144 155 0
139 146 0
146 157 0
143 155 0
141 153 0
142 154 0
136 144 0
153 166 0
147 156 0
148 159 0
146 159 0
139 150 0
152 165 0
146 160 0
142 156 0
144 153 0
154 167 0
150 163 0
146 160 0
149 162 0
153 168 0
151 162 0
150 162 0
157 173 0
152 165 0
153 165 0
153 167 0
146 162 0
154 167 0
157 170 0
151 164 0
152 165 0
154 168 0
157 171 0
157 169 0
155 170 0
158 172 0
153 167 0
155 169 0
157 172 0
159 172 0
158 174 0
153 168 0
150 163 0
160 177 0
158 173 0
160 175 0
164 178 0
154 169 0
163 180 0
156 171 0
159 174 0
160 176 0
159 175 0
155 172 0
156 173 0
160 177 0
160 176 0
153 170 0
158 172 0
157 174 0
160 178 0
161 179 0
152 168 0
158 173 0
161 179 0
160 176 0
158 176 0
160 178 0
157 175 0
165 185 0
163 181 0
164 183 0
166 185 0
164 183 0
165 183 0
160 179 0
160 179 0
160 175 0
169 193 44
171 195 67
172 197 80
172 196 72
170 195 62
175 198 72
175 199 72
175 198 84
171 195 95
169 192 67
173 196 62
175 199 76
171 194 57
172 196 80
172 196 76
169 193 76
172 196 57
170 194 67
174 198 76
171 196 88
172 196 84
171 195 67
167 190 67
172 196 76
167 191 62
171 195 80
165 190 76
169 192 67
165 189 72
167 190 44
169 194 80
174 198 76
172 195 67
171 195 92
166 191 92
168 191 51
168 192 76
173 197 84
170 193 72
169 193 84
167 190 67
165 189 62
168 191 80
171 195 80
172 195 76
172 196 92
169 193 67
164 188 62
165 188 72
163 187 84
162 186 88
170 193 62
167 191 67
160 184 51
167 191 84
167 191 84
168 191 72
170 194 80
170 193 67
169 193 84
166 190 76
169 192 80
168 190 72
167 190 72
165 188 84
167 190 80
164 188 84
162 186 80
167 190 62
171 194 62
161 184 62
167 190 51
159 180 72
166 189 76
153 176 67
165 189 67
158 182 86
141 165 110
106 132 110
89 117 134
89 118 148
89 116 133
86 115 151
97 124 144
106 132 149
93 121 146
93 120 137
95 122 140
96 123 149
101 128 148
99 126 156
86 115 145
90 118 140
98 125 156
97 124 155
93 121 145
101 127 148
87 116 149
108 134 149
101 127 157
94 121 143
100 127 136
101 128 158
86 114 137
96 123 155
94 121 153
86 116 158
91 120 164
84 114 161
78 110 171
75 108 172
80 110 170
78 109 169
77 108 166
70 102 158
66 100 159
68 100 151
68 101 158
71 102 155
61 96 157
62 96 155
62 97 154
60 94 133
61 96 159
59 94 140
64 97 150
59 94 149
59 93 143
61 95 139
61 95 141
63 97 148
66 99 137
64 96 131
63 97 140
62 95 137
65 98 136
63 97 141
59 93 149
60 95 147
59 94 136
60 94 144
59 94 135
61 96 149
57 91 134
59 94 143
59 94 135
59 93 137
60 95 144
58 93 125
61 95 148
59 93 134
59 94 140
60 95 143
60 96 150
60 95 153
59 94 129
60 95 137
60 96 150
62 97 152
60 95 142
61 96 149
59 94 143
60 94 145
61 96 143
60 95 147
60 95 146
60 95 151
60 95 134
60 95 139
62 97 152
60 94 138
60 94 137
59 94 133
59 93 130
60 95 139
61 96 143
61 96 147
60 95 140
60 95 136
61 96 137
60 95 140
60 95 143
61 96 137
61 97 149
61 96 140
61 96 148
60 95 140
59 93 133
61 96 145
60 95 143
60 95 141
61 96 144
60 94 141
61 97 151
60 94 131
60 95 143
61 96 147
59 93 121
60 96 137
59 94 125
60 96 144
60 95 135
59 93 128
62 96 150
61 96 144
61 97 144
60 94 125
61 97 149
60 94 135
61 95 140
59 94 129
60 95 139
60 94 134
58 92 121
60 95 140
60 95 142
60 95 130
61 96 137
60 95 134
61 96 145
59 94 134
59 94 129
60 95 137
60 95 142
60 94 134
59 93 125
58 92 121
60 95 130
58 92 124
59 92 121
61 96 141
59 94 128
61 95 139
58 92 128
59 94 130
59 93 128
57 91 114
58 92 115
60 94 122
58 92 114
57 90 118
56 89 108
59 93 129
59 92 122
59 92 117
60 93 128
59 92 118
56 88 115
75 102 105
81 103 94
101 117 51
109 123 18
117 130 0
132 144 0
125 137 0
115 126 0
116 130 0
114 126 0
121 133 0
130 142 0
122 137 0
116 129 0
126 141 0
121 134 0
126 140 0
119 133 0
123 137 0
133 149 0
126 138 0
114 125 0
123 137 0
122 134 0
132 147 0
124 135 0
126 139 0
126 136 0
131 145 0
131 145 0
132 146 0
127 138 0
135 150 0
144 158 0
133 147 0
131 142 0
125 139 0
126 138 0
128 143 0
138 147 0
127 140 0
134 148 0
134 145 0
130 140 0
141 155 0
131 144 0
126 137 0
130 142 0
127 137 0
130 141 0
140 153 0
137 148 0
130 140 0
135 145 0
140 154 0
132 142 0
137 146 0
136 146 0
134 145 0
126 135 0
137 146 0
142 156 0
141 149 0
137 148 0
149 164 0
145 159 0
142 153 0
145 158 0
145 158 0
136 148 0
148 158 0
142 154 0
139 154 0
147 159 0
142 152 0
141 151 0
141 151 0
145 157 0
145 158 0
154 166 0
146 158 0
140 153 0
140 149 0
149 162 0
140 150 0
146 158 0
147 156 0
149 160 0
146 155 0
141 152 0
145 158 0
151 163 0
155 170 0
155 168 0
145 157 0
157 169 0
152 167 0
154 169 0
156 167 0
152 165 0
152 165 0
153 165 0
152 165 0
153 166 0
152 165 0
149 163 0
154 167 0
150 164 0
150 163 0
151 164 0
161 177 0
151 164 0
152 166 0
151 165 0
152 167 0
159 176 0
160 177 0
157 172 0
153 170 0
158 172 0
157 170 0
157 170 0
166 183 0
155 168 0
159 177 0
159 173 0
156 173 0
162 178 0
162 177 0
162 179 0
160 176 0
165 184 0
166 184 0
158 176 0
163 180 0
167 185 0
162 179 0
162 179 0
162 181 0
161 179 0
163 181 0
156 174 0
161 181 0
164 181 0
165 184 0
163 181 0
158 174 0
166 186 0
168 187 0
161 180 0
163 180 0
162 181 0
171 195 62
175 198 92
173 197 57
172 196 57
172 196 76
173 197 76
173 197 62
173 197 84
172 196 76
167 190 51
174 198 72
172 196 84
173 197 57
171 195 76
172 195 76
175 198 72
172 197 62
170 192 72
168 193 62
170 193 51
171 195 67
170 195 88
169 193 62
165 190 62
172 196 62
167 191 76
172 195 72
171 195 62
168 191 36
169 193 57
168 192 67
171 195 72
174 199 88
168 193 62
170 193 72
168 192 72
172 196 76
166 191 72
168 192 62
168 192 84
162 185 67
167 190 62
165 189 84
168 192 67
169 194 95
168 192 88
168 192 84
167 192 88
163 187 72
167 191 84
166 189 67
168 191 62
170 193 62
164 187 67
165 189 76
164 188 51
168 191 72
164 188 67
160 183 44
163 186 76
162 186 67
164 187 72
162 185 67
172 195 76
167 190 72
165 189 88
166 189 76
166 190 88
166 190 67
165 188 72
167 191 72
167 190 67
160 184 67
159 182 76
163 187 72
165 188 67
159 181 72
156 179 78
132 156 113
106 131 129
94 120 141
99 125 143
89 117 141
92 119 141
96 123 138
90 118 140
97 124 148
97 124 143
86 114 134
89 117 151
92 120 150
98 125 144
104 130 156
94 121 148
101 127 141
95 122 145
86 115 157
86 114 144
85 115 150
102 128 141
111 136 153
95 123 144
99 126 147
107 133 173
90 118 158
95 123 157
84 113 163
95 123 171
88 116 154
82 112 165
72 104 160
77 108 166
73 105 165
71 103 159
67 100 154
63 98 162
69 103 172
66 100 156
62 97 152
60 96 153
62 97 148
63 98 155
60 96 150
64 98 166
59 94 139
60 95 151
60 95 143
59 94 143
58 92 139
64 98 142
64 97 136
69 100 132
65 98 132
63 96 137
66 99 133
59 93 138
62 96 141
57 91 132
62 96 143
58 93 135
58 93 132
60 95 153
59 93 131
59 94 138
59 94 143
58 92 133
60 95 139
59 94 140
60 94 145
59 94 137
59 94 136
60 95 137
59 94 139
60 95 150
60 95 139
57 91 126
59 94 143
60 95 147
60 95 139
59 94 140
62 97 149
60 95 145
60 95 148
60 94 141
61 96 139
60 94 137
61 96 143
61 96 147
60 95 140
61 96 140
61 96 143
59 94 134
61 96 137
60 95 137
61 96 143
60 95 139
59 94 136
60 95 140
61 96 134
60 95 136
60 95 134
61 96 143
58 93 133
60 95 134
61 96 148
60 95 142
60 94 139
60 94 133
59 94 129
60 96 140
61 96 135
61 97 152
61 96 148
60 94 133
61 96 147
62 97 141
60 95 139
61 96 142
60 94 133
60 95 137
59 93 133
59 93 137
60 94 141
60 95 140
60 96 140
61 96 142
62 97 153
59 94 133
61 96 136
61 96 143
61 96 143
60 95 142
60 94 134
58 92 124
60 94 130
58 92 120
60 94 131
60 95 142
60 94 137
59 94 126
59 93 124
59 93 137
61 95 141
59 93 129
60 95 143
61 96 136
58 92 125
60 94 133
58 92 128
59 93 118
61 96 136
60 94 128
58 91 130
59 94 122
60 94 140
61 96 140
59 94 122
59 94 124
60 94 131
59 93 125
58 91 120
58 92 118
58 92 121
59 92 117
57 91 113
57 91 113
56 89 113
62 93 108
78 102 97
105 122 51
111 125 40
129 140 0
117 130 0
114 127 0
123 136 0
117 129 0
120 134 0
123 137 0
121 134 0
120 131 0
119 134 0
121 135 0
121 134 0
116 126 0
126 142 0
125 137 0
121 133 0
132 147 0
112 125 0
136 150 0
129 143 0
125 137 0
120 133 0
129 141 0
125 138 0
129 142 0
131 145 0
119 131 0
128 143 0
131 143 0
134 148 0
134 147 0
125 140 0
130 140 0
126 137 0
138 150 0
129 140 0
134 147 0
132 142 0
136 147 0
134 143 0
126 136 0
135 147 0
123 136 0
121 131 0
134 147 0
133 145 0
130 142 0
136 148 0
137 149 0
129 140 0
137 150 0
140 153 0
125 138 0
126 136 0
133 144 0
139 152 0
142 155 0
129 142 0
139 150 0
136 147 0
132 141 0
132 141 0
138 150 0
135 149 0
134 146 0
142 151 0
141 151 0
143 157 0
144 158 0
134 145 0
140 152 0
144 154 0
142 155 0
143 155 0
140 151 0
150 163 0
149 162 0
143 154 0
146 159 0
141 153 0
138 147 0
150 164 0
150 162 0
151 164 0
150 161 0
148 162 0
151 161 0
146 159 0
149 162 0
148 161 0
158 172 0
148 161 0
153 166 0
147 159 0
149 162 0
158 171 0
153 167 0
151 165 0
151 164 0
151 164 0
150 163 0
147 160 0
156 169 0
156 173 0
156 169 0
153 167 0
158 171 0
153 168 0
151 165 0
155 169 0
151 167 0
161 175 0
157 172 0
155 168 0
163 178 0
160 176 0
157 172 0
157 172 0
160 176 0
157 175 0
166 183 0
159 174 0
163 181 0
158 173 0
155 172 0
160 178 0
162 177 0
153 169 0
159 173 0
161 179 0
159 175 0
161 178 0
162 180 0
164 180 0
161 178 0
163 178 0
163 179 0
162 179 0
158 177 0
162 181 0
162 179 0
162 180 0
158 175 0
166 185 0
164 182 0
162 179 0
159 178 0
163 180 0
168 187 0
175 199 92
171 195 76
177 199 80
171 196 67
171 195 62
167 191 44
173 196 62
168 192 67
172 196 72
172 196 67
172 196 44
173 196 76
172 197 72
168 192 67
171 195 57
173 196 76
171 196 80
171 196 95
173 197 67
168 192 67
171 195 80
173 197 84
167 191 67
169 192 57
169 194 88
169 194 84
166 190 72
169 193 72
170 194 62
170 194 51
167 191 51
166 190 92
169 193 67
173 196 76
172 196 67
167 190 67
164 187 62
170 194 72
167 191 57
167 191 72
167 190 51
169 193 67
166 190 67
171 195 84
169 193 95
158 183 57
167 191 80
169 193 44
169 193 84
167 191 76
167 192 92
174 196 67
164 188 76
166 190 72
165 190 95
168 192 57
166 190 57
169 192 62
158 181 67
164 187 72
162 185 44
163 186 44
163 187 72
168 192 76
166 189 67
161 184 51
159 182 72
156 179 62
163 187 76
165 189 72
168 191 62
168 191 92
164 188 84
167 190 72
159 182 72
164 187 76
165 187 76
166 189 84
152 175 57
126 151 142
82 110 133
93 120 147
87 116 141
100 125 140
85 114 129
96 123 144
90 118 140
86 115 134
94 122 137
90 118 143
94 121 148
95 122 155
95 122 140
99 126 149
91 118 154
99 126 155
95 122 148
88 116 144
111 135 151
97 124 142
107 132 153
104 130 131
94 121 145
99 126 147
95 123 141
85 114 141
93 121 148
76 108 150
85 115 161
100 125 166
76 107 162
78 109 160
88 116 170
81 110 171
79 110 171
69 102 161
72 104 166
64 99 160
65 100 162
63 97 150
62 97 159
61 95 147
61 96 155
61 97 154
59 94 139
59 94 145
62 96 141
63 98 151
67 99 145
59 94 144
63 97 134
58 92 139
60 94 134
59 93 133
65 98 143
60 93 129
59 93 137
65 98 134
58 93 140
59 94 147
59 93 137
59 94 145
59 93 137
60 95 146
59 94 131
59 93 140
61 96 147
61 96 143
58 93 136
59 94 141
58 93 136
60 95 145
60 95 144
61 95 147
60 95 147
60 95 137
60 96 143
59 93 133
60 95 144
61 96 144
61 96 145
60 95 144
59 94 129
61 96 149
61 96 141
61 97 147
59 94 134
60 96 143
58 92 129
60 96 145
60 95 130
59 94 135
61 97 147
60 95 143
60 95 143
62 97 151
60 95 135
61 96 145
60 95 136
61 96 144
59 94 139
60 95 141
60 95 136
60 95 143
60 95 142
60 95 134
61 96 149
61 96 147
60 96 148
60 95 136
60 95 145
63 98 159
60 95 135
60 95 138
59 94 135
60 95 145
60 96 144
60 95 134
60 95 140
60 95 142
60 94 134
61 96 141
59 94 128
60 95 134
60 95 143
60 95 142
60 95 135
60 95 140
60 95 135
59 94 133
60 94 131
59 94 136
59 94 130
59 93 125
58 92 122
61 96 134
59 94 125
60 94 135
60 95 137
60 95 139
60 94 135
61 96 142
60 94 136
58 92 118
61 96 140
60 95 129
60 95 139
59 93 133
60 94 136
59 93 122
59 93 129
60 94 133
58 92 121
59 94 125
59 93 133
60 95 134
57 90 122
58 92 117
58 92 117
58 92 115
59 93 117
58 92 124
58 92 122
57 90 108
58 92 117
58 91 118
58 90 100
79 104 117
96 113 61
109 122 44
117 129 0
126 139 0
118 131 0
123 136 0
129 144 0
120 133 0
119 134 0
124 135 0
122 135 0
126 140 0
125 137 0
127 142 0
133 149 0
130 143 0
123 138 0
117 128 0
128 144 0
122 135 0
128 141 0
126 139 0
114 126 0
125 139 0
119 132 0
131 146 0
126 138 0
125 139 0
126 138 0
125 139 0
130 143 0
131 143 0
133 147 0
138 151 0
123 136 0
134 147 0
135 146 0
133 147 0
131 142 0
138 152 0
129 141 0
132 145 0
125 137 0
131 142 0
131 145 0
132 145 0
132 143 0
123 134 0
134 145 0
127 137 0
128 139 0
146 160 0
137 149 0
142 153 0
139 151 0
137 151 0
130 142 0
138 149 0
140 153 0
140 154 0
133 144 0
132 143 0
142 156 0
138 151 0
140 152 0
134 146 0
144 155 0
139 148 0
142 155 0
146 157 0
139 152 0
140 153 0
142 153 0
153 168 0
141 153 0
142 152 0
136 149 0
148 162 0
145 158 0
141 153 0
139 152 0
150 163 0
150 160 0
151 162 0
145 158 0
150 164 0
142 154 0
145 158 0
153 164 0
153 166 0
147 160 0
139 149 0
153 170 0
148 163 0
155 172 0
153 167 0
143 154 0
159 175 0
152 165 0
150 163 0
158 174 0
154 168 0
154 167 0
152 165 0
153 169 0
153 165 0
148 162 0
153 168 0
152 167 0
158 173 0
155 170 0
156 172 0
156 173 0
159 175 0
154 169 0
159 174 0
158 175 0
156 172 0
156 169 0
163 180 0
158 175 0
162 179 0
159 176 0
163 180 0
157 174 0
159 173 0
160 176 0
158 174 0
160 175 0
165 183 0
159 174 0
167 188 0
158 173 0
164 183 0
164 182 0
162 180 0
164 183 0
160 176 0
162 179 0
163 180 0
165 180 0
162 180 0
164 180 0
166 185 0
165 183 0
166 186 0
162 181 0
165 184 0
164 183 0
161 180 0
163 181 0
166 184 0
171 195 72
173 197 67
176 199 88
172 197 95
171 195 76
171 195 76
173 196 51
173 196 72
169 193 84
169 192 51
173 197 76
171 195 62
171 195 62
172 196 67
170 194 36
172 196 84
168 193 67
167 193 72
169 193 57
171 195 51
170 194 76
170 193 67
169 194 84
174 197 62
171 194 44
169 194 80
170 194 67
174 198 76
171 196 84
165 189 57
168 191 44
170 194 72
168 192 72
172 196 62
165 189 62
168 192 62
169 193 105
171 195 62
168 193 72
163 188 67
169 194 84
166 189 67
166 189 76
166 190 76
163 187 62
167 191 62
166 190 67
168 192 80
167 191 84
168 192 72
164 186 51
166 190 72
168 192 88
165 189 67
162 186 84
168 192 36
165 189 57
165 189 88
168 191 67
165 189 84
166 190 67
164 187 76
164 187 88
159 183 62
162 185 72
156 179 72
165 190 76
164 187 62
169 192 67
163 187 84
156 180 44
165 189 67
162 185 88
164 188 92
166 188 80
156 179 36
160 182 72
162 186 62
156 179 67
138 162 111
102 129 129
84 114 142
102 127 144
97 125 141
72 103 121
82 111 132
96 123 141
88 117 143
95 123 145
102 127 142
98 124 134
89 116 139
94 121 139
101 126 148
100 126 137
93 120 140
92 119 147
87 115 143
100 126 153
95 122 148
87 117 144
108 134 144
96 123 137
89 117 143
93 121 140
100 127 142
77 107 150
79 108 149
82 113 151
87 116 153
84 113 165
88 116 167
79 110 164
72 105 165
71 103 154
78 108 164
63 97 151
61 96 156
61 97 156
64 99 159
69 102 160
62 96 150
62 97 145
60 95 148
60 95 146
61 96 150
61 96 148
64 99 147
60 95 144
60 95 139
61 96 147
65 98 130
59 94 139
70 101 128
60 95 148
59 92 120
66 97 122
58 93 133
60 94 136
57 91 133
59 93 131
59 94 140
62 97 152
60 95 142
60 95 147
59 94 137
59 93 130
60 95 139
61 96 137
58 93 133
58 93 139
61 96 144
60 95 148
60 95 137
61 96 139
59 93 132
61 96 151
59 94 133
60 95 135
60 95 147
58 92 135
60 95 143
60 95 134
60 95 135
60 95 139
60 95 137
61 96 148
61 95 134
60 94 132
61 96 145
61 96 143
60 94 135
60 95 144
60 95 144
59 93 137
60 96 145
60 94 141
59 94 131
59 93 134
60 95 141
59 93 131
60 95 133
60 96 147
59 94 131
60 95 144
60 95 136
61 96 137
61 96 150
59 94 136
60 94 139
61 96 147
61 95 133
59 94 140
58 92 139
60 95 135
60 94 136
61 96 142
60 95 133
59 94 128
59 94 135
61 96 137
61 96 143
58 93 131
60 95 139
59 93 133
59 93 130
60 94 131
59 94 133
61 96 140
60 95 139
60 94 124
60 95 133
60 94 131
58 93 134
60 94 141
59 94 134
61 96 139
60 94 137
59 94 129
61 96 141
58 91 121
59 94 137
60 94 131
58 92 118
60 95 134
60 94 130
60 94 134
59 94 139
59 94 125
58 92 121
59 93 131
60 95 136
58 91 121
59 93 128
58 92 120
58 91 121
57 91 118
58 92 117
59 93 129
58 92 113
58 92 115
59 92 122
58 91 120
58 91 124
58 91 117
57 89 113
66 94 110
102 122 65
107 120 31
114 127 0
109 123 0
119 132 0
113 126 0
124 138 0
126 141 0
114 128 0
118 133 0
117 130 0
114 127 0
123 136 0
122 135 0
134 148 0
120 135 0
118 129 0
119 133 0
140 156 0
125 141 0
120 133 0
128 142 0
129 143 0
127 141 0
126 138 0
130 144 0
113 124 0
130 145 0
142 157 0
129 142 0
124 136 0
122 134 0
117 130 0
133 147 0
128 142 0
136 151 0
124 138 0
119 129 0
137 149 0
137 146 0
129 140 0
138 151 0
134 148 0
132 146 0
125 139 0
141 156 0
138 152 0
138 151 0
141 157 0
136 148 0
137 150 0
137 150 0
138 153 0
138 151 0
133 146 0
135 146 0
140 151 0
147 162 0
142 156 0
140 151 0
137 148 0
143 156 0
136 150 0
139 153 0
134 147 0
143 156 0
129 141 0
142 153 0
145 158 0
138 151 0
146 157 0
140 153 0
147 159 0
141 154 0
141 154 0
144 158 0
143 157 0
149 160 0
153 165 0
143 157 0
153 167 0
147 158 0
152 166 0
141 152 0
143 155 0
143 155 0
153 166 0
137 150 0
150 163 0
151 163 0
152 166 0
153 168 0
150 164 0
155 169 0
149 161 0
145 158 0
152 165 0
153 167 0
152 166 0
152 166 0
152 166 0
155 170 0
160 175 0
159 172 0
158 175 0
153 168 0
155 168 0
156 172 0
160 173 0
152 166 0
153 167 0
153 170 0
154 170 0
158 176 0
151 168 0
158 173 0
159 176 0
161 178 0
159 174 0
158 172 0
158 173 0
152 167 0
155 171 0
157 173 0
156 172 0
157 172 0
160 177 0
161 177 0
158 173 0
163 182 0
157 174 0
161 177 0
162 178 0
160 175 0
159 175 0
161 177 0
164 182 0
160 178 0
158 175 0
160 178 0
161 179 0
162 180 0
161 178 0
168 186 0
165 183 0
161 177 0
160 178 0
161 178 0
167 186 0
166 184 0
165 185 0
166 185 0
164 181 0
169 194 80
174 197 76
168 192 57
172 196 44
172 195 57
173 197 62
175 198 67
167 191 80
170 193 44
170 195 92
171 195 76
168 191 62
167 191 62
168 192 76
172 196 72
170 194 80
171 196 76
172 196 57
167 191 76
169 193 67
169 193 62
164 188 72
171 196 84
169 194 80
164 189 67
168 193 57
169 193 80
173 196 76
168 192 76
171 195 76
169 193 84
166 189 57
166 191 62
163 186 62
171 195 67
171 195 51
167 192 84
166 191 88
169 192 25
167 189 44
168 192 84
166 191 67
169 193 84
164 189 80
166 190 72
164 188 67
165 188 62
170 193 72
169 193 67
166 190 57
165 189 44
167 192 102
163 188 76
169 192 72
161 184 51
165 188 80
162 185 62
165 189 57
164 187 57
166 191 84
164 188 57
163 187 80
167 191 84
163 187 76
163 187 57
168 193 76
164 188 80
161 183 62
166 190 84
162 185 51
160 183 80
165 188 62
167 189 88
159 182 62
159 182 67
160 183 95
169 193 88
164 186 92
152 176 62
155 177 84
126 150 118
87 115 126
95 121 128
81 111 131
101 126 126
93 121 139
89 117 143
102 128 146
83 112 131
99 126 137
103 129 144
91 119 143
97 123 147
107 132 145
84 112 128
100 126 133
96 123 140
100 126 143
105 131 151
99 125 147
95 122 131
90 119 143
104 129 144
105 131 137
102 128 149
87 116 135
101 127 150
96 123 158
83 113 153
97 124 165
79 111 163
88 117 165
94 121 167
81 110 165
76 107 162
71 104 161
73 104 164
71 103 161
68 100 153
68 100 155
66 98 149
63 97 152
65 98 150
60 95 143
60 96 148
61 96 144
62 97 144
62 97 141
59 94 148
59 94 148
63 98 143
65 98 136
65 97 133
63 96 136
72 103 133
61 93 126
58 92 121
60 94 128
58 92 136
61 95 138
58 93 142
60 95 139
59 94 133
59 94 136
59 93 134
59 94 137
59 93 139
60 94 141
60 94 138
59 94 128
59 94 135
60 94 141
59 94 134
59 93 134
60 94 142
61 96 142
59 93 136
61 96 140
59 93 134
59 93 136
60 96 143
59 94 138
60 94 140
60 95 147
61 96 141
60 95 135
59 94 131
60 94 134
60 95 140
60 95 141
61 96 137
60 95 137
59 94 133
60 95 133
59 94 133
61 95 143
58 92 133
60 96 145
60 95 139
60 95 130
60 95 139
59 94 134
59 94 128
60 94 136
59 94 128
61 96 140
61 96 143
61 96 145
61 96 143
60 95 134
59 94 134
59 94 129
61 96 135
59 93 131
59 94 136
61 96 145
59 93 133
60 95 133
60 95 140
59 93 125
60 95 137
60 95 133
61 96 141
60 95 134
59 93 135
60 94 131
59 94 135
60 95 137
60 94 125
57 90 115
60 94 129
58 93 129
61 95 140
61 95 137
61 96 148
59 94 137
60 95 142
61 95 143
60 95 136
60 94 126
60 94 131
59 93 133
60 94 131
58 92 124
58 93 125
59 93 129
59 93 126
60 94 131
59 93 129
59 93 125
60 95 136
60 95 136
58 91 120
60 95 135
58 92 120
60 94 131
60 94 131
57 90 125
59 94 133
58 92 126
58 92 130
60 94 129
59 92 124
60 94 129
58 90 110
59 89 82
82 102 83
118 134 44
112 125 25
109 123 0
115 130 0
119 133 0
108 123 0
114 129 0
114 129 0
133 149 0
120 134 0
127 140 0
121 137 0
120 134 0
123 139 0
128 141 0
127 141 0
117 129 0
126 140 0
136 153 0
129 141 0
123 137 0
122 134 0
131 145 0
134 148 0
132 146 0
114 124 0
123 137 0
127 141 0
133 147 0
131 144 0
125 137 0
123 137 0
130 143 0
134 148 0
136 148 0
126 138 0
129 143 0
128 143 0
136 147 0
134 147 0
134 147 0
131 145 0
130 144 0
132 144 0
136 151 0
135 148 0
139 151 0
134 148 0
141 152 0
128 141 0
137 147 0
144 158 0
143 157 0
133 146 0
135 146 0
143 158 0
135 148 0
139 150 0
137 151 0
140 155 0
144 155 0
132 145 0
137 152 0
140 152 0
130 143 0
138 150 0
133 143 0
147 161 0
136 150 0
151 165 0
147 162 0
144 158 0
146 161 0
144 157 0
141 152 0
135 147 0
139 150 0
149 162 0
148 162 0
149 162 0
140 152 0
143 156 0
154 166 0
143 158 0
147 161 0
157 171 0
151 165 0
145 159 0
143 155 0
146 156 0
151 165 0
143 157 0
146 163 0
144 156 0
148 163 0
146 159 0
150 165 0
161 177 0
151 165 0
150 162 0
156 171 0
151 168 0
156 172 0
151 164 0
153 167 0
151 166 0
146 159 0
151 165 0
160 173 0
157 174 0
153 165 0
158 175 0
152 167 0
159 175 0
158 175 0
157 174 0
156 170 0
159 174 0
160 178 0
157 174 0
154 172 0
156 171 0
161 178 0
157 175 0
159 174 0
160 177 0
158 175 0
154 170 0
158 176 0
160 176 0
161 176 0
166 183 0
159 175 0
158 176 0
161 177 0
164 182 0
154 172 0
159 176 0
156 173 0
161 178 0
161 180 0
161 179 0
161 176 0
163 182 0
167 184 0
162 180 0
162 178 0
164 183 0
165 184 0
166 184 0
165 186 0
165 184 0
165 183 0
171 195 67
173 196 67
173 197 99
175 198 80
173 197 80
173 197 99
170 194 76
169 194 76
171 195 76
173 197 72
173 197 92
169 193 67
167 191 62
172 196 72
165 189 80
173 196 80
173 196 72
173 196 51
171 195 76
173 197 72
171 195 57
171 195 72
169 194 72
171 195 72
167 191 57
169 194 84
171 194 88
167 190 51
163 187 62
171 196 88
170 194 76
167 192 76
166 190 80
167 192 67
169 193 72
169 192 57
169 194 95
169 193 76
163 187 36
169 192 80
171 194 44
169 193 57
168 190 44
170 193 72
164 187 44
163 186 62
166 190 57
167 192 76
168 191 72
166 190 80
170 194 80
168 191 62
171 195 76
165 187 57
165 189 84
167 192 62
166 190 95
167 189 25
163 187 57
159 182 72
165 190 80
167 191 80
160 183 67
168 192 92
160 184 57
167 190 92
162 185 76
160 184 95
165 189 105
161 184 62
164 188 84
159 183 84
156 179 88
160 183 67
170 193 62
157 180 72
154 176 67
160 183 84
155 178 62
161 184 76
151 174 72
124 149 134
94 122 141
88 115 125
87 115 129
92 119 132
99 126 143
95 121 132
95 122 137
83 112 139
93 120 137
79 108 144
100 126 143
96 123 151
84 111 131
88 117 137
90 116 143
100 125 154
107 132 150
92 119 141
100 125 148
88 116 146
120 144 139
101 127 144
96 123 139
86 115 133
103 128 143
89 118 142
89 118 144
88 116 156
81 111 163
76 107 141
85 114 160
73 104 158
72 104 158
77 107 156
68 101 153
65 98 152
72 103 154
63 97 156
71 103 160
60 96 155
61 96 155
63 97 150
62 97 151
60 95 146
60 96 147
60 96 141
60 95 153
60 95 146
60 95 142
60 93 123
69 102 129
64 98 132
63 96 138
66 99 143
60 95 133
68 99 121
60 94 137
64 98 139
63 98 144
58 93 123
59 94 135
60 95 139
58 92 134
60 94 144
60 95 141
59 94 136
58 92 130
58 93 134
61 96 148
59 93 133
59 93 134
58 93 131
59 94 143
61 96 143
60 95 145
59 94 138
59 94 133
61 97 144
60 94 141
61 96 150
59 94 135
59 93 126
58 92 127
60 95 137
60 94 133
59 94 137
59 94 139
60 95 136
61 96 139
59 94 133
60 94 134
60 95 137
60 95 136
59 94 131
60 95 136
61 96 141
59 94 134
59 94 135
61 97 144
61 96 148
60 95 139
60 96 139
61 95 136
61 96 145
59 93 131
60 94 139
60 94 137
60 95 141
61 96 140
60 94 139
60 95 131
59 93 129
61 96 136
61 96 141
60 95 134
60 96 144
60 95 134
60 95 135
60 96 140
60 95 134
58 92 117
59 94 133
62 97 145
59 94 134
59 93 131
61 95 136
60 95 140
59 93 133
60 95 141
60 95 136
59 94 131
60 95 136
61 96 141
60 94 134
60 95 141
59 93 128
61 96 147
59 93 129
59 93 131
60 94 134
59 94 129
59 93 125
59 92 118
59 93 124
57 91 120
59 93 125
60 95 131
58 93 118
59 93 126
59 93 131
58 93 125
58 92 126
58 93 120
57 91 117
56 90 107
59 92 122
58 92 125
59 93 122
57 90 115
57 90 105
57 90 103
56 89 103
60 90 99
87 108 88
88 107 65
110 127 31
112 124 0
123 137 0
111 122 0
118 133 0
122 137 0
123 137 0
115 131 0
119 134 0
120 134 0
117 132 0
126 139 0
127 140 0
115 128 0
121 135 0
130 144 0
130 145 0
119 134 0
129 143 0
125 140 0
130 147 0
137 151 0
117 132 0
127 139 0
125 138 0
130 144 0
135 148 0
132 145 0
129 141 0
135 149 0
137 150 0
122 136 0
130 141 0
134 149 0
123 134 0
130 144 0
141 156 0
125 138 0
133 146 0
132 146 0
127 140 0
129 143 0
143 158 0
137 149 0
137 149 0
133 144 0
143 159 0
134 148 0
141 155 0
145 159 0
139 154 0
138 148 0
134 147 0
140 153 0
122 133 0
139 154 0
138 152 0
142 159 0
133 147 0
147 160 0
134 147 0
138 151 0
148 165 0
139 153 0
147 160 0
148 162 0
143 159 0
133 144 0
146 160 0
134 149 0
143 155 0
141 155 0
148 162 0
147 159 0
151 163 0
139 153 0
150 162 0
150 164 0
140 156 0
142 153 0
149 163 0
140 153 0
141 154 0
146 157 0
151 166 0
145 157 0
153 166 0
141 157 0
146 162 0
149 162 0
153 165 0
152 167 0
153 167 0
157 173 0
145 159 0
153 170 0
145 159 0
151 166 0
153 165 0
149 166 0
154 168 0
155 168 0
154 170 0
148 162 0
155 171 0
151 167 0
151 165 0
153 168 0
154 170 0
152 166 0
156 169 0
150 167 0
147 162 0
155 172 0
152 168 0
158 173 0
154 168 0
163 181 0
159 175 0
162 178 0
160 175 0
159 177 0
164 182 0
158 175 0
154 171 0
159 176 0
155 173 0
162 179 0
161 179 0
164 181 0
159 177 0
161 179 0
165 182 0
164 181 0
162 179 0
164 181 0
163 179 0
158 174 0
160 177 0
159 174 0
159 176 0
161 178 0
163 182 0
168 188 0
162 180 0
167 185 0
158 176 0
164 182 0
164 184 0
162 180 0
164 184 0
158 177 0
166 183 0
172 196 72
174 197 92
173 197 62
172 196 84
170 194 72
170 194 57
169 193 51
171 195 62
170 195 62
174 198 84
171 196 84
169 193 67
167 191 67
171 194 76
170 195 51
171 196 67
172 196 76
166 191 80
173 198 84
168 191 76
169 193 76
169 193 80
170 195 67
173 197 67
170 193 67
168 192 72
169 194 88
170 193 44
167 191 62
168 192 76
171 195 72
166 191 57
165 189 92
172 196 67
170 194 62
169 193 76
169 193 57
171 195 67
169 192 57
167 191 76
168 193 76
164 188 76
163 188 67
169 194 102
168 192 72
165 189 72
166 191 57
163 187 44
168 193 80
162 186 51
170 194 95
161 185 80
164 189 84
161 185 76
163 187 72
164 187 67
163 187 62
162 186 62
166 190 72
165 189 80
167 191 76
159 183 92
171 195 80
168 192 84
165 188 72
167 189 67
159 183 84
158 181 51
161 184 88
164 186 44
162 185 72
159 181 74
161 185 76
159 183 88
163 186 72
155 177 67
160 183 80
162 185 92
158 180 76
154 176 57
161 184 62
141 164 100
108 134 117
90 116 135
91 118 138
91 118 139
98 125 139
98 125 134
99 126 139
93 120 152
86 113 140
102 127 138
88 114 137
94 120 142
95 122 142
94 120 148
88 115 146
96 122 147
96 122 134
104 128 143
94 121 140
96 123 153
90 118 133
111 136 153
95 121 122
92 119 152
83 113 146
84 112 145
90 117 134
81 110 147
104 130 163
84 114 164
82 112 150
78 108 155
76 106 150
71 103 157
83 111 159
73 104 161
64 99 153
63 98 156
67 100 154
69 100 154
61 96 151
60 96 142
63 97 153
61 97 155
62 95 140
60 95 148
62 97 138
59 93 133
60 95 143
63 96 131
61 96 132
70 103 143
66 98 129
67 99 133
64 96 129
67 99 133
64 98 131
64 95 124
59 93 137
59 94 139
59 94 134
57 90 119
59 93 124
59 94 137
60 95 138
59 94 141
59 93 140
59 93 126
58 93 126
59 94 134
58 93 130
58 93 134
60 94 128
58 92 126
59 94 133
60 95 143
60 95 137
60 94 136
61 96 144
59 93 139
59 94 139
60 95 134
59 94 130
59 94 133
59 93 132
60 96 150
59 94 133
59 94 128
60 95 136
59 94 136
58 92 117
61 96 147
59 93 138
59 94 136
60 94 136
60 94 136
60 95 142
60 95 131
61 96 143
60 95 137
60 95 140
59 94 133
60 95 142
60 95 130
59 94 121
61 96 139
59 93 128
59 93 129
59 94 128
59 94 134
60 95 136
60 95 141
60 95 142
60 95 140
61 96 144
60 95 143
61 97 147
62 97 152
60 95 130
59 93 129
61 96 143
59 94 128
60 94 137
60 95 137
61 96 145
60 95 141
59 94 134
59 93 126
59 93 133
59 93 125
59 94 131
58 93 124
60 95 128
57 90 120
60 95 135
60 95 135
59 93 124
60 95 141
60 95 133
58 91 126
60 94 130
59 93 126
61 95 131
58 92 118
60 94 133
59 93 121
59 93 121
58 91 117
58 92 114
59 93 130
58 92 108
59 93 125
59 93 122
57 90 108
57 90 115
58 90 114
56 89 115
57 90 117
57 91 107
55 88 100
57 90 117
62 91 108
81 104 89
92 109 60
109 126 47
116 130 0
113 125 0
122 138 0
123 139 0
124 139 0
115 130 0
119 136 0
104 117 0
127 142 0
132 146 0
121 136 0
122 136 0
123 137 0
132 146 0
108 121 0
123 137 0
122 135 0
122 136 0
125 140 0
118 129 0
113 127 0
115 130 0
124 139 0
125 138 0
131 143 0
124 138 0
126 142 0
128 142 0
136 151 0
126 142 0
132 144 0
122 135 0
134 147 0
119 134 0
134 149 0
141 156 0
140 155 0
123 135 0
140 154 0
142 155 0
129 143 0
137 152 0
132 144 0
137 152 0
138 153 0
139 151 0
126 139 0
134 147 0
136 149 0
140 156 0
138 152 0
131 143 0
131 146 0
138 150 0
139 151 0
134 149 0
140 152 0
140 155 0
143 157 0
141 154 0
142 154 0
135 147 0
142 159 0
139 150 0
141 153 0
147 163 0
146 158 0
140 150 0
146 159 0
134 145 0
145 157 0
146 159 0
152 166 0
135 147 0
137 148 0
142 157 0
143 156 0
149 164 0
148 165 0
150 166 0
148 160 0
152 170 0
144 158 0
142 155 0
151 165 0
148 162 0
149 166 0
145 159 0
148 163 0
144 158 0
149 163 0
151 164 0
154 170 0
148 162 0
152 164 0
152 168 0
150 164 0
150 164 0
153 167 0
151 165 0
153 170 0
151 167 0
147 163 0
157 172 0
153 167 0
150 166 0
152 168 0
160 176 0
152 169 0
151 166 0
153 167 0
160 178 0
155 170 0
153 170 0
162 179 0
157 173 0
154 168 0
164 181 0
155 172 0
160 177 0
160 176 0
153 167 0
161 180 0
157 172 0
157 173 0
165 181 0
156 174 0
157 173 0
159 177 0
161 178 0
158 175 0
161 178 0
162 179 0
156 173 0
164 181 0
157 175 0
164 182 0
161 178 0
157 174 0
158 174 0
165 183 0
158 175 0
166 183 0
161 178 0
166 184 0
162 181 0
165 182 0
157 175 0
165 184 0
165 182 0
164 183 0
160 181 0
167 187 0
172 196 92
173 197 84
174 197 57
170 193 72
170 193 57
173 197 67
170 193 72
170 193 51
172 196 72
169 194 72
172 197 80
173 197 72
169 193 72
171 195 67
168 193 62
173 198 92
168 192 80
169 194 72
170 194 62
168 192 80
168 192 72
169 193 51
169 192 67
171 194 72
163 187 76
167 191 57
172 195 72
167 191 57
169 192 51
167 191 76
171 196 80
168 192 67
168 192 67
170 193 62
169 192 62
168 192 72
168 192 67
167 190 62
167 191 67
161 185 67
166 190 95
167 191 99
168 192 88
170 194 80
165 189 51
170 194 80
162 186 51
166 190 80
168 191 80
166 189 76
164 188 80
168 192 84
169 192 84
167 191 80
163 187 57
166 189 80
167 191 76
160 184 44
168 192 76
159 183 62
164 188 72
157 180 67
163 186 51
159 182 67
162 186 76
157 180 62
153 176 80
161 185 88
162 185 72
160 183 57
159 182 76
162 186 80
157 181 84
161 184 62
160 182 62
166 189 84
161 184 88
161 184 80
165 188 67
157 179 80
156 179 67
153 176 94
136 159 115
95 121 129
96 123 138
91 118 126
93 120 128
86 114 133
98 125 137
80 109 123
88 117 137
90 117 132
98 123 140
89 116 136
88 115 145
97 123 148
86 115 133
83 111 136
92 119 140
105 130 148
95 121 146
95 121 141
102 128 141
100 127 151
100 126 157
90 119 137
95 121 139
93 120 136
99 126 147
94 121 138
87 115 152
83 112 154
88 116 155
79 110 162
82 111 159
83 111 162
71 104 159
75 106 159
73 103 152
68 101 152
67 101 169
63 97 155
60 96 157
65 98 153
61 97 144
61 96 148
61 97 152
60 96 150
60 95 140
65 99 141
60 95 141
60 95 148
59 94 137
61 95 129
67 100 140
71 103 120
67 99 129
72 103 122
61 94 126
67 99 131
63 96 134
62 95 128
58 92 128
58 93 134
59 94 136
58 93 129
58 92 132
58 93 125
59 93 139
59 93 135
59 94 135
59 94 140
60 96 141
59 93 121
60 94 130
59 94 141
59 94 139
58 92 133
59 94 136
59 94 139
60 94 134
58 93 123
59 94 137
60 95 132
59 93 134
60 95 147
59 92 134
60 94 137
59 93 131
59 94 136
61 96 140
61 96 144
60 94 143
60 95 136
59 94 129
58 92 126
60 95 141
60 96 145
60 95 131
59 93 126
60 95 136
61 96 141
61 95 139
60 95 139
58 93 125
60 94 139
60 95 137
61 95 140
60 95 134
61 95 141
59 93 128
60 95 133
59 94 137
60 94 133
59 93 134
59 93 130
60 96 145
59 94 134
60 95 140
60 95 134
60 95 136
60 95 135
61 96 145
58 93 128
59 93 136
60 95 135
60 95 133
60 94 136
59 94 134
59 94 128
59 94 128
60 95 131
59 94 130
59 93 131
61 96 140
60 94 131
58 92 125
59 93 128
59 94 129
59 93 125
60 95 130
58 92 118
60 95 134
61 95 130
59 93 124
59 93 128
60 94 128
60 95 129
59 93 124
59 93 126
58 92 124
58 91 129
59 93 128
60 94 128
59 92 126
57 90 115
57 90 117
57 91 114
57 91 118
56 87 117
58 91 117
57 90 115
58 89 110
69 97 103
97 114 51
104 120 31
98 111 0
118 132 0
119 131 0
113 125 0
106 119 0
120 134 0
113 125 0
125 137 0
102 117 0
120 136 0
123 139 0
116 130 0
120 133 0
128 143 0
116 132 0
128 141 0
126 140 0
115 130 0
128 145 0
129 145 0
108 122 0
116 130 0
127 141 0
126 143 0
134 150 0
125 137 0
125 141 0
127 143 0
126 140 0
127 140 0
129 145 0
127 143 0
133 149 0
131 146 0
126 140 0
129 143 0
128 143 0
143 158 0
133 147 0
131 147 0
134 149 0
130 141 0
140 151 0
132 147 0
137 152 0
136 150 0
131 146 0
143 154 0
140 155 0
142 155 0
141 156 0
132 145 0
144 159 0
141 155 0
147 162 0
138 151 0
138 151 0
141 154 0
142 156 0
144 158 0
146 160 0
144 158 0
140 154 0
138 154 0
153 170 0
140 155 0
141 154 0
145 160 0
143 154 0
141 155 0
152 168 0
153 167 0
142 156 0
140 154 0
144 158 0
146 159 0
149 164 0
151 165 0
150 165 0
144 159 0
144 157 0
142 156 0
146 159 0
142 156 0
146 160 0
153 166 0
140 153 0
148 162 0
153 168 0
152 165 0
146 163 0
147 162 0
145 158 0
149 163 0
157 173 0
154 166 0
150 167 0
157 171 0
154 168 0
154 168 0
148 165 0
151 164 0
156 169 0
158 174 0
152 169 0
154 169 0
160 178 0
149 164 0
152 169 0
152 168 0
148 164 0
158 173 0
151 165 0
154 171 0
157 171 0
155 170 0
155 172 0
156 170 0
160 177 0
154 170 0
158 174 0
155 171 0
158 175 0
160 178 0
163 179 0
156 174 0
162 179 0
163 181 0
157 174 0
155 172 0
161 178 0
156 171 0
160 178 0
165 183 0
165 181 0
163 182 0
163 179 0
162 180 0
162 181 0
161 180 0
164 180 0
163 181 0
162 179 0
164 181 0
163 180 0
161 178 0
165 182 0
168 187 0
161 178 0
164 183 0
164 182 0
162 182 0
161 180 0
160 179 0
170 194 57
173 196 57
175 198 84
174 197 72
170 194 80
172 196 72
165 188 36
170 195 76
168 192 67
172 195 92
169 194 67
171 195 84
169 194 80
173 196 44
171 195 76
166 191 67
167 192 57
173 197 80
167 190 80
167 192 76
169 192 44
167 191 57
170 194 76
169 193 67
171 195 57
171 195 76
166 190 62
168 193 95
166 191 62
164 187 72
167 190 76
166 189 67
166 191 80
168 193 76
165 190 88
167 191 72
166 190 62
168 192 57
167 191 76
168 193 76
166 191 72
171 194 44
166 191 80
165 189 80
164 189 84
163 187 67
163 187 62
163 187 67
164 189 88
166 188 80
166 190 67
166 191 62
162 186 80
157 181 44
164 188 76
165 189 76
166 189 76
159 183 76
161 186 88
160 183 76
162 186 67
165 190 67
168 193 99
161 185 67
161 184 92
160 184 67
164 187 72
159 183 88
158 181 62
160 183 67
158 182 76
163 187 88
158 180 62
160 183 72
157 179 57
163 186 72
164 187 62
159 182 95
158 181 67
157 181 76
152 175 62
155 177 57
152 175 82
105 129 103
94 121 133
88 115 135
99 124 139
75 105 134
89 116 129
95 121 137
94 121 133
82 109 124
89 118 158
99 125 146
98 124 129
99 126 150
96 122 143
95 121 141
92 120 146
97 123 141
80 110 145
91 118 139
91 118 134
92 120 133
91 118 149
91 119 137
96 122 146
89 117 137
91 119 134
96 122 135
96 122 147
86 115 140
77 107 145
76 107 156
76 107 159
83 112 160
67 99 152
73 105 162
78 106 152
68 101 156
65 98 156
67 99 148
70 100 148
62 96 145
63 96 145
61 97 153
58 93 133
62 96 143
61 96 149
68 101 154
65 98 139
61 96 141
63 97 142
65 98 134
63 96 136
64 97 127
71 102 129
60 93 128
65 98 137
62 96 136
68 99 135
57 91 118
63 97 145
60 95 134
60 95 143
59 93 133
58 93 131
59 94 129
61 96 137
58 93 136
60 95 133
60 95 137
58 93 128
59 93 130
59 93 127
60 94 134
59 93 118
60 95 133
60 95 143
57 91 128
60 95 144
59 93 133
59 94 134
58 93 130
60 96 139
60 95 149
59 94 141
60 95 141
59 93 129
60 94 140
61 95 136
60 95 136
59 93 128
59 94 135
59 94 130
60 95 142
60 95 136
61 96 143
61 96 136
60 94 133
60 95 130
60 94 136
58 92 131
58 92 129
60 95 136
61 96 137
60 95 135
59 94 128
60 94 126
60 95 136
59 94 140
60 94 134
60 95 145
58 93 128
59 94 131
58 92 126
60 95 136
59 93 122
61 96 141
61 96 143
61 95 136
59 93 128
60 94 128
60 94 131
60 94 133
60 94 140
60 94 134
59 93 122
58 92 120
60 95 136
59 94 133
58 92 118
59 94 124
59 94 128
61 96 139
59 94 128
59 93 120
58 92 121
59 93 124
59 93 129
59 93 120
59 94 124
58 92 125
61 95 137
58 92 126
59 93 125
60 95 136
58 91 118
57 90 115
58 92 120
57 90 120
60 94 133
58 92 117
57 90 113
59 93 129
57 90 108
57 90 108
57 90 117
58 92 118
56 88 107
57 89 103
57 90 113
66 93 94
82 104 86
114 130 44
109 124 25
122 138 0
107 119 0
119 131 0
105 118 0
119 135 0
121 136 0
104 118 0
124 138 0
111 125 0
109 122 0
124 138 0
123 138 0
114 127 0
128 144 0
126 142 0
119 133 0
131 145 0
131 145 0
125 141 0
123 137 0
114 127 0
136 150 0
131 147 0
132 146 0
127 142 0
128 141 0
130 144 0
130 146 0
130 145 0
129 143 0
125 140 0
126 141 0
140 154 0
120 131 0
141 156 0
140 156 0
136 150 0
137 153 0
145 162 0
131 147 0
131 144 0
129 145 0
129 144 0
131 146 0
138 154 0
129 145 0
138 151 0
138 151 0
143 156 0
137 150 0
143 154 0
135 148 0
142 156 0
141 154 0
134 150 0
137 150 0
140 155 0
139 151 0
137 149 0
148 163 0
133 145 0
144 158 0
143 155 0
149 164 0
139 155 0
138 152 0
149 164 0
143 159 0
152 166 0
149 163 0
147 160 0
134 146 0
136 151 0
153 168 0
145 161 0
144 157 0
148 162 0
139 155 0
149 164 0
149 163 0
142 158 0
137 150 0
150 162 0
152 169 0
152 167 0
145 159 0
151 165 0
147 162 0
150 166 0
156 170 0
153 167 0
155 170 0
149 161 0
154 169 0
148 161 0
154 171 0
158 175 0
158 175 0
156 173 0
148 164 0
153 168 0
150 166 0
146 162 0
155 173 0
154 165 0
149 164 0
152 167 0
158 175 0
156 170 0
162 177 0
153 171 0
161 178 0
162 177 0
150 166 0
153 169 0
160 177 0
159 176 0
164 182 0
155 173 0
160 178 0
159 176 0
157 174 0
158 174 0
160 177 0
153 171 0
162 180 0
161 177 0
159 175 0
160 179 0
164 180 0
159 176 0
156 171 0
165 183 0
156 171 0
156 173 0
161 181 0
164 183 0
161 178 0
165 183 0
160 178 0
159 176 0
157 174 0
159 177 0
164 183 0
161 180 0
167 187 0
163 183 0
163 181 0
160 179 0
164 183 0
162 181 0
161 179 0
165 183 0
161 179 0
173 196 62
172 195 44
175 199 80
169 194 72
172 195 84
168 193 92
172 196 44
171 194 72
172 196 80
166 191 67
170 194 92
169 194 80
172 196 72
172 196 76
171 195 99
171 195 84
172 196 95
170 195 72
171 194 62
167 190 67
169 193 51
166 190 51
169 194 72
173 197 80
166 190 72
172 195 76
166 190 51
168 193 80
167 191 88
166 190 57
167 190 62
168 192 67
171 195 76
167 191 84
171 196 80
169 194 92
170 194 80
169 194 72
162 186 72
168 192 62
168 192 88
168 193 72
167 191 80
160 184 51
167 190 80
170 194 84
166 189 57
156 179 62
168 192 67
161 185 76
161 185 76
165 189 62
162 185 57
165 189 72
167 191 80
161 185 62
169 193 99
167 190 80
162 187 102
168 192 67
164 188 95
161 185 88
158 182 76
161 183 72
159 183 84
164 188 62
155 178 76
162 186 76
155 179 72
160 184 80
160 182 57
163 187 84
158 180 62
164 187 88
156 179 92
159 182 80
156 179 92
155 178 76
158 181 67
144 166 62
159 182 92
159 181 72
160 183 88
135 158 86
99 124 115
97 124 130
89 116 128
81 109 113
100 126 151
90 117 130
84 112 130
82 111 143
87 115 130
98 124 147
94 121 146
103 128 146
93 121 140
95 121 142
96 121 142
106 130 148
98 125 135
83 110 126
105 129 148
85 112 139
94 121 140
92 119 141
94 121 147
98 124 136
88 115 134
96 124 149
113 137 127
90 118 141
82 110 141
95 123 166
87 114 154
80 110 154
71 102 149
78 108 164
69 103 166
76 107 161
70 101 155
65 98 145
71 102 155
72 102 147
62 97 150
65 98 145
59 94 141
63 98 151
62 97 150
60 95 145
60 95 143
60 95 150
64 98 140
59 93 134
65 99 143
67 99 140
69 100 134
67 98 123
64 96 129
67 100 131
64 96 132
62 95 120
60 94 126
60 94 124
59 94 130
58 93 135
61 96 131
60 95 135
59 94 132
57 91 118
59 94 138
58 92 126
59 93 129
58 92 117
61 95 144
60 94 131
59 94 133
59 93 140
61 95 141
58 92 125
59 93 126
59 94 141
59 94 135
60 95 139
59 94 133
60 96 136
59 93 120
60 95 139
59 94 136
59 94 129
59 93 120
60 94 135
60 95 140
58 93 128
61 96 137
58 93 128
59 93 129
59 94 135
60 95 139
60 94 135
60 95 144
59 93 126
60 94 130
60 95 131
60 94 124
58 91 120
60 95 141
61 95 137
59 93 131
59 93 122
60 95 136
59 93 133
60 94 131
60 94 131
59 94 128
60 94 140
59 94 124
59 94 125
60 95 140
60 94 137
59 93 121
59 93 129
59 94 130
60 94 125
58 92 125
58 92 121
60 94 126
60 94 124
59 93 128
60 94 137
59 93 128
58 92 121
60 94 134
60 95 136
59 94 131
59 93 131
59 93 131
59 94 134
60 94 131
59 93 130
59 93 126
58 92 125
60 94 131
59 94 130
58 92 120
58 92 121
59 93 126
60 94 130
58 92 126
58 92 117
59 92 113
58 92 115
59 92 125
57 90 114
58 91 117
58 92 122
57 90 113
58 91 108
57 90 120
55 88 99
57 87 96
65 93 102
80 100 62
102 117 47
112 125 0
122 137 0
121 137 0
119 133 0
123 139 0
118 132 0
117 133 0
112 125 0
113 126 0
112 127 0
112 124 0
115 128 0
120 133 0
118 134 0
118 133 0
116 131 0
125 141 0
113 128 0
132 145 0
129 143 0
130 144 0
120 134 0
127 143 0
134 149 0
134 148 0
127 143 0
124 140 0
133 148 0
134 150 0
125 139 0
128 144 0
137 155 0
141 156 0
140 157 0
127 141 0
127 141 0
142 159 0
130 143 0
137 153 0
133 149 0
132 147 0
133 147 0
130 143 0
134 148 0
137 152 0
139 153 0
136 149 0
131 144 0
128 143 0
149 166 0
137 154 0
136 151 0
138 152 0
137 152 0
138 153 0
135 150 0
141 156 0
148 163 0
144 159 0
144 157 0
141 156 0
137 152 0
142 157 0
132 147 0
142 159 0
148 164 0
145 157 0
142 155 0
146 161 0
143 158 0
143 156 0
147 164 0
140 154 0
143 155 0
149 162 0
141 153 0
152 166 0
139 156 0
149 162 0
144 157 0
143 158 0
151 168 0
149 164 0
147 163 0
151 167 0
144 158 0
150 162 0
146 158 0
146 160 0
152 166 0
152 170 0
150 166 0
150 165 0
149 164 0
150 165 0
153 166 0
143 156 0
145 162 0
156 172 0
146 162 0
159 174 0
156 169 0
159 177 0
158 175 0
161 178 0
150 165 0
152 166 0
155 170 0
148 165 0
159 173 0
151 165 0
156 174 0
154 169 0
157 172 0
158 174 0
159 175 0
151 166 0
157 174 0
155 171 0
157 172 0
158 176 0
158 177 0
155 172 0
156 170 0
165 184 0
158 176 0
158 176 0
162 181 0
155 172 0
159 178 0
161 177 0
164 181 0
164 181 0
161 179 0
156 175 0
160 178 0
164 182 0
163 181 0
160 179 0
156 172 0
161 179 0
168 186 0
163 181 0
164 182 0
164 184 0
163 182 0
164 181 0
160 181 0
164 183 0
156 174 0
165 184 0
160 177 0
164 183 0
161 180 0
162 183 0
156 176 0
172 196 72
173 196 80
173 197 76
173 197 76
169 193 72
172 196 88
173 197 76
171 196 84
170 194 80
172 196 99
169 194 67
167 191 67
171 195 72
173 197 80
165 189 88
173 196 44
170 195 72
170 194 72
172 195 67
169 193 76
172 196 67
171 196 72
173 197 76
168 192 80
169 194 76
170 194 67
171 195 62
170 193 72
165 189 84
168 192 80
165 190 36
167 190 57
170 195 105
166 190 72
168 193 72
167 192 67
168 192 84
168 192 72
171 195 84
172 196 80
166 189 72
168 193 88
164 188 67
164 188 76
168 193 80
165 188 36
168 193 80
168 192 80
162 187 95
164 189 67
164 188 76
166 190 80
165 188 51
169 193 84
162 185 67
165 189 76
160 185 62
165 189 72
161 186 67
162 186 72
164 187 74
164 188 72
164 187 57
160 184 76
167 191 88
159 183 84
156 180 84
163 186 67
153 176 62
155 178 62
160 182 67
161 184 88
156 179 67
151 174 51
155 177 51
155 177 67
149 172 67
163 186 67
157 178 67
155 177 57
163 186 84
156 179 72
149 171 62
153 177 76
125 149 103
103 128 122
87 114 137
96 123 140
100 126 143
98 124 139
83 111 136
96 123 147
99 124 139
103 128 140
90 117 149
80 108 128
83 111 125
97 123 141
92 119 147
99 125 144
94 121 151
96 121 140
100 125 141
100 126 135
88 116 141
94 120 126
94 120 132
100 126 143
87 115 146
94 121 140
101 126 143
95 122 148
96 122 151
80 109 147
91 119 158
71 102 140
79 109 160
66 98 152
74 104 154
74 105 152
73 104 157
69 101 157
67 99 147
67 99 151
68 100 156
66 98 146
59 94 143
63 97 149
59 94 140
60 95 145
59 94 137
64 98 149
60 95 147
60 94 144
64 98 139
62 95 126
70 101 128
71 102 131
63 96 133
63 95 126
64 97 131
64 98 133
59 92 128
59 94 133
58 93 131
58 92 129
58 91 124
59 93 129
57 91 121
58 93 134
58 92 124
59 94 134
59 93 134
60 94 135
58 92 124
60 95 139
59 93 131
59 93 129
60 94 136
61 97 148
60 94 135
60 94 131
60 94 136
59 94 135
60 94 131
61 96 136
58 92 124
59 93 122
60 95 134
59 94 134
60 94 140
60 94 136
60 95 134
59 93 130
59 93 129
60 94 129
61 96 148
60 94 134
58 93 129
58 92 133
58 93 131
59 93 131
60 95 143
60 94 135
60 94 135
62 97 144
59 94 133
59 94 132
59 94 135
61 95 135
60 94 134
60 95 135
60 95 134
60 95 141
60 95 134
59 94 136
59 93 125
61 96 136
59 93 128
60 94 134
59 93 142
61 96 142
58 92 124
59 94 131
59 93 133
60 94 134
60 95 131
58 93 122
61 96 143
58 92 121
60 94 133
58 92 124
59 94 129
59 94 129
59 93 128
60 94 127
59 93 114
59 93 122
58 91 125
58 91 124
59 93 124
58 92 124
59 93 120
59 92 118
58 92 115
58 91 120
59 93 125
60 94 134
59 92 120
58 92 126
58 91 117
60 95 129
58 92 120
56 89 122
57 90 114
58 91 118
57 90 110
57 90 118
57 91 114
57 90 107
62 91 105
91 112 78
104 119 36
102 117 0
116 131 0
106 118 0
102 118 0
113 128 0
119 135 0
116 129 0
111 125 0
122 136 0
131 147 0
117 132 0
116 127 0
115 130 0
117 131 0
131 148 0
111 124 0
120 135 0
112 126 0
130 146 0
122 138 0
124 139 0
129 146 0
126 140 0
137 151 0
133 148 0
121 136 0
140 158 0
123 138 0
136 150 0
131 147 0
135 150 0
135 151 0
132 149 0
125 140 0
131 148 0
141 157 0
142 157 0
127 140 0
138 154 0
126 139 0
123 135 0
139 154 0
134 148 0
133 147 0
142 157 0
125 140 0
147 164 0
139 153 0
128 141 0
136 151 0
137 154 0
137 152 0
149 167 0
128 142 0
141 157 0
145 161 0
137 152 0
131 144 0
144 159 0
143 157 0
137 154 0
141 155 0
139 153 0
144 158 0
134 148 0
135 150 0
139 154 0
137 150 0
142 158 0
142 158 0
146 160 0
145 160 0
139 154 0
142 155 0
144 159 0
150 164 0
143 157 0
142 157 0
151 167 0
141 155 0
146 158 0
150 164 0
139 155 0
143 157 0
147 161 0
145 160 0
146 159 0
146 162 0
153 169 0
157 174 0
148 165 0
142 156 0
151 166 0
147 161 0
144 160 0
160 178 0
150 164 0
156 173 0
154 172 0
152 168 0
156 172 0
157 173 0
153 169 0
149 166 0
146 162 0
154 171 0
154 171 0
156 173 0
152 165 0
149 162 0
148 162 0
158 175 0
162 176 0
156 172 0
155 171 0
155 170 0
157 175 0
153 168 0
154 171 0
156 174 0
159 177 0
160 177 0
157 174 0
153 170 0
159 179 0
167 185 0
162 182 0
155 173 0
157 174 0
159 175 0
164 180 0
162 178 0
158 175 0
160 179 0
166 183 0
160 176 0
164 183 0
160 178 0
162 179 0
164 183 0
157 173 0
155 171 0
167 185 0
161 181 0
164 181 0
164 182 0
165 183 0
166 184 0
165 183 0
161 180 0
164 182 0
161 181 0
163 182 0
163 182 0
166 185 0
161 181 0
160 179 0
170 194 76
171 196 76
170 194 62
169 193 76
168 192 57
172 196 95
167 192 76
167 190 44
169 194 76
173 197 57
166 190 51
167 192 62
171 195 76
171 195 72
172 195 80
168 193 72
168 192 72
168 193 76
169 194 80
169 193 72
171 196 72
164 189 72
173 196 76
170 194 76
171 194 57
174 198 92
169 192 72
167 191 62
168 192 62
166 190 67
167 191 76
168 192 92
170 194 76
164 188 76
169 193 76
170 195 80
170 194 76
164 189 80
170 195 84
162 187 57
167 191 88
166 190 67
161 185 80
164 188 80
161 184 57
169 193 72
169 193 95
170 194 111
165 189 76
168 192 84
168 193 80
165 189 76
163 187 88
165 188 25
157 180 67
166 190 76
158 181 76
163 187 84
159 183 76
156 181 88
158 181 72
159 183 62
161 186 62
163 186 80
164 188 80
158 182 57
156 179 76
159 182 67
159 183 80
161 183 62
154 177 57
157 179 57
167 190 80
162 186 67
162 185 67
155 178 51
157 180 67
155 177 72
159 181 62
149 171 67
157 180 72
158 180 92
143 165 60
147 170 80
153 176 65
119 143 99
97 123 129
88 115 130
93 119 133
96 123 142
97 124 146
87 114 123
96 123 147
93 119 135
81 109 127
84 113 130
90 117 136
70 101 128
105 131 149
97 122 132
91 117 141
94 120 128
87 114 134
95 121 144
101 126 140
96 122 140
98 124 140
91 118 147
103 128 141
91 119 138
89 117 139
94 121 135
83 112 144
84 114 134
85 115 154
77 109 155
84 112 157
77 106 150
65 98 148
75 106 158
71 103 160
73 104 150
61 96 149
68 100 147
61 94 144
60 95 146
63 98 155
63 97 144
61 95 140
61 94 137
62 96 146
59 94 148
66 99 133
69 102 131
60 95 139
64 98 137
65 96 123
66 98 132
67 99 135
66 97 120
59 92 124
65 97 132
60 94 135
58 91 113
58 93 124
57 91 118
59 93 121
60 94 139
58 91 126
58 92 127
58 92 137
59 93 125
58 93 128
60 94 138
60 94 131
58 91 123
59 94 144
58 93 125
59 94 133
59 93 124
57 92 133
59 94 135
59 93 133
60 96 141
58 93 136
62 96 140
61 96 142
59 94 128
58 92 127
60 95 131
60 94 130
59 93 128
60 95 133
60 95 135
60 95 137
59 94 128
59 93 126
59 94 136
60 95 136
60 95 137
59 93 130
60 94 136
59 93 121
61 96 143
58 93 128
59 94 124
61 96 139
60 95 139
60 95 131
59 93 125
60 95 140
59 94 137
60 94 126
60 95 131
58 92 122
60 94 128
60 94 133
60 95 130
59 93 121
59 93 126
60 94 122
59 93 124
59 94 125
60 94 126
59 93 130
58 92 128
59 94 131
58 92 121
59 93 121
58 92 122
58 91 115
60 95 135
60 94 133
59 93 114
59 93 128
58 92 115
59 93 128
60 94 121
58 92 120
60 95 129
59 93 118
58 91 115
59 93 117
59 94 124
58 91 122
61 95 134
59 93 129
57 89 115
57 90 117
57 91 114
58 92 126
58 92 115
58 92 124
59 92 120
57 90 120
57 89 105
55 87 100
57 90 117
59 92 117
63 91 94
88 110 80
97 114 40
123 139 31
117 130 0
110 122 0
120 135 0
112 126 0
125 138 0
117 131 0
110 125 0
124 138 0
119 134 0
120 132 0
122 137 0
118 132 0
106 122 0
125 139 0
125 141 0
123 136 0
123 136 0
134 151 0
124 141 0
129 143 0
122 138 0
131 147 0
132 146 0
119 134 0
135 150 0
128 143 0
135 152 0
125 140 0
135 152 0
135 153 0
131 146 0
136 152 0
126 139 0
123 139 0
130 146 0
117 132 0
132 146 0
119 133 0
138 153 0
134 148 0
136 151 0
138 154 0
139 152 0
144 160 0
136 150 0
143 156 0
135 150 0
141 156 0
142 159 0
134 147 0
135 149 0
137 152 0
143 157 0
146 163 0
142 157 0
154 171 0
136 150 0
142 158 0
141 157 0
144 160 0
140 156 0
136 150 0
139 153 0
146 162 0
143 158 0
136 150 0
141 153 0
146 161 0
143 159 0
148 163 0
145 161 0
144 159 0
146 164 0
145 161 0
147 162 0
146 161 0
146 161 0
147 164 0
150 166 0
149 165 0
140 153 0
144 160 0
147 162 0
150 167 0
156 172 0
152 166 0
152 167 0
153 170 0
149 164 0
148 164 0
149 165 0
147 163 0
151 165 0
148 162 0
147 161 0
153 169 0
150 166 0
156 171 0
154 170 0
154 170 0
152 168 0
147 163 0
149 166 0
159 177 0
155 173 0
157 173 0
154 171 0
157 172 0
156 172 0
152 167 0
155 170 0
149 165 0
156 172 0
160 178 0
158 174 0
161 175 0
156 173 0
153 169 0
153 170 0
164 182 0
154 170 0
161 178 0
167 186 0
160 178 0
158 174 0
162 180 0
164 184 0
157 174 0
159 176 0
159 176 0
164 183 0
161 178 0
158 175 0
159 177 0
165 185 0
162 180 0
163 182 0
163 181 0
163 182 0
167 186 0
159 176 0
162 182 0
161 180 0
161 177 0
166 187 0
163 180 0
165 185 0
164 184 0
163 181 0
166 183 0
161 179 0
163 184 0
169 188 0
166 186 0
163 182 0
167 187 0
165 185 0
173 197 76
173 197 84
173 196 51
166 190 57
173 198 84
167 191 76
170 194 51
170 194 80
170 195 57
169 192 72
162 186 88
171 195 67
172 196 80
172 197 99
170 193 62
167 192 67
172 197 95
166 189 51
169 194 76
168 193 80
168 192 67
172 196 80
171 195 67
172 196 67
164 188 72
169 193 84
174 198 84
167 190 51
171 194 72
174 197 76
169 193 76
167 192 57
168 192 62
167 192 76
168 193 67
163 187 44
170 195 80
168 193 72
164 188 57
165 189 72
167 192 80
165 189 84
157 181 76
170 194 80
164 189 76
164 188 51
160 184 57
160 184 76
164 186 44
158 182 67
164 188 80
165 189 72
168 191 84
168 192 92
166 190 72
162 185 57
168 192 72
161 185 84
157 180 62
161 185 76
165 189 92
161 185 62
161 185 44
156 179 62
167 191 88
159 182 76
162 185 57
162 185 67
165 189 84
161 185 72
156 180 62
157 181 76
159 182 62
156 179 62
161 185 70
165 190 80
153 176 80
157 179 67
153 175 72
157 180 72
152 175 76
162 184 72
153 176 84
146 170 72
153 175 84
142 165 78
104 129 111
89 115 124
91 118 125
90 118 131
83 111 124
91 119 136
87 116 133
94 119 126
96 122 124
90 117 145
91 119 139
99 125 131
97 123 145
83 110 128
91 117 136
106 130 148
100 125 143
94 120 148
99 126 140
88 115 140
95 122 142
102 127 136
99 124 141
96 123 148
93 119 136
104 130 147
94 121 141
102 128 125
83 113 150
86 115 148
84 113 158
76 106 150
70 102 146
80 108 151
79 108 159
72 103 161
65 99 158
73 103 146
68 100 151
69 100 147
63 97 149
62 96 145
61 96 150
61 96 153
59 94 136
62 96 141
59 93 138
62 96 136
61 95 131
64 98 137
65 98 130
66 97 126
76 106 125
56 90 122
68 99 120
64 96 117
65 98 128
60 94 125
59 94 140
57 91 128
59 94 133
59 93 129
59 93 131
59 94 141
60 95 136
58 91 126
59 93 129
58 92 126
60 95 139
60 95 141
58 91 121
58 93 122
60 96 144
58 92 126
60 94 137
60 94 134
59 93 130
60 95 134
60 94 133
59 93 124
59 94 129
60 95 130
60 94 134
59 94 141
60 95 139
60 94 137
59 94 130
59 93 129
59 94 133
60 94 128
59 94 125
59 93 131
60 95 131
59 94 133
58 93 124
59 93 128
60 95 129
59 94 134
58 92 128
60 95 131
60 94 133
60 94 131
61 96 140
60 95 134
58 93 122
59 94 129
60 94 129
59 94 124
59 94 128
61 96 143
60 95 128
60 94 129
60 95 130
59 94 126
57 91 110
59 94 124
60 94 131
59 93 134
59 94 131
57 91 118
58 92 120
60 94 129
60 95 134
60 95 133
59 93 124
59 94 125
59 94 131
58 92 122
59 93 126
58 93 128
59 93 133
59 93 121
58 92 125
58 92 126
60 94 124
59 93 128
59 93 126
58 91 120
56 90 110
58 91 111
59 92 124
59 93 128
60 94 131
56 88 99
57 90 113
58 92 117
57 90 113
58 90 115
56 89 114
57 90 113
58 92 122
56 89 99
70 98 105
76 98 70
97 114 36
104 116 0
112 126 0
118 133 0
108 120 0
121 137 0
110 126 0
121 138 0
119 133 0
120 137 0
112 126 0
125 139 0
123 137 0
118 133 0
114 131 0
128 144 0
115 129 0
124 138 0
129 146 0
128 144 0
122 136 0
122 138 0
126 142 0
121 137 0
122 138 0
130 146 0
130 143 0
118 134 0
117 134 0
135 147 0
135 152 0
123 139 0
133 149 0
130 144 0
126 141 0
135 150 0
139 156 0
129 144 0
132 145 0
128 141 0
136 152 0
125 140 0
131 146 0
131 145 0
133 150 0
146 163 0
134 151 0
137 152 0
138 153 0
135 150 0
135 150 0
134 150 0
137 154 0
134 148 0
132 148 0
142 158 0
138 153 0
139 153 0
149 164 0
149 163 0
137 152 0
137 152 0
138 153 0
142 157 0
134 147 0
140 157 0
139 152 0
134 146 0
149 165 0
142 157 0
141 157 0
147 163 0
152 167 0
151 165 0
148 164 0
145 162 0
147 164 0
150 164 0
146 161 0
144 159 0
151 166 0
145 161 0
152 168 0
144 157 0
149 164 0
151 166 0
150 165 0
149 163 0
152 168 0
154 170 0
156 172 0
150 163 0
156 172 0
146 162 0
153 170 0
154 171 0
155 173 0
156 168 0
153 170 0
148 166 0
150 165 0
147 162 0
153 170 0
154 171 0
150 165 0
152 169 0
157 173 0
157 174 0
149 166 0
154 169 0
155 171 0
150 166 0
158 176 0
154 170 0
157 172 0
152 172 0
156 174 0
160 177 0
161 177 0
160 177 0
156 172 0
155 172 0
155 170 0
158 174 0
158 177 0
157 174 0
158 175 0
159 177 0
161 178 0
159 177 0
157 176 0
154 171 0
163 182 0
160 177 0
155 172 0
159 177 0
160 177 0
164 183 0
157 173 0
158 176 0
162 182 0
165 184 0
159 178 0
164 183 0
157 173 0
160 179 0
165 185 0
161 179 0
162 181 0
160 180 0
167 186 0
169 190 0
162 182 0
169 188 0
163 183 0
161 180 0
163 184 0
161 179 0
162 181 0
163 185 0
168 192 72
172 196 80
170 194 76
171 195 67
167 191 51
169 193 57
170 194 72
168 192 62
171 195 67
170 194 57
172 196 67
169 194 80
173 197 67
168 192 67
170 194 76
171 196 95
172 196 88
162 186 62
166 190 62
169 193 62
169 193 67
171 196 92
168 193 84
169 193 72
166 191 84
166 190 67
164 188 84
168 192 84
169 193 80
170 194 67
168 192 72
164 189 72
170 194 92
168 192 88
161 186 99
167 191 72
166 190 84
166 190 72
171 195 72
166 190 72
167 191 72
168 194 99
168 192 80
164 188 76
168 192 72
168 193 80
165 189 88
166 191 92
162 187 72
164 188 72
167 191 72
166 191 76
165 189 67
164 189 72
155 179 51
165 189 57
162 186 62
162 186 72
159 183 51
168 191 62
157 181 51
160 183 57
163 185 57
167 190 57
155 177 67
162 186 62
159 182 80
163 186 67
161 185 67
153 175 67
159 183 84
157 180 84
160 182 57
155 178 67
161 185 72
157 180 88
160 182 62
155 177 67
159 182 84
158 182 88
163 186 92
159 181 95
153 176 57
153 175 80
154 177 57
147 169 57
127 151 90
94 119 107
78 106 124
94 121 131
100 125 129
82 111 124
88 115 126
91 118 139
87 113 139
96 122 135
105 131 150
98 124 135
95 120 129
94 120 139
103 128 138
94 120 150
91 118 131
88 115 130
98 123 143
95 121 143
92 119 128
97 124 146
95 120 130
104 127 132
88 115 125
93 119 122
90 117 125
85 113 134
96 123 150
83 112 150
86 115 150
72 103 151
87 114 159
80 109 154
69 102 162
75 105 156
76 105 153
66 100 149
65 98 148
68 100 145
72 101 139
67 99 146
60 95 143
67 99 138
60 94 140
64 96 140
62 96 140
63 97 147
66 99 136
65 97 129
61 95 135
64 97 130
68 100 128
67 98 124
68 99 115
70 101 131
64 97 131
63 96 122
62 94 126
61 95 129
58 93 126
58 92 111
56 90 123
58 92 122
60 94 134
58 92 127
57 91 130
59 93 131
59 93 134
60 94 129
60 94 134
60 94 128
59 93 128
57 91 123
60 94 130
60 95 137
57 91 120
59 93 131
59 94 131
60 95 143
58 92 118
60 95 133
58 93 130
58 92 110
59 93 135
60 94 133
60 94 124
59 94 136
59 93 125
60 94 135
59 94 136
57 92 124
60 94 133
58 92 117
59 93 130
58 92 126
60 95 133
59 94 128
61 96 137
59 93 134
59 94 135
59 94 134
61 96 140
60 95 143
58 92 122
59 94 134
59 93 128
60 94 142
59 93 128
60 94 131
60 94 128
59 93 128
56 90 103
60 94 128
59 94 128
57 91 115
58 92 107
60 94 139
60 95 137
60 95 134
61 96 140
60 94 128
58 92 126
58 93 125
59 93 125
59 93 124
58 92 115
60 94 128
59 92 120
59 93 131
59 93 115
56 90 108
58 92 120
58 92 122
59 92 121
59 93 126
58 91 118
58 91 117
58 92 117
59 94 126
57 90 114
59 93 124
57 90 118
57 90 117
58 91 115
58 91 124
57 90 105
57 90 105
55 87 110
58 91 121
56 88 103
66 94 103
82 106 80
97 112 51
100 115 44
117 133 0
116 131 0
107 120 0
112 125 0
121 135 0
116 131 0
113 128 0
108 123 0
107 120 0
119 135 0
118 134 0
131 147 0
129 144 0
138 157 0
124 140 0
118 135 0
129 146 0
129 144 0
124 138 0
111 126 0
139 156 0
127 142 0
122 137 0
120 133 0
129 145 0
127 142 0
128 143 0
138 156 0
131 145 0
126 141 0
127 142 0
137 153 0
124 139 0
138 153 0
125 138 0
129 146 0
135 152 0
136 152 0
134 151 0
134 148 0
135 152 0
135 151 0
134 149 0
139 155 0
142 158 0
138 154 0
135 151 0
133 149 0
137 152 0
139 155 0
137 154 0
127 140 0
138 154 0
128 142 0
149 167 0
146 165 0
135 150 0
138 153 0
137 154 0
143 158 0
143 160 0
145 162 0
147 164 0
144 159 0
149 165 0
145 162 0
147 163 0
148 163 0
145 159 0
134 149 0
147 162 0
149 164 0
144 161 0
138 152 0
151 168 0
147 163 0
150 166 0
145 159 0
145 160 0
140 156 0
139 153 0
149 165 0
148 163 0
146 162 0
147 160 0
147 163 0
143 157 0
149 168 0
147 163 0
150 165 0
158 176 0
150 166 0
144 159 0
149 165 0
159 174 0
155 169 0
142 156 0
152 169 0
155 170 0
149 165 0
149 162 0
162 179 0
153 168 0
157 172 0
149 164 0
150 166 0
159 175 0
156 174 0
142 156 0
158 174 0
153 170 0
159 176 0
157 173 0
158 177 0
153 169 0
160 176 0
154 170 0
163 177 0
161 178 0
153 169 0
162 179 0
157 176 0
156 174 0
160 177 0
163 182 0
155 171 0
160 180 0
163 180 0
160 179 0
158 175 0
158 176 0
162 179 0
157 173 0
163 182 0
159 178 0
158 176 0
155 172 0
165 184 0
161 179 0
162 179 0
158 175 0
160 178 0
164 184 0
165 183 0
163 183 0
162 180 0
163 183 0
159 177 0
160 180 0
163 182 0
160 181 0
163 182 0
168 187 0
162 179 0
162 182 0
162 183 0
165 186 0
166 184 0
169 187 0
173 197 88
171 194 57
170 195 72
170 195 67
168 193 57
173 197 76
173 197 57
170 194 88
171 195 72
168 193 80
171 195 67
172 197 88
170 193 72
171 195 76
169 194 57
170 195 99
172 196 72
174 197 44
168 192 44
170 194 72
171 195 76
171 194 67
169 194 76
167 191 62
171 196 114
167 191 80
164 188 67
167 191 72
168 193 84
168 191 44
170 195 67
164 188 72
167 192 72
167 192 76
170 194 72
167 191 72
168 193 67
169 193 80
166 190 62
171 195 92
168 191 57
165 191 88
163 187 76
163 187 67
165 188 72
170 194 67
164 189 62
162 186 80
159 183 57
167 191 88
157 181 76
163 187 67
158 182 36
161 186 80
167 191 80
161 183 44
166 189 76
160 182 67
160 183 36
161 185 76
159 182 57
167 190 57
162 185 51
163 187 72
164 187 67
156 180 62
162 185 72
161 184 65
154 177 67
157 179 67
154 177 72
150 173 80
163 184 80
158 182 51
159 182 80
154 178 92
156 179 76
154 177 72
157 178 62
164 187 95
151 174 76
158 180 76
154 176 62
150 173 76
158 180 88
153 175 76
157 179 80
135 157 113
90 116 118
93 118 117
83 112 124
82 109 120
88 114 115
90 116 129
88 115 128
84 112 119
94 120 128
97 123 140
93 119 119
85 112 129
78 108 129
98 123 144
90 118 137
96 122 139
89 116 136
101 126 138
94 121 130
107 132 143
107 131 121
98 123 131
112 134 135
97 123 145
100 125 134
103 127 124
90 117 130
94 121 137
83 111 135
77 107 145
82 111 144
65 99 151
79 108 155
87 114 161
77 105 148
75 104 147
71 100 140
66 99 149
70 101 146
61 96 143
68 99 147
59 94 133
63 96 141
62 97 143
62 96 134
59 94 145
60 94 129
65 97 125
61 96 130
67 100 128
75 106 120
74 105 133
70 101 130
66 98 125
62 95 124
58 93 127
60 92 122
57 91 125
59 94 131
60 94 120
57 91 135
57 90 118
57 91 124
61 96 137
59 94 133
59 93 121
59 93 123
59 93 131
59 93 134
59 94 130
59 94 135
59 94 126
58 92 120
57 91 120
60 94 136
57 91 129
59 93 131
59 94 130
60 94 137
60 95 139
59 94 130
60 95 133
58 93 129
57 90 121
59 93 133
60 95 136
60 94 129
59 93 125
59 92 126
58 92 128
59 94 135
60 95 133
59 94 128
59 93 130
59 93 130
59 94 126
58 92 121
59 94 131
59 93 128
59 94 124
58 92 124
59 93 124
60 95 131
58 92 122
59 93 130
60 94 131
58 92 122
60 95 133
61 96 139
60 95 134
59 94 124
59 93 125
59 94 133
58 91 126
60 94 134
57 91 122
59 93 125
58 91 114
60 94 128
59 93 121
60 94 131
61 95 134
58 92 122
59 93 126
59 94 131
57 91 122
58 91 117
57 90 108
57 91 114
58 91 110
58 92 113
59 93 130
58 92 122
58 92 118
57 90 100
58 91 124
59 93 125
57 91 111
57 91 113
57 90 115
57 90 117
56 89 115
57 89 118
58 91 115
57 91 114
56 88 114
56 89 97
55 87 102
62 92 90
78 100 65
92 108 51
110 127 40
96 111 0
114 129 0
110 126 0
117 131 0
98 113 0
119 134 0
113 127 0
111 124 0
110 124 0
117 131 0
115 130 0
113 129 0
114 130 0
120 136 0
115 133 0
120 136 0
120 133 0
124 140 0
123 138 0
123 138 0
126 140 0
127 144 0
129 145 0
124 139 0
132 149 0
128 143 0
139 156 0
128 142 0
133 150 0
132 148 0
131 147 0
134 150 0
140 157 0
137 154 0
122 139 0
125 140 0
139 155 0
141 157 0
134 150 0
139 155 0
142 159 0
136 154 0
134 152 0
136 153 0
133 151 0
137 152 0
141 157 0
135 151 0
129 144 0
135 150 0
135 150 0
143 158 0
143 159 0
147 164 0
142 160 0
144 161 0
146 162 0
138 155 0
133 150 0
143 161 0
152 165 0
135 152 0
141 156 0
150 167 0
137 150 0
140 156 0
142 156 0
138 154 0
146 163 0
149 163 0
143 158 0
139 156 0
146 161 0
146 162 0
142 158 0
149 168 0
141 159 0
147 163 0
142 156 0
142 158 0
146 160 0
148 166 0
144 158 0
147 163 0
147 164 0
153 170 0
150 165 0
151 165 0
154 169 0
150 168 0
152 169 0
149 165 0
153 170 0
152 168 0
160 177 0
155 171 0
153 168 0
146 162 0
153 172 0
154 171 0
155 173 0
152 168 0
156 173 0
143 157 0
156 174 0
154 170 0
159 175 0
154 173 0
155 173 0
158 174 0
153 169 0
159 175 0
156 172 0
162 180 0
154 172 0
154 172 0
163 181 0
157 175 0
157 174 0
149 165 0
161 178 0
155 171 0
154 171 0
160 177 0
161 180 0
156 174 0
157 176 0
160 176 0
157 173 0
162 181 0
158 175 0
161 177 0
163 182 0
163 180 0
164 183 0
159 176 0
163 182 0
164 182 0
159 176 0
159 177 0
163 182 0
156 173 0
164 183 0
162 181 0
168 188 0
162 180 0
161 181 0
161 181 0
163 182 0
163 183 0
163 181 0
163 183 0
163 183 0
160 179 0
162 182 0
166 187 0
170 191 0
160 179 0
162 183 0
165 185 0
171 196 88
174 198 92
168 192 84
169 193 51
169 193 76
172 197 72
169 194 67
167 191 57
173 197 88
170 195 67
169 194 80
168 192 76
168 192 88
169 192 57
167 191 67
171 195 76
168 192 72
168 192 72
171 195 57
171 195 62
165 189 76
170 195 80
168 192 80
166 191 76
168 192 72
168 191 36
170 194 76
170 193 44
171 196 99
162 186 51
170 194 67
167 192 80
156 180 67
168 193 72
165 188 36
168 193 102
162 186 62
161 186 92
164 188 76
167 191 67
170 194 72
169 195 117
164 188 67
167 193 88
163 187 76
165 189 72
164 189 84
162 185 25
159 183 88
162 186 67
166 190 76
162 186 88
163 187 80
168 192 80
167 191 72
163 186 62
164 188 67
160 183 57
164 187 67
157 180 67
166 190 80
159 182 76
166 190 92
164 189 84
163 186 84
156 179 76
159 183 76
159 183 95
160 184 84
162 185 67
160 184 62
160 182 67
157 180 57
150 174 67
154 176 72
159 182 84
152 175 62
146 168 57
148 171 67
153 176 67
147 170 67
156 179 72
154 177 76
155 179 62
158 180 72
150 173 80
155 177 80
141 163 67
111 134 100
90 116 121
90 116 118
93 120 129
88 114 123
97 123 130
81 109 122
81 109 126
90 117 129
101 126 139
94 119 124
100 125 126
93 119 134
102 127 142
85 111 131
97 121 139
104 128 149
100 126 150
105 129 141
105 130 140
94 120 148
100 125 144
89 117 137
96 122 136
91 117 118
100 125 133
100 125 128
86 113 138
83 112 142
73 104 144
80 109 145
74 106 151
77 106 152
78 107 152
69 101 150
71 100 145
70 100 141
67 100 154
71 100 136
63 96 137
65 97 145
61 95 140
60 95 142
60 95 137
63 97 146
60 94 143
66 99 130
65 98 131
56 90 129
63 96 128
66 97 124
69 100 128
71 102 120
64 95 118
57 90 122
60 92 123
64 96 122
67 99 120
58 92 122
56 89 107
60 95 128
59 94 129
58 92 117
59 93 124
59 94 135
59 93 130
59 93 124
59 92 130
58 92 124
59 93 127
58 92 117
59 93 135
59 94 122
58 92 124
58 92 123
59 93 122
58 92 118
59 93 136
60 95 141
59 94 133
59 93 125
59 94 122
57 92 117
58 92 124
60 94 134
61 96 136
59 94 128
58 91 120
59 94 129
59 93 135
59 94 137
59 94 122
59 94 117
59 94 138
58 92 120
60 94 125
60 95 135
58 92 124
58 92 117
60 94 134
58 92 120
60 94 131
60 94 128
60 95 126
59 93 120
60 94 131
60 94 128
59 94 130
59 94 128
59 94 131
60 94 129
57 91 122
59 92 122
58 92 114
60 95 128
61 95 136
59 94 130
59 94 126
57 91 121
59 92 118
58 91 114
60 94 125
58 91 110
58 92 126
58 92 134
59 93 130
57 90 115
57 90 111
57 91 121
58 91 121
57 91 118
58 92 120
58 91 121
59 93 128
59 92 115
58 91 122
55 87 110
57 90 113
58 92 122
58 91 114
58 91 113
57 91 103
57 90 105
56 89 105
56 89 103
54 86 105
55 87 107
64 94 92
72 97 100
90 108 54
108 121 18
104 120 0
105 119 0
112 125 0
109 122 0
113 128 0
123 137 0
122 137 0
123 140 0
108 122 0
125 140 0
122 139 0
123 139 0
128 141 0
114 129 0
118 135 0
124 139 0
120 137 0
134 149 0
122 138 0
130 144 0
120 136 0
133 152 0
129 144 0
123 138 0
133 147 0
135 152 0
122 137 0
133 150 0
130 147 0
126 141 0
138 155 0
128 146 0
136 153 0
126 141 0
130 144 0
122 137 0
134 153 0
143 160 0
134 153 0
134 149 0
137 155 0
139 155 0
141 158 0
137 153 0
137 153 0
128 144 0
141 157 0
132 145 0
142 160 0
145 163 0
139 157 0
129 145 0
135 150 0
139 154 0
141 158 0
140 154 0
150 167 0
142 158 0
142 155 0
138 156 0
149 166 0
143 160 0
145 159 0
138 152 0
142 158 0
146 163 0
148 163 0
146 162 0
142 155 0
141 155 0
146 161 0
146 163 0
141 156 0
149 165 0
148 164 0
154 173 0
149 166 0
147 162 0
144 160 0
145 160 0
146 161 0
152 169 0
150 167 0
146 165 0
150 167 0
147 165 0
150 164 0
152 167 0
151 167 0
145 159 0
154 172 0
150 165 0
151 167 0
157 175 0
156 173 0
153 171 0
158 175 0
145 161 0
152 169 0
153 170 0
149 165 0
157 173 0
155 172 0
161 177 0
152 169 0
162 178 0
160 178 0
158 173 0
149 164 0
150 166 0
157 176 0
154 171 0
156 174 0
151 169 0
152 169 0
160 177 0
157 171 0
161 178 0
161 180 0
154 175 0
157 175 0
156 173 0
160 178 0
158 175 0
158 176 0
160 178 0
156 174 0
158 177 0
157 176 0
161 179 0
151 170 0
159 176 0
160 179 0
157 175 0
161 179 0
164 183 0
154 170 0
156 174 0
164 182 0
162 181 0
159 178 0
158 176 0
161 180 0
156 176 0
158 176 0
166 185 0
164 184 0
161 179 0
157 177 0
164 183 0
167 187 0
162 182 0
163 183 0
160 179 0
164 185 0
161 180 0
164 182 0
165 182 0
165 186 0
165 183 0
163 182 0
174 198 102
171 195 67
175 199 84
166 190 57
172 195 67
172 197 88
172 196 84
170 194 76
171 195 44
171 196 95
169 192 67
172 196 57
171 194 80
171 195 84
168 192 72
166 190 80
171 196 88
166 190 44
169 192 44
168 191 51
172 196 84
169 193 76
171 195 72
170 193 72
168 192 80
167 190 44
166 190 62
167 191 76
167 191 80
167 191 62
168 192 62
163 187 62
167 192 57
167 192 80
165 191 76
169 192 57
167 192 84
168 191 51
168 194 62
166 190 62
159 184 88
162 186 62
163 187 72
161 186 80
167 190 62
163 188 72
168 192 62
163 186 67
167 191 80
169 193 80
164 188 80
165 190 76
159 183 80
163 187 76
168 192 88
160 183 76
162 186 88
163 187 80
156 180 72
159 183 76
164 188 57
156 180 62
164 188 84
156 180 76
162 186 99
161 185 76
161 184 67
162 185 84
159 183 76
152 175 57
154 177 72
150 173 51
153 177 72
154 178 80
159 183 80
153 177 76
161 185 76
158 182 92
158 181 76
157 180 51
154 176 36
153 176 57
152 174 67
152 173 72
153 175 67
147 168 57
154 176 88
149 170 51
136 157 62
112 135 102
93 119 110
82 111 126
87 114 126
92 118 137
107 131 140
84 111 141
80 108 126
100 125 137
103 128 140
93 119 140
100 124 143
96 121 127
102 126 134
87 112 113
97 123 139
78 106 125
94 120 132
87 114 115
88 115 137
96 121 145
96 123 130
98 124 125
92 119 131
91 119 131
105 131 128
95 121 139
92 119 138
75 106 144
82 111 152
65 98 141
68 100 138
70 102 155
78 107 154
67 99 153
74 102 136
69 101 156
63 97 142
63 97 148
61 95 135
64 96 136
58 92 133
60 95 141
60 95 142
59 93 141
64 96 134
62 96 130
63 97 134
56 90 120
67 100 148
76 105 126
76 105 110
71 101 126
63 93 100
64 97 118
60 94 124
60 92 127
59 93 131
57 90 120
58 91 127
59 93 128
57 90 123
57 90 114
58 93 126
58 93 119
58 92 122
59 93 131
58 92 124
59 94 129
58 92 120
58 92 118
57 91 127
59 93 126
58 92 117
58 92 121
57 90 118
58 92 128
58 93 123
58 91 124
60 94 127
61 96 139
57 91 121
58 92 118
58 93 130
58 92 118
59 93 129
59 93 130
58 92 129
59 94 128
58 92 117
58 93 120
60 94 129
58 92 121
59 94 129
58 92 118
59 93 124
59 93 121
59 93 126
60 96 139
60 94 129
59 94 131
58 92 111
59 93 129
59 93 129
58 92 117
57 91 113
58 92 124
59 93 120
59 93 124
59 93 121
59 94 129
59 94 124
60 95 135
60 95 129
60 94 126
59 94 133
57 91 118
59 93 124
60 93 128
56 89 108
59 93 125
58 92 117
57 90 110
57 91 124
58 91 115
59 93 125
59 93 136
58 92 113
60 94 133
57 90 115
57 90 110
59 93 121
59 93 117
57 91 121
55 88 97
58 91 111
56 89 110
58 91 110
55 87 108
56 89 111
56 88 108
59 93 124
56 89 103
57 90 108
54 87 90
54 84 90
84 107 82
96 113 60
101 117 25
110 123 0
103 118 0
114 128 0
105 120 0
116 131 0
117 132 0
113 128 0
113 129 0
109 124 0
116 131 0
122 137 0
128 144 0
115 132 0
123 137 0
116 132 0
116 130 0
127 140 0
116 133 0
135 149 0
137 153 0
133 150 0
122 137 0
116 130 0
132 150 0
121 137 0
126 144 0
130 148 0
137 155 0
129 145 0
129 145 0
135 152 0
128 143 0
129 145 0
131 147 0
131 147 0
133 147 0
135 152 0
129 142 0
138 155 0
134 149 0
135 153 0
139 155 0
139 157 0
137 152 0
134 150 0
140 157 0
137 151 0
136 153 0
130 149 0
137 154 0
146 162 0
139 154 0
145 163 0
132 148 0
143 159 0
141 157 0
139 157 0
136 153 0
152 170 0
135 151 0
144 160 0
138 155 0
142 155 0
138 153 0
145 161 0
138 153 0
142 157 0
145 162 0
149 167 0
144 160 0
143 162 0
150 164 0
157 176 0
145 161 0
142 159 0
149 162 0
156 172 0
142 157 0
142 157 0
144 159 0
149 165 0
157 174 0
153 169 0
156 172 0
156 175 0
156 174 0
140 155 0
149 165 0
149 165 0
143 161 0
146 162 0
148 165 0
149 167 0
149 166 0
147 162 0
149 163 0
144 161 0
152 169 0
148 165 0
153 169 0
147 161 0
155 172 0
153 168 0
151 170 0
155 172 0
155 171 0
149 164 0
153 168 0
159 174 0
157 175 0
160 177 0
154 169 0
153 170 0
157 173 0
150 166 0
155 172 0
158 177 0
157 174 0
162 179 0
153 171 0
160 177 0
153 172 0
158 175 0
163 181 0
154 172 0
162 180 0
155 173 0
161 177 0
151 169 0
160 178 0
158 178 0
163 183 0
158 175 0
161 179 0
157 176 0
157 174 0
160 181 0
158 177 0
163 181 0
165 185 0
158 176 0
164 184 0
166 187 0
160 179 0
164 183 0
162 180 0
163 182 0
155 173 0
167 187 0
156 174 0
162 181 0
166 187 0
161 179 0
164 182 0
165 188 0
166 187 0
162 180 0
158 176 0
162 180 0
169 190 0
164 185 0
164 185 0
176 200 92
170 195 80
169 194 67
170 194 84
172 196 67
174 197 72
170 193 67
172 196 51
169 193 80
170 195 62
169 193 80
169 193 76
171 195 62
169 193 76
173 196 67
166 190 44
167 191 67
168 193 84
170 194 76
171 195 62
173 197 72
169 193 99
171 196 84
167 191 51
165 189 62
169 194 92
164 189 84
167 191 67
171 194 62
166 190 76
167 191 57
166 192 92
168 193 76
168 193 114
168 192 99
167 191 67
164 188 72
169 193 76
167 191 84
166 191 76
159 183 62
160 184 51
165 190 92
168 192 84
164 188 80
168 193 80
164 187 76
164 189 92
162 186 76
169 193 76
156 181 76
164 188 76
164 187 67
163 187 76
160 185 92
161 185 95
164 187 72
163 187 72
163 187 84
164 187 80
159 183 76
161 185 57
154 177 44
157 180 51
158 181 76
164 186 72
163 186 57
158 182 84
162 186 62
157 181 80
161 183 62
156 180 57
162 185 76
152 175 76
159 182 76
152 175 80
156 178 80
159 182 84
151 174 72
160 182 80
149 170 67
149 172 80
148 170 76
157 180 84
157 180 95
160 182 88
153 175 88
148 170 57
145 166 67
139 160 88
103 127 113
89 115 124
94 120 131
94 120 121
93 120 120
94 121 127
94 121 124
90 116 121
97 122 138
90 117 131
93 118 121
98 124 134
96 121 143
86 113 131
92 118 140
86 112 127
105 130 143
95 121 136
83 111 131
99 124 139
90 117 144
85 112 122
86 113 127
97 123 140
102 126 135
95 121 127
92 119 151
83 111 136
93 118 147
83 111 154
77 107 150
64 98 149
74 104 144
68 99 144
71 102 152
74 104 148
71 101 145
64 96 139
67 99 144
64 97 138
59 94 133
68 98 135
66 98 141
59 93 134
64 97 127
61 94 133
70 101 130
65 97 129
68 99 122
68 100 118
64 97 134
64 95 125
70 100 109
64 97 117
60 92 114
59 93 118
58 91 124
57 90 120
57 90 113
58 92 121
58 92 124
58 92 131
57 90 113
57 91 110
59 93 132
58 92 124
58 92 129
58 92 124
60 94 129
59 93 120
58 92 126
58 92 125
59 93 129
58 92 124
58 92 113
58 92 130
56 90 110
58 93 124
60 94 128
58 92 118
59 93 121
59 94 133
58 91 115
59 93 135
60 95 130
58 92 118
59 93 129
58 93 122
59 94 124
58 92 120
60 94 133
58 92 130
59 92 122
57 90 120
59 94 125
57 91 124
59 93 128
58 91 114
60 94 124
58 92 117
59 93 126
59 93 125
58 92 115
58 92 124
58 92 115
59 93 126
60 95 135
58 92 129
60 94 128
58 92 115
60 95 130
57 91 113
60 95 130
58 91 120
59 93 128
55 88 105
58 92 126
60 93 133
59 93 117
57 91 110
58 92 113
59 92 117
59 93 114
57 90 113
58 91 115
58 91 115
58 93 122
58 91 122
57 90 118
59 92 124
59 93 126
57 91 111
57 90 115
58 91 115
58 92 124
56 89 102
57 90 117
56 88 120
58 91 117
57 89 111
58 92 117
53 85 94
60 91 90
74 99 82
86 105 76
93 112 54
112 127 25
107 120 0
100 115 0
114 128 0
114 128 0
105 121 0
117 132 0
119 135 0
116 129 0
116 131 0
128 145 0
123 139 0
118 133 0
111 127 0
129 145 0
114 129 0
113 127 0
124 141 0
122 138 0
130 148 0
122 138 0
113 131 0
132 147 0
133 148 0
139 155 0
126 142 0
133 149 0
128 145 0
136 152 0
138 153 0
127 142 0
145 161 0
128 145 0
128 145 0
121 137 0
121 136 0
132 147 0
136 153 0
137 153 0
143 157 0
137 154 0
135 152 0
133 149 0
139 156 0
132 148 0
136 152 0
133 149 0
136 151 0
139 157 0
136 151 0
139 153 0
149 168 0
135 152 0
149 166 0
143 158 0
143 160 0
141 158 0
150 167 0
147 164 0
138 154 0
142 158 0
143 160 0
138 154 0
141 160 0
138 153 0
144 161 0
143 158 0
140 157 0
136 153 0
144 162 0
141 157 0
145 159 0
144 159 0
150 167 0
143 159 0
146 163 0
139 153 0
145 161 0
151 170 0
153 168 0
146 162 0
147 163 0
151 167 0
142 160 0
141 155 0
151 169 0
155 173 0
152 168 0
147 165 0
148 164 0
153 171 0
152 166 0
150 166 0
149 166 0
146 163 0
148 165 0
154 170 0
150 167 0
154 171 0
152 170 0
152 166 0
155 171 0
148 163 0
159 176 0
152 170 0
155 171 0
152 170 0
156 172 0
149 165 0
152 170 0
153 171 0
156 171 0
158 177 0
154 173 0
159 178 0
159 176 0
156 174 0
159 176 0
153 171 0
155 172 0
157 176 0
160 176 0
153 170 0
157 176 0
159 177 0
160 177 0
157 174 0
155 172 0
162 179 0
161 178 0
161 180 0
159 176 0
159 179 0
154 170 0
160 178 0
162 180 0
162 180 0
159 176 0
162 181 0
163 182 0
164 185 0
159 179 0
167 186 0
160 178 0
154 173 0
167 186 0
164 183 0
160 179 0
156 173 0
165 184 0
164 182 0
163 180 0
165 185 0
164 184 0
162 182 0
165 184 0
163 180 0
163 178 0
165 184 0
165 183 0
163 182 0
165 185 0
165 184 0
164 184 0
173 196 76
174 199 105
169 193 76
172 196 51
168 192 67
170 195 80
170 195 92
169 194 72
167 191 72
171 194 67
171 196 95
171 195 72
168 191 62
168 193 72
170 194 67
170 194 62
166 190 80
167 192 51
171 195 76
166 191 57
172 197 80
172 196 62
170 195 76
167 192 76
165 190 72
169 194 76
167 191 72
168 192 92
167 192 84
167 192 84
170 194 67
168 193 67
171 195 67
163 188 99
168 193 84
163 188 84
164 187 51
165 190 80
167 192 84
167 191 72
163 187 76
167 192 80
168 192 44
167 192 62
161 185 62
160 184 76
164 188 72
161 184 51
164 188 67
169 193 72
164 188 57
166 190 57
160 184 57
162 184 67
164 188 57
163 187 72
162 186 67
162 186 76
164 187 57
159 183 76
161 185 80
161 186 76
162 185 62
155 179 67
158 181 72
161 184 62
155 178 80
161 183 51
158 182 76
155 179 80
161 184 67
154 177 84
158 182 72
157 179 57
162 185 99
162 185 57
162 184 57
154 178 80
157 180 88
156 178 67
157 180 72
145 167 67
155 177 76
148 170 72
161 183 72
148 171 72
151 172 44
153 174 99
138 160 67
152 174 84
132 155 99
90 115 112
90 115 126
96 120 120
87 115 128
99 124 134
75 103 115
77 106 128
96 122 125
101 126 133
104 128 131
85 111 129
98 123 129
93 119 124
102 127 136
100 126 131
97 122 129
98 124 139
87 114 126
102 126 141
87 113 135
96 121 126
84 111 129
96 123 130
113 136 144
92 117 138
99 124 138
93 120 152
94 120 147
80 109 150
68 100 138
74 105 153
77 106 149
74 103 145
77 106 151
72 103 149
67 99 143
71 101 143
65 99 156
63 97 137
73 100 128
59 94 137
61 96 134
62 96 136
62 95 122
65 98 138
61 95 132
62 95 134
60 94 124
57 91 120
72 102 118
64 95 110
67 98 111
69 98 110
66 98 125
70 100 119
61 94 122
58 92 121
57 91 126
56 89 113
59 94 125
59 94 131
56 89 125
58 92 114
58 92 121
59 93 126
58 91 125
58 92 124
58 92 124
59 93 132
57 91 122
57 91 115
58 92 115
57 91 107
58 91 118
56 90 113
59 93 124
60 94 134
59 94 133
58 92 122
56 90 113
59 93 124
59 94 130
58 92 118
58 92 126
60 94 131
58 92 120
58 92 117
58 93 121
60 94 134
58 92 114
58 91 118
56 90 115
60 94 129
59 93 124
59 94 132
60 94 133
59 93 125
59 93 130
59 93 126
59 94 128
59 93 122
60 94 139
59 94 124
57 91 120
58 92 122
57 90 108
59 93 131
56 89 108
58 92 117
59 93 125
59 94 130
58 92 122
59 93 128
58 92 124
58 91 121
58 92 117
59 93 129
59 93 130
57 90 114
58 91 114
58 92 122
57 90 117
58 92 124
57 90 105
60 94 135
60 94 129
60 94 130
58 92 113
58 92 118
58 92 124
58 92 120
57 90 115
57 90 114
57 90 117
58 91 117
56 88 108
56 88 110
55 87 102
56 88 113
56 89 110
58 87 78
80 104 82
92 113 60
89 106 44
120 136 31
113 128 0
95 109 0
102 118 0
102 118 0
114 129 0
117 132 0
118 132 0
120 136 0
123 139 0
118 134 0
118 134 0
121 136 0
112 129 0
116 132 0
115 133 0
121 137 0
128 145 0
128 143 0
132 149 0
121 139 0
127 143 0
121 137 0
131 147 0
131 148 0
117 134 0
127 141 0
134 150 0
124 142 0
125 141 0
130 147 0
129 144 0
125 142 0
128 146 0
140 157 0
130 147 0
134 150 0
141 160 0
136 153 0
131 145 0
132 148 0
139 156 0
134 152 0
137 155 0
130 147 0
130 146 0
128 145 0
141 158 0
139 158 0
134 149 0
136 153 0
134 149 0
139 156 0
143 160 0
136 152 0
136 154 0
135 151 0
141 158 0
146 164 0
142 160 0
145 161 0
139 155 0
137 153 0
141 156 0
144 161 0
144 161 0
144 160 0
146 163 0
145 161 0
146 164 0
146 165 0
153 168 0
150 166 0
150 167 0
140 157 0
142 156 0
141 158 0
150 167 0
150 168 0
148 164 0
143 160 0
145 159 0
141 156 0
152 171 0
151 167 0
149 166 0
143 161 0
155 174 0
145 163 0
150 166 0
148 163 0
146 161 0
155 170 0
149 166 0
151 170 0
135 150 0
155 173 0
154 172 0
146 163 0
151 166 0
151 170 0
156 175 0
152 171 0
154 172 0
149 164 0
161 178 0
158 177 0
153 171 0
156 175 0
156 173 0
152 171 0
151 168 0
157 175 0
153 169 0
152 169 0
161 179 0
157 175 0
153 170 0
158 176 0
159 178 0
161 179 0
159 176 0
157 176 0
156 174 0
156 172 0
160 180 0
161 178 0
160 180 0
158 174 0
156 175 0
154 170 0
162 181 0
162 180 0
158 177 0
160 179 0
161 179 0
156 174 0
163 179 0
162 180 0
161 182 0
162 177 0
166 187 0
161 180 0
163 185 0
164 183 0
167 186 0
158 175 0
164 184 0
160 178 0
162 181 0
161 183 0
165 186 0
167 187 0
160 177 0
164 183 0
167 186 0
164 184 0
165 185 0
162 182 0
165 184 0
163 184 0
162 181 0
167 187 0
162 181 0
165 186 0
171 195 76
171 196 76
171 194 51
168 193 72
169 193 76
173 197 92
165 189 72
166 191 76
174 198 76
170 194 51
169 194 84
171 196 95
167 191 36
174 199 92
172 196 67
170 193 51
168 193 92
172 196 84
168 192 80
166 190 72
171 196 67
166 189 80
163 187 57
165 189 76
167 192 76
168 192 57
167 190 51
169 193 57
170 195 84
163 187 67
166 191 88
168 192 67
166 189 62
165 190 72
171 195 76
163 187 72
162 187 92
165 189 92
171 195 95
160 184 80
159 183 67
163 188 72
167 192 76
166 190 67
167 192 92
163 188 76
164 188 76
166 190 76
161 185 36
160 184 88
160 184 62
163 187 80
164 187 80
164 188 80
166 190 88
160 183 72
158 181 57
162 186 67
154 177 51
167 191 88
162 185 67
156 179 62
162 186 84
157 181 72
164 188 76
159 183 72
160 183 95
152 175 57
164 188 88
154 177 72
155 179 80
153 176 51
160 182 72
151 174 62
152 175 67
153 175 57
158 182 72
159 181 67
156 179 67
157 179 84
154 177 67
149 172 84
153 176 76
147 170 62
147 170 88
142 164 44
147 168 57
142 164 72
153 175 88
145 167 76
156 177 72
115 137 82
85 111 114
101 124 124
93 119 107
82 110 108
85 110 121
83 110 121
86 113 124
90 116 134
101 126 143
95 120 130
93 120 127
91 117 123
94 119 134
81 107 119
97 122 130
82 111 127
88 114 122
96 119 135
100 126 120
106 130 141
88 114 123
90 116 127
98 124 151
91 117 128
89 115 128
88 116 140
85 112 131
88 116 152
86 114 151
80 109 145
76 106 145
72 102 144
74 104 142
64 96 145
67 99 150
75 104 140
70 100 141
67 98 139
67 98 138
59 93 131
62 95 140
62 95 122
64 97 124
64 96 124
61 95 136
56 90 125
60 93 119
62 95 117
72 101 120
73 102 115
71 100 113
69 100 114
65 97 115
65 95 103
64 96 121
58 92 116
58 91 120
59 93 131
56 89 109
56 90 109
57 91 125
57 90 119
59 93 134
59 93 122
56 89 122
58 92 126
60 94 126
58 92 128
57 91 120
59 93 121
58 92 120
59 93 124
59 92 126
59 93 125
58 92 124
58 92 120
59 93 125
59 93 128
58 92 130
59 94 129
60 94 128
57 91 108
60 95 130
59 94 120
60 95 135
59 93 122
61 96 131
57 90 105
59 93 121
58 92 115
58 92 124
58 93 129
59 93 131
60 94 128
60 94 129
58 91 110
57 90 113
57 91 117
59 93 128
59 93 121
58 92 118
59 93 126
59 93 129
60 94 126
58 92 118
60 94 122
60 95 134
58 92 121
56 90 113
58 92 115
58 92 115
58 91 115
58 92 115
60 95 135
58 92 120
59 93 130
59 93 121
58 91 122
59 93 121
58 92 120
56 88 113
58 91 114
57 90 110
58 91 115
56 89 111
59 93 122
57 91 115
58 92 114
60 93 130
56 90 107
58 92 124
58 91 110
54 86 102
58 92 117
57 90 102
56 89 108
55 88 110
55 86 94
59 86 88
79 101 76
107 125 25
92 110 44
111 126 18
103 118 0
118 133 0
103 118 0
110 125 0
118 133 0
110 124 0
104 118 0
123 139 0
125 141 0
117 133 0
114 129 0
119 137 0
108 123 0
113 130 0
120 135 0
132 147 0
114 130 0
124 140 0
125 140 0
132 148 0
128 147 0
132 150 0
124 140 0
113 129 0
125 140 0
137 153 0
120 136 0
132 148 0
126 142 0
124 139 0
130 146 0
136 151 0
129 145 0
139 155 0
126 143 0
139 155 0
141 156 0
144 161 0
128 144 0
140 156 0
130 145 0
137 155 0
137 154 0
136 152 0
136 152 0
136 153 0
131 146 0
138 152 0
134 148 0
141 156 0
135 153 0
143 158 0
128 145 0
137 156 0
144 160 0
140 158 0
138 155 0
140 157 0
139 155 0
142 158 0
142 158 0
140 157 0
142 159 0
140 155 0
149 166 0
137 154 0
141 156 0
147 163 0
140 157 0
136 151 0
148 165 0
146 162 0
143 160 0
148 165 0
147 164 0
150 167 0
147 166 0
151 169 0
151 168 0
141 158 0
151 168 0
147 165 0
159 177 0
150 169 0
154 172 0
147 166 0
144 160 0
148 165 0
148 166 0
150 166 0
152 170 0
148 166 0
150 166 0
158 175 0
157 174 0
151 167 0
154 171 0
150 166 0
158 176 0
149 163 0
146 161 0
147 163 0
156 170 0
157 174 0
157 176 0
160 176 0
157 173 0
152 171 0
152 168 0
152 172 0
155 175 0
159 177 0
157 174 0
156 174 0
157 175 0
161 178 0
160 179 0
160 178 0
156 171 0
158 176 0
151 167 0
158 177 0
161 178 0
158 175 0
160 177 0
154 173 0
149 167 0
153 171 0
155 172 0
155 175 0
159 177 0
156 177 0
158 177 0
157 175 0
161 178 0
162 181 0
158 175 0
158 175 0
165 181 0
161 179 0
159 181 0
163 181 0
165 185 0
159 178 0
162 180 0
160 181 0
162 180 0
164 184 0
166 187 0
166 185 0
162 181 0
166 187 0
161 182 0
164 184 0
163 182 0
162 181 0
169 191 0
163 184 0
163 183 0
165 186 0
156 172 0
159 179 0
164 185 0
166 186 0
163 183 0
167 192 84
173 196 88
169 193 80
168 192 67
172 196 72
167 191 72
171 196 72
171 196 80
168 192 72
171 194 62
170 194 84
168 192 72
169 193 62
167 190 76
169 192 51
169 193 72
168 192 76
166 190 76
168 192 57
168 193 92
168 192 62
170 195 76
168 192 62
166 190 80
168 193 84
167 191 84
168 193 88
166 191 84
165 189 67
170 194 80
168 192 67
168 192 76
164 188 62
165 189 72
163 187 76
167 192 99
168 193 88
164 188 51
167 192 84
161 186 76
166 191 72
167 192 67
164 188 76
168 192 95
165 189 72
165 187 76
164 189 88
168 192 92
163 186 80
166 189 67
170 195 88
164 188 76
164 187 72
164 188 88
158 182 80
167 190 80
162 186 88
164 187 72
160 183 72
164 187 76
165 189 72
156 180 67
162 185 67
152 176 67
161 184 57
157 180 72
164 187 102
159 183 92
163 187 67
157 180 80
160 183 92
152 175 76
163 187 67
163 187 80
159 181 80
155 177 57
154 176 72
148 171 67
151 174 76
156 178 84
149 172 57
142 165 67
150 173 84
149 172 80
145 168 67
152 173 57
152 173 67
155 176 88
153 175 76
150 172 84
148 169 76
140 160 82
121 143 107
91 117 113
96 121 127
91 117 128
99 124 131
90 116 134
94 120 118
91 117 128
107 131 141
95 121 129
98 122 131
100 125 124
92 118 133
92 117 125
101 127 121
91 116 128
110 134 143
87 114 119
91 118 126
113 137 137
99 125 136
97 122 134
92 117 134
99 124 124
94 119 153
90 117 134
101 125 147
91 118 141
81 111 143
83 111 145
76 106 147
77 107 148
88 115 160
70 102 153
66 98 142
77 106 150
63 97 142
67 98 137
70 100 140
69 100 140
62 96 136
67 99 141
61 95 135
63 96 130
57 91 115
60 95 136
64 96 122
61 93 113
65 97 122
68 99 122
71 101 110
67 96 113
69 98 109
70 100 111
64 95 111
60 92 116
58 92 122
56 89 105
57 91 115
58 93 131
59 93 125
57 91 116
58 93 125
57 91 115
58 92 132
59 94 128
57 91 116
58 92 124
58 93 122
58 92 122
57 91 122
59 93 128
58 92 125
58 92 115
57 90 117
57 91 121
57 91 118
58 93 120
59 93 125
58 92 118
60 94 128
59 93 129
59 93 130
57 90 119
58 92 113
59 94 135
59 93 124
58 93 118
59 93 117
57 91 118
58 92 121
60 94 133
59 93 120
57 90 113
60 94 126
57 90 110
58 91 120
59 93 119
59 93 121
60 94 121
58 92 124
59 93 124
58 92 121
59 93 126
58 92 113
59 93 129
58 93 121
59 93 125
59 93 130
58 92 117
60 94 124
58 92 121
58 92 118
58 92 115
59 93 121
58 92 117
58 92 125
58 91 122
57 91 118
56 89 118
59 92 121
57 91 114
57 90 103
57 90 108
57 90 122
58 91 118
56 89 102
58 91 118
56 90 102
55 88 100
57 89 107
55 87 100
56 88 108
57 90 115
54 85 99
54 86 108
53 85 97
60 91 102
76 98 74
101 119 45
94 110 40
105 120 18
102 116 0
110 126 0
110 123 0
105 121 0
111 126 0
105 120 0
109 125 0
108 123 0
102 120 0
107 124 0
121 137 0
113 129 0
114 131 0
120 137 0
124 140 0
118 134 0
125 141 0
123 139 0
119 135 0
114 134 0
113 128 0
123 139 0
125 140 0
123 138 0
124 141 0
130 147 0
131 146 0
134 150 0
116 132 0
131 147 0
143 160 0
133 151 0
122 140 0
132 151 0
133 149 0
137 154 0
128 145 0
132 149 0
131 150 0
133 150 0
132 148 0
138 155 0
133 151 0
132 149 0
140 158 0
136 153 0
139 157 0
141 158 0
142 159 0
133 150 0
144 162 0
136 153 0
140 158 0
135 152 0
145 162 0
145 163 0
140 156 0
145 161 0
132 148 0
147 163 0
143 161 0
157 176 0
138 155 0
138 154 0
142 160 0
136 154 0
143 161 0
144 161 0
142 158 0
145 160 0
149 166 0
142 161 0
149 165 0
152 169 0
150 165 0
141 157 0
145 161 0
149 167 0
150 168 0
146 160 0
152 168 0
143 159 0
155 173 0
146 163 0
146 162 0
152 168 0
152 169 0
149 166 0
151 166 0
141 158 0
151 168 0
150 166 0
144 160 0
153 171 0
149 167 0
155 174 0
152 169 0
154 173 0
152 170 0
156 174 0
158 176 0
154 171 0
158 178 0
160 178 0
153 172 0
154 171 0
150 167 0
155 172 0
150 167 0
154 171 0
158 176 0
154 174 0
151 168 0
147 164 0
153 171 0
159 177 0
151 170 0
160 177 0
158 177 0
152 168 0
159 177 0
152 168 0
150 169 0
157 175 0
156 176 0
159 179 0
156 175 0
156 174 0
154 172 0
160 178 0
155 174 0
160 179 0
161 178 0
164 186 0
164 182 0
156 175 0
158 178 0
163 181 0
163 180 0
161 181 0
162 181 0
165 185 0
159 176 0
161 178 0
159 176 0
166 185 0
161 180 0
165 185 0
158 178 0
162 181 0
164 185 0
161 182 0
161 180 0
164 184 0
163 182 0
160 178 0
163 181 0
165 185 0
166 186 0
162 181 0
163 182 0
163 182 0
162 184 0
166 188 0
165 186 0
160 180 0
172 196 76
170 194 72
170 194 76
168 193 88
166 191 62
169 193 67
169 193 76
171 195 76
170 196 80
170 195 76
171 194 62
164 187 72
168 193 67
164 188 80
173 197 84
169 193 84
167 191 67
170 194 80
167 193 72
168 193 80
169 193 67
166 189 57
168 193 62
170 194 72
166 190 80
170 195 72
168 193 72
168 193 72
168 192 80
162 186 76
167 192 76
166 189 72
159 182 62
166 190 84
164 189 88
171 195 76
160 184 72
163 187 76
161 185 84
169 193 88
166 190 76
161 185 72
166 190 76
164 188 84
168 191 76
158 182 57
166 189 62
166 189 76
167 191 102
169 192 80
156 179 62
166 189 67
161 184 72
160 183 57
164 188 102
168 192 120
162 186 84
157 180 62
168 192 72
165 188 72
170 193 99
166 190 99
162 185 62
157 181 76
161 185 84
157 180 72
163 187 80
163 187 72
161 184 62
162 185 72
155 178 57
165 189 84
156 179 80
158 181 92
155 178 92
158 180 88
161 185 76
150 173 57
155 177 51
135 157 51
155 177 67
149 171 72
157 179 84
152 173 84
145 167 62
154 176 84
147 168 72
146 167 51
149 170 72
137 158 67
143 165 84
144 165 84
139 161 54
119 142 76
81 108 111
91 117 126
91 117 126
110 133 145
95 119 128
96 121 141
93 118 124
91 117 134
84 110 111
98 123 134
84 111 117
82 109 116
98 124 137
96 121 127
94 119 134
102 126 137
92 117 129
90 117 129
86 113 130
100 124 119
86 112 123
92 118 137
99 124 132
97 123 123
92 119 134
88 113 134
72 103 131
86 114 146
74 104 145
76 106 147
72 102 145
73 104 149
71 101 138
67 98 138
77 105 144
69 100 141
67 97 123
70 98 129
66 98 143
64 96 131
61 95 124
59 94 135
60 93 128
60 94 121
59 91 114
62 93 112
73 103 113
71 101 112
69 99 107
64 94 102
68 98 111
66 97 105
62 93 114
59 91 100
56 89 110
57 90 110
58 93 124
56 89 115
57 91 116
59 93 128
58 91 123
57 91 118
55 88 111
58 92 122
57 91 118
58 92 118
58 92 125
58 91 119
58 92 121
58 91 120
57 90 116
58 92 117
59 93 125
58 92 128
59 93 125
59 93 124
61 96 130
58 91 120
58 92 113
59 92 122
61 95 133
56 90 112
58 91 115
57 91 110
59 94 125
58 93 120
59 93 115
58 92 122
56 89 110
58 91 108
59 93 117
59 93 124
57 91 117
57 90 115
59 93 129
58 92 115
56 88 105
58 92 114
57 90 108
57 91 114
59 93 121
60 94 130
60 94 129
58 92 108
58 92 111
57 91 108
56 88 110
59 93 124
58 92 117
59 93 131
58 92 122
59 93 126
60 95 130
56 89 99
57 91 110
59 93 124
58 92 114
56 89 107
58 92 120
58 92 115
58 92 120
57 90 105
59 93 117
55 88 100
57 91 114
57 90 121
57 89 105
58 91 107
59 93 118
56 89 103
55 87 90
54 87 88
56 88 97
58 89 99
66 94 95
66 89 67
87 102 57
95 112 36
109 123 0
97 111 0
122 136 0
99 114 0
120 136 0
116 132 0
121 139 0
109 124 0
115 130 0
108 123 0
115 132 0
113 128 0
113 129 0
121 137 0
107 123 0
109 125 0
119 135 0
123 138 0
119 136 0
124 141 0
133 149 0
126 142 0
128 143 0
126 141 0
123 139 0
128 147 0
127 142 0
133 151 0
116 132 0
132 147 0
136 151 0
129 145 0
143 160 0
125 142 0
127 144 0
138 154 0
137 156 0
142 160 0
134 151 0
135 152 0
132 147 0
130 145 0
136 154 0
132 150 0
137 153 0
130 146 0
132 146 0
123 140 0
140 156 0
141 155 0
138 154 0
145 163 0
138 154 0
145 162 0
143 162 0
137 152 0
139 156 0
147 166 0
143 161 0
139 158 0
136 153 0
140 155 0
136 154 0
144 161 0
154 174 0
141 159 0
155 175 0
149 168 0
141 156 0
144 161 0
144 162 0
141 161 0
139 156 0
141 159 0
144 162 0
155 173 0
149 166 0
153 171 0
150 169 0
143 160 0
150 168 0
145 163 0
149 165 0
152 170 0
152 170 0
155 174 0
151 169 0
148 163 0
149 165 0
151 169 0
147 164 0
152 170 0
152 169 0
148 166 0
148 164 0
153 170 0
152 169 0
151 169 0
154 171 0
151 168 0
150 166 0
162 181 0
153 168 0
159 178 0
151 170 0
154 171 0
157 176 0
153 172 0
158 176 0
154 172 0
151 169 0
157 174 0
152 171 0
153 172 0
162 181 0
152 170 0
157 174 0
155 173 0
156 174 0
160 179 0
158 175 0
158 175 0
159 176 0
158 176 0
155 169 0
160 177 0
155 172 0
162 181 0
162 182 0
154 171 0
158 177 0
159 176 0
158 176 0
155 172 0
154 173 0
164 183 0
162 182 0
161 181 0
163 182 0
158 177 0
160 178 0
159 177 0
162 182 0
163 182 0
160 180 0
161 181 0
163 182 0
163 182 0
164 182 0
163 182 0
163 184 0
162 182 0
162 183 0
165 184 0
163 183 0
158 177 0
160 178 0
164 184 0
163 184 0
163 182 0
162 181 0
165 185 0
163 181 0
163 182 0
164 184 0
165 186 0
168 189 0
164 183 0
170 193 72
170 194 62
170 194 51
167 191 51
168 192 76
170 193 51
169 194 84
170 193 51
167 191 72
166 191 62
169 193 57
170 195 80
166 189 67
166 191 67
169 193 67
167 191 67
171 196 84
169 192 76
174 198 76
169 194 72
170 194 88
169 193 80
167 192 72
169 194 67
165 190 76
166 191 95
169 194 72
167 191 67
169 194 62
167 191 76
165 189 84
162 186 84
168 192 80
169 193 72
162 187 80
169 193 84
164 188 51
165 188 84
164 188 84
160 184 51
165 189 76
167 191 76
170 194 80
167 190 72
161 184 76
163 187 80
163 187 72
167 192 95
166 189 84
163 186 62
165 188 84
160 183 80
161 185 84
161 184 57
166 190 95
163 186 51
166 190 67
167 190 76
160 183 99
159 182 57
156 179 76
164 187 72
162 185 88
167 190 80
168 191 92
155 177 80
161 183 67
159 181 44
159 182 92
160 182 67
157 180 80
153 175 76
150 173 76
156 179 72
154 177 72
157 179 76
157 179 76
153 175 80
152 174 80
149 172 72
153 176 76
151 173 72
153 174 51
152 174 67
148 169 67
146 168 44
146 167 62
157 179 67
147 169 57
141 162 88
153 174 92
149 170 67
146 167 62
125 146 65
94 118 92
100 124 126
79 106 108
100 125 120
100 125 134
91 117 120
99 124 133
100 123 126
100 125 120
101 125 137
89 114 131
101 125 131
103 127 141
100 124 134
96 121 120
93 119 136
84 112 132
95 121 139
97 122 124
88 114 130
106 132 116
100 124 141
104 128 126
94 120 135
104 128 138
99 123 148
89 117 148
87 115 142
83 112 142
78 107 157
75 106 153
71 102 141
71 102 149
72 102 143
68 100 149
65 98 150
65 97 135
65 96 141
63 96 141
62 96 135
67 98 134
63 96 131
66 97 128
61 93 128
58 92 118
62 95 130
62 94 123
68 98 103
68 99 113
77 105 102
72 102 118
73 103 102
71 101 115
64 96 119
58 91 120
57 91 117
56 89 108
58 92 128
57 91 122
59 93 126
58 92 124
58 91 114
57 91 116
57 91 117
56 89 113
58 91 116
58 92 114
58 92 115
59 93 123
57 90 124
57 91 119
58 91 110
58 91 118
58 92 114
59 93 122
57 89 114
57 91 116
57 90 111
57 91 118
58 92 124
56 89 105
58 92 129
58 92 126
58 92 122
58 92 121
60 95 125
60 95 126
56 88 117
59 93 107
57 90 123
55 88 107
59 93 134
58 91 114
58 91 122
56 89 115
56 90 107
57 91 124
58 92 122
57 91 110
58 92 128
58 92 122
59 93 122
58 92 120
57 91 111
56 90 115
56 89 114
60 94 128
58 92 122
57 90 113
57 90 107
56 88 111
58 92 111
58 91 115
57 91 111
58 91 113
58 93 124
58 91 113
56 89 105
58 91 115
56 90 107
57 90 103
56 88 107
56 88 110
57 90 110
56 89 113
57 91 103
58 91 103
56 89 103
55 87 100
56 88 103
53 85 82
53 85 97
60 89 99
82 104 72
91 110 67
98 113 36
101 117 0
116 130 0
97 111 0
105 119 0
111 127 0
109 125 0
111 126 0
109 125 0
119 133 0
105 121 0
108 124 0
113 126 0
114 131 0
124 140 0
114 130 0
126 142 0
116 130 0
113 127 0
128 145 0
129 145 0
127 142 0
118 133 0
120 137 0
127 143 0
116 134 0
126 143 0
131 150 0
128 145 0
130 147 0
128 145 0
127 144 0
135 153 0
129 148 0
134 150 0
131 149 0
129 145 0
127 142 0
138 156 0
130 145 0
138 155 0
135 153 0
132 148 0
133 152 0
130 146 0
145 162 0
143 160 0
142 158 0
131 148 0
141 157 0
147 165 0
136 152 0
135 150 0
147 162 0
147 166 0
143 160 0
137 154 0
137 154 0
143 161 0
134 153 0
135 154 0
145 163 0
138 155 0
136 152 0
138 155 0
149 168 0
152 170 0
136 153 0
149 168 0
144 160 0
147 165 0
147 162 0
140 156 0
138 155 0
151 168 0
147 164 0
141 161 0
144 159 0
143 161 0
138 154 0
148 166 0
151 168 0
146 164 0
139 157 0
145 162 0
153 170 0
157 174 0
157 174 0
145 162 0
143 161 0
153 171 0
151 167 0
148 166 0
155 176 0
144 163 0
142 157 0
149 167 0
153 169 0
148 165 0
152 171 0
152 171 0
156 173 0
152 169 0
151 169 0
157 174 0
153 169 0
153 171 0
149 165 0
158 177 0
157 175 0
156 174 0
162 180 0
157 177 0
159 178 0
157 174 0
158 176 0
156 176 0
156 175 0
155 173 0
158 179 0
159 178 0
156 174 0
148 167 0
158 177 0
159 176 0
157 175 0
162 181 0
161 179 0
155 172 0
155 172 0
159 178 0
160 178 0
162 181 0
152 171 0
155 173 0
153 172 0
163 183 0
161 181 0
158 176 0
161 178 0
160 179 0
161 179 0
161 180 0
159 178 0
166 184 0
159 179 0
160 178 0
161 180 0
166 187 0
162 181 0
160 179 0
162 182 0
163 183 0
163 184 0
159 179 0
161 178 0
164 185 0
166 186 0
161 180 0
160 180 0
165 185 0
162 181 0
166 186 0
163 183 0
165 186 0
164 184 0
159 179 0
166 186 0
166 187 0
161 179 0
165 184 0
166 191 76
173 197 76
171 195 76
171 194 67
172 195 62
168 191 57
170 194 62
169 194 57
169 193 84
174 198 80
173 198 95
173 197 92
170 195 57
169 193 76
168 191 51
172 196 76
171 196 76
169 193 67
167 192 67
169 194 76
170 195 88
170 194 95
165 190 62
166 190 51
167 191 72
165 189 84
170 195 84
168 192 67
162 186 80
168 192 88
167 191 57
171 194 80
167 191 92
165 189 84
172 195 67
171 195 72
169 192 72
165 189 62
172 195 84
163 187 72
166 190 57
168 192 76
164 188 95
164 187 62
167 191 80
169 193 80
168 192 67
167 191 99
165 190 88
163 186 80
164 187 88
162 185 57
164 187 80
168 192 99
169 194 95
158 181 84
161 184 72
160 185 92
166 189 92
166 189 95
161 184 88
158 181 95
161 184 72
162 186 76
164 187 88
155 178 88
158 182 80
158 182 88
158 181 80
158 182 88
158 181 76
154 177 80
165 187 102
156 179 72
163 186 99
157 180 76
153 176 95
155 177 84
159 183 80
154 177 80
151 173 76
154 177 80
156 178 80
154 176 80
149 171 84
146 168 36
155 176 67
143 165 67
151 173 62
146 167 80
146 167 95
138 159 67
148 170 88
138 158 51
135 156 82
96 120 90
93 119 120
100 125 126
97 122 120
93 120 131
100 125 131
105 129 148
92 116 128
100 124 130
101 126 138
90 116 128
98 122 142
106 129 144
105 129 128
88 115 116
105 130 139
95 121 115
88 116 131
96 121 116
102 127 124
99 124 134
96 121 132
97 122 125
95 121 135
97 122 125
88 116 149
98 123 155
77 106 148
83 111 144
90 117 149
72 102 147
82 110 145
77 105 133
71 100 138
68 101 149
71 99 135
61 95 135
60 94 133
61 93 122
63 96 136
61 94 129
64 96 133
67 98 126
61 94 127
63 95 115
69 100 122
71 100 115
63 95 110
74 102 105
77 104 95
68 99 119
67 97 95
64 95 110
57 90 106
55 87 107
58 91 126
58 91 120
56 89 109
57 90 102
57 91 110
57 90 115
57 90 107
58 91 118
57 90 118
57 91 110
56 89 107
56 90 107
58 92 114
57 91 125
59 93 129
60 95 128
59 93 113
58 91 113
58 92 115
59 92 111
57 90 114
56 89 102
58 92 117
58 92 130
57 90 113
58 91 124
59 93 126
58 92 117
58 92 118
58 93 121
59 93 120
58 92 121
57 91 114
57 91 115
58 91 108
58 92 120
59 94 128
57 90 111
57 91 114
57 90 114
57 90 113
58 92 114
58 92 121
57 90 94
56 89 110
59 94 131
56 89 114
57 90 111
58 91 113
58 93 115
55 88 101
58 92 121
57 90 105
58 92 120
58 91 110
56 88 110
57 90 108
58 91 115
56 89 95
57 90 108
56 88 105
56 89 100
57 90 110
57 90 108
58 91 115
56 89 105
57 90 110
56 89 105
56 89 113
56 89 105
53 85 90
55 87 97
56 88 103
55 88 99
54 86 97
59 88 95
82 103 74
86 103 65
92 106 18
97 111 0
106 121 0
102 116 0
120 135 0
115 132 0
117 132 0
99 114 0
119 134 0
106 123 0
122 138 0
123 138 0
114 130 0
115 131 0
114 128 0
114 131 0
121 138 0
131 147 0
109 124 0
116 132 0
115 130 0
122 138 0
119 136 0
116 131 0
119 137 0
126 140 0
124 138 0
124 140 0
123 141 0
124 142 0
123 141 0
120 136 0
134 151 0
137 154 0
123 138 0
133 151 0
135 151 0
135 153 0
138 156 0
129 144 0
135 151 0
127 144 0
133 150 0
135 151 0
139 157 0
141 160 0
131 148 0
136 151 0
137 153 0
142 156 0
138 156 0
136 154 0
138 157 0
139 154 0
139 155 0
146 162 0
141 158 0
151 171 0
140 159 0
140 158 0
143 159 0
143 160 0
144 163 0
143 158 0
145 163 0
146 163 0
142 162 0
147 164 0
141 159 0
147 163 0
134 152 0
142 161 0
151 170 0
146 163 0
148 165 0
144 161 0
152 167 0
153 170 0
147 163 0
147 164 0
147 164 0
154 173 0
152 169 0
146 163 0
142 161 0
146 163 0
146 162 0
154 172 0
152 171 0
141 159 0
147 166 0
152 169 0
153 171 0
151 168 0
145 164 0
157 175 0
162 178 0
156 175 0
151 168 0
151 171 0
153 169 0
147 164 0
152 171 0
152 170 0
155 171 0
156 172 0
145 163 0
151 169 0
159 177 0
152 170 0
153 169 0
157 176 0
157 174 0
160 176 0
155 173 0
158 178 0
152 169 0
157 173 0
158 177 0
157 174 0
152 171 0
154 174 0
157 176 0
158 177 0
156 174 0
161 178 0
161 179 0
162 181 0
156 174 0
162 179 0
155 173 0
154 172 0
157 176 0
162 181 0
157 175 0
160 179 0
161 179 0
161 180 0
164 183 0
158 176 0
162 177 0
160 178 0
161 182 0
157 175 0
157 178 0
159 176 0
162 182 0
161 181 0
164 185 0
161 181 0
162 181 0
158 177 0
162 181 0
162 181 0
154 171 0
160 178 0
163 183 0
160 177 0
162 181 0
161 181 0
166 186 0
167 187 0
161 180 0
162 180 0
166 185 0
165 185 0
165 185 0
169 188 0
165 187 0
162 181 0
166 188 0
167 187 0
169 193 67
170 193 44
172 197 62
172 195 80
170 194 72
167 191 67
169 192 57
168 192 67
173 198 88
168 192 57
174 198 76
168 193 84
166 191 80
168 193 57
168 192 62
168 192 72
169 193 67
170 193 84
169 194 62
168 192 67
168 192 76
166 191 84
165 189 76
171 195 76
167 192 57
167 191 62
168 192 62
172 197 102
167 191 84
170 194 88
169 193 67
169 194 88
164 188 84
163 188 62
169 194 111
165 189 84
167 191 84
167 192 84
169 192 95
169 193 72
164 189 88
161 185 95
168 193 95
168 192 76
168 192 84
166 189 80
159 182 84
170 193 92
165 189 88
165 189 92
165 188 88
164 187 88
167 189 84
159 182 76
164 187 80
161 185 102
167 191 88
171 194 102
158 181 76
163 186 88
159 182 99
154 177 67
167 190 108
160 182 76
169 192 84
161 185 95
159 181 76
163 186 62
155 177 76
156 178 84
162 185 99
157 180 72
148 170 62
156 179 80
152 173 80
154 177 44
148 169 76
150 172 62
159 182 88
149 172 76
152 174 76
155 177 67
152 174 72
151 173 88
153 175 67
154 176 80
143 166 62
152 175 57
145 166 84
144 165 62
130 151 57
152 173 84
149 170 102
141 161 62
136 156 62
125 146 70
97 122 105
82 108 101
97 121 120
89 114 113
83 110 109
83 109 110
77 105 120
74 102 93
82 107 111
87 114 118
90 115 122
103 127 131
101 125 137
102 125 117
93 117 134
99 123 137
104 128 125
101 125 129
102 127 131
90 117 133
95 120 126
81 108 113
107 130 145
93 119 122
100 125 140
90 118 145
66 98 138
84 113 149
89 115 147
80 108 138
79 109 153
68 99 137
62 95 138
73 103 134
71 101 140
71 100 136
62 96 141
69 98 133
66 97 127
64 95 126
67 98 124
64 93 117
58 93 128
63 96 128
63 96 124
73 102 108
73 102 103
72 102 117
75 103 110
67 97 102
84 111 108
58 90 113
61 94 124
56 89 99
57 90 104
58 92 110
59 93 129
56 89 109
58 91 108
58 92 123
57 90 103
58 92 113
56 90 110
57 90 113
55 88 99
57 90 114
56 90 112
58 91 113
58 92 121
59 92 118
58 92 115
58 93 124
57 90 108
58 91 113
57 90 117
58 92 117
58 91 111
60 94 124
58 92 124
59 94 122
58 92 120
59 92 120
58 92 114
58 92 128
58 92 122
58 91 114
58 92 117
59 93 120
58 91 114
58 92 115
60 94 128
57 91 113
58 91 118
58 92 113
58 92 117
58 91 102
57 91 114
60 94 126
57 90 108
57 91 113
58 92 122
57 90 113
57 90 113
57 90 105
57 90 108
59 93 125
59 92 125
55 88 102
57 89 108
56 89 114
57 90 114
58 91 117
56 88 103
55 88 99
58 91 118
58 91 117
56 89 105
57 91 118
59 93 117
56 89 114
54 87 94
55 87 103
57 90 110
56 88 110
55 87 103
55 87 95
57 89 100
62 91 105
70 96 90
75 96 67
94 110 44
104 120 18
108 121 0
95 109 0
105 119 0
104 120 0
102 118 0
110 125 0
112 126 0
116 133 0
109 125 0
119 134 0
119 135 0
115 132 0
110 127 0
114 131 0
112 128 0
110 127 0
114 129 0
115 131 0
112 129 0
122 136 0
119 137 0
123 139 0
110 126 0
124 141 0
131 146 0
132 151 0
132 150 0
134 151 0
117 135 0
127 145 0
127 145 0
131 148 0
141 160 0
129 145 0
130 148 0
131 147 0
124 141 0
139 158 0
128 144 0
143 161 0
145 164 0
123 139 0
134 152 0
134 150 0
138 153 0
120 135 0
133 152 0
131 148 0
134 150 0
129 144 0
133 150 0
136 154 0
136 154 0
145 163 0
137 153 0
145 162 0
143 162 0
151 170 0
139 158 0
147 166 0
149 166 0
144 163 0
134 151 0
143 161 0
135 154 0
146 163 0
146 163 0
143 161 0
143 160 0
141 160 0
153 170 0
151 171 0
147 167 0
147 165 0
150 168 0
145 162 0
143 163 0
142 160 0
143 160 0
142 159 0
145 163 0
146 164 0
141 159 0
148 167 0
148 166 0
140 160 0
152 171 0
153 172 0
153 170 0
151 168 0
144 162 0
149 168 0
144 161 0
151 169 0
145 163 0
159 179 0
154 170 0
153 171 0
146 163 0
142 160 0
151 167 0
155 174 0
153 171 0
145 161 0
152 166 0
152 170 0
155 175 0
149 166 0
154 172 0
152 169 0
152 171 0
155 172 0
159 175 0
161 181 0
152 169 0
154 174 0
161 182 0
154 173 0
155 171 0
156 175 0
153 171 0
154 172 0
156 173 0
158 178 0
159 178 0
161 180 0
154 174 0
158 176 0
162 180 0
156 173 0
155 174 0
162 182 0
157 176 0
156 174 0
161 182 0
161 179 0
159 178 0
156 176 0
164 182 0
152 172 0
157 176 0
160 179 0
163 181 0
156 173 0
160 179 0
160 179 0
164 185 0
160 181 0
160 178 0
161 181 0
160 182 0
163 184 0
163 182 0
162 181 0
165 183 0
166 186 0
160 181 0
162 181 0
166 186 0
163 183 0
164 183 0
161 181 0
169 189 0
164 184 0
161 180 0
163 183 0
165 185 0
168 189 0
164 184 0
166 186 0
162 180 0
165 185 0
170 194 62
171 196 57
169 193 51
168 192 44
164 187 57
171 195 76
170 194 51
172 196 88
170 194 80
171 194 72
171 195 72
166 192 92
170 194 67
166 191 67
167 193 84
171 196 80
165 190 80
166 189 76
172 196 88
170 194 76
166 190 76
170 194 84
167 192 88
168 192 76
171 195 99
167 191 62
168 192 72
168 193 80
167 191 84
171 195 67
167 191 72
165 188 67
169 193 72
170 193 72
166 190 72
165 189 84
169 193 76
167 191 72
164 188 84
165 188 76
165 189 99
169 193 102
169 192 72
170 193 88
162 185 62
171 195 99
172 195 102
167 191 80
166 190 84
169 192 92
166 188 80
164 186 76
169 191 84
166 189 84
160 182 76
167 189 76
164 186 95
163 186 108
164 188 76
161 183 95
166 189 92
164 187 99
162 185 80
164 187 84
166 188 76
154 177 80
154 177 67
161 184 92
159 181 88
157 179 84
162 185 80
156 178 57
165 188 105
154 176 67
158 180 76
159 180 95
159 182 80
157 179 67
149 171 80
150 172 76
148 170 62
153 175 70
147 169 76
148 170 72
154 175 92
148 170 76
151 172 67
145 166 57
145 167 74
149 171 88
142 164 82
150 171 84
132 152 51
146 167 67
136 156 84
138 158 57
128 149 95
93 116 92
89 114 114
75 101 101
88 113 114
91 116 121
77 105 110
89 114 120
101 126 135
82 109 120
89 116 120
94 118 122
99 125 133
95 120 128
98 122 128
107 131 136
88 113 121
92 117 115
100 125 126
97 122 120
98 122 114
93 118 127
93 118 120
99 125 127
101 127 144
85 113 137
87 114 125
84 111 131
77 107 152
79 107 145
73 103 141
76 104 133
63 96 143
66 97 131
73 102 135
69 98 125
62 93 124
64 96 124
67 98 131
63 96 132
62 93 125
64 96 115
67 99 123
61 93 111
64 96 122
72 102 118
66 97 111
70 99 99
80 108 108
78 106 101
69 99 103
61 91 88
60 93 111
56 89 107
56 89 108
57 91 113
57 90 95
57 91 113
56 89 110
58 91 117
59 93 130
56 89 104
58 91 113
57 90 111
55 88 94
58 92 120
57 91 113
59 93 124
59 93 133
58 92 115
57 91 113
57 90 118
59 93 120
57 90 111
57 90 114
57 91 115
58 92 113
56 90 110
59 93 120
57 91 110
58 91 120
58 91 120
58 92 125
59 93 130
58 92 122
58 93 120
57 91 105
58 91 117
56 89 100
58 92 120
57 91 103
57 91 108
59 93 128
57 90 117
57 90 107
57 91 117
58 93 124
57 91 111
58 92 113
59 92 126
58 91 114
56 89 110
58 91 118
59 93 117
58 91 117
57 90 111
58 92 118
57 90 105
57 90 108
57 90 117
57 90 111
55 87 103
57 90 115
56 89 111
56 89 105
57 90 105
56 88 110
56 89 100
58 92 114
57 90 95
57 90 113
58 91 115
54 86 80
56 88 110
56 88 102
52 83 86
65 94 86
73 96 74
88 107 72
91 107 44
110 124 18
113 128 0
100 116 0
106 118 0
105 120 0
104 116 0
106 122 0
101 115 0
113 129 0
113 129 0
115 131 0
104 122 0
113 130 0
119 136 0
107 124 0
107 123 0
114 131 0
129 147 0
127 144 0
121 139 0
122 140 0
127 145 0
130 147 0
137 154 0
108 126 0
125 142 0
130 147 0
126 145 0
124 140 0
134 153 0
133 151 0
126 143 0
133 151 0
123 141 0
137 156 0
122 141 0
130 148 0
132 152 0
129 146 0
134 151 0
137 156 0
138 154 0
129 147 0
136 153 0
135 152 0
140 158 0
137 153 0
140 159 0
142 161 0
136 154 0
141 159 0
135 153 0
141 157 0
143 162 0
140 159 0
141 160 0
135 154 0
143 159 0
141 160 0
137 157 0
140 158 0
149 166 0
146 163 0
144 162 0
141 158 0
144 159 0
146 164 0
134 152 0
148 165 0
142 158 0
154 173 0
150 170 0
150 168 0
145 163 0
146 164 0
151 171 0
150 169 0
145 162 0
143 161 0
149 166 0
151 169 0
154 173 0
147 164 0
148 165 0
148 164 0
147 164 0
147 165 0
149 167 0
151 168 0
151 171 0
153 171 0
156 178 0
140 159 0
152 168 0
146 163 0
151 169 0
150 167 0
157 174 0
151 168 0
151 167 0
146 162 0
152 170 0
152 170 0
154 173 0
157 174 0
162 181 0
158 178 0
151 171 0
152 170 0
157 176 0
158 174 0
153 171 0
158 177 0
155 173 0
153 170 0
159 176 0
155 173 0
151 168 0
157 176 0
157 177 0
161 179 0
160 180 0
158 178 0
160 179 0
163 182 0
158 176 0
149 167 0
149 165 0
160 180 0
156 174 0
156 174 0
158 176 0
162 181 0
157 176 0
157 174 0
157 175 0
160 178 0
162 181 0
159 178 0
159 176 0
165 184 0
158 174 0
159 176 0
164 183 0
162 183 0
159 177 0
166 187 0
161 179 0
156 173 0
166 185 0
161 182 0
162 181 0
161 180 0
162 183 0
163 183 0
167 187 0
163 185 0
159 179 0
162 180 0
157 175 0
160 181 0
166 185 0
170 190 0
157 176 0
162 181 0
159 177 0
165 187 0
167 188 0
163 183 0
161 181 0
165 186 0
163 184 0
166 187 0
167 187 0
169 193 44
172 196 80
168 192 62
170 194 80
169 193 62
166 190 57
168 193 88
167 192 67
169 194 76
170 194 84
169 194 72
167 192 67
164 188 62
171 195 80
164 188 72
166 191 72
169 193 67
163 188 76
171 195 88
169 193 80
168 192 99
172 196 95
168 191 84
167 192 80
169 192 57
171 195 92
165 190 84
163 187 67
173 195 88
169 192 76
164 188 92
166 190 84
175 198 99
168 192 102
166 189 105
160 183 80
168 192 88
174 197 114
169 193 105
169 192 76
167 190 84
168 191 80
167 190 92
164 188 102
172 196 114
173 196 84
166 188 114
157 181 95
164 187 95
161 185 84
168 192 102
168 191 99
170 193 92
167 190 102
167 190 111
160 184 84
165 188 72
162 185 99
170 193 92
165 188 95
162 184 95
164 187 80
166 189 95
160 183 92
165 188 102
155 177 67
159 181 92
156 180 95
159 182 92
158 180 84
154 176 84
161 184 76
154 176 44
157 179 88
155 177 88
158 180 80
153 175 92
151 174 80
160 182 72
152 173 76
154 176 62
157 179 84
151 172 67
159 181 84
149 171 72
144 166 84
146 168 76
148 170 92
145 167 84
142 164 57
140 162 62
138 159 57
155 177 88
142 163 51
134 154 57
135 156 67
137 155 80
120 141 74
86 111 97
92 118 113
87 112 122
94 120 115
83 109 115
83 108 110
97 122 131
96 120 112
101 125 122
91 116 121
90 116 122
92 117 117
106 130 126
107 130 129
103 126 125
93 120 125
100 125 127
95 120 110
106 130 137
100 125 127
106 131 129
99 124 130
92 118 117
86 112 125
91 117 140
86 113 150
83 110 136
66 98 136
77 106 147
71 101 139
68 99 144
79 107 136
68 100 139
77 105 141
64 95 121
70 100 132
67 96 121
59 93 128
65 97 125
70 100 123
64 95 124
64 96 113
63 96 135
68 98 115
66 95 112
80 108 99
74 103 107
74 102 102
67 97 107
72 101 107
60 91 95
55 88 103
56 89 107
57 90 120
57 89 105
56 89 108
57 90 108
57 90 107
57 90 120
55 87 95
57 91 114
55 88 110
57 91 113
57 90 112
57 91 107
57 90 118
57 90 115
57 91 103
56 88 116
57 90 114
58 92 122
58 92 108
58 92 117
59 92 118
57 90 105
57 90 118
57 91 113
58 92 115
57 91 107
57 90 113
56 89 115
56 90 114
59 92 117
56 89 110
60 93 129
57 91 120
57 91 113
56 90 114
58 92 117
57 91 122
58 92 120
56 89 118
58 91 126
57 91 111
58 91 118
58 92 114
58 92 113
57 90 105
57 90 121
57 90 110
57 90 113
57 90 103
56 89 100
56 89 100
58 91 107
55 88 110
55 88 113
57 90 114
58 91 117
56 89 110
57 89 110
57 90 108
55 88 99
56 88 107
54 87 102
58 91 117
55 88 99
55 87 100
55 87 103
56 88 103
56 88 95
58 88 92
59 88 82
64 88 82
70 91 51
94 111 31
105 121 0
92 107 0
93 107 0
99 113 0
88 104 0
92 106 0
101 116 0
106 124 0
117 132 0
113 127 0
111 127 0
112 127 0
112 128 0
120 136 0
111 126 0
117 133 0
110 127 0
105 121 0
113 129 0
114 129 0
129 147 0
127 145 0
122 139 0
133 149 0
112 128 0
118 137 0
120 135 0
123 138 0
125 141 0
134 154 0
121 138 0
131 148 0
133 151 0
123 142 0
122 137 0
123 139 0
123 140 0
133 152 0
133 149 0
131 150 0
138 156 0
127 143 0
122 138 0
134 151 0
133 152 0
144 163 0
135 152 0
133 151 0
134 150 0
137 157 0
140 158 0
132 149 0
137 153 0
137 155 0
143 162 0
135 153 0
139 156 0
147 167 0
140 157 0
143 162 0
138 157 0
145 164 0
138 155 0
148 165 0
139 157 0
144 162 0
138 156 0
141 160 0
132 148 0
143 161 0
149 168 0
147 166 0
146 164 0
143 160 0
147 166 0
142 158 0
151 170 0
148 166 0
153 172 0
150 169 0
150 169 0
140 158 0
147 167 0
145 164 0
143 162 0
145 162 0
142 157 0
153 172 0
147 163 0
153 171 0
155 173 0
155 173 0
142 161 0
152 171 0
147 166 0
153 171 0
148 168 0
156 174 0
157 175 0
157 177 0
159 178 0
154 170 0
156 175 0
152 171 0
152 171 0
158 175 0
147 166 0
160 179 0
153 172 0
153 172 0
150 169 0
156 175 0
157 177 0
160 181 0
156 174 0
163 181 0
157 175 0
157 176 0
159 179 0
162 181 0
160 180 0
165 183 0
160 178 0
154 172 0
157 177 0
156 174 0
160 177 0
158 178 0
160 178 0
154 173 0
159 178 0
156 174 0
156 177 0
164 185 0
153 171 0
158 177 0
155 174 0
159 179 0
158 178 0
161 178 0
159 178 0
162 183 0
161 180 0
163 183 0
162 180 0
163 184 0
159 177 0
161 180 0
165 184 0
160 178 0
160 179 0
162 182 0
162 180 0
161 180 0
159 179 0
161 180 0
160 181 0
161 181 0
160 179 0
165 185 0
162 183 0
162 184 0
166 187 0
159 177 0
161 180 0
167 188 0
161 180 0
157 176 0
165 186 0
162 182 0
164 184 0
162 183 0
166 184 0
165 185 0
164 185 0
163 183 0
168 193 92
175 199 92
170 195 62
168 192 62
168 192 84
171 196 67
168 191 67
172 196 84
167 191 57
168 193 67
171 195 80
168 193 80
166 190 76
167 191 62
168 192 72
168 192 72
166 189 36
167 192 76
166 190 88
173 197 67
170 193 72
167 191 57
168 192 95
163 187 84
166 191 67
167 191 72
170 193 67
165 189 88
166 191 72
164 188 76
169 194 95
171 194 80
166 190 72
171 194 88
166 190 95
168 191 72
164 188 80
164 187 95
161 185 62
163 187 92
174 198 92
166 189 67
165 189 92
171 193 111
175 198 114
167 190 99
164 188 95
168 191 92
165 188 102
166 189 92
169 193 84
170 194 117
170 193 105
171 195 88
169 191 95
166 189 99
166 189 108
163 186 88
157 180 95
164 187 99
166 189 114
156 179 80
166 189 80
159 182 92
159 182 92
160 182 99
158 181 99
163 186 105
156 179 95
159 181 76
163 186 108
160 182 99
158 181 99
157 180 80
160 183 67
156 177 92
159 181 72
145 167 62
148 170 62
150 172 76
148 171 94
147 169 67
146 168 72
160 181 95
151 172 84
154 175 72
150 171 84
143 164 57
149 170 57
147 168 95
153 173 80
141 163 67
150 170 80
142 163 76
145 165 84
150 171 67
145 166 76
131 150 74
122 143 86
103 126 117
87 112 114
92 117 107
88 113 114
90 116 125
89 114 112
81 108 102
100 124 125
92 117 117
94 118 118
99 123 121
104 127 142
92 117 120
98 123 138
99 124 117
84 110 112
87 113 118
91 115 110
94 119 128
96 121 116
102 126 128
102 125 127
93 118 127
89 116 130
91 116 136
79 108 137
78 108 145
83 110 144
81 107 140
71 102 140
68 99 134
71 101 132
70 99 119
65 96 121
70 100 135
71 100 121
60 92 121
64 94 123
64 95 103
62 93 115
60 92 115
57 89 105
59 91 115
80 109 114
73 102 96
76 104 107
71 100 94
74 101 90
59 91 107
61 93 100
60 92 113
56 89 107
58 91 108
56 89 105
56 89 113
55 87 92
57 90 103
57 90 111
60 94 123
56 88 102
57 90 111
55 88 103
57 90 115
57 91 120
57 90 115
58 91 120
56 89 113
58 92 108
58 92 121
58 91 120
57 89 114
58 92 120
58 92 117
57 90 110
59 93 134
59 92 121
58 92 110
58 91 117
58 92 120
58 91 120
59 93 115
57 91 110
56 89 113
58 91 108
56 89 95
57 90 107
58 92 115
58 91 113
60 94 121
55 88 97
57 91 108
56 89 110
57 91 107
57 90 117
58 92 114
58 92 118
57 91 108
58 92 118
57 91 107
57 90 103
57 90 107
58 91 113
55 88 105
56 88 107
55 88 102
55 88 97
55 87 95
58 91 110
57 90 103
56 89 95
56 89 105
56 89 105
55 87 88
55 87 94
55 88 95
55 86 110
53 84 86
52 83 86
56 89 99
54 85 92
67 92 84
76 96 76
84 102 54
110 124 18
108 124 0
96 113 0
117 133 0
104 119 0
96 112 0
98 114 0
109 124 0
110 124 0
108 124 0
115 131 0
115 131 0
117 133 0
115 130 0
102 117 0
116 133 0
109 125 0
116 132 0
118 134 0
126 143 0
123 140 0
127 144 0
116 133 0
123 141 0
118 133 0
124 142 0
123 140 0
117 134 0
121 139 0
128 144 0
127 144 0
118 136 0
135 152 0
126 143 0
131 149 0
127 144 0
127 146 0
132 150 0
129 145 0
132 148 0
134 152 0
132 151 0
132 148 0
134 152 0
131 148 0
124 139 0
126 142 0
137 156 0
137 154 0
132 149 0
134 153 0
141 160 0
139 157 0
126 144 0
142 162 0
133 151 0
130 146 0
136 153 0
133 151 0
140 158 0
134 150 0
135 151 0
144 163 0
150 169 0
143 161 0
142 159 0
148 167 0
146 164 0
145 164 0
138 156 0
147 167 0
141 158 0
141 160 0
150 167 0
146 165 0
144 162 0
138 153 0
147 165 0
144 160 0
150 168 0
153 170 0
150 167 0
144 160 0
150 171 0
143 160 0
150 168 0
146 163 0
141 160 0
146 163 0
149 166 0
159 177 0
145 164 0
152 169 0
145 163 0
155 174 0
157 175 0
149 168 0
157 177 0
156 173 0
149 170 0
156 175 0
147 164 0
153 171 0
149 168 0
154 173 0
147 165 0
153 171 0
153 173 0
152 169 0
160 179 0
157 174 0
156 173 0
149 167 0
152 171 0
149 168 0
153 171 0
155 172 0
155 174 0
155 173 0
160 179 0
158 178 0
153 170 0
155 174 0
162 181 0
162 180 0
160 179 0
162 182 0
157 176 0
154 173 0
158 176 0
151 170 0
156 174 0
161 181 0
156 174 0
162 183 0
161 180 0
155 174 0
159 179 0
163 184 0
163 182 0
161 180 0
154 172 0
161 178 0
161 180 0
158 177 0
161 181 0
162 182 0
164 185 0
164 185 0
165 187 0
166 185 0
163 182 0
162 182 0
168 188 0
164 185 0
167 187 0
155 174 0
157 176 0
160 181 0
160 181 0
166 185 0
165 186 0
163 182 0
168 187 0
158 178 0
162 183 0
159 179 0
166 187 0
158 177 0
162 184 0
164 186 0
162 182 0
163 184 0
163 184 0
165 183 0
164 185 0
159 180 0
164 184 0
166 190 57
174 198 92
168 193 72
168 191 88
168 192 72
166 191 57
169 192 51
171 194 72
169 193 72
167 192 72
168 193 72
165 190 67
171 195 57
165 188 72
168 192 84
169 194 72
169 193 76
167 191 80
166 189 76
168 192 92
168 192 67
166 190 84
174 197 88
171 195 95
173 197 105
169 193 102
172 196 80
160 184 84
169 193 84
167 191 95
170 194 84
174 198 105
167 191 102
170 193 92
168 192 88
167 189 76
168 193 99
168 192 102
167 190 84
169 191 76
169 193 95
167 191 88
169 193 114
165 187 108
167 192 92
171 193 102
170 193 102
164 188 111
168 191 92
162 186 88
169 192 102
171 193 108
163 186 105
165 189 95
166 189 102
170 192 108
159 183 76
166 189 117
168 191 88
169 191 111
166 188 92
171 193 117
163 185 102
161 184 102
167 188 99
161 184 84
158 181 95
161 183 80
158 180 99
150 172 80
158 181 92
160 182 111
163 185 99
159 180 80
158 181 92
157 179 84
159 182 99
156 178 76
144 166 95
144 166 67
155 177 80
157 178 84
149 170 80
155 178 76
152 173 80
149 170 76
147 168 76
154 176 80
151 172 72
145 166 57
151 173 80
148 169 72
144 165 84
142 162 67
140 160 62
141 162 84
142 163 72
136 155 72
142 162 95
100 121 80
95 118 118
93 117 119
103 126 118
96 120 120
93 116 114
83 108 113
99 125 133
99 123 125
102 125 124
93 118 123
99 123 131
100 125 126
100 124 120
91 117 122
97 122 114
105 127 128
110 133 132
103 126 122
109 132 129
103 127 115
94 119 118
104 127 135
90 116 118
87 114 137
79 108 126
86 114 143
76 105 120
84 110 134
77 105 135
76 105 129
76 104 131
65 97 122
67 99 137
64 96 138
64 94 119
66 96 119
60 94 122
61 94 122
60 93 122
65 96 111
62 93 110
69 99 113
65 95 110
82 109 100
69 98 100
67 97 106
82 109 97
61 92 95
60 90 98
56 89 107
58 90 99
53 85 92
56 89 107
55 88 108
54 86 103
56 89 100
57 90 107
56 89 95
56 89 115
57 90 113
54 86 88
56 89 97
57 90 117
58 91 111
57 91 114
56 90 100
57 91 110
57 90 103
58 91 120
57 91 110
57 90 108
58 91 117
57 90 108
57 90 103
58 91 114
58 92 117
57 91 107
57 90 107
57 91 110
58 91 103
56 88 108
56 90 100
59 92 113
59 92 111
58 92 113
56 90 113
57 89 108
57 90 105
56 89 103
58 91 113
58 92 114
57 90 110
57 90 100
56 89 115
57 90 103
56 89 105
57 91 113
56 89 99
55 88 103
58 91 115
56 89 107
55 88 107
54 86 100
55 88 97
57 90 110
57 90 103
55 87 97
56 89 105
56 90 97
56 89 94
54 85 105
51 83 72
56 89 103
56 88 108
53 84 84
56 88 97
59 90 90
62 88 78
70 92 65
73 93 62
71 86 36
108 123 0
103 118 0
108 121 0
99 116 0
94 109 0
109 123 0
105 121 0
116 131 0
100 116 0
110 125 0
106 121 0
106 122 0
115 131 0
116 133 0
116 130 0
120 135 0
107 124 0
116 132 0
114 129 0
117 133 0
110 127 0
110 126 0
131 148 0
119 135 0
119 138 0
122 137 0
125 142 0
125 142 0
117 133 0
130 146 0
113 129 0
128 147 0
135 152 0
114 133 0
138 156 0
130 148 0
129 146 0
130 149 0
135 152 0
127 144 0
116 133 0
128 146 0
124 141 0
136 154 0
131 148 0
139 158 0
134 152 0
137 157 0
139 159 0
142 162 0
143 161 0
135 151 0
135 151 0
135 152 0
141 161 0
140 159 0
143 159 0
141 159 0
137 156 0
134 152 0
134 153 0
146 164 0
142 161 0
146 165 0
139 158 0
136 154 0
139 158 0
138 156 0
140 159 0
133 149 0
140 159 0
137 155 0
143 160 0
148 166 0
144 162 0
141 158 0
148 169 0
148 165 0
143 161 0
143 160 0
146 162 0
144 161 0
145 161 0
150 168 0
146 165 0
151 170 0
152 171 0
155 174 0
144 162 0
146 162 0
145 164 0
152 170 0
149 168 0
147 164 0
145 162 0
145 163 0
152 170 0
149 168 0
144 162 0
150 167 0
154 170 0
152 170 0
157 178 0
157 177 0
155 171 0
153 170 0
146 163 0
158 177 0
155 173 0
149 168 0
160 177 0
157 175 0
150 167 0
151 170 0
159 177 0
159 179 0
156 174 0
156 176 0
157 175 0
158 175 0
155 175 0
162 182 0
157 174 0
154 171 0
155 172 0
161 180 0
158 176 0
155 173 0
161 182 0
151 168 0
162 181 0
157 176 0
164 184 0
162 181 0
155 174 0
154 172 0
160 180 0
156 174 0
158 176 0
165 182 0
161 180 0
162 179 0
156 175 0
158 175 0
162 182 0
161 180 0
161 181 0
160 176 0
165 185 0
161 179 0
161 179 0
165 184 0
162 182 0
163 183 0
162 181 0
163 182 0
162 182 0
168 189 0
160 181 0
162 182 0
166 185 0
161 181 0
163 183 0
162 182 0
160 181 0
165 187 0
161 181 0
166 187 0
169 189 0
166 187 0
162 182 0
161 180 0
167 189 0
166 187 0
160 180 0
160 181 0
159 179 0
166 186 0
162 181 0
167 191 44
171 195 57
170 194 84
169 193 57
173 196 44
171 195 72
171 196 67
168 193 76
169 193 67
163 187 67
167 191 67
167 192 67
174 198 88
170 195 57
168 191 76
165 190 84
163 188 92
164 188 57
166 189 51
167 192 95
172 197 102
171 194 88
170 193 84
167 192 92
168 193 84
169 193 88
164 188 99
172 196 108
175 198 105
168 191 80
170 194 88
167 189 84
170 195 105
167 191 92
167 190 88
167 191 88
168 191 88
165 189 92
168 191 80
164 187 80
171 194 95
172 196 99
166 190 88
166 188 72
164 188 76
169 193 95
162 186 80
168 192 114
166 189 102
167 190 102
163 186 99
165 187 120
165 188 102
162 185 92
168 191 92
163 186 88
169 193 84
169 191 99
159 182 108
164 186 95
161 184 92
166 188 92
154 176 95
164 187 111
165 188 92
163 185 80
157 180 99
161 184 92
159 182 105
159 181 105
154 177 76
161 183 105
156 177 108
158 180 92
155 177 92
156 178 92
160 182 105
153 176 88
155 178 84
154 176 80
148 170 72
160 181 105
155 177 88
153 174 80
153 175 105
147 168 76
148 169 88
150 172 88
144 165 76
147 168 72
148 168 62
142 163 51
141 162 80
146 167 88
138 158 51
137 157 67
138 158 67
130 149 72
139 159 57
128 147 51
117 138 95
87 112 110
97 120 110
77 104 111
88 114 107
85 111 104
90 116 118
84 110 112
95 119 119
101 125 127
92 116 119
92 116 126
98 122 126
96 121 133
85 110 109
102 127 124
98 123 128
103 127 121
108 131 124
95 120 117
90 115 120
93 119 125
83 112 131
88 114 127
73 101 112
77 106 136
73 102 134
86 110 132
76 103 127
77 106 133
69 100 126
67 98 126
68 99 115
72 102 130
65 96 117
67 97 120
65 95 114
67 96 120
58 92 114
60 92 113
60 92 110
72 101 99
74 103 119
82 108 108
75 102 97
74 101 88
73 102 114
71 99 94
73 101 91
63 94 98
57 89 94
55 87 90
58 92 120
55 88 84
54 86 94
58 91 110
56 89 100
58 91 110
56 89 99
56 90 100
56 89 105
55 88 102
55 88 95
57 91 110
58 92 118
56 89 108
55 88 103
58 92 111
55 87 105
56 90 114
57 90 113
54 87 92
55 88 110
56 88 103
57 91 105
54 87 102
55 88 113
59 93 114
58 91 117
57 90 111
57 91 113
55 88 92
56 89 107
58 92 115
55 87 95
58 92 108
55 88 94
56 88 105
57 90 110
58 91 117
57 89 115
56 89 110
56 89 95
56 88 110
56 89 107
57 90 107
58 91 117
57 90 113
56 90 102
57 90 107
56 89 107
55 88 100
55 87 99
53 85 86
56 88 82
54 86 97
56 89 102
55 88 105
54 87 86
56 89 107
53 85 94
55 87 105
53 85 90
55 87 90
56 86 95
61 89 86
78 100 72
68 88 57
86 101 44
105 120 0
103 117 0
92 107 0
93 107 0
90 105 0
89 105 0
108 123 0
108 123 0
110 127 0
102 117 0
104 119 0
113 129 0
116 130 0
101 117 0
118 134 0
117 134 0
111 128 0
114 129 0
116 131 0
115 133 0
122 138 0
110 125 0
124 142 0
115 133 0
113 130 0
119 137 0
129 146 0
128 144 0
113 130 0
128 147 0
130 148 0
127 143 0
130 148 0
131 149 0
134 153 0
126 141 0
123 141 0
125 141 0
124 144 0
132 149 0
126 144 0
122 140 0
139 159 0
125 143 0
132 150 0
134 153 0
136 154 0
133 151 0
129 148 0
135 154 0
141 161 0
137 155 0
127 146 0
131 146 0
135 154 0
139 156 0
141 159 0
134 151 0
149 169 0
141 161 0
134 153 0
136 154 0
140 159 0
136 155 0
138 157 0
145 163 0
135 153 0
138 155 0
138 156 0
151 171 0
145 165 0
139 156 0
147 164 0
142 160 0
147 166 0
148 166 0
140 157 0
140 160 0
147 166 0
146 164 0
146 165 0
154 173 0
151 171 0
146 165 0
153 171 0
150 169 0
148 166 0
151 170 0
152 170 0
144 162 0
146 162 0
151 169 0
155 174 0
147 165 0
148 164 0
144 162 0
152 170 0
148 166 0
151 171 0
150 170 0
157 176 0
149 167 0
149 170 0
142 161 0
155 173 0
150 169 0
152 171 0
156 175 0
156 176 0
161 179 0
160 178 0
148 168 0
149 166 0
151 170 0
157 178 0
152 173 0
152 171 0
159 180 0
155 175 0
158 176 0
159 178 0
151 170 0
156 175 0
162 181 0
154 171 0
155 172 0
163 186 0
154 172 0
158 177 0
164 184 0
156 175 0
156 177 0
156 174 0
157 177 0
158 175 0
161 181 0
156 175 0
162 181 0
156 174 0
158 178 0
157 177 0
156 175 0
159 178 0
165 183 0
158 178 0
164 183 0
159 179 0
162 182 0
163 183 0
162 183 0
159 178 0
160 180 0
161 182 0
162 182 0
154 172 0
162 182 0
164 183 0
158 179 0
165 185 0
156 175 0
163 181 0
161 181 0
167 186 0
163 182 0
164 185 0
165 185 0
165 187 0
166 187 0
165 185 0
162 182 0
159 177 0
166 186 0
160 179 0
166 186 0
167 188 0
162 181 0
167 187 0
166 187 0
163 184 0
166 186 0
168 188 0
168 192 57
172 195 44
171 195 88
172 195 62
170 194 84
171 195 84
172 196 92
171 195 62
167 192 88
168 192 76
167 191 76
168 193 84
166 190 72
167 192 80
170 194 88
166 190 72
171 196 84
170 195 88
170 195 95
167 191 84
171 195 92
171 194 92
168 191 84
169 193 67
166 190 88
169 192 99
174 199 114
172 195 102
170 194 88
167 191 84
165 188 88
172 195 92
172 195 102
172 195 95
168 191 76
167 190 99
171 194 80
169 191 99
173 195 105
166 191 99
166 189 92
164 188 57
170 192 108
166 190 80
162 185 84
165 188 76
170 192 108
161 183 84
167 191 84
171 194 114
163 186 99
171 193 105
164 186 99
163 187 88
160 182 102
161 185 80
168 191 117
158 181 105
169 192 108
162 185 111
168 191 99
159 182 92
163 184 99
159 181 102
160 183 84
159 181 108
164 186 88
161 184 92
162 184 95
167 189 99
157 180 111
165 186 117
167 189 117
162 184 95
160 181 108
158 180 114
162 184 72
158 179 102
155 177 88
148 170 84
149 170 80
158 179 99
160 181 117
153 175 76
151 172 76
150 171 84
152 174 92
148 169 72
156 178 84
142 162 62
153 173 84
143 164 57
138 159 57
142 163 72
134 154 80
141 162 76
142 162 76
137 157 84
132 151 67
144 164 88
135 154 67
101 122 78
106 129 120
95 119 108
83 108 113
99 123 121
90 114 115
97 121 128
100 123 117
94 119 135
87 112 101
88 115 128
96 119 122
86 112 107
100 123 137
93 118 123
95 119 117
109 131 131
92 117 117
85 112 124
97 123 114
97 122 107
91 117 130
89 115 123
85 113 140
86 111 128
82 109 127
84 108 127
76 104 137
74 99 125
71 103 141
66 98 115
68 99 133
67 99 129
63 91 117
61 94 117
62 94 125
64 93 111
68 99 125
64 96 115
64 94 95
67 95 100
65 96 95
83 109 105
69 96 84
76 104 106
76 103 84
72 101 114
69 98 102
65 95 92
58 91 109
54 87 90
55 87 99
56 88 98
57 89 103
54 86 94
55 88 97
55 87 97
55 88 99
56 88 95
55 88 99
55 87 118
57 90 111
58 91 110
56 89 95
57 90 102
55 88 102
55 86 102
55 88 102
57 90 113
58 92 126
55 88 105
59 92 118
54 86 97
57 90 95
56 90 106
55 88 108
58 91 111
56 89 107
56 89 114
58 91 120
56 89 92
56 89 103
58 91 111
58 91 108
57 91 110
56 88 97
56 89 103
56 88 97
57 91 110
56 89 95
54 86 94
54 85 100
56 88 95
55 87 94
56 89 105
56 89 110
56 89 90
53 85 90
57 90 113
56 89 102
55 87 88
56 89 110
56 88 105
56 89 107
54 86 88
54 85 84
53 84 97
53 84 82
54 86 95
55 87 113
52 83 84
53 85 90
65 92 74
67 91 70
72 92 57
81 98 18
107 122 25
93 108 0
90 103 0
92 107 0
105 120 0
110 125 0
101 116 0
91 106 0
94 110 0
107 125 0
115 132 0
109 125 0
112 127 0
94 110 0
116 134 0
111 128 0
103 116 0
115 132 0
118 134 0
123 140 0
114 131 0
113 129 0
108 125 0
131 150 0
119 135 0
117 135 0
117 135 0
112 129 0
117 134 0
120 138 0
112 129 0
128 146 0
129 147 0
121 137 0
133 151 0
124 143 0
131 148 0
135 153 0
127 144 0
130 149 0
132 148 0
131 149 0
127 143 0
124 143 0
130 147 0
126 144 0
138 155 0
139 156 0
134 153 0
134 151 0
128 146 0
137 156 0
121 137 0
136 154 0
133 152 0
143 162 0
133 152 0
138 156 0
134 151 0
141 160 0
132 151 0
134 153 0
134 153 0
149 168 0
137 155 0
141 159 0
141 160 0
134 153 0
142 161 0
139 159 0
143 162 0
148 168 0
142 163 0
145 166 0
141 160 0
146 165 0
147 167 0
151 169 0
144 163 0
142 160 0
155 172 0
151 169 0
142 160 0
155 175 0
152 171 0
153 173 0
151 170 0
148 167 0
153 172 0
147 166 0
144 162 0
147 169 0
154 172 0
148 167 0
152 171 0
145 163 0
153 172 0
150 169 0
151 170 0
153 173 0
151 169 0
146 162 0
155 175 0
158 174 0
150 169 0
156 175 0
147 165 0
157 178 0
157 177 0
157 175 0
155 173 0
152 171 0
163 181 0
156 176 0
156 173 0
157 175 0
152 170 0
152 169 0
158 176 0
159 179 0
152 170 0
153 170 0
155 174 0
161 180 0
159 179 0
156 174 0
158 176 0
156 174 0
155 174 0
154 172 0
160 179 0
157 178 0
155 174 0
165 184 0
153 172 0
158 177 0
153 173 0
155 172 0
158 178 0
160 179 0
154 174 0
159 179 0
161 181 0
161 181 0
163 182 0
159 179 0
156 175 0
157 178 0
162 182 0
163 183 0
163 184 0
163 183 0
161 182 0
162 181 0
159 177 0
162 181 0
161 180 0
167 187 0
160 181 0
163 184 0
164 182 0
163 185 0
162 182 0
166 183 0
163 185 0
161 180 0
161 181 0
165 185 0
165 185 0
165 187 0
163 184 0
164 185 0
166 187 0
163 183 0
159 179 0
164 184 0
164 184 0
164 185 0
164 185 0
167 187 0
166 188 0
162 183 0
162 182 0
172 197 84
169 192 72
171 196 80
170 194 72
168 192 57
168 193 62
172 196 62
169 193 76
167 191 92
166 191 72
170 193 76
172 196 88
172 195 84
170 193 76
170 195 92
174 197 84
168 192 84
170 194 88
173 196 80
169 192 67
168 192 84
169 194 88
172 196 95
171 194 99
166 190 62
171 195 108
165 189 76
168 192 92
170 194 88
166 189 67
170 194 117
168 193 80
175 199 99
166 189 84
169 193 95
172 195 102
165 188 84
169 193 108
166 189 76
170 192 72
164 186 84
165 188 99
164 187 80
168 192 92
168 191 92
165 188 95
169 192 99
171 193 102
166 190 108
167 191 108
165 188 84
164 187 108
159 183 72
167 190 114
157 181 95
158 181 88
169 192 108
160 182 92
164 187 111
167 190 105
158 181 80
168 190 108
165 187 102
165 187 95
161 184 108
161 183 108
161 183 88
152 174 72
155 177 80
159 182 88
158 181 67
164 186 105
159 181 95
152 174 88
161 182 111
155 177 84
157 177 111
166 187 105
157 179 108
162 183 114
156 177 108
154 176 57
167 189 130
152 174 92
144 165 80
159 181 84
147 168 88
149 170 99
142 163 62
151 173 67
146 166 84
141 161 72
134 156 36
138 159 76
143 163 62
139 160 62
136 156 72
141 161 67
135 154 88
133 152 67
132 150 76
128 146 60
124 143 97
98 120 102
95 118 125
101 124 122
76 104 103
92 116 105
95 117 114
92 117 124
90 114 113
93 117 113
109 131 125
98 122 108
104 128 111
109 131 118
104 129 141
108 131 134
97 122 111
91 118 125
102 125 115
102 126 121
88 114 106
98 121 128
88 113 129
93 117 124
82 107 123
86 111 115
86 113 133
81 108 137
77 105 120
74 103 122
73 101 128
68 99 130
69 98 117
67 99 122
65 95 105
66 96 108
64 94 102
72 100 113
72 99 108
73 102 115
67 96 92
75 102 100
73 101 90
69 96 84
73 99 95
80 107 83
69 98 92
61 91 92
61 93 103
57 89 82
55 87 94
54 85 89
54 86 106
55 88 107
56 89 95
54 86 92
54 85 99
56 89 110
55 86 88
57 91 115
58 92 111
56 89 106
59 92 118
57 91 108
56 88 112
54 87 101
57 90 108
57 90 95
58 91 110
56 89 114
56 88 107
56 90 105
57 90 107
56 89 107
57 91 114
56 88 111
56 88 105
56 89 99
57 89 110
54 86 86
56 89 102
56 89 100
56 89 99
57 91 102
55 88 97
56 88 102
58 91 107
54 86 107
56 89 94
56 89 110
53 85 100
57 90 108
54 87 92
53 86 95
55 88 97
56 88 108
56 89 95
55 87 100
55 88 90
55 87 102
54 86 100
56 88 108
54 86 88
54 86 100
56 88 107
53 83 92
51 82 80
54 86 103
56 86 88
64 89 76
75 97 70
80 100 44
72 89 44
103 119 0
96 109 0
99 113 0
104 120 0
111 127 0
103 119 0
96 109 0
100 115 0
103 120 0
116 133 0
106 122 0
123 139 0
110 126 0
108 127 0
99 115 0
121 135 0
107 124 0
115 132 0
105 122 0
120 136 0
116 134 0
112 128 0
118 136 0
116 134 0
118 136 0
111 127 0
119 137 0
112 129 0
125 141 0
119 136 0
122 138 0
119 135 0
127 145 0
127 145 0
129 148 0
125 143 0
135 153 0
121 140 0
119 135 0
127 146 0
125 144 0
133 152 0
125 142 0
139 156 0
135 154 0
128 146 0
144 164 0
140 158 0
124 141 0
131 149 0
146 165 0
133 152 0
139 157 0
131 148 0
137 156 0
137 154 0
134 154 0
134 151 0
135 154 0
140 158 0
140 160 0
137 156 0
146 166 0
128 148 0
142 162 0
152 172 0
145 163 0
147 168 0
141 160 0
139 157 0
136 154 0
144 162 0
151 171 0
150 167 0
149 167 0
137 157 0
150 170 0
140 158 0
145 162 0
147 166 0
146 165 0
149 169 0
148 165 0
148 167 0
150 170 0
139 156 0
149 166 0
148 165 0
149 168 0
154 175 0
151 170 0
151 169 0
146 166 0
148 167 0
152 172 0
151 171 0
149 168 0
152 172 0
149 167 0
149 167 0
149 169 0
142 161 0
151 168 0
147 165 0
149 167 0
151 168 0
148 166 0
153 172 0
151 169 0
156 175 0
151 171 0
158 178 0
155 174 0
151 168 0
156 176 0
151 169 0
152 169 0
152 170 0
148 166 0
153 172 0
155 173 0
157 176 0
161 180 0
157 177 0
152 171 0
164 184 0
155 174 0
156 176 0
156 176 0
152 172 0
155 173 0
158 178 0
157 177 0
157 176 0
159 178 0
158 178 0
155 174 0
155 174 0
161 180 0
159 178 0
158 176 0
160 179 0
157 176 0
164 184 0
164 182 0
157 177 0
156 176 0
164 182 0
164 183 0
157 176 0
164 184 0
156 175 0
162 182 0
159 179 0
163 182 0
163 184 0
164 184 0
153 173 0
159 178 0
160 179 0
161 180 0
160 179 0
158 179 0
166 185 0
160 181 0
157 177 0
160 179 0
165 185 0
163 184 0
163 184 0
164 185 0
167 189 0
168 188 0
163 183 0
163 183 0
166 186 0
162 182 0
166 187 0
161 182 0
162 182 0
161 181 0
159 179 0
165 184 0
161 180 0
165 185 0
169 193 57
173 197 62
171 195 76
169 193 84
174 198 84
171 195 72
170 195 72
170 194 92
161 186 84
171 195 80
171 194 67
169 193 76
167 192 76
171 194 80
169 192 51
169 194 88
174 198 80
168 191 99
175 198 95
172 196 92
172 195 108
172 195 102
172 196 108
173 196 108
166 189 88
164 187 95
171 195 95
175 198 108
169 193 92
169 193 84
174 197 99
165 188 88
173 196 102
170 193 105
168 191 92
169 192 92
172 196 114
171 194 108
167 190 84
170 193 99
165 188 76
168 190 105
167 190 80
169 193 108
163 187 92
165 188 67
167 189 99
166 189 99
168 192 88
167 189 114
163 186 102
168 192 117
165 189 80
164 188 94
164 188 88
164 187 95
163 186 94
166 190 122
167 190 92
162 184 95
159 181 88
161 185 102
163 186 114
156 178 80
167 189 111
165 187 99
157 180 92
159 182 88
162 184 105
160 182 84
169 190 105
159 180 111
157 180 114
161 184 102
168 190 111
151 173 80
157 179 95
160 182 99
161 183 95
151 173 92
152 173 84
155 176 99
155 176 92
155 176 105
160 182 92
152 174 92
153 174 99
142 162 72
149 170 84
142 163 76
149 170 76
141 163 72
147 168 76
145 166 72
140 161 72
142 162 76
137 157 76
145 165 62
126 146 72
142 162 92
123 142 57
133 152 67
127 145 76
122 142 95
100 121 103
79 106 90
85 111 114
87 111 100
99 122 118
99 123 126
116 139 135
96 120 124
81 108 104
105 128 124
100 125 120
85 111 114
87 114 128
92 117 115
109 133 116
99 123 110
101 126 110
100 123 116
88 113 112
88 114 127
89 113 116
94 118 131
72 100 121
75 101 112
80 103 106
91 114 124
79 107 129
72 102 124
77 106 123
67 97 114
67 98 120
69 99 120
65 97 122
67 96 111
64 94 103
60 93 110
66 97 102
63 93 103
76 101 92
80 107 105
79 106 107
76 104 92
66 95 90
75 103 92
63 92 92
61 92 114
58 90 108
57 88 94
54 86 87
53 85 90
54 86 78
55 88 102
55 88 84
57 90 99
54 86 90
56 89 99
56 89 95
55 87 97
55 87 114
56 89 90
57 90 113
54 86 102
55 88 93
55 88 97
57 89 107
55 87 102
56 89 100
55 87 99
56 89 107
55 87 102
55 88 95
56 89 103
57 90 103
56 89 108
55 87 95
53 84 94
56 89 103
56 89 99
55 87 100
55 88 99
56 89 103
57 90 105
54 87 97
57 90 114
56 88 100
55 87 95
58 91 113
55 88 94
55 87 100
54 86 103
55 86 98
55 87 110
56 89 103
56 88 105
55 87 100
56 88 107
54 85 95
53 85 94
55 88 94
56 89 100
54 86 102
54 86 90
53 85 95
57 88 90
56 85 86
66 90 92
82 104 67
74 94 57
81 98 31
95 109 0
78 91 0
102 116 0
101 115 0
110 126 0
105 122 0
109 125 0
108 121 0
99 114 0
106 122 0
110 126 0
106 123 0
109 125 0
107 123 0
112 129 0
113 128 0
110 126 0
112 129 0
107 124 0
117 135 0
118 135 0
109 127 0
119 134 0
118 136 0
114 131 0
118 135 0
118 136 0
114 132 0
124 141 0
122 140 0
115 130 0
125 141 0
118 135 0
126 143 0
115 131 0
126 142 0
126 145 0
125 143 0
129 148 0
120 140 0
113 130 0
121 138 0
143 163 0
140 158 0
134 151 0
134 153 0
121 139 0
130 150 0
134 151 0
134 154 0
137 155 0
137 152 0
130 148 0
134 153 0
137 156 0
129 147 0
134 153 0
134 151 0
134 152 0
137 156 0
145 163 0
140 158 0
137 156 0
137 153 0
147 165 0
139 157 0
152 172 0
147 167 0
142 160 0
136 154 0
147 164 0
145 162 0
142 161 0
140 159 0
141 160 0
144 162 0
145 165 0
149 166 0
149 169 0
134 152 0
152 171 0
149 168 0
156 177 0
147 166 0
149 168 0
144 163 0
147 168 0
148 169 0
143 161 0
157 175 0
148 169 0
142 161 0
153 172 0
145 163 0
157 176 0
153 173 0
148 166 0
151 170 0
149 168 0
149 169 0
150 170 0
144 161 0
147 165 0
147 166 0
158 177 0
155 175 0
154 175 0
150 170 0
147 167 0
147 166 0
154 174 0
154 173 0
149 165 0
156 174 0
151 169 0
160 180 0
160 178 0
152 172 0
154 172 0
160 180 0
157 174 0
158 179 0
151 171 0
159 178 0
154 173 0
152 171 0
161 182 0
153 171 0
153 171 0
159 180 0
161 181 0
160 180 0
159 178 0
159 180 0
160 181 0
157 175 0
152 170 0
159 179 0
157 177 0
157 176 0
163 182 0
167 185 0
160 181 0
155 173 0
150 170 0
159 178 0
159 178 0
161 179 0
162 182 0
158 178 0
158 177 0
164 183 0
160 179 0
161 179 0
160 181 0
160 181 0
158 178 0
165 186 0
167 186 0
162 181 0
160 178 0
165 186 0
158 179 0
163 183 0
160 179 0
159 179 0
159 180 0
163 183 0
163 183 0
164 185 0
165 187 0
164 185 0
165 184 0
162 183 0
162 185 0
166 186 0
163 183 0
166 188 0
164 184 0
162 183 0
164 186 0
165 185 0
166 187 0
168 189 0
163 184 0
166 187 0
167 187 0
168 192 72
168 193 76
169 194 76
172 195 44
168 191 25
169 193 67
169 194 80
171 195 57
170 194 80
173 197 67
166 190 72
174 198 108
167 191 80
169 193 95
172 196 80
174 198 108
170 194 80
175 197 88
168 192 88
169 191 80
170 193 88
165 189 88
168 191 95
172 195 92
172 195 88
173 196 88
170 194 99
162 185 92
174 196 108
170 193 105
168 191 67
171 194 99
163 187 88
169 192 92
164 188 84
170 192 95
164 187 76
164 188 95
170 194 114
167 190 95
168 191 72
166 190 105
167 191 108
167 190 102
164 189 114
166 189 95
165 188 67
165 187 92
164 186 108
163 186 92
168 192 99
167 190 102
168 191 92
164 187 88
166 190 117
164 186 99
164 186 95
161 184 94
156 178 88
164 187 76
162 185 115
156 179 97
165 187 114
162 184 114
167 189 95
157 179 95
161 182 99
161 183 88
167 189 88
165 187 108
160 183 99
158 180 102
159 181 95
148 171 80
163 185 105
157 179 80
157 179 88
159 182 84
158 180 105
151 173 95
163 185 117
159 180 108
159 180 114
151 171 105
151 171 99
152 174 80
156 177 67
151 174 95
139 160 88
146 167 80
150 171 72
140 162 84
150 170 72
143 164 88
144 164 95
140 159 76
145 166 88
134 153 36
131 149 80
129 149 72
139 158 80
133 152 76
133 151 88
126 144 72
106 126 86
114 135 113
93 118 108
90 115 113
95 118 108
99 123 110
100 124 117
95 119 103
95 119 127
91 116 99
102 126 121
100 124 125
102 126 124
100 124 113
103 126 116
103 128 115
88 114 98
105 128 104
101 125 124
86 110 122
94 118 124
91 115 117
80 106 110
83 105 120
88 113 117
87 113 107
99 122 121
77 106 121
78 107 121
71 101 125
79 108 115
77 106 117
70 98 105
61 91 118
67 97 120
71 100 103
61 92 113
69 97 105
76 104 108
76 103 88
76 102 105
74 102 88
84 109 100
67 94 88
84 108 76
68 97 78
66 95 75
55 87 95
53 85 80
55 88 90
54 86 98
53 85 94
54 85 84
55 88 92
56 88 102
55 87 94
58 91 100
54 86 92
55 87 80
55 88 92
54 86 96
55 87 97
53 85 97
55 87 100
54 85 90
55 87 94
55 87 95
56 89 105
53 84 90
55 87 102
55 87 88
55 87 103
54 86 92
57 90 110
54 86 95
54 86 90
57 91 113
56 89 110
55 87 95
56 89 102
55 87 94
55 88 102
55 88 99
55 88 95
55 88 97
57 91 107
55 87 100
57 90 103
54 86 100
55 88 100
56 88 108
56 88 100
52 83 82
53 85 86
57 89 111
54 86 97
54 85 102
53 84 80
55 87 84
56 88 97
50 80 82
60 89 82
55 83 76
65 86 57
70 92 67
75 93 44
99 115 36
103 118 0
111 123 0
96 112 0
91 106 0
97 114 0
106 121 0
116 133 0
99 113 0
106 122 0
103 117 0
109 126 0
112 126 0
99 115 0
88 102 0
116 134 0
112 128 0
93 108 0
97 113 0
110 126 0
120 137 0
114 132 0
115 133 0
113 129 0
114 131 0
121 140 0
110 127 0
120 137 0
111 126 0
123 140 0
121 137 0
115 132 0
137 156 0
117 134 0
129 150 0
122 141 0
133 149 0
124 143 0
126 144 0
135 153 0
128 146 0
148 168 0
137 157 0
128 147 0
131 150 0
123 141 0
130 148 0
136 155 0
137 154 0
137 155 0
130 148 0
131 148 0
135 153 0
134 154 0
140 158 0
145 165 0
137 156 0
138 157 0
139 157 0
135 154 0
138 157 0
144 164 0
145 165 0
147 166 0
141 160 0
137 154 0
136 156 0
146 164 0
141 160 0
144 162 0
134 153 0
146 165 0
142 160 0
141 161 0
145 164 0
152 171 0
146 166 0
141 160 0
140 161 0
148 167 0
156 177 0
145 163 0
144 164 0
152 172 0
146 165 0
144 165 0
150 169 0
148 166 0
152 172 0
152 171 0
139 159 0
150 167 0
155 174 0
157 177 0
154 174 0
146 167 0
150 169 0
146 166 0
150 169 0
155 174 0
150 169 0
156 176 0
161 180 0
152 171 0
154 174 0
145 162 0
150 171 0
148 166 0
153 171 0
156 175 0
152 171 0
148 165 0
143 163 0
155 175 0
158 179 0
157 176 0
150 168 0
155 174 0
156 176 0
150 168 0
152 171 0
160 181 0
156 176 0
158 179 0
157 178 0
161 181 0
151 169 0
147 167 0
157 178 0
154 174 0
147 167 0
159 179 0
159 179 0
159 179 0
156 175 0
159 179 0
159 177 0
158 177 0
158 177 0
162 181 0
154 173 0
157 176 0
158 177 0
152 168 0
153 172 0
152 170 0
161 182 0
160 182 0
160 177 0
156 176 0
158 179 0
161 180 0
160 179 0
158 178 0
160 180 0
158 178 0
162 180 0
161 182 0
163 183 0
161 181 0
167 187 0
164 183 0
160 180 0
163 186 0
161 182 0
164 186 0
163 183 0
162 181 0
162 181 0
163 182 0
163 181 0
169 191 0
160 181 0
164 184 0
164 186 0
163 182 0
166 187 0
165 186 0
161 181 0
162 183 0
163 184 0
167 188 0
162 182 0
161 182 0
163 183 0
164 185 0
166 187 0
163 183 0
167 187 0
168 189 0
166 190 44
170 194 72
172 195 62
171 195 76
170 194 72
172 195 88
175 199 102
168 191 76
169 193 80
172 196 95
174 197 99
166 190 62
171 195 102
169 193 92
172 195 80
166 190 72
169 191 117
172 195 95
172 195 102
170 193 84
172 195 84
173 196 99
170 193 95
171 195 88
172 196 95
168 191 92
170 193 92
169 192 95
166 190 88
169 193 102
169 192 111
171 195 84
172 195 99
167 191 114
164 187 102
170 194 117
171 195 105
170 194 95
163 187 92
172 196 111
173 196 130
162 185 88
170 193 108
165 188 92
166 190 102
170 193 84
159 183 102
167 190 102
168 190 92
167 190 92
168 190 95
164 186 95
162 184 108
166 189 95
167 190 95
169 191 102
170 193 102
162 184 95
158 182 105
165 188 102
169 191 99
157 181 95
159 181 80
162 185 102
161 182 92
166 188 95
160 181 88
166 189 95
160 182 88
159 181 99
151 173 102
161 183 105
159 181 95
157 179 92
160 181 92
157 179 88
154 177 95
161 183 99
157 179 111
151 172 95
156 177 108
155 178 92
150 171 84
158 180 95
157 177 84
157 178 92
155 176 102
155 176 88
152 172 95
155 175 92
152 173 88
143 163 72
148 168 76
142 163 88
142 162 62
136 156 80
141 162 92
144 165 84
144 164 95
126 145 72
146 164 80
139 158 76
130 148 72
116 133 62
113 130 76
112 132 84
87 108 70
79 104 103
89 113 113
88 113 95
89 114 114
93 117 105
90 115 114
108 129 132
92 117 121
82 108 110
87 112 115
94 118 117
103 127 116
102 126 115
103 127 122
104 128 123
98 123 111
88 112 125
86 109 112
103 125 114
98 121 107
98 118 103
99 119 115
95 115 107
97 122 108
91 116 110
72 102 124
80 108 118
66 98 126
71 101 114
68 99 118
61 92 108
71 99 94
76 103 95
71 100 107
65 95 100
68 96 95
76 103 90
80 106 88
76 101 84
83 108 88
72 99 82
78 104 86
83 108 74
61 92 105
52 83 84
56 88 92
52 83 67
55 87 91
55 87 92
52 83 78
55 87 94
54 86 94
55 87 94
55 88 97
55 87 97
55 87 97
55 88 95
54 85 94
55 87 86
55 88 92
53 85 99
54 85 90
55 87 88
58 91 114
55 88 88
54 86 88
56 88 99
56 89 107
53 85 86
55 87 97
55 87 86
55 87 97
55 87 97
57 90 103
55 87 100
53 84 90
55 88 100
53 85 95
55 87 92
53 85 78
53 85 97
54 85 100
54 87 95
56 89 105
56 88 99
55 87 84
54 86 97
56 89 97
55 88 103
54 85 97
53 85 88
54 87 90
53 84 88
53 85 97
51 82 74
57 88 97
56 83 80
56 84 70
71 93 51
75 94 36
84 101 36
75 88 18
93 107 0
73 86 0
92 107 0
100 114 0
94 110 0
106 122 0
95 110 0
100 116 0
96 111 0
103 118 0
101 116 0
108 124 0
111 126 0
114 130 0
114 129 0
113 130 0
109 126 0
107 124 0
122 139 0
101 116 0
121 137 0
101 117 0
117 131 0
114 129 0
117 134 0
115 133 0
120 138 0
107 125 0
125 144 0
123 143 0
117 135 0
120 138 0
123 141 0
113 130 0
126 145 0
133 152 0
133 151 0
130 148 0
129 147 0
130 147 0
131 149 0
135 154 0
127 145 0
133 150 0
135 155 0
135 153 0
136 155 0
123 141 0
132 152 0
133 152 0
140 158 0
135 155 0
131 149 0
139 155 0
141 161 0
127 144 0
131 149 0
140 160 0
138 155 0
135 154 0
131 150 0
142 161 0
134 153 0
142 162 0
136 155 0
144 163 0
131 150 0
136 155 0
138 157 0
137 155 0
151 171 0
147 167 0
134 152 0
143 162 0
141 161 0
143 163 0
153 173 0
142 160 0
144 162 0
151 170 0
144 164 0
151 170 0
150 170 0
146 165 0
146 164 0
142 161 0
153 173 0
150 169 0
149 170 0
154 172 0
142 160 0
152 170 0
149 168 0
146 167 0
145 165 0
157 174 0
144 164 0
143 161 0
146 165 0
146 166 0
152 171 0
148 166 0
155 174 0
152 169 0
154 174 0
150 170 0
146 164 0
154 172 0
150 169 0
150 169 0
148 165 0
158 177 0
149 168 0
149 167 0
156 174 0
155 175 0
157 177 0
155 173 0
156 177 0
160 178 0
159 178 0
162 184 0
150 168 0
154 176 0
153 173 0
155 172 0
155 173 0
160 181 0
152 171 0
155 176 0
158 179 0
159 179 0
161 179 0
156 175 0
158 177 0
159 181 0
156 176 0
157 177 0
158 178 0
159 179 0
153 173 0
163 181 0
162 184 0
158 178 0
155 173 0
154 174 0
158 177 0
163 183 0
163 184 0
161 181 0
159 179 0
158 176 0
158 179 0
166 186 0
158 178 0
161 181 0
166 186 0
159 179 0
159 179 0
162 181 0
156 174 0
165 186 0
162 183 0
162 182 0
164 183 0
161 182 0
164 183 0
165 186 0
163 183 0
162 182 0
160 178 0
164 185 0
166 185 0
165 186 0
166 188 0
159 179 0
163 184 0
165 186 0
163 185 0
159 179 0
166 187 0
167 189 0
166 187 0
165 185 0
169 190 0
163 183 0
166 187 0
167 188 0
163 183 0
166 186 0
167 189 0
165 189 57
171 195 92
171 196 88
170 194 72
172 195 84
171 195 88
171 195 72
170 193 76
169 193 51
169 193 84
168 192 72
173 196 92
170 193 99
172 196 114
169 194 102
164 188 80
177 200 108
169 193 80
173 196 111
167 191 88
169 193 99
174 198 108
175 199 111
160 183 57
166 189 92
170 194 99
168 192 92
169 192 102
163 186 92
171 194 102
173 196 108
168 192 92
168 191 99
169 193 102
169 193 99
166 189 99
171 194 117
175 198 117
165 187 99
170 194 105
166 189 95
163 186 88
168 192 105
167 189 95
160 183 92
161 185 78
158 181 62
166 190 92
170 193 117
168 190 120
160 184 94
166 189 99
169 192 111
163 187 102
167 190 100
168 191 103
165 188 114
159 182 84
160 182 67
161 183 84
162 184 102
157 179 88
166 188 120
162 185 105
164 186 99
157 181 88
159 182 92
157 179 102
152 176 99
169 191 117
165 188 111
158 180 80
157 179 92
157 179 99
165 187 80
162 184 88
157 180 92
154 176 88
159 179 99
162 182 99
146 165 80
149 170 92
150 171 88
154 175 95
152 172 99
157 177 108
149 171 102
149 171 72
150 171 92
142 163 84
150 170 72
151 170 108
147 168 99
150 170 72
152 173 84
141 160 72
141 161 72
142 162 82
141 161 80
144 162 80
142 161 95
130 149 72
132 150 76
127 145 76
121 139 67
117 135 51
114 133 90
101 121 115
104 127 111
88 112 99
86 110 111
94 118 112
93 118 113
89 113 107
75 102 95
90 115 104
92 116 118
91 116 94
112 133 130
90 115 113
108 132 114
98 124 114
94 119 111
99 122 120
110 132 110
95 119 108
94 115 99
100 118 99
112 131 103
101 121 105
108 129 94
98 120 99
76 104 118
69 98 111
71 102 126
71 100 100
69 99 97
70 99 111
72 100 113
70 99 100
64 94 108
72 101 94
68 95 94
69 95 90
69 97 94
82 106 80
87 110 62
67 93 67
78 103 78
72 98 70
63 91 90
56 87 86
53 85 90
53 84 80
54 86 70
51 82 74
51 82 82
51 81 76
54 86 90
55 87 93
55 88 94
54 86 98
52 84 84
54 86 94
55 87 103
55 87 94
54 86 82
57 89 102
55 88 95
52 83 84
56 88 102
53 84 88
53 84 82
57 89 103
52 83 82
55 87 95
54 87 92
51 82 76
53 85 86
55 87 84
54 86 100
52 83 95
57 89 95
54 86 92
56 88 104
55 88 97
56 89 90
52 84 88
54 86 94
53 84 80
56 89 102
55 87 90
54 85 94
54 86 88
54 86 92
53 84 95
55 87 97
53 83 99
53 84 76
55 85 92
68 93 82
68 91 78
72 93 70
55 75 40
84 102 47
83 99 25
101 117 18
98 112 0
86 101 0
98 114 0
103 117 0
105 121 0
105 120 0
94 109 0
99 115 0
115 131 0
109 124 0
109 125 0
106 123 0
108 124 0
115 131 0
99 116 0
121 138 0
104 121 0
111 126 0
115 132 0
105 122 0
109 126 0
116 132 0
124 142 0
112 129 0
109 127 0
120 138 0
118 137 0
110 127 0
117 134 0
115 131 0
120 137 0
126 143 0
121 138 0
128 146 0
122 139 0
120 137 0
127 146 0
130 147 0
128 145 0
132 149 0
130 149 0
120 137 0
136 154 0
135 154 0
126 145 0
130 149 0
134 153 0
123 141 0
135 155 0
138 158 0
127 144 0
141 160 0
128 146 0
138 155 0
140 159 0
135 153 0
131 151 0
135 154 0
135 153 0
135 153 0
143 163 0
142 163 0
140 159 0
141 159 0
135 155 0
151 171 0
149 169 0
139 159 0
133 153 0
147 167 0
142 159 0
146 167 0
148 168 0
137 155 0
142 162 0
135 155 0
147 165 0
141 159 0
152 172 0
146 166 0
149 168 0
141 159 0
136 154 0
146 166 0
147 165 0
146 164 0
154 176 0
146 167 0
139 159 0
144 163 0
152 174 0
147 168 0
136 155 0
150 168 0
144 163 0
139 157 0
148 165 0
147 166 0
147 167 0
156 176 0
144 163 0
154 174 0
150 168 0
145 165 0
152 171 0
145 163 0
153 172 0
149 166 0
155 176 0
151 168 0
154 174 0
157 177 0
160 180 0
142 161 0
158 178 0
153 172 0
153 173 0
157 178 0
152 172 0
151 171 0
157 176 0
153 175 0
155 173 0
157 177 0
159 180 0
152 170 0
153 171 0
156 176 0
154 173 0
154 174 0
156 176 0
157 175 0
152 170 0
156 174 0
156 177 0
153 173 0
155 175 0
157 178 0
159 178 0
165 185 0
163 182 0
159 178 0
157 175 0
158 177 0
161 181 0
163 184 0
158 177 0
158 180 0
160 180 0
156 174 0
164 184 0
162 183 0
160 179 0
162 182 0
163 185 0
162 182 0
161 180 0
164 186 0
162 182 0
166 186 0
159 179 0
164 184 0
162 183 0
167 190 0
164 184 0
161 181 0
160 180 0
165 185 0
165 186 0
162 183 0
165 187 0
160 179 0
160 180 0
165 186 0
166 187 0
160 181 0
165 186 0
160 180 0
166 187 0
162 182 0
161 183 0
164 185 0
164 185 0
169 191 0
161 181 0
161 182 0
166 188 0
165 186 0
162 183 0
164 184 0
166 186 0
168 190 0
158 180 0
171 194 57
174 197 88
172 196 88
168 193 72
166 191 92
172 196 80
171 195 88
166 189 76
170 193 76
169 193 84
172 195 84
169 193 72
170 192 108
170 193 84
169 192 72
168 191 84
169 192 76
173 196 92
169 193 92
168 192 99
172 195 88
170 193 84
173 197 99
171 195 84
174 197 117
172 195 92
169 193 95
168 191 76
167 189 76
167 190 95
166 189 80
171 193 80
165 188 84
171 194 95
170 192 108
167 191 92
172 195 105
169 193 95
171 194 102
172 195 114
166 190 72
167 189 95
175 198 92
167 190 92
173 196 103
163 186 88
167 190 88
168 190 80
162 185 88
167 190 99
164 187 90
166 189 117
167 189 124
163 186 105
165 188 111
159 182 110
163 187 80
161 183 92
171 194 115
170 194 105
155 178 84
166 189 99
159 181 88
158 181 114
159 181 114
164 186 88
157 180 105
155 176 80
153 175 62
157 179 99
161 183 105
158 180 95
161 184 84
161 183 84
157 180 105
159 181 84
160 182 99
159 181 105
164 185 88
159 182 108
159 180 111
161 183 88
160 182 105
153 175 99
157 177 99
156 178 102
152 173 102
158 178 95
153 174 100
146 166 99
155 176 95
148 168 108
151 171 80
139 159 95
154 173 102
135 155 72
149 168 105
150 170 99
137 157 76
145 165 80
132 151 76
128 147 76
140 160 62
123 142 57
131 150 80
123 141 88
126 144 90
115 134 72
103 123 99
100 122 117
91 114 108
100 122 118
102 125 110
97 121 125
100 124 105
92 116 114
90 115 94
87 113 99
93 119 110
99 123 113
103 126 114
93 119 117
89 115 109
89 113 112
112 131 98
110 129 86
107 127 99
108 128 105
100 116 80
99 121 107
110 129 100
98 121 118
87 111 107
76 103 107
72 100 103
67 98 115
83 109 103
74 103 95
67 96 102
70 97 110
67 94 94
68 96 92
69 97 92
72 98 84
85 108 72
94 117 86
90 113 80
89 109 74
98 118 67
85 106 57
81 103 62
74 97 74
61 89 90
50 79 80
53 84 76
53 85 92
52 83 78
54 85 80
53 83 94
55 86 92
53 85 80
53 84 96
53 84 88
52 83 84
56 88 95
52 82 84
52 83 88
52 83 84
54 85 99
54 86 94
54 86 94
53 85 94
55 87 99
54 86 99
56 89 103
53 84 95
52 83 82
54 85 95
54 86 94
51 82 88
56 89 99
53 84 78
54 86 88
55 88 86
53 85 92
53 85 86
53 85 84
54 86 86
54 86 82
53 84 82
53 84 92
52 83 95
52 83 70
53 85 84
52 82 84
59 88 67
53 81 76
56 84 80
67 89 67
77 98 62
76 95 54
83 99 40
87 102 18
89 102 18
100 114 0
96 109 0
91 105 0
104 120 0
101 116 0
99 112 0
87 101 0
114 130 0
116 132 0
109 127 0
106 121 0
94 111 0
110 125 0
107 125 0
102 119 0
109 125 0
97 114 0
102 119 0
100 116 0
106 123 0
104 119 0
109 123 0
99 117 0
108 125 0
121 138 0
122 139 0
119 136 0
127 143 0
117 134 0
126 144 0
114 131 0
115 132 0
120 137 0
122 141 0
131 149 0
117 135 0
119 136 0
122 139 0
122 140 0
123 140 0
137 157 0
131 149 0
126 144 0
127 145 0
127 143 0
126 146 0
130 147 0
127 145 0
131 150 0
134 153 0
130 148 0
135 154 0
127 146 0
135 154 0
125 144 0
137 156 0
139 157 0
138 158 0
135 153 0
141 159 0
138 157 0
130 149 0
129 147 0
136 155 0
142 161 0
132 151 0
141 160 0
143 163 0
147 166 0
135 156 0
140 159 0
138 156 0
142 162 0
141 160 0
149 170 0
146 166 0
148 167 0
140 159 0
147 166 0
146 164 0
141 159 0
145 164 0
142 160 0
146 164 0
145 164 0
141 159 0
152 172 0
151 169 0
152 172 0
152 171 0
151 172 0
143 162 0
146 167 0
144 165 0
144 165 0
150 170 0
152 171 0
144 164 0
155 177 0
144 161 0
153 173 0
148 167 0
147 167 0
156 175 0
152 171 0
150 168 0
151 170 0
152 172 0
151 172 0
152 171 0
151 171 0
155 175 0
152 170 0
154 175 0
158 178 0
150 170 0
153 171 0
154 175 0
150 172 0
150 169 0
161 181 0
152 171 0
158 180 0
162 183 0
153 173 0
161 178 0
153 171 0
152 172 0
149 169 0
155 175 0
160 179 0
157 177 0
155 175 0
156 176 0
162 183 0
165 185 0
157 176 0
152 171 0
155 174 0
166 187 0
160 182 0
154 171 0
160 180 0
157 177 0
157 175 0
160 181 0
156 173 0
158 177 0
161 182 0
157 176 0
157 177 0
156 178 0
160 182 0
157 177 0
158 180 0
152 171 0
158 179 0
156 176 0
163 183 0
164 185 0
159 179 0
158 179 0
160 179 0
156 175 0
168 188 0
166 187 0
165 185 0
164 185 0
164 186 0
161 181 0
165 186 0
162 183 0
161 181 0
161 180 0
165 185 0
166 185 0
166 187 0
168 189 0
167 186 0
165 185 0
163 183 0
158 178 0
163 182 0
164 184 0
160 179 0
164 184 0
163 182 0
165 187 0
162 182 0
161 181 0
162 182 0
164 186 0
165 185 0
159 180 0
162 182 0
167 187 0
169 192 84
171 194 57
176 199 92
166 190 84
174 197 99
169 193 84
169 192 72
164 188 88
170 193 76
166 190 102
169 193 92
171 194 92
173 197 92
169 193 92
165 187 84
173 196 99
170 193 72
163 185 92
168 191 84
172 195 88
171 194 92
170 194 95
168 192 111
172 195 102
174 197 111
169 192 84
170 194 117
173 196 105
171 194 114
165 189 102
167 191 76
165 188 80
170 193 102
174 198 114
170 193 95
169 192 105
170 192 76
163 187 92
172 196 95
167 188 102
169 193 108
162 186 111
164 188 88
171 194 99
168 191 95
164 187 92
164 186 103
165 189 107
170 193 117
165 188 95
163 186 84
163 187 95
164 187 88
159 182 86
159 182 80
158 182 105
166 190 113
167 190 99
161 184 90
163 184 86
156 178 74
161 183 95
159 181 84
168 190 105
169 191 108
157 180 57
162 184 105
158 180 84
160 182 84
160 183 102
160 181 92
157 180 80
158 181 105
154 176 84
162 184 95
161 183 105
160 182 111
152 175 102
155 176 88
158 179 88
154 175 95
149 170 99
156 177 105
152 173 95
156 177 99
148 168 76
149 171 99
155 176 99
157 178 114
150 171 105
141 161 76
144 163 99
144 164 80
136 156 47
147 167 76
151 171 92
152 172 95
141 161 76
147 166 102
131 150 76
137 156 44
139 159 67
141 159 88
123 141 57
124 143 62
135 154 80
118 136 67
124 141 67
115 133 70
106 127 95
97 118 110
94 117 107
105 128 114
94 117 102
97 121 105
79 106 117
89 113 120
93 118 103
105 129 128
85 110 108
93 118 107
102 127 115
91 115 113
103 124 110
94 118 82
113 133 100
104 126 122
109 129 80
109 124 82
114 131 88
109 130 88
98 117 89
89 112 99
78 104 102
90 116 97
77 104 113
77 104 113
66 96 115
76 103 103
71 100 113
64 92 94
64 92 86
70 98 97
73 99 80
85 109 88
81 106 84
83 106 72
83 105 76
98 116 40
84 103 36
98 115 40
98 115 18
86 104 40
82 101 31
69 91 60
71 95 72
58 86 76
52 83 84
50 81 62
49 79 74
52 82 92
50 80 78
51 81 47
53 85 82
54 86 86
53 84 82
55 87 103
52 83 86
55 87 90
52 83 88
52 83 88
55 88 99
53 85 86
53 84 86
55 88 88
54 86 80
52 83 74
55 88 95
52 83 76
56 88 97
52 83 82
55 87 92
52 83 84
52 83 94
55 87 88
53 84 86
53 84 80
52 83 90
53 84 86
54 86 100
54 83 78
55 84 90
57 84 78
53 80 60
53 76 51
73 92 54
87 106 62
91 109 54
68 85 25
94 110 25
84 98 18
93 108 0
100 114 0
97 111 0
97 111 0
103 118 0
99 114 0
91 107 0
82 97 0
112 128 0
101 117 0
102 117 0
108 124 0
97 113 0
113 129 0
99 115 0
109 125 0
108 123 0
107 123 0
107 124 0
106 120 0
106 122 0
107 124 0
110 126 0
106 122 0
108 124 0
129 147 0
116 132 0
119 137 0
112 129 0
116 133 0
111 129 0
113 129 0
116 135 0
124 141 0
121 139 0
119 136 0
113 133 0
120 138 0
113 132 0
125 142 0
133 149 0
117 137 0
131 150 0
134 152 0
134 152 0
130 148 0
136 155 0
123 142 0
125 143 0
141 161 0
128 146 0
125 142 0
122 140 0
131 150 0
141 160 0
134 153 0
138 156 0
139 158 0
134 153 0
136 154 0
132 151 0
134 153 0
141 161 0
139 157 0
143 161 0
132 151 0
134 154 0
144 163 0
133 151 0
137 156 0
135 153 0
147 169 0
145 163 0
130 149 0
143 161 0
148 167 0
142 160 0
141 160 0
144 165 0
131 151 0
141 159 0
145 164 0
152 171 0
139 157 0
147 167 0
151 171 0
148 168 0
147 166 0
148 167 0
149 170 0
149 168 0
144 161 0
144 163 0
156 174 0
144 164 0
149 169 0
151 171 0
150 169 0
148 168 0
147 167 0
156 176 0
147 165 0
151 171 0
152 173 0
150 171 0
146 164 0
156 175 0
151 170 0
156 176 0
157 177 0
157 178 0
157 179 0
155 175 0
153 171 0
155 174 0
155 176 0
155 176 0
157 177 0
151 172 0
159 179 0
152 172 0
160 179 0
155 175 0
158 178 0
156 177 0
156 176 0
149 167 0
156 175 0
157 177 0
154 174 0
155 174 0
164 184 0
153 172 0
145 164 0
150 169 0
155 173 0
156 175 0
152 170 0
162 181 0
161 179 0
156 176 0
152 172 0
162 180 0
158 177 0
152 171 0
156 176 0
160 181 0
161 179 0
159 180 0
159 180 0
157 176 0
156 177 0
159 179 0
161 180 0
158 177 0
160 180 0
158 177 0
155 174 0
162 181 0
164 185 0
162 183 0
160 182 0
161 181 0
157 177 0
162 182 0
166 187 0
159 178 0
164 184 0
158 178 0
162 183 0
163 182 0
165 186 0
167 188 0
160 180 0
162 184 0
161 182 0
163 184 0
163 184 0
165 186 0
165 184 0
162 182 0
165 183 0
164 184 0
163 184 0
160 181 0
168 190 0
169 188 0
162 183 0
166 187 0
166 188 0
165 186 0
162 182 0
162 181 0
167 188 0
169 190 0
165 184 0
166 187 0
168 188 0
169 191 0
167 191 80
173 197 80
170 195 92
172 196 99
169 193 84
171 194 99
171 195 111
172 197 105
171 194 57
171 194 92
171 195 99
170 194 92
173 197 99
172 195 84
173 196 122
171 195 120
169 193 95
174 197 114
171 195 95
171 194 95
171 195 95
169 192 80
170 193 84
169 193 84
172 196 99
168 191 102
169 192 92
171 195 102
169 193 92
170 193 95
169 192 76
164 187 92
170 194 108
164 188 95
171 195 99
165 186 99
165 189 76
168 191 95
165 189 99
170 193 88
159 182 72
171 195 88
163 186 92
168 191 105
168 191 99
162 186 105
168 191 99
170 193 111
157 181 94
167 190 84
163 186 84
163 187 105
160 183 80
165 188 82
172 195 105
155 178 82
157 180 84
164 187 92
165 188 117
162 185 115
162 184 92
163 186 90
162 185 114
158 180 97
161 183 111
167 189 117
167 189 121
162 184 88
161 183 95
157 180 80
151 173 76
163 185 117
159 181 102
159 181 99
151 174 80
153 175 88
161 184 92
164 186 117
152 174 84
157 179 88
159 180 80
157 179 92
154 175 99
155 177 92
150 171 117
145 165 80
154 175 105
148 168 88
150 171 102
146 167 92
160 180 105
147 167 84
133 153 57
138 157 67
155 175 105
147 167 84
153 172 99
137 156 80
137 156 72
132 151 84
147 166 67
139 159 92
131 150 72
137 156 80
134 152 67
121 140 76
127 144 84
114 131 67
120 137 80
121 138 82
107 126 95
86 109 88
94 118 98
97 119 110
93 115 114
108 129 115
106 129 114
90 115 113
95 120 105
92 117 120
100 123 90
101 125 105
108 132 128
91 117 120
106 124 95
108 127 90
121 139 82
110 127 82
116 133 80
113 130 78
119 136 84
106 126 94
95 120 99
81 105 103
90 113 88
80 107 100
70 99 99
64 93 92
76 101 97
84 109 89
72 98 88
73 99 90
71 98 88
72 98 78
80 103 67
81 104 78
88 111 62
90 111 62
95 114 54
81 100 47
93 113 25
89 106 25
87 104 0
91 106 0
90 105 0
91 107 0
93 109 36
80 98 42
77 97 54
72 93 36
71 93 62
49 76 62
61 88 74
50 78 62
57 86 72
54 86 88
54 83 70
54 86 74
53 84 92
51 82 90
51 82 78
53 84 82
52 83 76
51 82 82
53 84 84
52 83 76
50 81 67
53 85 94
54 86 86
52 83 78
53 84 78
52 83 78
52 83 88
55 87 92
52 80 47
54 84 76
57 86 70
52 82 78
60 85 70
57 82 67
58 82 67
60 81 60
72 90 40
70 88 40
79 94 0
94 109 18
88 102 0
93 109 0
91 105 0
91 106 0
98 114 0
98 114 0
97 111 0
102 118 0
92 106 0
93 109 0
99 114 0
98 114 0
105 120 0
93 108 0
100 117 0
101 116 0
99 117 0
100 117 0
113 130 0
98 114 0
99 115 0
102 120 0
101 118 0
110 127 0
116 132 0
120 138 0
113 130 0
120 137 0
114 131 0
114 131 0
118 135 0
110 128 0
119 138 0
117 135 0
119 136 0
115 132 0
117 134 0
113 130 0
102 119 0
118 135 0
120 139 0
113 129 0
121 137 0
116 133 0
123 140 0
122 139 0
133 152 0
125 143 0
125 144 0
138 158 0
130 149 0
129 147 0
124 143 0
130 148 0
129 147 0
129 148 0
129 147 0
133 151 0
134 153 0
138 157 0
128 145 0
136 155 0
136 154 0
123 142 0
143 161 0
138 158 0
138 159 0
139 158 0
132 149 0
131 151 0
139 157 0
138 157 0
142 160 0
143 162 0
140 158 0
147 166 0
147 166 0
143 161 0
136 156 0
146 167 0
147 165 0
141 162 0
141 158 0
140 159 0
141 159 0
141 160 0
134 154 0
143 163 0
138 157 0
145 164 0
154 175 0
146 165 0
137 156 0
145 164 0
142 162 0
151 172 0
146 166 0
149 168 0
154 174 0
147 167 0
149 168 0
144 164 0
152 171 0
145 166 0
150 168 0
154 175 0
150 171 0
148 168 0
151 171 0
146 165 0
150 169 0
146 164 0
153 172 0
149 168 0
152 172 0
145 162 0
151 171 0
162 182 0
155 174 0
154 173 0
156 175 0
149 168 0
154 174 0
152 171 0
153 174 0
155 174 0
157 176 0
150 171 0
155 174 0
153 171 0
155 174 0
155 174 0
154 174 0
158 177 0
161 182 0
141 160 0
161 180 0
156 176 0
154 174 0
159 177 0
157 176 0
156 175 0
160 180 0
159 180 0
157 177 0
158 178 0
163 181 0
161 179 0
160 180 0
160 180 0
158 178 0
153 173 0
161 181 0
154 173 0
160 181 0
160 180 0
160 181 0
161 183 0
165 185 0
164 184 0
164 185 0
168 190 0
159 178 0
158 178 0
162 183 0
162 183 0
162 182 0
155 174 0
160 179 0
164 185 0
165 187 0
160 182 0
167 188 0
163 183 0
161 180 0
155 175 0
160 182 0
160 180 0
163 185 0
162 182 0
159 180 0
165 186 0
161 180 0
165 185 0
165 187 0
162 182 0
161 182 0
164 185 0
167 187 0
166 188 0
166 187 0
169 189 0
166 187 0
161 182 0
167 188 0
164 185 0
167 187 0
161 184 0
163 184 0
163 184 0
166 189 0
167 187 0
164 186 0
165 188 0
171 195 84
174 198 105
173 196 67
172 195 88
168 192 76
171 195 102
173 196 88
172 196 105
173 196 80
171 194 62
171 194 102
173 196 88
170 193 102
168 192 84
171 195 88
174 197 88
171 195 92
177 200 111
171 193 84
172 196 111
167 192 102
174 196 102
170 194 105
172 195 92
170 194 92
173 196 80
172 195 99
169 191 99
166 189 88
170 193 114
167 191 67
172 195 80
171 195 80
171 194 95
170 193 111
165 189 95
167 191 105
161 184 72
168 191 62
165 189 88
165 188 80
163 186 99
166 189 84
166 189 76
169 193 92
167 190 84
164 188 95
168 191 102
172 195 118
167 191 84
168 190 78
159 182 100
168 191 114
170 193 108
163 186 102
166 188 114
165 188 90
152 175 84
160 183 108
165 188 111
165 188 99
158 181 92
156 179 94
169 191 111
159 182 90
161 183 80
157 179 90
164 187 80
155 176 84
164 187 99
163 185 105
162 184 99
156 178 92
171 193 108
162 184 114
157 179 99
156 178 102
153 175 99
153 174 84
164 185 128
162 184 108
159 180 76
156 177 92
152 173 84
158 180 99
154 174 92
144 164 76
147 168 102
161 182 102
151 172 95
153 173 95
150 171 88
151 171 102
146 167 84
149 169 99
142 162 84
144 165 99
140 160 80
144 163 108
131 150 76
133 152 72
134 152 72
129 147 80
131 150 76
121 139 76
127 145 62
127 145 57
120 138 57
118 134 57
115 131 72
118 136 80
106 125 92
97 118 97
96 120 102
86 110 105
86 112 94
102 124 113
95 119 102
90 114 105
96 120 95
93 118 107
100 122 102
99 121 102
105 127 92
99 121 84
109 128 99
118 137 90
118 135 76
122 138 74
127 142 82
120 135 70
117 136 78
111 131 84
111 131 88
89 113 99
87 111 86
76 103 97
68 96 108
78 105 94
82 108 94
73 101 99
79 106 94
83 107 76
90 113 80
95 115 72
92 116 90
87 110 62
92 113 70
91 112 44
97 116 51
101 120 51
110 127 36
101 117 18
94 109 0
91 105 0
87 102 0
79 95 0
91 106 0
95 110 0
91 107 0
91 105 25
99 115 25
95 112 25
80 98 36
74 92 31
75 93 44
75 95 54
65 87 60
70 92 62
70 91 44
63 89 82
59 87 76
65 88 60
62 86 65
67 91 70
52 80 72
61 87 78
57 83 70
54 81 74
53 80 65
58 83 62
61 86 67
75 95 51
72 91 65
73 93 51
78 97 70
74 93 47
87 104 31
87 102 18
84 100 31
86 101 25
80 95 0
86 100 0
92 106 0
84 97 0
98 112 0
98 113 0
96 109 0
80 94 0
93 108 0
100 116 0
105 122 0
94 108 0
105 120 0
100 116 0
99 116 0
94 109 0
95 110 0
99 115 0
99 115 0
98 114 0
108 124 0
104 120 0
96 113 0
112 128 0
101 119 0
110 126 0
116 132 0
108 123 0
112 128 0
107 125 0
105 122 0
122 138 0
114 131 0
114 131 0
114 131 0
95 112 0
122 141 0
106 123 0
108 126 0
123 138 0
118 136 0
129 148 0
121 139 0
107 125 0
113 132 0
121 139 0
125 143 0
129 146 0
122 139 0
125 143 0
117 136 0
127 144 0
122 141 0
131 150 0
132 151 0
124 143 0
127 145 0
126 143 0
124 143 0
121 140 0
125 143 0
135 155 0
127 146 0
134 152 0
124 142 0
131 152 0
134 151 0
137 156 0
144 165 0
141 161 0
145 165 0
139 159 0
128 146 0
140 159 0
135 153 0
142 162 0
137 157 0
134 153 0
133 151 0
128 146 0
132 151 0
139 161 0
140 160 0
137 155 0
145 165 0
149 169 0
129 147 0
143 163 0
149 168 0
141 161 0
147 168 0
146 164 0
140 157 0
156 175 0
140 161 0
142 162 0
149 169 0
146 163 0
149 170 0
150 170 0
139 157 0
156 176 0
138 157 0
152 173 0
147 164 0
153 174 0
150 170 0
148 167 0
158 179 0
155 173 0
152 171 0
148 169 0
144 164 0
158 179 0
154 173 0
163 184 0
148 167 0
154 174 0
154 175 0
150 169 0
154 175 0
157 177 0
148 168 0
149 168 0
158 178 0
155 175 0
161 180 0
155 174 0
145 165 0
157 176 0
151 169 0
160 181 0
155 175 0
157 177 0
149 167 0
155 174 0
155 176 0
151 169 0
153 173 0
161 180 0
151 170 0
153 171 0
148 167 0
156 176 0
151 170 0
155 174 0
157 178 0
160 181 0
156 176 0
161 183 0
158 178 0
158 178 0
160 180 0
162 183 0
158 179 0
158 178 0
156 177 0
159 179 0
158 178 0
158 179 0
161 181 0
157 176 0
158 177 0
160 182 0
161 181 0
162 182 0
161 183 0
157 176 0
156 175 0
159 180 0
163 185 0
163 184 0
160 180 0
166 185 0
157 177 0
160 179 0
159 179 0
164 185 0
162 182 0
163 183 0
165 185 0
158 179 0
160 180 0
167 188 0
165 186 0
163 186 0
165 186 0
165 187 0
165 188 0
159 179 0
163 183 0
162 180 0
165 185 0
166 187 0
164 185 0
162 184 0
161 183 0
164 186 0
164 187 0
167 186 0
167 187 0
166 186 0
168 188 0
161 180 0
162 184 0
163 185 0
167 188 0
161 181 0
164 185 0
172 195 76
179 202 114
175 199 99
172 195 76
176 199 95
171 195 80
171 194 88
175 199 105
169 192 108
176 198 95
175 197 102
175 199 84
171 194 72
175 197 111
166 190 102
173 196 92
168 192 80
168 193 92
172 196 117
169 193 92
175 197 108
175 198 105
171 194 92
171 195 105
176 198 102
171 194 102
169 192 105
170 193 99
164 188 92
168 191 99
169 193 102
166 190 92
176 199 125
164 187 111
169 193 102
163 187 102
169 192 102
166 190 84
166 190 88
173 196 95
170 194 95
167 191 99
172 195 92
166 189 114
161 184 84
165 188 92
164 188 111
161 185 95
165 188 88
163 187 111
169 192 92
168 192 117
154 177 105
163 185 92
162 186 107
166 190 113
164 188 92
162 185 111
160 183 88
165 187 76
163 186 102
165 188 92
156 179 92
168 190 114
166 188 90
166 188 90
163 185 80
164 187 80
161 184 99
167 190 92
157 179 102
161 182 105
158 179 84
160 183 108
156 177 114
157 179 95
156 179 92
159 180 105
153 174 102
148 170 76
152 173 99
159 179 111
164 186 114
145 166 92
160 182 108
162 184 99
161 182 105
155 176 102
158 179 114
145 166 76
155 175 122
155 176 114
143 163 99
145 166 88
142 161 108
144 164 88
142 161 92
150 169 92
141 160 95
133 153 44
144 163 72
144 163 84
145 162 108
129 147 88
140 157 80
136 153 72
123 142 62
120 137 44
126 144 76
122 137 76
126 143 76
106 124 76
102 121 82
92 114 82
94 117 99
90 113 105
97 121 90
98 120 95
95 119 118
98 121 102
94 119 88
98 123 106
92 118 94
98 120 107
102 124 102
108 127 82
112 129 78
123 140 74
129 144 54
127 143 65
123 138 54
122 140 67
107 125 90
102 123 84
87 112 89
104 126 92
73 100 90
73 100 97
81 105 102
62 92 92
76 101 70
70 97 84
72 97 70
89 111 72
95 117 67
100 123 78
81 103 54
97 117 54
99 119 40
97 115 40
111 129 36
91 108 25
95 113 18
100 117 0
89 104 0
97 112 0
92 108 0
96 111 0
100 116 0
118 133 0
98 114 0
88 102 0
98 113 0
82 97 0
87 102 0
80 96 0
100 114 0
89 104 25
98 113 31
84 100 0
82 97 36
87 103 31
81 97 25
94 109 31
72 88 18
80 96 18
97 112 18
93 108 12
77 95 31
85 100 18
77 92 18
87 104 31
80 95 18
83 98 0
74 88 0
88 102 0
78 94 0
92 106 0
97 112 0
90 104 0
97 112 0
93 108 0
80 94 0
78 92 0
99 115 0
80 96 0
88 103 0
93 108 0
90 104 0
91 107 0
98 113 0
99 115 0
93 108 0
102 115 0
98 112 0
107 122 0
91 107 0
97 114 0
107 123 0
98 114 0
106 123 0
103 119 0
113 130 0
101 118 0
114 129 0
120 137 0
108 126 0
112 128 0
105 122 0
119 137 0
108 124 0
108 125 0
114 131 0
116 134 0
113 131 0
120 137 0
117 134 0
126 144 0
129 146 0
128 145 0
121 140 0
119 137 0
116 135 0
123 141 0
123 140 0
120 137 0
119 137 0
123 142 0
127 145 0
119 137 0
115 132 0
127 146 0
133 151 0
120 139 0
122 139 0
125 144 0
128 146 0
129 149 0
127 146 0
128 146 0
123 143 0
142 160 0
125 143 0
127 148 0
131 149 0
147 167 0
143 161 0
145 164 0
130 148 0
135 156 0
131 149 0
144 162 0
145 164 0
143 161 0
136 156 0
142 163 0
139 159 0
146 166 0
140 159 0
132 150 0
141 160 0
133 152 0
147 167 0
143 163 0
140 160 0
146 165 0
141 160 0
139 157 0
146 165 0
146 165 0
149 170 0
142 161 0
142 162 0
143 163 0
154 175 0
149 169 0
150 171 0
142 161 0
143 162 0
150 170 0
150 170 0
147 166 0
151 171 0
148 168 0
149 169 0
146 165 0
151 172 0
144 164 0
143 164 0
148 168 0
149 169 0
148 165 0
152 172 0
160 182 0
147 168 0
146 164 0
144 162 0
152 173 0
154 174 0
153 172 0
151 170 0
154 175 0
158 178 0
154 173 0
161 182 0
149 170 0
158 178 0
158 177 0
155 175 0
153 174 0
153 173 0
160 181 0
160 181 0
157 176 0
155 176 0
148 167 0
149 169 0
158 180 0
150 169 0
155 175 0
154 173 0
155 175 0
158 178 0
161 179 0
158 177 0
157 177 0
152 170 0
155 172 0
158 177 0
156 177 0
162 183 0
159 180 0
152 172 0
157 178 0
157 176 0
156 177 0
160 179 0
164 183 0
158 176 0
156 175 0
163 183 0
161 180 0
151 170 0
160 180 0
159 181 0
164 186 0
165 185 0
163 184 0
161 184 0
166 188 0
156 175 0
162 183 0
163 183 0
158 179 0
164 184 0
165 185 0
158 178 0
164 185 0
159 179 0
161 181 0
162 183 0
156 175 0
158 177 0
158 176 0
158 178 0
160 181 0
160 179 0
159 180 0
160 182 0
161 182 0
164 184 0
164 185 0
161 180 0
165 188 0
166 188 0
163 184 0
162 183 0
164 183 0
166 186 0
163 185 0
162 183 0
164 186 0
165 184 0
167 188 0
167 188 0
160 181 0
165 184 0
165 187 0
165 184 0
163 183 0
168 192 72
169 193 102
173 196 84
169 192 84
170 194 80
174 198 95
171 195 95
174 198 111
179 201 117
172 196 105
176 198 102
175 198 108
170 193 105
171 194 92
172 196 95
175 199 99
170 193 102
176 199 108
167 190 88
171 194 80
172 195 102
168 191 111
169 193 80
174 198 114
173 197 99
167 191 105
166 190 88
171 195 88
170 193 99
166 190 88
169 192 95
169 192 67
173 197 122
167 192 95
166 189 99
168 193 102
173 195 111
161 184 80
168 191 88
165 189 67
170 194 114
166 188 84
160 183 105
165 188 99
165 188 102
162 187 95
164 187 84
167 190 84
160 184 99
167 190 105
165 189 108
165 188 100
167 190 111
163 186 82
160 184 67
158 181 88
169 193 118
167 190 108
161 183 92
157 180 92
164 187 108
158 181 100
158 181 110
159 182 102
160 183 84
157 181 84
163 185 99
168 190 108
164 187 80
158 182 88
164 186 117
161 182 108
165 186 99
158 180 92
161 184 92
156 178 99
158 180 102
161 183 95
157 178 122
152 173 84
155 176 92
155 176 95
149 170 80
154 174 80
142 163 95
151 172 102
153 173 99
153 173 88
158 179 111
139 160 88
145 166 92
156 176 88
151 171 105
146 166 95
149 169 90
155 175 72
153 173 102
154 175 92
154 174 114
150 169 108
146 165 95
139 158 76
125 144 62
130 149 57
139 156 84
137 157 72
122 140 57
134 152 84
123 140 57
128 144 76
125 143 51
132 149 67
107 124 44
107 124 94
98 117 88
110 132 111
77 104 92
86 110 76
105 128 94
91 114 95
94 119 95
97 121 102
97 121 92
101 125 79
117 137 102
118 137 76
121 141 86
125 142 76
123 140 54
130 146 51
131 148 51
124 142 65
119 136 67
104 123 70
108 128 84
86 109 86
88 110 78
73 99 94
80 105 90
73 99 72
69 96 84
70 92 76
84 107 88
89 110 62
74 97 60
94 116 76
92 112 57
110 130 25
105 123 44
100 120 44
97 115 40
119 138 36
98 114 18
100 115 0
88 104 0
100 117 0
105 121 0
91 105 0
93 109 0
99 114 0
97 112 0
97 112 0
89 104 0
93 108 0
84 99 0
92 107 0
104 119 0
102 118 0
80 94 0
96 110 0
86 100 0
101 116 0
99 114 0
91 105 0
90 105 0
88 103 0
91 106 0
78 92 0
96 111 0
88 103 0
86 101 0
85 100 0
92 107 0
92 106 0
101 115 0
99 114 0
82 98 0
87 101 0
94 109 0
88 102 0
94 108 0
94 108 0
92 107 0
103 119 0
87 103 0
91 107 0
86 100 0
87 102 0
89 104 0
101 117 0
93 109 0
105 122 0
100 117 0
102 117 0
105 120 0
100 118 0
109 126 0
102 119 0
110 127 0
109 125 0
99 116 0
98 115 0
106 121 0
94 111 0
110 127 0
112 128 0
112 128 0
113 130 0
107 124 0
104 118 0
117 134 0
105 122 0
117 135 0
123 141 0
121 137 0
116 133 0
115 132 0
121 138 0
119 137 0
122 140 0
119 137 0
124 143 0
128 146 0
115 134 0
121 139 0
122 140 0
131 150 0
134 153 0
121 140 0
120 140 0
113 132 0
121 140 0
131 150 0
122 140 0
129 147 0
127 147 0
130 149 0
135 154 0
129 147 0
126 145 0
130 149 0
137 154 0
136 155 0
126 145 0
129 149 0
134 153 0
142 160 0
130 149 0
134 154 0
142 162 0
130 148 0
138 159 0
134 154 0
130 149 0
130 149 0
141 160 0
137 157 0
143 163 0
149 169 0
144 164 0
133 151 0
145 164 0
137 157 0
143 164 0
149 167 0
150 170 0
138 158 0
141 159 0
144 162 0
147 168 0
148 166 0
138 158 0
148 168 0
153 174 0
137 156 0
155 175 0
153 173 0
148 166 0
139 159 0
144 164 0
152 172 0
152 174 0
153 172 0
145 163 0
143 163 0
140 158 0
153 174 0
152 171 0
160 181 0
153 174 0
144 164 0
161 181 0
151 169 0
150 169 0
152 170 0
154 174 0
144 163 0
145 165 0
154 174 0
155 174 0
146 166 0
151 170 0
156 177 0
156 176 0
148 168 0
151 171 0
158 179 0
157 177 0
154 174 0
156 177 0
155 176 0
150 171 0
156 177 0
149 171 0
149 169 0
154 173 0
158 178 0
162 182 0
154 176 0
157 177 0
158 177 0
154 174 0
157 178 0
155 177 0
156 176 0
154 174 0
154 172 0
157 176 0
147 166 0
161 181 0
159 179 0
162 183 0
157 175 0
156 175 0
153 172 0
154 173 0
158 177 0
160 181 0
160 179 0
161 180 0
162 183 0
158 178 0
161 180 0
160 180 0
159 177 0
152 172 0
159 179 0
162 183 0
150 169 0
162 181 0
158 177 0
162 181 0
160 180 0
162 183 0
162 182 0
161 181 0
162 182 0
159 180 0
163 183 0
165 186 0
156 177 0
158 179 0
159 179 0
158 178 0
160 180 0
164 183 0
161 183 0
165 189 0
162 182 0
165 187 0
163 185 0
162 184 0
166 186 0
166 186 0
169 191 0
170 190 0
167 189 0
162 183 0
164 185 0
166 186 0
160 182 0
166 187 0
165 186 0
161 183 0
159 179 0
153 173 0
168 189 0
165 188 0
165 187 0
164 185 0
169 193 92
170 194 92
170 194 105
167 190 84
176 199 95
173 197 72
173 196 88
169 193 80
170 193 99
176 199 111
160 183 92
169 193 99
166 189 95
171 196 102
170 193 125
173 197 102
172 196 111
169 193 92
170 193 111
171 194 72
173 196 108
166 190 111
176 199 95
169 193 105
165 189 88
166 190 80
167 191 84
167 190 84
162 185 72
173 196 105
169 192 88
166 190 105
168 192 80
167 191 108
164 188 95
168 191 105
164 187 102
167 191 76
168 192 102
163 187 99
171 194 95
168 191 95
167 190 92
169 193 88
168 192 108
170 192 95
164 187 92
161 185 92
166 189 105
166 190 103
160 184 92
163 187 102
161 184 88
163 186 111
161 184 92
169 192 92
164 187 99
159 181 92
161 184 100
165 188 95
158 181 103
165 188 130
160 183 78
161 184 95
163 186 90
162 184 107
158 180 97
153 177 99
160 183 84
159 182 95
161 183 105
161 184 95
160 182 102
160 182 108
163 185 108
159 181 111
161 182 102
160 182 99
150 172 102
158 178 95
155 177 92
155 176 102
161 182 122
159 181 99
159 180 99
156 178 105
149 169 92
150 170 76
156 177 105
153 174 88
157 177 102
153 174 111
152 172 95
158 178 117
138 158 84
144 165 84
153 172 111
144 163 92
136 155 72
135 154 72
134 154 62
128 147 80
136 155 67
133 151 76
127 145 72
124 142 80
135 154 62
141 159 88
130 148 67
127 144 57
123 139 67
113 130 57
113 129 80
110 126 62
111 130 74
99 119 80
95 117 105
98 121 94
92 115 92
92 116 86
104 127 113
98 122 100
101 125 84
101 124 94
107 129 88
107 128 88
121 141 88
129 146 70
120 137 62
126 140 47
131 148 51
128 147 60
128 148 51
116 136 57
104 123 62
104 124 74
94 115 74
91 114 70
71 97 82
86 110 82
87 109 65
86 108 82
82 103 67
86 107 67
88 110 76
88 108 54
92 111 44
102 122 40
97 115 31
101 119 25
107 125 25
105 124 18
104 122 25
103 119 0
99 114 0
97 114 0
103 120 0
95 112 0
87 104 0
96 112 0
103 119 0
104 119 0
85 102 0
104 121 0
86 101 0
107 123 0
75 91 0
97 110 0
86 102 0
95 110 0
99 115 0
80 94 0
91 105 0
99 115 0
102 116 0
88 102 0
92 107 0
95 110 0
88 103 0
103 118 0
87 102 0
83 96 0
104 119 0
99 116 0
95 110 0
95 110 0
87 102 0
93 107 0
96 110 0
95 110 0
90 107 0
98 112 0
104 119 0
99 114 0
106 122 0
92 106 0
100 117 0
111 129 0
96 111 0
99 115 0
104 119 0
88 104 0
107 124 0
109 125 0
111 127 0
92 108 0
111 129 0
111 128 0
108 124 0
100 117 0
118 134 0
106 124 0
121 138 0
113 131 0
110 126 0
121 139 0
122 140 0
111 129 0
122 140 0
127 143 0
120 139 0
105 121 0
122 141 0
122 140 0
115 132 0
126 143 0
124 141 0
124 144 0
122 140 0
111 127 0
122 138 0
123 141 0
133 151 0
134 153 0
130 148 0
125 144 0
120 139 0
115 133 0
131 150 0
134 152 0
133 152 0
129 148 0
127 145 0
127 146 0
139 157 0
129 148 0
139 159 0
136 156 0
140 161 0
142 162 0
136 156 0
138 156 0
132 150 0
130 150 0
135 155 0
132 151 0
139 159 0
147 165 0
136 157 0
127 146 0
139 157 0
133 153 0
140 159 0
147 166 0
146 168 0
138 157 0
132 151 0
131 150 0
134 154 0
143 163 0
139 157 0
142 161 0
139 160 0
137 158 0
147 167 0
139 159 0
148 168 0
142 163 0
148 169 0
152 174 0
145 164 0
141 160 0
146 167 0
139 159 0
146 166 0
148 170 0
147 166 0
137 159 0
148 167 0
146 166 0
153 171 0
142 164 0
141 161 0
143 162 0
157 176 0
151 171 0
145 164 0
149 169 0
148 169 0
153 171 0
147 166 0
147 168 0
152 172 0
149 169 0
155 175 0
154 173 0
158 177 0
150 170 0
149 170 0
152 170 0
156 177 0
150 171 0
153 171 0
157 177 0
148 167 0
156 177 0
158 177 0
154 176 0
150 171 0
150 170 0
152 171 0
152 172 0
155 175 0
159 180 0
155 174 0
155 176 0
160 181 0
151 171 0
159 180 0
162 182 0
157 176 0
157 178 0
156 175 0
160 180 0
157 177 0
161 181 0
159 180 0
163 184 0
166 186 0
154 175 0
160 178 0
162 184 0
151 172 0
160 180 0
160 181 0
163 183 0
160 180 0
162 181 0
166 186 0
163 181 0
166 186 0
160 179 0
158 179 0
161 182 0
162 182 0
160 179 0
160 180 0
156 176 0
160 182 0
158 177 0
160 180 0
160 180 0
164 185 0
166 186 0
157 178 0
165 186 0
165 186 0
164 186 0
164 185 0
164 186 0
161 180 0
168 188 0
164 186 0
168 188 0
164 185 0
165 186 0
166 186 0
158 180 0
160 179 0
164 185 0
161 181 0
160 182 0
164 184 0
164 185 0
164 184 0
167 187 0
162 184 0
159 179 0
168 190 0
168 190 0
168 189 0
162 182 0
163 184 0
164 185 0
165 186 0
167 188 0
160 183 0
165 186 0
164 185 0
167 188 0
169 193 67
172 195 92
176 199 84
175 198 120
175 198 102
175 198 99
174 197 99
174 198 108
170 193 84
170 193 114
171 195 92
174 196 92
165 188 95
173 196 102
175 198 122
170 194 88
171 194 95
172 195 105
175 199 99
174 197 95
169 193 102
172 196 95
172 196 92
176 199 92
171 194 80
170 194 111
173 197 111
165 188 105
168 192 99
168 191 102
173 196 102
167 190 111
170 193 99
163 187 84
167 190 92
168 191 92
172 195 105
172 196 95
170 194 108
163 186 92
164 188 95
167 191 105
165 188 84
165 188 102
164 187 80
168 191 102
167 190 95
168 191 120
159 182 108
165 189 84
165 188 108
164 188 102
164 185 74
170 193 136
163 187 105
166 188 95
166 188 82
160 183 76
159 182 99
166 188 99
160 183 84
161 184 100
162 185 80
169 192 95
162 185 107
164 186 88
162 185 102
156 179 92
160 183 92
163 185 84
158 180 84
161 183 102
162 184 88
164 187 117
154 176 95
168 190 105
156 177 95
158 181 102
152 173 92
159 180 111
155 176 88
152 173 80
154 176 88
157 178 84
155 175 102
153 174 80
148 168 84
145 166 92
152 172 108
151 171 103
154 174 92
139 158 95
146 166 80
141 161 88
152 172 105
148 167 84
152 172 95
131 150 62
143 162 95
139 158 92
132 151 51
133 151 95
137 157 76
138 157 84
132 151 62
141 160 72
134 153 67
134 151 88
129 147 72
132 149 67
121 137 76
115 132 67
111 127 76
108 124 44
119 134 80
110 126 78
114 132 103
91 114 82
94 116 90
102 124 110
102 124 93
94 119 90
99 123 92
108 129 107
104 124 100
116 137 97
126 145 70
111 132 67
130 147 67
131 145 31
139 156 31
132 149 36
132 149 51
119 138 47
114 133 54
98 119 47
99 119 72
97 118 74
84 108 74
81 106 72
76 100 72
86 109 82
81 103 80
100 119 51
91 111 51
97 116 60
102 120 54
88 106 25
104 122 36
102 122 31
113 132 31
107 126 25
115 132 18
99 116 0
105 122 0
108 125 0
108 125 0
81 97 0
100 116 0
104 119 0
88 102 0
107 124 0
99 115 0
92 109 0
91 107 0
101 117 0
87 102 0
108 125 0
99 115 0
88 105 0
93 109 0
92 106 0
103 118 0
102 117 0
91 107 0
95 111 0
85 101 0
106 121 0
93 108 0
98 113 0
89 104 0
89 103 0
101 116 0
107 123 0
100 116 0
83 97 0
93 109 0
98 113 0
111 128 0
84 99 0
98 114 0
100 116 0
101 118 0
105 119 0
90 107 0
92 108 0
102 119 0
100 117 0
107 122 0
98 114 0
100 117 0
109 126 0
113 129 0
95 110 0
102 117 0
107 124 0
101 117 0
107 124 0
106 124 0
94 111 0
109 124 0
106 124 0
110 128 0
114 132 0
102 121 0
103 120 0
113 130 0
113 131 0
111 129 0
108 127 0
111 130 0
131 150 0
123 142 0
125 141 0
117 135 0
127 145 0
107 123 0
126 145 0
121 140 0
121 140 0
117 135 0
135 154 0
127 147 0
117 135 0
132 151 0
126 145 0
129 148 0
122 139 0
137 156 0
130 150 0
125 145 0
127 144 0
126 146 0
129 148 0
131 150 0
131 148 0
137 156 0
139 158 0
137 157 0
137 157 0
130 150 0
138 157 0
137 157 0
141 159 0
123 143 0
141 161 0
129 147 0
140 160 0
132 153 0
134 152 0
135 154 0
141 161 0
131 151 0
136 155 0
143 163 0
143 164 0
144 164 0
143 163 0
138 158 0
135 156 0
145 166 0
143 163 0
144 164 0
144 163 0
142 161 0
141 160 0
142 161 0
144 164 0
148 168 0
153 171 0
155 174 0
148 168 0
153 172 0
150 168 0
157 177 0
154 176 0
142 161 0
147 167 0
148 170 0
147 167 0
143 162 0
155 175 0
147 168 0
144 163 0
154 176 0
149 170 0
155 176 0
147 167 0
149 168 0
150 172 0
153 174 0
148 167 0
152 171 0
147 167 0
151 170 0
153 173 0
148 168 0
155 175 0
158 178 0
157 175 0
154 174 0
152 173 0
151 172 0
156 179 0
158 175 0
150 169 0
150 170 0
147 165 0
164 183 0
154 173 0
157 177 0
158 178 0
161 181 0
157 177 0
155 174 0
155 173 0
158 178 0
152 172 0
152 173 0
157 177 0
156 177 0
145 166 0
155 176 0
157 177 0
156 176 0
158 179 0
160 179 0
161 182 0
162 182 0
160 182 0
164 186 0
157 176 0
163 183 0
156 178 0
160 181 0
162 184 0
168 187 0
169 190 0
157 176 0
160 179 0
162 183 0
159 179 0
160 181 0
162 184 0
153 174 0
159 179 0
163 184 0
158 179 0
160 182 0
162 182 0
162 183 0
158 178 0
164 186 0
159 180 0
158 180 0
162 180 0
166 186 0
162 183 0
162 183 0
164 184 0
163 183 0
159 180 0
162 182 0
163 182 0
166 187 0
161 181 0
161 182 0
157 178 0
164 185 0
158 178 0
164 186 0
160 180 0
160 181 0
170 191 0
164 185 0
165 186 0
158 179 0
159 180 0
163 184 0
169 190 0
163 184 0
165 185 0
164 185 0
168 190 0
164 184 0
168 188 0
164 184 0
166 188 0
163 183 0
169 190 0
175 199 102
170 194 102
175 198 105
173 196 114
166 190 102
174 197 99
167 191 84
177 200 105
169 192 99
170 194 105
173 196 105
169 192 95
172 196 102
170 194 92
171 194 92
171 194 108
168 192 95
172 195 95
172 194 99
170 193 84
171 194 108
167 191 95
172 195 117
166 190 92
168 192 99
172 195 122
174 198 111
170 194 111
170 194 111
166 190 80
168 192 88
174 197 102
162 185 84
165 189 102
169 192 114
165 188 114
167 191 88
168 191 92
168 192 120
162 185 72
168 192 105
161 185 84
164 187 99
169 193 80
166 189 95
171 195 99
154 176 62
166 189 95
169 192 84
166 190 103
155 177 92
160 184 76
159 182 92
160 183 92
160 184 111
172 194 108
167 191 128
159 183 108
166 189 95
163 186 114
165 188 72
161 184 88
165 189 114
169 192 121
161 184 95
159 182 102
159 182 94
166 188 105
166 189 108
154 176 88
157 180 95
159 181 102
157 178 88
152 174 92
161 183 99
157 180 92
155 178 99
161 184 105
156 178 95
150 172 84
159 181 99
159 181 102
156 177 84
146 166 99
156 176 95
155 176 80
159 181 88
146 167 102
161 181 114
151 172 105
152 173 84
154 175 99
157 177 95
147 168 84
146 166 95
150 170 88
150 169 88
145 164 99
140 159 80
148 167 92
138 157 105
138 157 80
148 166 99
140 158 88
139 158 84
144 162 95
126 144 51
124 142 57
124 141 67
131 149 84
115 131 76
121 137 62
129 146 88
121 137 72
123 138 80
119 135 78
107 124 74
101 119 76
119 138 105
92 114 90
99 121 92
103 126 94
110 132 113
103 125 92
105 126 67
115 136 72
117 137 78
129 147 54
128 147 51
137 156 40
143 160 0
139 155 25
129 143 25
134 152 31
124 143 36
117 138 57
106 126 57
103 124 57
79 101 70
87 108 54
82 102 60
93 112 54
100 119 44
89 108 57
100 118 44
97 115 31
110 127 0
122 141 0
112 130 25
111 128 0
110 126 0
98 114 0
113 131 0
109 126 0
109 126 0
110 127 0
101 118 0
110 126 0
118 134 0
108 126 0
103 118 0
95 112 0
104 120 0
101 117 0
96 111 0
96 112 0
98 114 0
100 116 0
94 110 0
99 113 0
99 116 0
101 115 0
97 113 0
99 115 0
98 113 0
101 118 0
89 105 0
92 108 0
86 103 0
97 112 0
93 109 0
91 107 0
103 119 0
104 120 0
101 117 0
105 121 0
113 129 0
96 112 0
95 111 0
96 112 0
97 113 0
102 118 0
102 118 0
104 120 0
97 115 0
96 112 0
105 121 0
97 113 0
104 119 0
89 105 0
91 106 0
102 118 0
105 122 0
109 126 0
101 117 0
110 126 0
103 120 0
111 129 0
109 125 0
122 141 0
103 120 0
122 140 0
122 139 0
115 133 0
117 135 0
110 128 0
118 137 0
125 144 0
113 130 0
114 133 0
113 132 0
100 118 0
136 155 0
121 141 0
113 131 0
123 142 0
131 150 0
116 134 0
121 141 0
113 131 0
134 153 0
139 158 0
134 152 0
119 139 0
124 142 0
129 150 0
124 144 0
129 148 0
130 147 0
127 146 0
129 148 0
131 150 0
132 151 0
135 152 0
139 160 0
128 147 0
127 147 0
144 163 0
123 141 0
133 152 0
138 156 0
128 146 0
136 155 0
138 158 0
139 158 0
135 154 0
134 153 0
145 166 0
141 161 0
141 159 0
146 166 0
138 158 0
134 153 0
151 171 0
130 148 0
146 166 0
137 156 0
148 169 0
134 153 0
138 157 0
136 154 0
148 168 0
142 160 0
147 167 0
143 163 0
142 163 0
145 165 0
142 161 0
146 166 0
135 155 0
147 168 0
153 174 0
145 163 0
147 169 0
147 165 0
153 172 0
150 170 0
153 174 0
147 167 0
149 170 0
156 176 0
140 160 0
150 169 0
144 166 0
143 164 0
147 167 0
151 172 0
154 173 0
146 167 0
153 172 0
158 179 0
157 178 0
155 176 0
150 169 0
151 171 0
151 171 0
156 177 0
146 167 0
147 165 0
152 171 0
155 175 0
156 176 0
150 170 0
157 178 0
153 175 0
152 170 0
151 173 0
151 173 0
160 181 0
148 167 0
151 171 0
158 177 0
153 173 0
161 182 0
153 172 0
152 171 0
157 178 0
157 177 0
161 181 0
161 180 0
156 175 0
161 179 0
162 183 0
154 174 0
164 186 0
159 179 0
155 176 0
156 178 0
161 183 0
161 181 0
154 173 0
153 171 0
153 172 0
166 187 0
164 185 0
158 176 0
162 182 0
166 187 0
160 180 0
164 185 0
164 184 0
161 183 0
160 180 0
156 177 0
159 179 0
158 177 0
158 178 0
162 181 0
163 182 0
162 184 0
164 185 0
167 189 0
162 183 0
157 177 0
164 184 0
166 185 0
163 183 0
152 169 0
162 183 0
162 182 0
160 181 0
160 181 0
168 188 0
163 184 0
165 185 0
163 185 0
159 178 0
164 186 0
165 185 0
165 187 0
159 181 0
164 185 0
162 184 0
166 187 0
169 189 0
165 185 0
167 189 0
164 185 0
166 188 0
159 180 0
165 186 0
165 186 0
166 188 0
167 189 0
163 185 0
164 186 0
167 188 0
161 181 0
168 189 0
168 190 0
171 195 92
174 198 105
175 199 114
172 195 102
172 196 95
172 195 88
170 193 92
173 197 105
174 197 99
172 196 102
172 196 102
172 195 99
169 193 72
170 193 99
172 194 111
172 195 84
167 191 105
173 196 114
165 188 105
170 193 99
168 191 84
172 196 72
167 190 67
168 191 95
169 193 108
173 196 92
169 192 84
167 191 80
168 191 92
169 192 76
168 191 105
168 191 102
171 194 108
171 195 99
168 190 84
169 192 102
170 194 84
171 194 92
171 194 111
170 194 117
161 184 92
167 190 95
161 184 84
161 185 80
162 186 80
161 185 92
168 191 99
167 190 105
170 192 110
164 187 88
165 189 95
171 194 103
161 183 99
159 182 78
166 189 95
155 178 86
165 188 88
161 184 86
162 186 99
159 182 92
158 182 102
166 188 80
166 188 122
162 184 92
167 189 122
161 184 111
162 184 102
158 181 111
160 184 100
161 184 92
166 188 108
154 176 100
168 190 102
163 185 114
163 185 99
167 190 117
158 180 80
159 181 99
154 176 99
159 179 95
159 180 102
153 175 111
157 178 111
158 180 108
152 174 99
152 174 72
142 163 76
149 169 108
154 175 102
159 178 99
149 169 99
156 176 111
145 164 95
152 173 84
145 166 102
141 161 67
146 166 88
137 157 84
140 159 72
138 157 102
142 162 92
137 155 76
144 162 92
132 150 80
135 153 72
126 146 57
139 157 88
130 148 80
132 149 84
123 141 51
131 149 62
123 140 57
134 151 99
119 136 67
117 135 51
121 137 72
93 107 62
126 142 78
100 117 78
86 105 72
102 122 105
98 119 95
89 113 74
100 123 88
110 131 87
102 122 67
115 135 65
123 143 60
139 158 31
140 158 25
138 153 0
130 146 0
143 162 0
136 152 0
136 154 40
113 129 25
119 135 36
110 127 25
109 125 44
99 116 36
99 115 40
103 119 36
96 114 40
109 126 31
100 118 25
106 121 0
97 115 18
119 136 0
94 111 18
103 120 0
97 114 0
118 135 0
110 129 0
97 113 0
105 121 0
104 120 0
109 127 0
114 130 0
108 126 0
96 113 0
102 118 0
102 118 0
100 116 0
107 124 0
102 118 0
107 123 0
102 118 0
87 104 0
102 118 0
101 118 0
81 97 0
100 117 0
94 109 0
87 102 0
98 114 0
94 110 0
96 111 0
102 118 0
92 109 0
103 120 0
103 119 0
98 114 0
90 106 0
104 121 0
92 107 0
103 118 0
95 111 0
99 113 0
95 112 0
93 107 0
92 108 0
104 121 0
104 121 0
111 127 0
93 109 0
94 110 0
102 120 0
98 115 0
96 113 0
108 126 0
108 125 0
108 124 0
95 113 0
111 127 0
111 128 0
115 132 0
121 139 0
111 128 0
107 124 0
114 131 0
123 140 0
109 128 0
116 134 0
109 125 0
120 138 0
124 143 0
114 132 0
115 132 0
121 140 0
119 137 0
124 143 0
119 135 0
117 132 0
112 129 0
124 143 0
113 131 0
114 132 0
111 129 0
111 130 0
126 144 0
125 142 0
122 142 0
124 142 0
113 131 0
127 146 0
125 144 0
131 150 0
110 129 0
129 149 0
132 151 0
134 152 0
122 141 0
123 143 0
132 150 0
136 155 0
131 149 0
128 148 0
126 145 0
147 166 0
129 147 0
130 149 0
134 153 0
139 158 0
132 152 0
137 156 0
132 153 0
137 157 0
124 142 0
130 149 0
133 152 0
134 154 0
140 159 0
136 156 0
128 148 0
137 157 0
133 151 0
133 152 0
147 169 0
146 166 0
145 165 0
139 158 0
139 158 0
141 162 0
151 170 0
152 172 0
146 167 0
150 171 0
147 167 0
143 162 0
150 169 0
155 175 0
146 166 0
144 164 0
147 169 0
151 171 0
154 174 0
152 171 0
150 171 0
152 172 0
149 169 0
149 168 0
147 167 0
148 166 0
154 176 0
146 167 0
153 174 0
153 172 0
151 170 0
155 175 0
153 173 0
153 174 0
150 169 0
149 170 0
155 176 0
143 164 0
158 179 0
158 178 0
154 175 0
153 174 0
152 173 0
154 173 0
156 174 0
162 183 0
155 173 0
151 169 0
148 167 0
152 173 0
154 174 0
149 168 0
154 175 0
156 177 0
155 175 0
159 179 0
158 179 0
156 177 0
152 174 0
156 177 0
159 178 0
157 175 0
155 176 0
157 178 0
160 181 0
159 180 0
157 178 0
153 173 0
162 183 0
154 174 0
162 183 0
160 179 0
157 177 0
163 183 0
160 181 0
157 178 0
157 178 0
160 180 0
162 183 0
157 176 0
161 182 0
164 184 0
154 175 0
160 180 0
160 181 0
151 172 0
167 188 0
159 180 0
161 181 0
165 186 0
164 187 0
155 173 0
161 181 0
155 175 0
161 183 0
162 185 0
162 183 0
164 186 0
164 185 0
161 181 0
164 185 0
163 183 0
158 179 0
164 185 0
165 184 0
162 183 0
160 181 0
163 184 0
163 181 0
164 183 0
163 183 0
161 182 0
160 180 0
162 182 0
161 182 0
164 186 0
161 182 0
161 182 0
163 183 0
166 186 0
164 183 0
164 185 0
161 182 0
165 185 0
162 184 0
161 182 0
168 190 0
165 187 0
162 182 0
164 185 0
170 191 0
165 184 0
169 190 0
171 193 95
172 195 95
172 196 95
174 198 102
173 196 105
171 194 92
168 192 76
171 195 72
174 198 99
173 196 105
171 195 99
176 199 95
171 194 80
174 197 99
172 195 120
170 192 88
171 195 102
170 194 76
167 190 102
171 195 88
173 195 84
165 189 88
171 194 80
174 198 120
170 194 95
170 194 76
172 195 105
172 195 95
169 193 99
167 190 88
170 193 102
165 188 62
171 194 111
172 196 108
169 193 105
165 188 92
168 191 92
166 189 80
168 191 102
161 186 80
168 191 80
167 190 102
162 186 108
172 194 108
168 192 88
158 181 88
166 189 107
166 189 107
164 187 76
164 187 97
167 191 102
164 189 117
165 188 95
159 184 99
167 190 118
162 185 108
158 181 78
159 183 94
159 182 95
167 191 111
166 189 102
160 183 84
157 180 76
167 189 105
162 184 105
158 181 95
154 177 107
162 185 92
158 181 84
160 183 105
162 185 76
156 179 76
167 189 114
156 178 88
163 185 105
159 181 120
160 181 111
152 174 102
156 178 99
151 172 88
153 174 84
163 185 102
158 179 108
166 188 135
154 175 111
162 184 99
155 176 84
154 175 114
163 184 114
151 172 108
147 168 95
151 171 95
153 172 92
144 165 84
151 171 99
148 167 99
146 165 99
147 167 92
145 164 88
145 164 102
141 159 67
145 165 88
152 171 76
129 147 84
138 157 67
139 157 80
136 154 72
134 153 72
126 144 62
117 135 57
129 146 80
129 146 84
117 134 62
120 136 44
124 140 72
129 147 51
107 123 72
112 126 72
113 129 54
102 120 70
85 103 76
89 108 60
91 111 94
101 123 78
106 127 78
107 126 67
128 146 65
125 146 67
131 148 44
134 153 25
145 162 0
147 165 18
135 153 0
130 146 0
136 152 0
122 140 0
117 135 0
111 127 0
110 128 0
99 115 18
115 131 31
102 118 36
106 124 18
106 123 0
103 120 0
105 123 0
116 133 0
107 124 0
108 125 0
110 128 0
120 138 0
110 129 0
109 127 0
107 124 0
103 120 0
110 126 0
105 123 0
111 128 0
106 123 0
112 129 0
107 124 0
107 125 0
109 126 0
94 112 0
112 129 0
101 118 0
104 120 0
105 122 0
95 112 0
103 119 0
92 108 0
104 121 0
98 115 0
101 118 0
99 115 0
105 122 0
110 127 0
100 115 0
87 103 0
102 120 0
110 128 0
94 111 0
100 116 0
108 126 0
103 120 0
103 118 0
112 128 0
116 134 0
97 112 0
104 121 0
113 129 0
98 114 0
97 113 0
100 118 0
110 125 0
114 129 0
106 123 0
106 123 0
101 118 0
112 128 0
116 133 0
109 127 0
123 141 0
112 129 0
109 127 0
115 132 0
120 138 0
105 122 0
111 129 0
119 136 0
109 127 0
120 138 0
121 140 0
120 137 0
122 141 0
108 127 0
109 128 0
124 142 0
120 138 0
119 136 0
117 133 0
101 118 0
119 137 0
126 143 0
115 132 0
118 137 0
130 149 0
111 130 0
120 138 0
130 149 0
126 144 0
130 149 0
117 138 0
134 154 0
127 145 0
132 151 0
137 157 0
128 147 0
131 150 0
128 146 0
127 146 0
132 152 0
133 151 0
145 164 0
135 156 0
139 158 0
135 153 0
133 152 0
128 147 0
134 153 0
137 157 0
137 157 0
138 158 0
133 152 0
141 160 0
138 159 0
137 156 0
139 159 0
145 164 0
134 155 0
145 166 0
140 160 0
143 164 0
147 166 0
141 160 0
147 167 0
143 162 0
138 157 0
140 158 0
150 169 0
144 164 0
144 163 0
135 153 0
146 166 0
145 165 0
144 163 0
148 168 0
145 164 0
142 162 0
141 160 0
150 171 0
156 177 0
147 167 0
142 163 0
147 167 0
146 165 0
149 171 0
143 164 0
152 172 0
155 176 0
151 172 0
147 168 0
153 174 0
153 173 0
152 171 0
154 175 0
143 164 0
156 176 0
151 172 0
154 175 0
153 172 0
152 172 0
154 176 0
152 173 0
151 170 0
158 178 0
154 173 0
161 182 0
153 172 0
146 166 0
157 178 0
160 179 0
156 176 0
153 173 0
151 173 0
152 173 0
160 182 0
155 176 0
155 176 0
151 172 0
157 179 0
157 178 0
152 173 0
158 179 0
162 183 0
161 182 0
165 187 0
155 175 0
157 176 0
159 179 0
153 172 0
157 177 0
158 177 0
160 182 0
158 178 0
155 175 0
154 174 0
156 176 0
160 178 0
158 178 0
157 177 0
156 175 0
161 181 0
160 181 0
163 185 0
160 183 0
160 181 0
156 177 0
158 179 0
160 181 0
160 181 0
162 182 0
159 178 0
155 176 0
160 181 0
163 184 0
159 180 0
157 178 0
156 177 0
163 184 0
161 182 0
165 186 0
166 186 0
159 180 0
160 181 0
163 184 0
166 187 0
159 180 0
165 186 0
156 176 0
160 181 0
161 183 0
164 186 0
159 180 0
163 184 0
167 187 0
162 183 0
161 183 0
166 187 0
168 190 0
166 188 0
166 188 0
166 188 0
164 186 0
160 179 0
162 184 0
168 191 0
164 185 0
165 187 0
160 180 0
167 185 0
165 187 0
167 189 0
160 181 0
164 185 0
166 187 0
164 186 0
166 188 0
167 188 0
165 186 0
168 192 102
174 197 80
174 196 76
172 197 111
174 197 102
172 195 88
166 190 76
178 201 111
174 197 114
168 192 80
176 199 88
171 194 95
176 198 108
167 190 84
174 198 117
171 196 128
170 193 57
175 198 122
170 193 88
172 196 111
170 193 108
174 197 95
166 190 95
166 189 99
169 192 105
172 195 95
173 196 95
160 184 72
167 190 80
163 187 80
169 193 92
165 188 84
164 187 99
169 192 92
170 194 99
170 193 88
167 191 88
170 193 102
167 191 117
169 192 95
162 185 72
164 187 99
166 189 105
162 186 130
168 191 108
166 189 111
161 185 88
160 183 99
163 187 92
168 193 115
162 184 85
161 184 108
173 196 111
167 190 76
168 191 111
158 181 78
168 191 99
164 185 88
166 189 108
159 181 80
162 185 95
162 185 103
162 186 92
161 183 92
155 178 86
160 182 105
162 184 94
163 186 95
162 185 102
161 183 86
158 180 67
158 180 99
164 186 92
152 173 80
158 180 108
160 182 114
161 183 102
153 175 84
158 179 84
153 175 88
158 180 99
148 168 92
157 178 99
155 177 92
154 176 95
164 184 108
161 181 95
169 190 114
154 175 95
158 179 105
150 169 95
149 169 92
148 169 99
144 164 99
153 173 102
143 163 76
151 170 105
141 161 84
148 167 111
144 163 99
151 170 99
129 149 76
147 166 95
152 171 84
137 156 99
135 153 67
139 157 88
124 141 76
134 151 72
126 145 62
127 144 62
128 145 67
118 134 57
118 135 51
116 131 57
125 143 62
124 140 57
126 143 84
118 133 62
117 135 36
122 138 62
101 118 47
105 123 57
111 129 67
112 131 80
108 127 60
122 140 65
128 147 44
132 151 36
135 153 18
143 160 18
147 163 0
135 153 18
144 161 0
144 161 0
124 141 0
127 144 0
128 146 0
121 137 0
118 135 0
117 133 0
106 123 0
101 116 0
113 129 0
105 122 0
103 120 0
109 126 0
118 136 0
115 132 0
126 145 0
115 132 0
114 132 0
120 137 0
112 128 0
119 136 0
115 133 0
113 130 0
114 131 0
109 125 0
110 127 0
100 120 0
106 122 0
100 116 0
111 128 0
107 124 0
101 118 0
109 126 0
102 120 0
107 124 0
102 119 0
95 111 0
99 115 0
95 111 0
112 128 0
105 123 0
100 116 0
93 110 0
112 129 0
106 123 0
100 117 0
102 119 0
107 124 0
98 115 0
97 114 0
103 121 0
111 128 0
104 122 0
110 128 0
107 123 0
105 122 0
113 129 0
107 123 0
99 116 0
110 127 0
108 124 0
118 135 0
117 136 0
108 126 0
93 110 0
104 121 0
94 111 0
109 126 0
78 94 0
115 131 0
101 117 0
113 130 0
107 123 0
108 126 0
109 127 0
109 127 0
110 128 0
118 135 0
114 131 0
105 124 0
117 135 0
114 132 0
115 134 0
121 138 0
112 131 0
111 130 0
116 134 0
116 134 0
128 147 0
129 147 0
122 140 0
126 147 0
132 151 0
119 137 0
123 142 0
132 152 0
122 140 0
120 138 0
118 137 0
126 146 0
123 141 0
133 152 0
139 158 0
135 153 0
124 142 0
126 146 0
131 150 0
140 159 0
133 151 0
131 152 0
136 156 0
130 148 0
128 146 0
132 152 0
139 158 0
129 147 0
132 150 0
136 155 0
140 161 0
135 155 0
140 160 0
131 148 0
135 156 0
147 168 0
144 163 0
141 160 0
134 155 0
130 149 0
143 161 0
140 160 0
132 152 0
147 168 0
151 171 0
139 158 0
139 159 0
145 166 0
148 167 0
141 162 0
150 167 0
141 159 0
141 162 0
150 170 0
138 159 0
152 172 0
146 167 0
149 170 0
141 160 0
142 163 0
144 165 0
148 170 0
151 172 0
149 170 0
151 171 0
156 178 0
142 161 0
151 171 0
148 167 0
143 166 0
150 170 0
150 170 0
158 180 0
147 169 0
150 169 0
155 175 0
147 167 0
152 172 0
150 171 0
146 164 0
154 174 0
147 167 0
148 170 0
152 173 0
150 170 0
151 171 0
154 173 0
157 177 0
153 174 0
151 171 0
154 174 0
159 181 0
157 178 0
157 177 0
158 177 0
153 173 0
156 176 0
157 178 0
159 180 0
148 168 0
147 167 0
155 175 0
161 183 0
156 177 0
156 178 0
159 181 0
160 180 0
158 179 0
156 176 0
162 182 0
162 183 0
156 174 0
160 181 0
157 178 0
159 180 0
158 179 0
160 181 0
152 173 0
163 184 0
155 176 0
153 173 0
163 184 0
153 172 0
164 186 0
155 175 0
155 176 0
165 185 0
157 179 0
161 180 0
161 182 0
161 181 0
158 181 0
164 185 0
160 182 0
156 176 0
155 176 0
161 182 0
158 179 0
166 186 0
166 187 0
162 182 0
158 179 0
159 180 0
154 176 0
163 183 0
164 182 0
161 183 0
161 181 0
168 189 0
165 188 0
163 184 0
164 185 0
164 186 0
163 183 0
163 184 0
164 185 0
164 185 0
163 185 0
164 185 0
166 187 0
163 184 0
165 186 0
163 184 0
158 179 0
162 183 0
166 187 0
164 186 0
162 182 0
160 181 0
165 185 0
163 184 0
165 186 0
166 187 0
160 182 0
167 190 0
166 188 0
169 191 0
167 188 0
175 197 95
175 198 111
172 196 80
172 195 99
174 196 99
175 198 102
173 196 105
172 196 105
169 193 88
175 198 105
170 193 95
172 195 111
171 194 99
176 200 108
176 199 111
172 196 88
168 192 84
172 196 99
171 195 99
168 191 80
173 197 88
165 189 84
171 196 102
169 193 102
169 192 88
172 196 111
160 183 72
163 187 84
165 188 102
166 189 80
163 188 108
167 191 84
167 191 99
167 191 84
168 191 95
169 193 102
165 188 99
168 191 102
168 192 95
171 195 122
170 192 120
163 186 95
161 185 80
167 190 99
169 193 80
165 189 102
166 189 102
162 185 80
168 191 100
154 177 67
160 183 84
162 184 95
158 182 105
158 181 72
161 184 80
167 190 92
162 185 92
163 187 90
160 184 103
169 192 114
157 180 76
163 187 95
161 184 92
164 187 120
162 185 99
157 179 90
164 186 95
168 191 108
163 186 102
161 185 111
164 186 108
160 183 102
157 179 95
158 180 97
162 183 99
156 179 102
157 179 88
155 177 72
168 189 92
156 178 102
166 187 114
145 166 67
153 174 102
152 173 67
152 173 92
152 173 102
153 174 80
153 175 88
151 173 62
157 177 108
154 174 108
152 172 108
146 167 88
165 186 111
154 174 84
154 174 99
148 167 94
146 166 95
144 163 92
154 174 95
151 170 111
135 153 92
149 168 88
148 166 88
146 165 95
136 154 80
140 158 88
145 164 80
147 166 80
140 159 76
127 145 62
127 144 67
134 153 88
108 125 62
117 134 57
107 123 36
108 124 62
120 136 44
128 144 51
126 141 62
125 141 72
99 114 40
117 133 51
114 132 60
106 125 54
114 131 44
133 152 36
122 140 31
136 154 18
132 147 0
137 153 0
141 160 0
136 155 0
134 152 0
126 144 0
136 156 0
125 143 0
125 142 0
119 138 0
118 134 0
116 134 0
113 131 0
119 136 0
114 131 0
109 125 0
116 133 0
125 143 0
118 136 0
130 148 0
115 132 0
118 137 0
109 128 0
121 140 0
116 132 0
103 121 0
121 139 0
112 130 0
115 133 0
101 118 0
100 117 0
113 131 0
115 132 0
109 127 0
102 119 0
103 120 0
113 130 0
109 127 0
110 126 0
93 109 0
109 125 0
105 122 0
99 115 0
97 114 0
107 122 0
112 128 0
111 128 0
107 124 0
115 132 0
106 122 0
102 120 0
98 115 0
91 108 0
97 114 0
108 126 0
106 122 0
121 139 0
89 106 0
111 129 0
93 110 0
103 120 0
103 120 0
110 128 0
115 131 0
103 121 0
103 120 0
108 125 0
108 125 0
125 143 0
108 125 0
119 137 0
109 127 0
109 126 0
119 137 0
100 117 0
105 120 0
105 122 0
111 130 0
115 133 0
123 141 0
111 128 0
126 144 0
108 124 0
124 141 0
129 146 0
119 137 0
116 135 0
117 135 0
121 138 0
126 144 0
122 139 0
130 149 0
123 143 0
131 150 0
122 142 0
131 150 0
126 144 0
120 138 0
130 150 0
127 146 0
120 139 0
136 157 0
126 145 0
119 138 0
137 156 0
114 130 0
128 147 0
125 144 0
134 155 0
131 150 0
123 142 0
141 161 0
133 151 0
138 157 0
134 153 0
131 151 0
135 154 0
136 155 0
139 160 0
131 152 0
141 160 0
138 157 0
139 159 0
135 154 0
141 160 0
139 160 0
134 155 0
145 166 0
141 161 0
134 153 0
145 166 0
141 162 0
145 165 0
135 154 0
144 166 0
146 165 0
144 163 0
140 158 0
141 160 0
131 150 0
140 161 0
148 165 0
146 166 0
146 167 0
139 160 0
147 167 0
148 167 0
146 167 0
151 173 0
146 168 0
149 170 0
149 170 0
146 166 0
149 168 0
145 166 0
145 165 0
147 165 0
146 165 0
145 164 0
144 164 0
144 163 0
152 172 0
153 173 0
150 171 0
151 172 0
144 165 0
148 169 0
152 172 0
153 173 0
155 176 0
145 165 0
150 171 0
150 169 0
146 166 0
152 173 0
155 175 0
143 162 0
148 168 0
150 170 0
148 167 0
158 179 0
155 177 0
150 171 0
151 170 0
153 173 0
160 180 0
148 167 0
155 176 0
162 183 0
151 171 0
155 177 0
159 179 0
155 175 0
158 179 0
154 175 0
156 179 0
153 173 0
155 175 0
151 171 0
162 184 0
155 176 0
163 182 0
159 180 0
162 184 0
155 175 0
154 176 0
160 181 0
156 177 0
153 173 0
159 179 0
155 176 0
163 185 0
160 182 0
166 187 0
163 184 0
155 175 0
158 180 0
162 183 0
162 183 0
159 180 0
157 178 0
157 175 0
161 179 0
162 183 0
164 185 0
162 183 0
162 182 0
156 176 0
163 186 0
164 185 0
155 176 0
163 184 0
158 177 0
162 184 0
164 184 0
168 190 0
163 184 0
162 183 0
161 181 0
161 183 0
165 187 0
164 182 0
159 181 0
167 188 0
166 187 0
169 191 0
166 187 0
162 183 0
162 182 0
165 187 0
164 185 0
163 185 0
163 184 0
166 187 0
162 184 0
167 188 0
167 188 0
166 186 0
165 185 0
163 186 0
163 185 0
164 186 0
164 185 0
170 192 0
164 185 0
167 189 0
165 186 0
166 188 0
167 187 0
167 188 0
167 189 0
172 196 92
168 191 95
171 193 84
170 193 99
173 196 76
173 196 99
170 194 102
173 197 117
170 195 105
171 194 99
174 198 95
171 196 95
174 197 95
170 194 102
173 197 108
169 193 105
167 191 88
166 189 92
169 192 84
166 189 95
167 191 72
173 196 102
169 193 105
170 194 108
171 195 95
164 188 92
169 193 84
170 194 88
171 195 105
169 193 95
171 195 76
168 191 76
166 190 95
164 187 84
167 190 105
167 191 95
165 188 76
171 195 108
168 191 105
165 189 92
164 188 88
169 191 102
163 186 80
159 183 92
167 191 95
173 196 102
160 183 99
174 198 117
166 189 103
165 189 114
160 184 95
160 182 80
160 184 76
165 188 84
156 179 102
159 182 80
157 180 78
163 186 128
156 179 84
158 181 76
165 187 102
164 187 80
159 182 92
156 179 82
165 188 108
155 179 94
161 183 88
164 186 108
162 184 105
158 181 102
163 184 95
155 177 72
163 186 125
165 188 111
155 178 99
165 186 111
161 183 111
160 181 92
154 176 92
160 182 84
159 181 102
162 183 125
156 176 105
156 177 95
158 179 88
157 179 102
160 181 108
153 173 122
157 176 117
156 177 108
153 174 95
159 179 102
150 172 95
152 172 95
152 173 76
146 166 92
164 183 114
139 158 95
150 169 95
142 161 99
149 168 105
150 168 122
141 160 84
155 175 92
129 147 62
144 163 95
143 163 76
137 155 88
135 154 72
143 161 72
134 152 67
132 151 76
133 151 76
134 152 62
132 150 76
110 128 44
131 148 62
118 135 51
113 129 57
114 131 36
118 134 57
113 128 57
125 142 36
116 133 57
113 129 44
125 143 47
125 142 0
130 147 0
134 153 25
144 164 0
142 160 0
147 165 0
142 160 0
133 151 0
138 154 0
124 142 0
123 141 0
134 152 0
127 146 0
122 139 0
126 142 0
113 129 0
103 120 0
114 131 0
108 126 0
117 135 0
109 127 0
126 144 0
110 130 0
129 146 0
108 126 0
119 137 0
118 136 0
114 132 0
103 121 0
120 137 0
121 140 0
110 127 0
114 132 0
107 124 0
113 131 0
117 134 0
112 130 0
96 113 0
98 115 0
97 113 0
111 129 0
110 127 0
99 116 0
110 128 0
101 118 0
122 139 0
110 128 0
121 138 0
108 125 0
113 130 0
108 124 0
114 130 0
111 129 0
111 128 0
103 120 0
119 137 0
109 127 0
101 118 0
113 129 0
104 121 0
112 130 0
103 119 0
101 118 0
110 127 0
111 129 0
106 124 0
110 126 0
101 118 0
109 126 0
100 117 0
116 132 0
97 114 0
107 124 0
104 121 0
101 119 0
114 132 0
113 131 0
118 136 0
103 122 0
109 126 0
117 135 0
120 137 0
125 144 0
113 131 0
126 145 0
127 146 0
113 131 0
109 126 0
113 131 0
122 140 0
124 143 0
112 130 0
127 146 0
125 146 0
120 139 0
128 148 0
126 145 0
127 146 0
118 137 0
109 126 0
133 152 0
120 139 0
128 146 0
134 153 0
129 148 0
131 150 0
132 150 0
130 149 0
127 147 0
131 150 0
133 152 0
129 149 0
131 151 0
131 151 0
135 154 0
130 149 0
132 152 0
131 150 0
132 151 0
136 155 0
132 153 0
137 157 0
134 155 0
134 154 0
141 161 0
143 164 0
147 166 0
139 158 0
139 160 0
135 155 0
133 153 0
129 149 0
133 154 0
135 155 0
145 164 0
135 155 0
135 154 0
150 171 0
140 159 0
141 162 0
141 159 0
142 163 0
153 172 0
141 163 0
144 164 0
136 156 0
150 168 0
150 171 0
151 172 0
145 167 0
146 167 0
141 161 0
139 159 0
145 164 0
145 165 0
146 165 0
148 169 0
139 159 0
154 174 0
146 167 0
148 170 0
160 180 0
153 175 0
157 179 0
146 165 0
156 177 0
151 172 0
155 176 0
151 171 0
154 174 0
153 172 0
148 169 0
147 167 0
147 168 0
153 171 0
149 169 0
150 171 0
160 182 0
145 165 0
153 173 0
150 171 0
148 169 0
147 168 0
149 172 0
156 178 0
157 178 0
157 177 0
162 184 0
163 185 0
155 175 0
153 173 0
161 183 0
162 182 0
153 173 0
153 173 0
156 178 0
156 175 0
152 172 0
156 177 0
153 176 0
155 175 0
159 180 0
149 170 0
157 178 0
159 180 0
156 178 0
157 177 0
156 176 0
155 177 0
157 178 0
157 179 0
164 184 0
161 180 0
154 175 0
160 179 0
157 177 0
157 177 0
161 183 0
157 176 0
161 181 0
164 186 0
159 181 0
154 175 0
165 186 0
159 180 0
160 181 0
163 183 0
165 186 0
165 188 0
166 188 0
161 182 0
161 181 0
159 179 0
164 185 0
167 188 0
170 191 0
165 186 0
166 187 0
168 189 0
160 181 0
160 179 0
157 177 0
165 185 0
161 183 0
166 186 0
160 181 0
166 187 0
167 188 0
163 184 0
167 188 0
160 181 0
164 184 0
167 187 0
163 185 0
165 185 0
162 184 0
165 187 0
163 185 0
165 187 0
167 186 0
162 182 0
157 178 0
164 184 0
166 185 0
165 187 0
164 186 0
163 183 0
162 183 0
165 186 0
165 186 0
164 185 0
167 189 0
168 191 0
167 186 0
175 198 105
173 197 84
175 197 102
169 192 95
173 196 84
170 195 99
173 197 108
170 194 88
174 197 120
174 197 102
173 196 84
170 194 99
174 197 99
165 189 92
172 196 114
171 194 95
174 197 111
169 192 84
162 186 88
168 191 80
171 194 95
172 195 102
169 192 92
172 196 88
164 187 67
169 193 99
165 189 108
173 196 111
173 196 105
166 190 102
171 194 105
171 194 105
168 191 92
172 196 108
164 187 80
169 192 111
162 185 84
170 194 102
163 187 80
172 195 105
165 189 99
164 188 88
164 187 72
164 188 72
170 193 111
162 184 76
165 189 99
166 189 95
164 188 88
170 193 102
156 179 94
160 183 95
166 190 76
160 183 92
165 188 103
158 181 88
157 180 92
163 185 100
169 191 102
156 178 84
169 191 117
156 179 92
161 185 108
157 180 84
164 186 88
154 177 88
157 179 94
155 177 84
164 187 95
162 185 88
171 194 122
155 179 62
156 178 108
163 185 111
160 183 105
162 184 108
157 180 88
161 183 114
160 182 88
161 183 120
156 177 95
156 178 88
160 181 84
156 177 108
161 182 92
152 172 99
150 171 92
155 176 105
156 176 99
155 176 114
149 170 92
163 184 120
155 175 92
150 171 95
152 172 105
140 161 88
149 168 95
152 171 102
146 165 99
155 174 95
147 167 99
149 169 102
144 163 99
150 168 92
145 164 95
147 165 88
130 149 72
138 157 76
131 149 67
140 158 99
130 148 57
139 157 57
126 144 67
127 146 51
134 152 80
130 147 84
126 142 51
115 131 62
131 148 57
112 130 0
118 135 44
120 138 44
112 128 36
111 127 51
118 137 36
115 132 25
130 148 36
134 152 25
121 139 25
145 165 25
151 170 0
144 165 0
149 167 0
145 164 0
134 153 0
137 157 0
112 131 0
137 157 0
123 139 0
127 145 0
114 132 0
112 129 0
107 126 0
116 133 0
106 124 0
112 130 0
109 127 0
117 136 0
115 133 0
114 131 0
117 137 0
110 130 0
112 130 0
116 134 0
118 136 0
120 138 0
122 141 0
113 130 0
122 140 0
108 126 0
112 130 0
111 129 0
120 138 0
114 131 0
104 120 0
107 125 0
109 126 0
108 126 0
112 130 0
105 121 0
96 114 0
108 126 0
109 127 0
103 119 0
119 137 0
107 124 0
114 131 0
109 127 0
106 123 0
107 124 0
114 132 0
90 107 0
109 127 0
103 121 0
120 137 0
120 137 0
114 131 0
110 128 0
114 132 0
114 132 0
118 134 0
103 122 0
114 130 0
112 130 0
118 136 0
121 138 0
116 135 0
111 129 0
116 134 0
113 131 0
118 134 0
108 126 0
110 128 0
114 132 0
113 132 0
125 144 0
118 135 0
113 132 0
115 133 0
120 139 0
127 145 0
116 136 0
115 133 0
130 149 0
120 139 0
113 131 0
124 142 0
122 142 0
121 140 0
121 139 0
131 150 0
120 138 0
121 140 0
129 148 0
127 146 0
123 142 0
131 150 0
123 141 0
132 151 0
125 145 0
131 152 0
135 155 0
134 154 0
128 147 0
139 159 0
136 155 0
133 153 0
135 154 0
132 151 0
135 155 0
132 150 0
140 160 0
139 160 0
129 149 0
145 165 0
136 156 0
136 156 0
140 160 0
140 160 0
131 150 0
142 161 0
145 165 0
145 164 0
146 166 0
140 161 0
138 160 0
132 152 0
140 159 0
133 152 0
135 154 0
139 160 0
146 166 0
139 159 0
138 158 0
152 172 0
140 159 0
133 151 0
149 168 0
138 158 0
142 162 0
145 166 0
146 167 0
142 162 0
149 170 0
152 172 0
141 160 0
146 166 0
149 171 0
149 169 0
145 164 0
150 170 0
148 170 0
142 163 0
153 173 0
148 167 0
141 162 0
144 163 0
147 167 0
147 169 0
154 174 0
146 167 0
153 173 0
144 164 0
148 168 0
148 168 0
154 174 0
152 172 0
154 175 0
147 167 0
150 170 0
152 172 0
153 174 0
161 182 0
153 174 0
150 170 0
152 173 0
154 174 0
148 168 0
156 177 0
155 174 0
154 174 0
154 172 0
151 172 0
162 184 0
149 169 0
153 172 0
156 177 0
159 179 0
158 181 0
157 178 0
156 176 0
157 178 0
161 183 0
157 178 0
163 185 0
164 185 0
157 178 0
153 175 0
155 175 0
157 177 0
158 175 0
157 177 0
158 180 0
153 173 0
155 175 0
150 169 0
157 179 0
158 179 0
158 179 0
160 182 0
160 182 0
165 188 0
162 183 0
152 171 0
169 190 0
159 180 0
164 184 0
163 185 0
165 184 0
154 175 0
162 183 0
162 184 0
159 177 0
156 177 0
165 184 0
165 186 0
164 186 0
155 176 0
161 182 0
164 183 0
164 185 0
161 182 0
164 185 0
164 185 0
163 183 0
163 185 0
159 180 0
164 185 0
156 178 0
165 187 0
161 181 0
168 190 0
164 185 0
165 186 0
166 186 0
164 185 0
164 185 0
165 186 0
166 187 0
168 190 0
164 186 0
166 188 0
165 186 0
162 185 0
161 183 0
165 186 0
162 184 0
167 190 0
162 183 0
166 188 0
161 181 0
162 183 0
169 191 0
164 185 0
164 185 0
164 185 0
166 187 0
166 187 0
163 184 0
167 188 0
173 196 76
170 194 84
170 194 95
172 195 102
176 199 111
174 197 108
170 194 92
172 195 92
174 196 105
171 195 88
169 193 84
172 196 102
172 195 92
172 195 114
168 192 102
169 192 84
165 188 72
176 199 102
167 191 99
167 190 80
171 195 111
173 197 92
169 192 84
167 191 105
171 194 84
173 197 114
170 193 92
170 194 99
172 196 99
168 192 95
167 190 99
172 196 92
169 193 102
165 188 84
163 187 88
166 191 95
164 186 92
167 192 95
167 191 111
168 191 99
164 187 57
166 190 99
162 186 84
168 192 114
158 182 92
169 193 114
170 194 108
168 191 95
163 187 88
161 185 102
163 185 102
162 185 105
163 186 108
164 186 92
160 183 99
166 189 99
167 190 122
166 189 102
158 181 100
161 184 92
162 185 105
168 191 114
169 192 124
159 182 99
150 172 90
164 187 122
168 191 95
162 184 99
155 178 92
162 183 88
160 182 94
153 175 102
168 190 117
159 181 111
159 181 76
162 183 88
155 177 99
163 185 99
160 183 84
157 179 88
155 176 92
159 181 88
162 183 88
150 171 80
152 173 99
147 169 92
144 165 88
159 179 99
155 176 105
154 175 92
140 160 62
152 172 95
149 169 95
153 173 88
154 175 88
145 166 102
155 175 105
140 160 88
153 173 95
146 165 92
145 163 111
153 173 99
152 171 88
140 159 67
149 168 99
152 171 99
137 155 76
150 169 88
143 161 92
130 149 51
131 148 80
138 157 76
131 150 51
138 157 72
132 150 62
131 150 36
126 144 51
111 128 44
119 137 62
126 142 62
117 134 51
125 143 67
124 141 51
115 133 0
115 133 36
122 140 25
128 146 44
134 152 25
139 157 0
141 160 25
155 174 0
139 157 0
143 162 0
142 161 0
137 156 0
137 156 0
130 149 0
122 139 0
120 139 0
114 133 0
117 133 0
125 142 0
116 133 0
114 132 0
119 138 0
109 128 0
118 138 0
121 140 0
120 139 0
116 135 0
117 136 0
120 138 0
115 133 0
113 132 0
127 145 0
121 140 0
113 132 0
116 133 0
109 127 0
123 142 0
110 129 0
109 127 0
113 131 0
111 129 0
106 124 0
114 131 0
107 124 0
120 137 0
105 122 0
112 129 0
111 129 0
115 133 0
115 132 0
113 131 0
108 125 0
105 123 0
103 121 0
110 127 0
101 119 0
124 142 0
115 132 0
110 127 0
109 128 0
106 124 0
116 133 0
116 134 0
119 137 0
103 121 0
125 142 0
128 146 0
115 133 0
109 126 0
117 135 0
107 125 0
117 135 0
98 116 0
111 128 0
106 124 0
111 129 0
125 142 0
105 123 0
102 119 0
121 140 0
109 128 0
132 150 0
126 145 0
122 140 0
125 142 0
121 139 0
115 134 0
113 130 0
134 154 0
108 128 0
115 134 0
124 143 0
115 133 0
123 143 0
117 135 0
122 141 0
124 142 0
116 137 0
133 154 0
120 138 0
127 146 0
121 141 0
144 164 0
137 156 0
128 147 0
127 147 0
116 136 0
131 151 0
139 159 0
129 149 0
128 149 0
131 151 0
131 148 0
132 151 0
139 157 0
138 159 0
126 146 0
135 154 0
135 154 0
131 152 0
143 164 0
149 170 0
133 153 0
123 143 0
139 158 0
132 152 0
137 158 0
142 163 0
141 161 0
136 155 0
130 150 0
141 161 0
140 159 0
138 159 0
133 151 0
140 159 0
145 166 0
147 167 0
142 163 0
145 164 0
142 163 0
144 165 0
144 166 0
140 161 0
140 159 0
136 156 0
143 163 0
145 165 0
150 170 0
141 161 0
146 167 0
148 169 0
150 170 0
144 164 0
146 167 0
139 159 0
151 172 0
145 166 0
153 175 0
151 172 0
144 165 0
150 171 0
148 169 0
151 170 0
149 169 0
149 170 0
155 176 0
145 165 0
158 178 0
147 167 0
149 169 0
152 172 0
154 175 0
147 167 0
159 179 0
153 173 0
152 174 0
148 167 0
154 174 0
152 172 0
151 171 0
158 179 0
155 176 0
153 173 0
156 177 0
155 176 0
161 182 0
162 180 0
156 177 0
157 178 0
159 180 0
160 182 0
160 181 0
159 180 0
160 181 0
153 174 0
152 172 0
162 182 0
157 178 0
161 181 0
158 180 0
159 180 0
161 182 0
154 174 0
154 174 0
161 181 0
153 175 0
162 183 0
158 179 0
156 178 0
164 184 0
159 180 0
163 182 0
159 182 0
159 180 0
166 186 0
161 182 0
165 185 0
157 177 0
155 177 0
159 180 0
157 176 0
162 184 0
161 183 0
154 172 0
158 179 0
161 184 0
165 186 0
161 182 0
161 181 0
161 182 0
162 182 0
164 185 0
163 185 0
164 186 0
164 185 0
163 184 0
159 179 0
161 181 0
163 186 0
165 186 0
165 187 0
161 182 0
165 187 0
163 184 0
160 179 0
161 182 0
163 184 0
168 189 0
166 188 0
161 183 0
163 186 0
165 186 0
164 186 0
161 182 0
165 188 0
161 182 0
166 188 0
166 187 0
165 187 0
160 181 0
167 189 0
166 189 0
162 183 0
164 186 0
162 183 0
162 183 0
161 182 0
164 187 0
169 189 0
167 189 0
169 191 0
168 188 0
169 190 0
165 187 0
166 188 0
166 187 0
172 195 80
174 197 99
174 197 95
174 198 108
168 191 76
173 198 111
170 194 88
169 193 80
177 201 122
167 191 95
171 194 108
174 197 92
170 194 99
169 192 114
173 196 105
174 197 105
169 193 92
174 197 108
168 192 88
172 196 117
171 195 95
172 195 88
173 196 84
169 193 102
169 192 105
166 190 76
171 195 105
165 189 72
168 192 111
174 198 105
170 194 84
168 192 88
169 192 108
173 197 108
165 188 84
161 184 88
168 191 102
164 187 95
171 195 99
165 189 72
167 190 99
169 192 99
163 186 105
162 185 102
166 188 88
164 188 95
162 186 125
162 186 80
164 187 111
161 183 67
165 188 88
164 187 102
164 188 86
169 192 97
162 185 84
167 191 102
167 190 92
160 183 92
158 181 84
161 184 102
160 183 95
166 189 105
164 186 84
158 181 62
157 179 80
162 184 105
154 177 76
161 184 114
168 192 88
162 184 108
158 180 95
162 184 88
164 185 102
155 177 76
167 189 105
156 178 108
164 186 99
159 181 84
158 179 76
148 170 84
157 179 92
161 182 102
151 173 62
160 182 108
149 170 92
150 170 92
141 162 88
159 179 92
156 176 105
155 175 76
159 180 92
157 178 114
154 175 84
156 175 95
148 169 99
153 172 88
153 172 108
156 176 111
146 166 92
149 169 88
142 162 67
147 167 95
140 160 84
147 166 95
140 159 102
137 155 92
146 164 92
151 170 92
146 165 67
142 161 72
144 164 51
118 138 67
127 145 57
131 149 80
121 137 57
141 160 62
127 144 57
127 145 57
131 149 44
130 147 62
114 131 51
127 145 36
127 143 57
133 151 51
130 146 44
135 154 36
137 157 0
132 152 25
132 149 0
137 157 25
145 164 0
143 164 0
139 158 0
140 158 0
136 154 0
134 154 0
125 142 0
132 152 0
115 134 0
129 147 0
124 143 0
135 153 0
122 141 0
114 132 0
123 142 0
117 136 0
128 146 25
112 131 0
125 143 0
115 133 0
122 141 0
122 141 0
127 146 0
112 130 0
119 138 0
112 131 0
127 146 0
112 131 0
123 142 0
122 140 0
113 132 0
115 133 0
103 120 0
123 142 0
116 134 0
111 129 0
99 116 0
120 138 0
110 128 0
111 130 0
110 128 0
122 139 0
102 119 0
110 128 0
122 140 0
111 129 0
105 123 0
110 128 0
114 132 0
109 127 0
107 126 0
108 127 0
104 122 0
108 124 0
119 137 0
105 125 0
116 134 0
116 134 0
122 140 0
124 142 0
107 124 0
108 126 0
113 132 0
118 137 0
114 131 0
116 133 0
128 146 0
121 139 0
127 146 0
111 130 0
125 143 0
121 141 0
107 125 0
121 141 0
121 137 0
111 129 0
116 134 0
127 145 0
116 134 0
124 143 0
119 138 0
126 143 0
122 142 0
113 130 0
126 145 0
115 135 0
116 135 0
121 139 0
120 140 0
130 148 0
124 144 0
131 150 0
120 139 0
120 140 0
120 139 0
120 139 0
127 147 0
131 151 0
129 148 0
128 148 0
130 150 0
121 141 0
133 152 0
118 138 0
135 154 0
136 155 0
135 154 0
137 156 0
140 160 0
134 152 0
129 149 0
134 154 0
135 155 0
138 156 0
131 152 0
138 157 0
143 164 0
144 164 0
123 145 0
139 159 0
128 148 0
141 161 0
142 161 0
142 161 0
130 151 0
144 166 0
137 158 0
137 158 0
148 168 0
138 158 0
138 158 0
134 154 0
148 168 0
129 150 0
147 167 0
140 160 0
147 167 0
131 152 0
152 172 0
141 160 0
146 164 0
147 167 0
142 162 0
146 167 0
143 164 0
148 169 0
149 171 0
146 167 0
139 160 0
145 167 0
142 160 0
150 170 0
146 167 0
143 162 0
149 169 0
152 172 0
150 170 0
147 167 0
159 180 0
148 169 0
160 182 0
155 177 0
155 177 0
150 171 0
147 167 0
154 175 0
149 168 0
156 178 0
151 172 0
154 176 0
157 179 0
151 172 0
144 164 0
148 168 0
151 172 0
152 171 0
157 179 0
150 169 0
151 170 0
159 179 0
161 181 0
157 180 0
159 179 0
155 174 0
155 174 0
158 178 0
158 177 0
152 172 0
160 180 0
159 180 0
159 181 0
157 178 0
157 179 0
149 170 0
157 178 0
155 176 0
158 180 0
151 171 0
160 182 0
159 179 0
157 179 0
157 178 0
157 178 0
154 172 0
152 171 0
164 184 0
162 182 0
155 177 0
159 180 0
161 183 0
157 178 0
159 180 0
167 189 0
158 179 0
164 185 0
160 182 0
165 186 0
164 185 0
165 185 0
160 180 0
166 188 0
164 186 0
159 179 0
164 185 0
165 185 0
156 177 0
166 186 0
163 185 0
164 185 0
160 181 0
163 184 0
164 185 0
165 186 0
161 182 0
161 181 0
160 181 0
164 185 0
165 185 0
164 185 0
165 186 0
164 184 0
159 180 0
164 185 0
165 187 0
165 187 0
165 186 0
163 185 0
165 186 0
165 186 0
164 186 0
165 186 0
161 182 0
167 187 0
164 186 0
164 185 0
157 178 0
165 187 0
164 186 0
170 192 0
164 186 0
162 182 0
167 189 0
161 183 0
163 185 0
169 192 0
167 189 0
170 191 0
163 185 0
163 184 0
167 188 0
173 195 88
168 191 95
175 198 117
171 195 92
174 196 108
172 195 105
170 194 88
175 199 92
170 193 88
170 193 88
171 194 95
169 192 95
169 192 99
168 191 88
172 195 102
167 190 105
169 193 88
168 192 92
171 194 92
165 189 88
168 192 105
169 192 80
173 196 88
165 189 108
167 190 111
170 193 84
170 194 105
167 191 95
168 192 102
167 191 117
170 193 105
171 194 84
162 185 25
166 190 84
168 191 92
165 187 84
164 187 92
165 188 92
168 192 117
166 189 80
165 188 105
159 183 88
159 183 99
168 192 105
161 185 99
159 182 88
166 189 92
164 187 95
167 190 105
167 190 84
165 188 111
166 189 88
159 182 84
163 186 84
162 185 90
159 183 102
163 186 95
166 188 84
165 188 114
167 190 102
166 188 105
166 189 99
162 185 99
163 186 99
157 180 70
165 187 108
159 182 95
154 177 88
163 186 108
158 180 88
152 174 102
159 182 95
160 182 76
167 190 99
170 192 111
155 177 76
155 176 99
159 180 95
161 183 117
154 176 92
146 168 84
163 185 111
161 181 95
160 182 105
152 172 102
162 184 95
157 178 88
156 177 88
146 167 80
151 172 114
156 177 92
157 178 95
154 174 108
138 159 80
150 170 99
157 176 105
145 165 72
159 179 111
156 176 111
157 176 102
139 158 84
150 169 95
144 162 108
142 162 72
154 174 88
144 163 76
140 161 62
151 169 92
136 155 67
137 155 80
134 152 51
133 152 51
135 154 57
131 150 57
131 148 76
139 158 36
127 146 51
127 146 57
117 136 36
116 135 44
123 141 51
124 142 44
131 149 57
120 138 36
118 137 0
121 140 0
140 158 0
143 162 25
147 168 36
144 165 36
145 163 0
140 157 0
153 172 0
152 171 0
139 158 0
140 160 0
136 155 0
132 150 0
129 149 0
122 141 0
122 141 0
117 136 0
119 138 0
120 139 0
116 134 0
111 129 0
133 152 0
125 143 0
117 136 0
121 140 0
128 147 0
124 142 0
124 143 0
121 139 0
116 135 0
102 120 0
129 149 0
112 130 0
116 136 0
110 128 0
128 146 0
116 133 0
116 135 0
104 122 0
110 128 0
120 138 0
131 149 0
118 135 0
118 136 0
109 127 0
116 134 0
118 136 0
112 130 0
118 137 0
117 136 0
113 132 0
128 147 0
119 137 0
114 132 0
117 137 0
115 134 0
112 131 0
114 132 0
115 132 0
125 145 0
104 122 0
122 140 0
106 124 0
116 133 0
119 137 0
113 130 0
134 153 0
115 134 0
116 134 0
122 140 0
121 139 0
120 138 0
117 135 0
114 134 0
121 140 0
125 143 0
123 142 0
118 137 0
126 145 0
125 143 0
112 130 0
119 138 0
120 139 0
118 137 0
127 146 0
117 134 0
126 144 0
119 138 0
113 131 0
126 146 0
133 154 0
125 144 0
130 149 0
126 145 0
121 139 0
130 149 0
129 149 0
120 141 0
125 144 0
127 147 0
131 150 0
129 150 0
136 155 0
131 151 0
134 153 0
133 153 0
132 152 0
137 156 0
132 154 0
135 154 0
130 149 0
139 159 0
125 144 0
126 144 0
130 149 0
130 148 0
137 157 0
138 157 0
136 156 0
125 146 0
138 157 0
135 154 0
144 165 0
137 158 0
146 165 0
141 160 0
146 167 0
139 158 0
137 156 0
141 162 0
146 166 0
132 153 0
144 165 0
145 164 0
147 167 0
140 160 0
138 158 0
141 163 0
150 171 0
140 161 0
140 160 0
138 157 0
145 167 0
140 160 0
142 163 0
148 169 0
151 172 0
150 170 0
147 166 0
140 159 0
146 167 0
143 164 0
146 167 0
153 175 0
154 174 0
145 166 0
151 172 0
146 167 0
149 170 0
157 179 0
149 171 0
146 167 0
153 173 0
150 170 0
152 172 0
148 169 0
156 176 0
154 175 0
147 167 0
154 175 0
157 178 0
153 173 0
155 176 0
156 176 0
150 171 0
149 171 0
147 167 0
159 180 0
153 173 0
157 177 0
153 173 0
154 175 0
154 173 0
154 174 0
158 180 0
157 180 0
159 179 0
155 176 0
150 169 0
154 175 0
158 179 0
158 178 0
151 170 0
160 182 0
153 175 0
160 180 0
154 174 0
155 177 0
158 178 0
157 179 0
161 182 0
150 171 0
159 179 0
155 176 0
161 181 0
156 176 0
165 187 0
159 180 0
155 176 0
160 181 0
163 185 0
155 175 0
164 184 0
163 185 0
163 185 0
164 183 0
160 181 0
159 178 0
162 184 0
165 187 0
163 185 0
161 182 0
159 179 0
163 184 0
157 177 0
163 184 0
164 186 0
159 179 0
160 181 0
160 183 0
166 185 0
163 184 0
164 185 0
161 182 0
164 185 0
165 185 0
157 179 0
164 185 0
165 185 0
154 173 0
160 182 0
164 185 0
162 184 0
159 181 0
165 187 0
166 186 0
161 181 0
162 184 0
164 186 0
164 185 0
168 189 0
165 186 0
164 186 0
163 184 0
164 185 0
167 189 0
163 184 0
165 186 0
165 186 0
165 186 0
164 185 0
163 185 0
163 184 0
164 185 0
166 186 0
168 189 0
167 189 0
166 187 0
168 189 0
162 183 0
167 188 0
166 187 0
169 191 0
161 183 0
169 191 0
170 193 92
171 193 84
173 196 108
177 200 120
175 197 88
171 195 108
173 196 95
175 198 117
169 193 95
168 191 99
177 200 125
169 193 99
169 194 95
174 197 99
175 198 111
171 194 117
169 193 92
169 192 88
171 194 84
168 192 84
172 195 92
172 195 99
172 195 99
164 188 88
166 189 84
170 194 105
171 195 95
169 193 105
166 189 72
168 192 108
171 195 105
167 191 95
168 192 114
170 194 114
169 193 108
167 190 80
168 191 88
169 192 108
170 194 88
164 187 102
169 192 95
168 192 102
165 187 67
163 186 80
164 188 88
161 184 84
168 192 99
168 192 114
167 190 105
164 188 99
160 182 88
161 185 80
161 184 80
167 190 99
164 187 94
163 186 102
161 183 108
157 180 102
161 184 88
157 180 72
160 183 99
155 178 88
157 179 80
158 180 80
164 187 102
163 185 88
167 190 102
160 182 105
156 178 80
160 182 105
156 178 80
163 185 84
154 175 80
164 186 117
159 180 95
156 177 72
161 183 80
160 181 99
157 179 95
169 192 122
157 178 99
164 186 111
158 180 105
160 182 99
160 181 105
153 173 80
156 176 72
152 172 95
151 171 105
152 173 105
155 176 95
161 182 114
164 185 99
148 168 84
148 169 84
159 179 117
156 176 108
150 170 99
153 173 95
145 165 80
150 171 76
142 162 80
150 170 95
154 173 111
143 162 84
143 162 84
137 158 57
141 160 84
145 164 72
145 163 88
139 158 80
146 165 80
141 161 62
132 150 51
134 152 76
133 152 67
133 153 62
134 153 62
129 147 76
140 160 36
134 152 72
118 135 36
118 137 36
123 141 57
126 143 57
121 140 0
137 157 0
137 156 25
142 162 0
143 162 25
134 154 0
137 157 0
130 148 0
146 167 0
150 170 0
139 158 0
130 150 0
144 163 0
129 148 0
128 147 0
130 149 0
124 142 0
120 139 0
122 142 0
113 132 0
126 146 0
118 137 0
121 140 0
130 148 0
123 143 0
131 149 0
132 151 0
121 141 0
120 140 0
126 145 0
116 136 0
120 139 0
122 139 0
125 143 0
118 136 0
112 130 0
115 133 0
115 134 0
115 132 0
113 131 0
112 131 0
115 135 0
116 135 0
118 136 0
123 142 0
115 134 0
111 130 0
112 130 0
114 132 0
111 131 0
109 127 0
119 138 0
112 129 0
116 134 0
119 137 0
123 142 0
121 138 0
111 129 0
115 133 0
112 130 0
123 141 0
124 142 0
116 134 0
110 129 0
125 143 0
109 127 0
118 136 0
113 132 0
122 141 0
126 144 0
121 141 0
107 126 0
100 119 0
129 147 0
120 139 0
114 132 0
120 137 0
110 131 0
120 140 0
119 138 0
135 155 0
120 138 0
133 152 0
125 144 0
119 138 0
121 140 0
114 132 0
128 148 0
118 137 0
127 146 0
126 147 0
132 152 0
133 153 0
126 146 0
127 146 0
133 153 0
132 151 0
131 150 0
132 152 0
137 156 0
129 147 0
120 139 0
132 151 0
128 146 0
129 150 0
135 155 0
127 146 0
130 150 0
133 152 0
132 153 0
135 155 0
127 147 0
127 147 0
133 152 0
140 162 0
130 150 0
140 161 0
130 151 0
135 155 0
131 150 0
131 149 0
139 159 0
137 156 0
141 162 0
130 151 0
130 150 0
136 156 0
137 156 0
149 170 0
143 163 0
142 162 0
136 157 0
150 170 0
142 162 0
134 154 0
146 168 0
135 155 0
148 165 0
150 171 0
143 163 0
147 167 0
149 169 0
146 167 0
150 171 0
148 169 0
148 168 0
140 160 0
137 157 0
153 174 0
149 169 0
149 170 0
138 159 0
140 162 0
141 161 0
150 172 0
142 162 0
153 174 0
150 171 0
147 169 0
155 177 0
151 173 0
154 174 0
154 175 0
154 175 0
146 167 0
157 178 0
149 168 0
149 171 0
149 169 0
148 169 0
152 171 0
163 185 0
152 173 0
152 172 0
152 170 0
156 177 0
154 175 0
157 177 0
158 178 0
146 165 0
158 178 0
155 176 0
159 181 0
153 175 0
152 174 0
157 179 0
156 178 0
160 182 0
148 168 0
154 174 0
158 179 0
155 176 0
152 171 0
157 178 0
155 176 0
160 181 0
164 185 0
160 182 0
161 182 0
156 176 0
157 178 0
150 172 0
165 188 0
157 179 0
157 177 0
159 180 0
153 173 0
158 178 0
161 180 0
161 183 0
162 184 0
157 178 0
155 176 0
160 181 0
163 185 0
165 187 0
160 182 0
159 182 0
164 185 0
158 178 0
161 182 0
161 183 0
161 181 0
160 181 0
160 180 0
162 182 0
149 170 0
165 189 0
160 181 0
153 172 0
156 177 0
166 186 0
162 184 0
161 183 0
166 189 0
159 179 0
164 184 0
164 185 0
164 186 0
158 179 0
165 186 0
161 182 0
164 184 0
162 182 0
159 180 0
164 186 0
169 191 0
162 184 0
165 188 0
168 190 0
159 180 0
160 180 0
164 186 0
164 187 0
162 184 0
162 184 0
164 185 0
162 183 0
165 186 0
165 185 0
164 187 0
167 189 0
164 186 0
165 187 0
162 183 0
169 191 0
166 187 0
163 184 0
164 186 0
166 187 0
167 187 0
168 189 0
167 189 0
166 189 0
164 187 0
170 194 84
174 198 105
172 195 102
172 195 99
170 193 95
175 198 122
172 195 88
172 195 84
172 196 108
169 193 105
167 192 95
173 196 105
173 197 105
173 197 102
170 194 108
172 196 114
176 200 105
171 194 105
174 197 80
172 195 84
168 192 80
169 192 105
167 192 99
172 196 88
173 196 102
170 193 105
171 194 114
172 195 76
173 197 105
167 190 99
172 196 92
168 190 88
166 190 92
169 192 92
171 195 95
171 194 114
166 190 88
164 187 72
170 192 80
161 184 88
163 187 84
164 188 95
171 194 99
165 188 105
164 188 99
165 187 67
163 187 95
164 189 105
165 189 108
164 187 88
162 185 92
161 184 95
163 186 105
166 190 117
167 190 108
165 188 92
164 187 92
160 183 95
163 186 88
154 177 88
159 182 72
162 186 88
156 179 76
163 186 102
164 187 95
158 181 99
165 188 108
159 182 72
157 180 72
161 184 92
169 191 120
162 184 99
155 176 99
158 180 105
161 184 88
160 181 99
164 186 108
147 168 84
161 183 108
156 178 99
161 183 95
150 171 84
156 178 84
162 182 99
156 176 84
162 183 99
154 175 108
161 182 88
160 181 95
148 170 67
159 181 88
155 176 102
150 171 92
156 176 80
161 181 99
159 181 111
154 174 105
148 167 88
156 175 117
153 172 108
151 171 84
145 165 102
163 182 128
147 166 95
154 173 84
145 165 80
137 156 88
145 164 62
151 171 88
144 163 67
136 156 62
148 167 88
127 145 67
131 150 67
131 151 51
141 159 62
146 165 76
131 151 51
123 141 44
131 149 44
130 148 62
131 150 44
118 137 36
136 154 57
129 147 44
127 146 25
131 149 25
134 154 25
139 160 0
144 164 25
150 169 0
147 167 0
153 175 0
138 158 0
139 159 0
146 167 0
132 151 0
142 162 0
124 141 0
134 152 0
115 134 0
135 154 0
138 158 0
119 139 0
131 151 0
116 136 0
127 146 0
120 139 0
128 148 0
134 153 0
129 148 0
131 149 0
118 139 0
121 141 0
120 140 0
123 143 0
115 133 0
122 140 0
113 132 0
115 133 0
114 132 0
113 131 0
106 125 0
127 146 0
116 136 0
110 130 0
126 146 0
114 131 0
119 137 0
116 136 0
117 135 0
127 145 0
118 137 0
119 137 0
121 140 0
127 145 0
122 140 0
124 142 0
105 124 0
117 134 0
116 135 0
112 131 0
121 140 0
122 140 0
114 130 0
117 135 0
116 135 0
125 144 0
118 137 0
119 139 0
121 140 0
132 152 0
122 141 0
123 141 0
124 143 0
123 143 0
121 139 0
118 136 0
118 136 0
131 151 0
118 137 0
132 150 0
122 141 0
129 147 0
124 142 0
125 144 0
130 149 0
128 149 0
124 142 0
122 142 0
125 144 0
125 143 0
133 153 0
132 151 0
133 153 0
134 154 0
133 152 0
129 149 0
134 154 0
120 140 0
137 157 0
125 145 0
140 161 0
132 153 0
128 149 0
139 159 0
133 153 0
126 144 0
127 147 0
135 155 0
135 155 0
138 158 0
132 153 0
137 158 0
141 162 0
139 159 0
137 157 0
129 150 0
142 164 0
141 163 0
134 155 0
140 161 0
141 161 0
130 151 0
123 143 0
143 162 0
147 167 0
140 160 0
143 165 0
133 153 0
144 164 0
140 161 0
149 171 0
141 162 0
154 175 0
144 165 0
141 161 0
139 159 0
141 161 0
152 173 0
144 164 0
143 163 0
146 166 0
146 166 0
149 169 0
150 171 0
142 163 0
144 164 0
146 166 0
146 168 0
147 168 0
146 167 0
148 168 0
148 169 0
148 167 0
147 167 0
152 172 0
150 170 0
149 169 0
143 164 0
148 169 0
151 173 0
150 171 0
149 170 0
154 176 0
152 172 0
150 172 0
154 174 0
150 172 0
151 170 0
158 178 0
149 168 0
153 174 0
150 170 0
154 175 0
156 177 0
150 171 0
158 181 0
155 176 0
158 180 0
152 173 0
155 177 0
157 178 0
156 177 0
156 177 0
155 176 0
157 178 0
152 171 0
155 177 0
163 185 0
144 165 0
155 177 0
160 182 0
155 175 0
153 172 0
158 182 0
156 178 0
160 181 0
156 176 0
150 170 0
159 180 0
152 173 0
156 176 0
157 179 0
157 180 0
159 180 0
157 179 0
153 174 0
152 174 0
158 179 0
163 183 0
154 175 0
158 178 0
162 183 0
159 181 0
158 179 0
157 177 0
161 182 0
156 177 0
155 177 0
158 179 0
158 178 0
161 181 0
163 183 0
162 182 0
161 181 0
154 175 0
164 185 0
159 180 0
162 183 0
161 183 0
163 186 0
161 181 0
166 189 0
156 177 0
162 182 0
165 187 0
159 181 0
161 182 0
162 184 0
161 181 0
164 185 0
165 187 0
162 182 0
163 186 0
162 183 0
163 185 0
161 183 0
154 175 0
161 183 0
159 179 0
159 181 0
164 185 0
167 188 0
159 181 0
163 184 0
164 185 0
164 185 0
162 183 0
160 182 0
166 188 0
166 187 0
167 188 0
164 186 0
165 187 0
168 189 0
168 190 0
166 188 0
165 187 0
165 186 0
171 194 0
166 188 0
162 184 0
167 190 0
165 187 0
162 184 0
166 188 0
162 183 0
167 189 0
169 192 0
174 197 95
172 195 105
174 197 92
171 195 67
173 196 102
169 193 84
175 198 105
171 195 84
168 192 95
173 195 95
177 200 117
168 192 88
169 192 80
174 197 102
173 196 99
169 192 92
170 193 102
167 191 99
172 196 88
171 195 99
169 191 92
169 193 99
168 191 92
169 192 88
168 191 108
165 189 99
169 192 108
166 189 102
167 191 120
168 192 117
161 184 80
168 191 95
168 192 105
162 185 72
169 193 99
166 190 84
167 191 95
162 186 95
166 190 84
167 189 95
170 193 105
161 185 95
170 194 95
161 185 92
169 191 102
167 190 102
163 186 99
162 184 76
169 192 95
168 191 105
164 187 105
157 179 92
166 189 128
158 181 95
159 181 92
161 185 102
158 180 92
165 188 80
159 182 99
159 182 99
164 187 94
166 189 115
164 187 105
157 179 76
164 186 95
159 181 78
167 190 111
159 181 76
166 188 114
158 180 95
167 190 111
162 184 108
166 188 95
163 186 105
164 186 92
165 187 108
160 182 84
154 176 95
152 174 76
162 184 105
159 181 117
159 181 99
151 172 84
157 178 105
160 181 99
155 175 92
160 182 95
164 186 99
155 176 88
156 177 88
152 173 88
162 183 92
153 173 84
155 176 80
150 170 84
145 166 88
157 177 114
152 172 92
156 176 108
156 177 99
149 168 99
155 173 117
157 176 108
154 175 80
143 163 84
143 163 72
157 176 92
147 166 84
156 175 76
152 170 95
139 158 67
134 154 44
139 158 72
145 164 72
142 161 67
129 148 62
126 146 36
135 155 57
129 148 36
132 151 36
132 151 51
130 148 57
133 153 25
131 152 0
135 154 0
131 150 0
138 157 0
136 155 36
143 163 25
138 158 0
136 158 0
150 171 0
144 164 0
148 169 0
144 164 0
146 166 0
142 163 0
126 145 0
134 154 0
131 149 0
122 141 0
124 144 0
123 142 0
125 143 0
129 149 0
115 133 0
141 161 0
122 142 0
129 148 0
127 147 0
128 148 0
116 135 0
127 146 0
114 133 0
116 135 0
134 154 0
136 155 0
123 143 0
119 138 0
118 138 0
116 135 0
112 131 0
124 143 0
126 145 0
119 138 0
121 138 0
125 145 0
125 145 0
120 139 0
117 136 0
128 145 0
117 136 0
119 137 0
122 141 0
114 132 0
127 145 0
117 136 0
113 132 0
119 139 0
117 135 0
120 139 0
118 136 0
112 131 0
115 132 0
121 141 0
118 138 0
120 137 0
125 145 0
122 139 0
124 143 0
119 138 0
121 139 0
123 141 0
129 149 0
116 135 0
120 139 0
128 147 0
119 136 0
131 151 0
125 144 0
120 139 0
124 143 0
127 147 0
133 153 0
132 151 0
125 145 0
121 141 0
133 154 0
123 142 0
113 133 0
121 140 0
129 149 0
128 147 0
129 149 0
133 152 0
126 145 0
122 142 0
133 152 0
135 155 0
124 145 0
135 155 0
128 148 0
139 161 0
127 147 0
126 145 0
126 146 0
139 161 0
127 147 0
131 150 0
127 147 0
129 149 0
133 153 0
134 153 0
132 152 0
134 154 0
143 164 0
139 160 0
135 154 0
136 157 0
145 165 0
134 155 0
129 151 0
133 153 0
136 156 0
144 165 0
134 154 0
139 159 0
139 159 0
142 162 0
140 160 0
140 158 0
142 163 0
144 165 0
140 161 0
142 164 0
142 163 0
143 164 0
153 176 0
151 171 0
140 160 0
148 169 0
144 164 0
137 157 0
147 168 0
150 171 0
145 165 0
147 167 0
138 159 0
149 171 0
142 162 0
153 174 0
152 173 0
146 167 0
144 164 0
150 170 0
147 167 0
146 168 0
144 166 0
143 164 0
153 173 0
153 172 0
149 171 0
145 167 0
148 167 0
156 178 0
153 174 0
152 174 0
149 168 0
146 165 0
145 167 0
159 181 0
154 175 0
156 178 0
153 175 0
148 170 0
148 170 0
150 171 0
148 169 0
161 181 0
150 170 0
156 178 0
155 175 0
153 175 0
158 180 0
155 177 0
154 176 0
148 170 0
154 175 0
162 183 0
157 178 0
153 174 0
155 176 0
152 172 0
159 181 0
155 177 0
156 177 0
158 180 0
163 185 0
159 180 0
158 178 0
154 177 0
156 177 0
159 180 0
157 179 0
159 180 0
160 181 0
160 179 0
157 178 0
152 173 0
161 183 0
164 186 0
159 179 0
157 179 0
156 178 0
161 181 0
158 180 0
162 183 0
166 186 0
153 174 0
162 183 0
157 177 0
161 180 0
161 183 0
161 182 0
166 189 0
163 185 0
160 182 0
160 181 0
164 185 0
162 184 0
157 179 0
163 184 0
159 181 0
162 184 0
166 188 0
163 184 0
164 185 0
160 181 0
163 185 0
160 180 0
165 189 0
164 187 0
164 186 0
158 179 0
164 185 0
165 187 0
161 185 0
165 185 0
165 186 0
164 187 0
160 181 0
162 184 0
169 190 0
162 184 0
166 187 0
162 183 0
162 184 0
167 188 0
167 187 0
169 191 0
161 183 0
166 187 0
161 183 0
163 184 0
168 190 0
167 187 0
166 187 0
163 184 0
166 187 0
158 179 0
163 184 0
166 189 0
166 188 0
165 187 0
166 188 0
165 187 0
165 187 0
165 186 0
164 187 0
167 188 0
170 194 88
174 197 84
170 193 76
171 194 72
172 196 88
173 196 88
174 197 102
176 199 111
173 196 102
173 197 99
169 193 95
167 191 88
170 193 102
176 199 95
170 193 76
176 199 117
169 192 88
174 197 120
163 186 67
171 195 105
171 195 80
173 196 114
167 190 92
168 191 80
169 192 92
166 189 99
163 187 99
170 194 92
170 193 105
170 194 108
166 189 92
171 195 105
171 195 117
172 195 102
164 188 99
165 188 84
168 191 80
164 187 95
166 190 114
164 188 88
160 183 80
168 192 92
165 189 95
170 193 92
165 189 99
169 192 111
165 188 76
168 191 80
165 188 95
157 180 84
168 191 111
166 189 92
166 190 105
156 179 88
162 184 88
162 184 95
159 182 95
162 185 99
163 186 99
150 173 88
168 190 99
163 185 95
162 185 105
162 184 94
160 183 84
160 183 76
166 188 95
160 183 92
161 183 88
163 186 99
159 181 88
160 183 108
160 182 92
161 183 95
165 187 105
167 189 95
161 183 92
155 177 102
162 184 92
157 180 102
153 175 88
158 180 105
149 171 80
149 170 92
149 170 105
161 182 102
152 173 108
162 183 111
152 173 102
150 171 95
155 175 105
161 181 108
152 172 95
144 164 92
151 171 92
156 176 102
156 175 95
145 165 76
168 188 105
155 176 99
159 178 102
156 175 95
155 174 105
149 168 84
154 174 99
138 158 62
135 155 51
149 169 84
149 168 92
133 152 62
142 161 72
146 165 72
142 163 51
133 153 57
143 162 72
146 166 57
135 155 51
129 147 62
134 154 44
134 154 25
131 150 51
130 150 36
135 154 0
122 140 0
126 145 25
134 153 36
133 153 36
143 163 0
144 164 0
152 172 0
150 170 25
147 168 0
145 165 0
145 165 0
132 151 0
145 165 0
141 161 0
126 145 0
134 155 0
120 139 0
133 153 0
122 143 0
131 152 0
128 147 0
117 136 0
126 146 0
112 131 0
122 143 0
120 140 0
123 142 0
132 152 0
129 148 0
132 152 0
128 147 0
129 148 0
129 149 0
123 143 0
115 135 0
133 153 0
121 141 0
120 140 0
113 132 0
125 145 0
127 146 0
122 142 0
126 143 0
121 140 0
115 134 0
129 148 0
116 135 0
117 136 0
116 135 0
129 147 0
124 143 0
117 136 0
119 137 0
121 139 0
123 143 0
128 148 0
119 140 0
108 126 0
115 134 0
113 133 0
120 139 0
124 143 0
118 138 0
125 144 0
131 149 0
119 138 0
118 136 0
126 146 0
125 144 0
128 148 0
123 143 0
121 140 0
117 136 0
118 138 0
125 145 0
122 141 0
128 147 0
119 139 0
125 144 0
129 149 0
119 138 0
114 133 0
116 135 0
128 146 0
122 141 0
121 139 0
124 143 0
128 148 0
126 146 0
113 133 0
124 144 0
127 145 0
123 143 0
113 133 0
142 163 0
129 147 0
120 140 0
132 152 0
129 150 0
134 154 0
136 157 0
129 149 0
129 150 0
132 152 0
133 153 0
135 153 0
133 152 0
134 154 0
135 156 0
135 156 0
148 169 0
144 165 0
130 150 0
122 143 0
149 170 0
133 153 0
129 147 0
138 159 0
141 161 0
139 158 0
135 155 0
139 160 0
133 152 0
141 161 0
138 157 0
140 161 0
144 165 0
137 157 0
150 170 0
143 164 0
145 165 0
139 160 0
145 168 0
142 162 0
144 165 0
139 159 0
133 153 0
138 158 0
147 168 0
152 174 0
133 153 0
147 168 0
148 168 0
139 160 0
148 169 0
148 169 0
143 164 0
143 163 0
148 169 0
144 164 0
151 172 0
156 176 0
151 172 0
150 172 0
151 172 0
148 168 0
149 170 0
149 171 0
150 171 0
152 172 0
147 169 0
145 167 0
144 165 0
146 167 0
154 175 0
151 173 0
149 169 0
155 176 0
152 174 0
157 177 0
152 174 0
157 179 0
154 174 0
156 178 0
156 177 0
159 180 0
152 173 0
147 168 0
161 183 0
151 170 0
153 175 0
154 174 0
156 179 0
153 174 0
161 182 0
155 177 0
153 174 0
153 174 0
150 171 0
162 181 0
155 174 0
151 174 0
158 178 0
157 178 0
150 172 0
162 183 0
164 184 0
159 180 0
157 179 0
158 178 0
157 179 0
158 179 0
156 175 0
156 179 0
157 178 0
151 172 0
158 179 0
151 172 0
158 180 0
161 183 0
158 181 0
160 181 0
161 182 0
156 177 0
155 178 0
155 175 0
156 176 0
158 179 0
160 182 0
156 176 0
160 182 0
162 183 0
163 184 0
159 178 0
160 181 0
157 178 0
165 186 0
163 184 0
157 176 0
161 183 0
160 181 0
160 179 0
163 185 0
157 177 0
162 185 0
167 188 0
164 185 0
164 184 0
164 184 0
163 184 0
163 184 0
166 186 0
161 182 0
164 185 0
164 186 0
164 185 0
165 184 0
162 183 0
160 182 0
158 179 0
165 187 0
159 178 0
169 192 0
165 187 0
170 191 0
162 183 0
167 188 0
163 186 0
167 189 0
165 188 0
165 187 0
164 185 0
167 189 0
170 191 0
162 185 0
163 184 0
167 189 0
169 190 0
164 185 0
163 185 0
166 189 0
167 189 0
168 190 0
167 189 0
166 189 0
167 188 0
168 191 0
169 193 72
171 194 80
178 200 114
169 192 111
175 198 111
171 194 84
170 194 80
173 197 84
168 192 72
173 196 99
172 195 111
172 195 102
173 196 88
170 194 92
171 194 99
172 195 95
170 193 95
170 193 102
174 197 95
169 192 108
172 196 102
167 190 80
168 191 62
162 185 80
172 196 125
165 189 108
169 192 102
164 187 99
166 189 92
170 194 102
166 189 80
165 188 102
164 188 92
167 191 84
167 189 88
161 185 80
173 196 95
162 185 76
171 194 99
164 188 102
169 192 84
162 185 84
162 185 105
169 192 84
159 182 84
165 188 105
168 192 108
158 182 99
163 186 72
163 186 122
163 187 84
166 189 92
161 185 108
158 181 88
162 185 95
161 182 88
170 193 130
160 183 72
163 185 99
163 186 92
157 180 105
165 187 80
161 184 95
158 180 84
168 191 114
167 191 120
170 194 120
164 187 108
164 187 105
158 180 95
167 189 92
161 183 88
160 182 105
147 168 84
154 176 88
160 181 95
160 182 99
164 186 108
159 181 88
157 179 80
160 182 95
158 180 99
166 187 128
160 181 99
158 180 105
165 186 105
157 178 117
156 177 102
161 182 88
155 175 105
158 178 102
149 170 95
158 178 102
155 175 95
164 185 99
143 164 72
153 172 105
162 181 111
151 172 95
154 175 80
154 173 108
153 173 99
156 176 99
153 172 108
156 175 125
155 175 92
152 171 95
149 168 72
144 163 76
153 172 92
143 163 76
133 152 62
134 154 51
139 157 76
137 156 44
127 145 57
145 164 67
132 152 44
132 153 51
137 156 62
151 170 62
148 168 51
138 157 44
121 140 44
133 152 36
136 156 36
140 160 0
136 157 25
138 159 0
140 161 0
151 172 0
139 159 0
143 164 0
152 172 0
139 160 0
138 158 0
139 159 0
131 150 0
129 148 0
132 152 0
126 147 0
134 153 0
127 147 0
129 150 0
137 157 0
128 146 0
138 159 0
131 150 0
136 155 0
128 147 0
126 146 0
137 158 0
119 139 0
124 144 0
141 161 0
128 148 0
119 140 0
132 151 0
135 154 0
119 139 0
102 121 0
113 132 0
123 143 0
119 138 0
124 142 0
116 134 0
124 143 0
125 145 0
120 140 0
109 128 0
117 136 0
119 139 0
125 143 0
120 139 0
121 140 0
107 124 0
132 150 0
125 144 0
116 134 0
120 139 0
125 145 0
121 138 0
133 153 0
128 148 0
115 133 0
116 134 0
124 144 0
119 139 0
115 134 0
128 147 0
123 142 0
124 144 0
124 143 0
119 138 0
128 147 0
119 138 0
133 152 0
121 141 0
123 142 0
129 146 0
132 151 0
131 151 0
129 149 0
126 147 0
129 148 0
127 147 0
122 142 0
132 152 0
122 141 0
126 145 0
137 157 0
123 142 0
144 164 0
119 138 0
117 137 0
133 152 0
138 159 0
130 151 0
134 153 0
127 147 0
127 147 0
134 153 0
129 149 0
135 155 0
137 157 0
127 146 0
131 151 0
129 149 0
133 153 0
144 164 0
137 157 0
137 157 0
127 147 0
124 144 0
138 157 0
138 159 0
133 154 0
132 152 0
132 151 0
135 156 0
142 163 0
140 159 0
143 162 0
144 165 0
144 163 0
129 150 0
142 162 0
144 164 0
136 157 0
148 169 0
143 164 0
142 163 0
136 157 0
141 161 0
151 173 0
147 168 0
132 152 0
137 158 0
141 161 0
141 162 0
143 165 0
140 160 0
154 176 0
148 167 0
152 173 0
146 167 0
145 165 0
148 168 0
152 173 0
144 165 0
148 170 0
150 170 0
139 161 0
144 165 0
151 172 0
153 175 0
148 167 0
155 175 0
147 168 0
143 165 0
156 177 0
152 172 0
146 166 0
156 177 0
157 178 0
152 174 0
151 172 0
153 173 0
160 181 0
153 175 0
154 176 0
154 176 0
153 173 0
153 174 0
155 176 0
150 171 0
154 175 0
148 170 0
149 170 0
148 169 0
158 179 0
159 180 0
148 168 0
158 181 0
160 182 0
155 175 0
153 174 0
159 179 0
158 180 0
161 183 0
153 173 0
157 177 0
159 181 0
149 170 0
162 183 0
158 180 0
154 175 0
156 178 0
159 180 0
158 180 0
159 180 0
159 181 0
158 179 0
160 181 0
157 178 0
154 176 0
161 181 0
158 178 0
165 187 0
160 182 0
164 187 0
159 181 0
162 182 0
162 183 0
159 180 0
160 182 0
159 181 0
158 180 0
161 182 0
159 180 0
164 186 0
160 181 0
159 180 0
163 184 0
158 180 0
160 181 0
160 182 0
164 185 0
162 183 0
161 183 0
162 182 0
161 182 0
164 185 0
161 183 0
161 182 0
159 180 0
162 184 0
166 186 0
165 188 0
160 181 0
162 183 0
165 186 0
164 186 0
162 182 0
160 181 0
164 186 0
163 184 0
165 185 0
167 189 0
161 183 0
161 183 0
169 190 0
167 189 0
161 182 0
164 187 0
163 183 0
165 186 0
170 191 0
163 184 0
163 184 0
165 186 0
162 184 0
165 187 0
163 185 0
168 190 0
161 181 0
163 185 0
169 191 0
166 188 0
170 192 0
160 181 0
166 187 0
168 190 0
165 187 0
168 189 0
167 188 0
162 184 0
162 184 0
166 187 0
165 187 0
174 197 102
173 195 95
169 193 95
175 198 102
173 196 105
170 193 111
177 200 114
173 196 99
171 194 95
169 193 99
169 191 99
172 195 76
170 193 92
172 195 95
172 196 114
168 192 108
170 194 80
172 195 95
169 193 92
167 191 84
166 190 92
170 194 105
166 189 88
161 185 95
167 191 102
166 188 76
171 195 125
168 192 88
166 189 84
164 187 84
167 189 95
166 190 88
166 190 88
165 189 99
168 192 105
168 192 105
163 187 88
169 192 99
161 184 76
164 187 99
165 189 92
159 182 84
171 194 108
166 190 105
168 191 108
166 189 105
165 189 102
158 181 80
162 185 84
162 184 108
163 186 80
159 183 99
167 190 108
163 186 80
164 187 67
165 187 95
161 183 80
157 180 72
159 181 84
156 179 95
162 184 92
160 183 108
166 188 102
159 181 95
162 184 105
155 176 72
149 171 84
157 179 88
157 181 95
167 189 102
162 184 84
162 184 92
162 185 99
160 183 108
162 184 95
166 188 102
159 181 72
162 185 99
157 178 95
154 176 111
158 180 92
161 183 102
145 166 62
159 180 105
156 178 80
149 170 88
151 172 95
158 179 92
154 175 108
151 172 102
153 173 92
156 177 95
154 175 105
153 173 95
157 178 111
159 180 108
155 175 88
156 176 111
161 180 108
148 168 84
148 168 88
149 169 105
153 174 67
150 170 84
153 172 105
154 173 99
146 165 76
140 159 80
138 158 72
143 162 84
137 157 51
149 168 67
145 165 62
145 165 51
150 170 51
135 154 44
140 161 0
138 159 25
135 154 36
146 165 44
140 161 51
133 154 25
142 161 62
135 155 25
135 155 0
144 165 36
142 162 0
134 155 0
141 162 0
143 162 0
143 163 0
150 170 0
150 171 0
141 162 0
146 166 0
142 162 0
139 160 0
137 157 0
143 162 0
137 157 0
137 158 0
130 147 0
132 152 0
135 155 0
132 151 0
129 148 0
121 141 0
125 144 0
128 147 0
124 143 0
140 160 0
124 144 0
123 142 0
122 142 0
136 155 0
127 146 0
126 146 0
120 140 0
127 148 0
133 153 0
122 141 0
131 151 0
120 140 0
128 148 0
128 147 0
129 149 0
125 145 0
127 146 0
125 145 0
120 138 0
130 148 0
120 140 0
128 147 0
117 136 0
117 136 0
129 148 0
133 152 0
121 140 0
119 138 0
121 141 0
130 149 0
124 143 0
120 140 0
126 145 0
127 147 0
123 143 0
133 151 0
133 153 0
124 142 0
119 139 0
130 150 0
124 144 0
122 141 0
123 143 0
127 146 0
119 139 0
124 143 0
129 148 0
119 139 0
118 138 0
136 155 0
131 152 0
116 136 0
125 144 0
126 145 0
123 142 0
135 156 0
129 150 0
135 154 0
137 157 0
131 150 0
129 148 0
133 152 0
128 149 0
126 146 0
127 145 0
127 146 0
131 151 0
137 158 0
134 154 0
140 160 0
134 154 0
138 158 0
132 152 0
119 138 0
126 145 0
137 157 0
139 160 0
138 157 0
145 166 0
138 159 0
137 157 0
136 156 0
143 164 0
130 149 0
135 157 0
139 161 0
127 149 0
143 164 0
137 158 0
147 168 0
141 162 0
131 152 0
142 162 0
142 164 0
145 166 0
149 170 0
142 161 0
139 158 0
139 161 0
135 156 0
145 167 0
147 169 0
147 167 0
145 164 0
140 161 0
148 169 0
149 170 0
145 166 0
140 160 0
144 165 0
153 173 0
147 168 0
142 164 0
149 170 0
149 170 0
140 163 0
140 161 0
149 169 0
149 170 0
155 177 0
157 177 0
140 161 0
150 172 0
157 178 0
145 166 0
156 176 0
147 166 0
152 173 0
152 173 0
153 174 0
150 171 0
151 172 0
161 181 0
147 169 0
152 173 0
150 170 0
145 166 0
154 175 0
155 176 0
158 179 0
145 165 0
155 177 0
152 171 0
156 176 0
162 183 0
153 174 0
153 175 0
157 178 0
155 177 0
148 167 0
163 185 0
149 169 0
158 180 0
148 168 0
160 182 0
153 175 0
153 175 0
158 179 0
156 177 0
160 181 0
162 184 0
160 184 0
158 179 0
155 176 0
152 174 0
160 181 0
160 182 0
155 174 0
154 174 0
159 181 0
159 182 0
161 183 0
151 169 0
153 174 0
159 181 0
162 184 0
158 179 0
162 184 0
164 186 0
157 178 0
161 182 0
157 178 0
160 182 0
161 183 0
166 187 0
160 182 0
163 184 0
162 184 0
163 185 0
162 184 0
161 184 0
162 182 0
161 183 0
156 179 0
164 185 0
163 185 0
163 183 0
165 187 0
157 179 0
158 181 0
164 185 0
164 185 0
155 177 0
164 187 0
162 184 0
153 173 0
162 184 0
166 188 0
163 185 0
162 183 0
165 188 0
164 186 0
155 176 0
164 185 0
160 181 0
167 188 0
168 189 0
165 186 0
165 188 0
161 182 0
166 187 0
159 179 0
163 185 0
168 190 0
169 191 0
163 185 0
168 192 0
162 183 0
162 183 0
168 190 0
167 189 0
162 185 0
168 189 0
164 187 0
164 187 0
163 184 0
161 185 0
163 184 0
160 182 0
164 186 0
170 193 0
167 189 0
162 185 0
170 192 0
163 182 0
165 188 0
169 191 0
166 187 0
166 188 0
168 191 84
172 195 99
175 197 99
172 194 92
168 191 92
170 192 84
172 195 95
174 196 102
176 199 105
170 193 105
173 196 84
173 196 80
168 191 102
169 193 99
169 193 108
171 194 99
167 190 84
170 194 88
170 194 95
168 191 88
169 193 92
174 199 114
169 192 108
166 190 88
168 191 80
167 191 105
168 192 84
164 187 95
166 190 76
167 190 84
168 192 88
164 188 80
170 193 99
171 194 95
164 188 111
166 190 105
169 192 95
169 192 84
166 190 111
161 185 88
166 188 76
173 196 99
167 190 76
163 186 102
165 188 76
165 188 92
164 188 102
166 190 105
162 185 99
166 190 95
168 191 92
159 182 84
171 194 102
169 191 102
168 190 99
164 187 102
164 187 111
162 184 84
160 183 80
158 180 95
162 185 88
164 187 102
164 186 102
165 188 117
161 183 92
165 188 117
162 185 105
162 184 99
153 175 76
166 189 105
156 178 95
155 177 84
157 180 88
161 183 108
159 181 88
164 187 99
161 183 95
162 184 111
154 176 111
153 175 105
157 177 76
159 181 114
158 180 92
161 182 120
158 179 95
160 182 88
160 180 99
151 173 88
155 177 88
161 183 99
163 184 114
162 183 92
151 171 80
156 176 102
153 174 88
155 176 105
159 178 95
157 177 105
159 179 102
155 175 108
148 168 92
164 184 120
144 164 72
151 170 99
161 181 108
146 165 84
154 173 102
141 160 84
154 173 88
145 164 84
156 176 76
142 161 44
137 157 36
146 166 72
144 164 62
146 167 51
147 166 76
132 152 57
144 164 57
140 159 44
139 158 36
133 152 0
141 161 25
137 156 36
137 157 0
139 159 25
141 162 0
132 152 0
142 163 0
147 168 0
151 172 0
148 170 0
146 167 0
147 168 0
146 166 0
139 161 0
137 157 0
133 152 0
138 157 0
136 157 0
132 153 0
133 152 0
127 147 0
136 157 0
135 153 0
120 141 0
117 137 0
124 144 0
122 142 0
139 159 0
129 149 0
126 145 0
121 141 0
124 144 0
123 143 0
131 149 0
125 145 0
113 134 0
132 152 0
118 138 0
122 142 0
124 143 0
124 145 0
121 139 0
123 143 0
119 138 0
120 140 0
113 131 0
119 139 0
131 152 0
124 142 0
126 145 0
115 135 0
129 147 0
120 140 0
139 158 0
131 150 0
126 146 0
127 146 0
121 140 0
113 132 0
121 141 0
119 138 0
124 142 0
127 145 0
129 149 0
112 132 0
128 147 0
118 138 0
134 153 0
127 147 0
133 153 0
127 146 0
115 135 0
125 144 0
134 154 0
129 149 0
124 144 0
136 155 0
125 143 0
130 149 0
132 154 0
126 146 0
116 134 0
137 157 0
128 148 0
131 151 0
124 144 0
127 145 0
131 151 0
139 159 0
139 159 0
129 148 0
139 156 0
129 149 0
141 162 0
132 151 0
142 162 0
134 154 0
138 158 0
126 145 0
128 147 0
128 148 0
130 150 0
128 149 0
135 156 0
134 154 0
132 153 0
143 164 0
135 157 0
134 154 0
132 152 0
140 162 0
139 158 0
130 151 0
140 160 0
148 169 0
134 155 0
140 160 0
144 163 0
138 159 0
139 160 0
138 159 0
136 157 0
145 165 0
149 171 0
147 169 0
155 174 0
149 171 0
152 173 0
145 166 0
143 161 0
141 161 0
147 167 0
147 167 0
142 162 0
139 161 0
140 161 0
150 171 0
143 164 0
150 171 0
155 175 0
143 164 0
143 165 0
148 170 0
140 161 0
146 166 0
152 175 0
153 174 0
151 173 0
145 165 0
154 175 0
151 173 0
151 172 0
148 171 0
151 172 0
156 177 0
146 168 0
151 171 0
149 170 0
147 168 0
153 175 0
152 172 0
151 173 0
153 175 0
153 174 0
149 171 0
153 174 0
153 174 0
145 167 0
153 175 0
155 177 0
153 175 0
154 176 0
155 176 0
154 177 0
152 172 0
147 169 0
153 175 0
154 175 0
151 173 0
156 178 0
156 177 0
151 172 0
147 169 0
156 178 0
160 182 0
156 178 0
156 177 0
160 180 0
157 176 0
154 174 0
160 182 0
158 181 0
155 177 0
152 172 0
159 179 0
151 172 0
153 173 0
157 178 0
165 187 0
157 179 0
156 178 0
155 175 0
158 180 0
155 178 0
157 178 0
161 182 0
159 179 0
159 179 0
153 173 0
165 186 0
162 183 0
161 183 0
157 178 0
161 184 0
156 176 0
162 183 0
161 182 0
158 179 0
162 183 0
145 165 0
156 179 0
163 186 0
156 176 0
167 189 0
167 189 0
163 185 0
160 181 0
163 185 0
167 190 0
157 177 0
163 186 0
165 188 0
157 179 0
162 182 0
160 181 0
160 181 0
161 182 0
161 182 0
159 181 0
159 181 0
168 189 0
164 187 0
164 185 0
165 186 0
162 183 0
162 183 0
163 184 0
163 185 0
161 183 0
164 185 0
167 189 0
162 185 0
164 187 0
169 192 0
164 187 0
165 187 0
166 189 0
166 187 0
164 187 0
164 186 0
164 185 0
166 189 0
168 188 0
169 192 0
161 182 0
166 189 0
167 189 0
166 189 0
164 186 0
167 189 0
168 189 0
169 191 0
166 187 0
167 189 0
162 182 0
169 191 0
166 188 0
168 190 0
175 197 88
177 200 105
171 194 102
176 199 88
169 192 80
172 195 95
176 199 95
172 195 99
168 191 92
173 196 102
169 191 105
171 194 111
173 197 99
169 192 108
171 195 99
172 194 95
167 190 80
167 191 102
169 193 108
174 197 99
170 193 84
173 197 92
176 199 105
166 190 84
173 196 80
170 194 80
175 198 92
163 186 84
170 194 114
171 195 111
167 190 84
168 191 102
172 195 102
170 194 80
167 190 92
163 186 84
163 185 67
164 187 88
173 196 120
160 183 88
161 185 122
171 194 95
166 189 88
162 185 95
161 185 111
163 187 95
165 188 95
171 194 105
164 188 111
163 185 92
163 187 84
166 190 105
167 190 99
157 180 111
164 186 102
161 184 114
161 183 92
164 187 99
159 181 80
163 186 99
167 189 84
163 186 102
159 182 102
164 187 99
165 187 76
161 184 95
166 189 92
155 177 80
159 182 76
161 184 88
160 181 67
157 179 92
159 181 108
166 188 95
162 185 99
163 186 99
160 182 114
162 184 72
163 185 114
155 177 84
161 183 95
164 186 99
160 182 95
161 183 99
156 177 80
160 182 88
159 180 95
166 187 114
158 180 84
158 178 108
158 179 108
161 183 84
158 178 95
164 186 122
163 182 105
156 176 99
154 173 99
161 181 95
152 173 92
153 172 102
157 177 99
148 165 108
155 174 92
157 177 84
154 174 92
155 174 108
146 166 76
151 171 80
145 164 72
149 169 76
142 162 36
147 167 67
141 160 62
136 156 36
135 154 25
140 160 44
142 162 57
150 171 36
142 162 57
138 159 25
137 157 36
136 156 44
134 154 36
144 164 44
135 155 25
143 163 25
141 161 0
144 165 0
136 157 25
143 164 0
146 167 0
147 167 0
150 171 0
144 166 0
141 161 0
140 162 0
131 151 0
133 154 0
137 158 0
140 160 0
139 159 0
133 153 0
125 146 0
136 156 0
134 154 0
126 146 0
134 155 0
134 155 0
120 140 0
139 159 0
136 156 0
140 161 0
129 149 0
131 151 0
129 149 0
134 154 0
133 153 0
132 152 0
132 151 0
124 145 0
129 148 0
132 152 0
122 143 0
143 163 0
129 150 0
126 146 0
123 142 0
121 139 0
124 144 0
126 146 0
127 147 0
124 143 0
125 145 0
129 149 0
125 145 0
121 141 0
132 152 0
126 146 0
128 147 0
121 141 0
119 138 0
129 149 0
117 136 0
127 146 0
123 142 0
117 136 0
121 140 0
124 144 0
133 154 0
135 154 0
132 152 0
125 144 0
128 148 0
129 150 0
120 140 0
127 147 0
127 147 0
112 133 0
134 154 0
126 146 0
141 161 0
119 138 0
139 159 0
126 146 0
120 141 0
122 142 0
129 148 0
132 150 0
127 148 0
130 150 0
126 147 0
137 157 0
117 138 0
137 157 0
136 156 0
126 147 0
139 159 0
138 156 0
143 162 0
138 159 0
134 155 0
133 153 0
143 164 0
137 158 0
136 156 0
133 153 0
137 158 0
138 159 0
131 152 0
137 156 0
133 153 0
142 163 0
131 151 0
139 161 0
138 159 0
137 157 0
146 167 0
148 168 0
138 159 0
144 165 0
138 160 0
139 159 0
140 159 0
139 162 0
139 160 0
144 165 0
140 159 0
143 163 0
141 161 0
140 161 0
147 169 0
138 158 0
150 173 0
144 166 0
141 161 0
151 172 0
144 164 0
138 159 0
152 173 0
148 169 0
149 169 0
144 166 0
144 163 0
139 158 0
148 169 0
153 174 0
145 167 0
150 170 0
149 170 0
150 171 0
148 170 0
146 167 0
142 162 0
149 169 0
150 172 0
152 173 0
159 182 0
157 178 0
150 171 0
154 174 0
154 175 0
157 179 0
156 176 0
147 167 0
152 174 0
152 173 0
156 179 0
156 177 0
160 182 0
152 173 0
150 172 0
153 173 0
159 180 0
147 169 0
155 173 0
156 178 0
154 174 0
152 171 0
159 181 0
153 175 0
154 174 0
156 177 0
157 178 0
154 175 0
157 179 0
155 175 0
157 177 0
159 179 0
158 179 0
159 180 0
161 184 0
159 180 0
152 174 0
153 172 0
163 185 0
159 180 0
157 179 0
161 182 0
160 181 0
156 177 0
159 181 0
160 181 0
161 183 0
164 185 0
162 184 0
156 178 0
151 171 0
159 181 0
158 180 0
158 180 0
158 178 0
160 181 0
156 179 0
154 174 0
157 177 0
156 178 0
160 183 0
161 183 0
161 183 0
168 190 0
161 183 0
160 182 0
163 183 0
161 183 0
160 182 0
169 191 0
158 179 0
162 185 0
164 185 0
162 183 0
162 183 0
162 184 0
165 187 0
158 180 0
160 182 0
161 182 0
164 184 0
165 185 0
165 187 0
162 185 0
167 190 0
161 182 0
163 184 0
166 187 0
162 183 0
162 185 0
160 182 0
168 189 0
165 186 0
163 183 0
162 184 0
166 189 0
166 187 0
162 182 0
167 188 0
167 190 0
165 187 0
168 190 0
160 181 0
168 190 0
165 187 0
168 190 0
169 192 0
162 183 0
168 190 0
167 188 0
171 194 0
164 186 0
166 188 0
165 185 0
165 187 0
167 188 0
168 191 0
163 185 0
164 185 0
165 188 0
166 188 0
164 185 0
166 190 0
165 188 0
174 197 99
172 195 95
172 195 88
170 194 88
176 199 120
179 202 117
177 199 120
174 197 105
173 196 92
171 195 102
175 199 124
174 197 105
171 194 99
173 196 99
172 195 111
170 193 95
170 193 76
167 191 80
171 195 105
172 195 88
166 191 99
167 190 95
171 194 111
174 197 102
168 192 108
170 193 114
167 191 108
172 196 111
169 192 88
162 186 84
170 194 99
174 198 95
166 190 95
166 188 102
169 192 105
167 190 88
167 190 88
169 192 111
167 191 80
172 195 108
162 185 88
163 186 102
169 192 92
161 185 92
161 184 84
157 180 76
166 189 92
169 192 111
158 181 88
164 187 99
163 185 92
166 190 122
162 185 111
163 185 84
165 188 95
172 194 130
160 183 88
158 180 76
159 182 117
154 176 88
155 179 88
165 188 99
163 186 117
168 191 95
163 186 105
160 182 88
161 184 95
160 183 92
163 185 92
163 186 88
156 179 88
166 188 88
163 184 99
159 181 99
168 189 111
159 181 92
160 182 88
166 188 105
163 184 108
159 180 84
163 185 95
162 184 99
160 181 99
154 175 95
156 178 114
162 183 99
165 187 108
161 182 102
152 174 88
157 178 102
164 184 92
159 180 114
155 175 108
159 179 92
157 177 117
145 164 72
160 180 108
159 179 102
152 173 80
159 178 114
158 178 76
156 176 88
167 187 108
152 171 92
154 173 108
147 167 88
142 162 76
149 168 84
147 166 76
152 172 76
151 171 80
147 167 72
136 156 36
137 157 57
136 154 67
148 167 67
139 158 36
137 157 36
138 158 57
142 163 51
134 155 44
143 163 25
136 157 25
134 155 0
133 154 25
151 171 44
143 164 0
152 172 0
139 160 0
148 169 36
145 166 25
150 171 0
147 169 0
147 170 0
150 172 0
149 171 0
143 165 0
133 153 0
134 154 0
134 155 0
122 142 0
143 164 0
139 158 0
128 148 0
130 149 0
140 161 0
131 151 0
126 145 0
126 146 0
140 160 0
137 158 0
133 154 0
132 150 0
126 146 0
135 154 0
141 162 0
138 158 0
123 143 0
127 146 0
132 152 0
129 149 0
130 150 0
125 145 0
131 149 0
127 146 0
120 140 0
122 142 0
127 146 0
124 144 0
122 142 0
130 150 0
140 159 0
113 132 0
128 148 0
123 142 0
118 137 0
128 148 0
130 149 0
126 146 0
123 141 0
123 141 0
119 138 0
131 151 0
128 148 0
128 147 0
124 144 0
137 157 0
127 147 0
134 154 0
123 143 0
132 153 0
124 144 0
123 143 0
131 152 0
125 145 0
116 136 0
130 150 0
128 148 0
131 151 0
122 142 0
138 157 0
129 149 0
136 156 0
122 143 0
127 146 0
132 152 0
126 146 0
143 164 0
133 152 0
133 151 0
132 152 0
132 152 0
129 149 0
126 147 0
135 155 0
127 147 0
133 154 0
133 154 0
134 156 0
143 162 0
131 149 0
143 163 0
142 162 0
138 159 0
142 163 0
137 157 0
144 164 0
137 158 0
142 163 0
134 154 0
138 161 0
137 158 0
137 158 0
127 148 0
141 160 0
138 159 0
139 160 0
136 157 0
138 159 0
141 160 0
132 154 0
132 153 0
145 166 0
149 172 0
147 168 0
141 161 0
143 164 0
145 166 0
137 158 0
146 167 0
143 166 0
138 159 0
141 162 0
148 169 0
136 158 0
142 161 0
146 167 0
144 165 0
140 161 0
148 169 0
150 171 0
153 175 0
148 169 0
154 176 0
147 168 0
146 168 0
143 163 0
151 172 0
151 171 0
145 167 0
154 175 0
144 165 0
156 177 0
145 168 0
147 169 0
149 168 0
151 173 0
150 172 0
150 170 0
150 172 0
147 168 0
154 175 0
145 166 0
148 169 0
150 171 0
148 169 0
147 168 0
147 168 0
152 173 0
154 176 0
152 175 0
158 180 0
159 180 0
156 178 0
154 174 0
148 171 0
153 176 0
151 172 0
159 182 0
154 176 0
155 176 0
149 170 0
160 182 0
150 169 0
155 176 0
160 181 0
155 176 0
151 172 0
162 183 0
157 178 0
156 178 0
160 182 0
155 178 0
158 179 0
161 182 0
159 181 0
163 183 0
160 181 0
154 174 0
154 174 0
154 177 0
152 173 0
159 181 0
155 177 0
158 180 0
158 180 0
163 182 0
163 184 0
159 180 0
162 184 0
158 181 0
161 183 0
158 181 0
159 179 0
156 175 0
162 182 0
160 180 0
163 184 0
157 179 0
161 183 0
165 187 0
162 185 0
159 180 0
153 173 0
161 183 0
161 183 0
160 180 0
163 184 0
164 186 0
166 188 0
162 182 0
167 190 0
167 189 0
164 186 0
167 188 0
160 180 0
165 188 0
166 189 0
164 185 0
165 185 0
164 187 0
163 185 0
166 188 0
158 180 0
160 181 0
164 186 0
167 189 0
161 184 0
160 182 0
164 187 0
165 186 0
163 184 0
163 185 0
160 182 0
161 182 0
167 189 0
161 182 0
166 188 0
169 191 0
163 184 0
164 186 0
167 190 0
164 187 0
166 188 0
161 183 0
166 188 0
165 187 0
164 185 0
167 189 0
164 187 0
166 188 0
167 188 0
166 188 0
166 187 0
163 182 0
164 185 0
167 190 0
170 193 0
164 185 0
168 190 0
175 197 99
171 195 111
172 195 105
171 194 92
171 194 105
172 195 92
169 192 84
174 197 117
173 196 95
171 194 99
172 196 111
170 193 105
164 187 84
160 183 92
174 198 108
171 195 102
168 192 80
171 194 105
169 192 95
172 195 105
167 191 102
172 195 95
167 191 108
167 191 95
173 196 102
166 190 102
168 192 80
168 191 80
167 191 95
166 189 102
172 195 95
167 190 105
161 184 80
169 191 95
168 192 95
169 193 95
171 194 105
166 190 102
164 187 57
170 193 117
165 189 88
163 187 105
168 192 111
167 190 99
171 194 117
165 188 99
167 190 108
160 184 95
166 188 76
168 191 102
168 191 102
160 184 102
163 186 88
166 189 99
170 192 117
165 189 105
164 187 88
167 189 95
165 188 95
167 190 111
166 189 99
160 181 88
159 182 95
160 181 72
168 190 99
156 178 88
163 186 102
155 177 88
162 183 80
160 182 99
166 188 102
165 187 102
160 182 95
160 183 88
162 184 88
165 187 92
161 182 95
157 179 88
161 183 108
160 183 99
155 177 84
164 185 120
162 182 95
160 180 76
159 180 80
158 178 99
149 169 67
165 186 102
161 181 92
163 183 88
158 179 105
154 175 88
166 187 130
159 179 105
157 178 95
157 177 99
142 163 72
166 186 95
164 183 105
157 177 80
156 176 80
160 180 111
145 165 76
153 173 95
157 176 92
149 169 72
153 173 95
157 177 102
158 177 92
144 163 80
146 166 72
154 175 36
148 169 62
135 156 44
139 160 36
142 163 25
138 159 57
143 164 25
140 161 36
132 152 36
143 163 51
137 157 25
145 165 36
144 165 25
129 149 0
144 165 0
141 162 0
144 165 25
147 167 0
144 165 0
144 165 0
148 169 0
149 169 0
148 170 0
147 168 0
144 164 0
140 161 0
148 169 0
135 156 0
132 153 0
140 160 0
145 166 0
135 155 0
137 157 0
126 146 0
121 142 0
128 148 0
131 151 0
130 149 0
136 157 0
125 146 0
130 150 0
145 166 0
137 156 0
124 144 0
132 151 0
135 155 0
132 152 0
131 151 0
132 152 0
130 151 0
131 150 0
121 139 0
133 153 0
132 151 0
134 154 0
118 139 0
127 147 0
122 141 0
127 146 0
122 141 0
135 155 0
124 144 0
117 136 0
128 149 0
142 162 0
129 149 0
127 146 0
134 154 0
133 152 0
131 151 0
115 134 0
124 144 0
129 148 0
136 156 0
128 148 0
121 141 0
132 152 0
131 150 0
121 140 0
132 151 0
131 151 0
136 156 0
127 147 0
123 142 0
128 149 0
122 142 0
135 155 0
133 153 0
137 158 0
120 140 0
125 145 0
137 159 0
127 147 0
130 149 0
140 160 0
139 160 0
119 140 0
124 144 0
138 158 0
138 158 0
141 161 0
137 157 0
126 146 0
144 164 0
134 153 0
145 167 0
131 150 0
138 158 0
127 148 0
148 168 0
133 156 0
133 153 0
140 161 0
143 163 0
137 159 0
137 158 0
138 159 0
143 164 0
133 152 0
138 158 0
132 154 0
146 166 0
140 161 0
136 155 0
142 162 0
130 151 0
152 174 0
137 156 0
148 169 0
138 158 0
135 157 0
132 153 0
142 163 0
136 157 0
145 166 0
140 162 0
146 168 0
142 163 0
151 172 0
148 169 0
143 164 0
150 172 0
145 166 0
154 176 0
145 166 0
143 165 0
147 167 0
142 164 0
149 170 0
148 170 0
152 174 0
144 165 0
149 170 0
151 172 0
148 170 0
153 174 0
145 166 0
155 176 0
156 177 0
142 163 0
150 172 0
152 173 0
147 167 0
155 178 0
153 174 0
149 170 0
153 174 0
151 174 0
153 175 0
147 167 0
148 168 0
156 177 0
156 177 0
147 169 0
156 178 0
152 173 0
151 171 0
153 175 0
154 174 0
157 181 0
149 171 0
156 175 0
153 175 0
162 185 0
153 174 0
155 178 0
161 183 0
150 172 0
154 176 0
158 178 0
151 171 0
156 175 0
145 166 0
164 185 0
154 173 0
154 174 0
157 178 0
155 177 0
154 175 0
152 173 0
159 180 0
153 176 0
158 180 0
160 182 0
154 174 0
157 180 0
159 182 0
158 180 0
158 181 0
159 181 0
159 180 0
155 176 0
160 182 0
164 186 0
159 178 0
159 179 0
165 185 0
164 187 0
160 181 0
162 184 0
158 181 0
162 184 0
159 182 0
162 182 0
158 179 0
158 180 0
169 190 0
164 186 0
163 183 0
161 184 0
163 185 0
157 178 0
160 182 0
163 185 0
160 182 0
164 185 0
159 180 0
162 184 0
165 187 0
160 182 0
162 184 0
161 182 0
164 185 0
164 186 0
163 184 0
157 177 0
164 186 0
163 184 0
163 185 0
165 185 0
165 187 0
164 185 0
164 184 0
163 185 0
166 189 0
166 187 0
170 191 0
162 185 0
163 185 0
162 184 0
159 181 0
163 183 0
165 185 0
166 188 0
164 185 0
168 189 0
163 185 0
168 190 0
166 188 0
165 189 0
164 187 0
164 186 0
168 190 0
166 188 0
167 189 0
168 189 0
165 187 0
166 187 0
168 190 0
167 188 0
167 190 0
167 190 0
168 191 0
162 185 0
165 186 0
169 191 0
165 188 0
170 193 0
166 188 0
173 197 105
168 191 80
174 197 99
171 195 99
177 200 128
168 191 92
177 199 117
173 197 95
172 195 88
171 194 105
168 192 88
173 197 105
170 193 105
174 197 88
165 188 76
169 193 92
171 195 108
173 196 105
167 189 95
166 191 92
172 195 84
171 195 99
172 195 88
173 197 120
171 194 80
172 195 95
168 192 108
164 187 80
165 188 95
173 196 111
166 190 99
166 190 88
170 192 105
170 193 99
162 186 76
169 193 99
167 190 102
159 182 76
166 189 88
163 185 80
170 194 108
164 187 95
169 193 111
166 190 102
167 190 105
168 191 99
162 185 76
169 192 102
166 189 105
162 185 102
164 186 95
166 190 99
169 191 92
166 189 84
161 184 88
165 187 92
166 188 108
166 188 105
159 181 72
160 183 95
164 187 95
160 183 76
166 189 120
165 187 117
158 180 95
158 181 88
162 184 108
164 186 99
162 185 102
156 179 88
161 183 111
167 189 88
164 185 99
162 184 99
166 188 108
156 178 92
162 183 108
165 186 108
169 192 111
155 178 88
158 180 84
160 181 95
164 185 99
162 183 99
161 182 95
159 180 105
165 187 99
151 172 92
161 181 95
154 175 92
156 177 92
158 179 92
158 178 92
161 181 99
156 177 105
177 198 117
159 179 99
151 170 92
150 170 99
161 183 84
166 185 122
145 166 80
158 178 88
152 171 102
157 177 105
153 173 95
154 173 111
146 166 80
156 176 76
152 173 80
149 170 76
148 167 72
138 158 57
141 162 57
151 170 62
137 156 36
136 157 0
141 161 25
143 164 36
144 164 25
139 159 36
148 169 44
146 167 25
144 165 25
133 154 0
151 172 25
148 168 36
143 165 25
143 164 0
150 172 0
149 170 25
152 173 0
148 169 0
152 173 0
151 172 0
148 169 0
148 169 0
145 164 0
136 157 0
137 159 0
134 155 0
139 159 0
140 160 0
134 155 0
133 154 0
131 151 0
141 162 0
139 159 0
132 152 0
142 162 0
138 159 0
124 144 0
134 154 0
139 159 0
134 154 0
126 146 0
130 150 0
126 147 0
131 151 0
140 159 0
130 151 0
136 155 0
129 150 0
133 152 0
135 156 0
130 150 0
132 152 0
137 156 0
133 153 0
135 154 0
128 146 0
139 159 0
126 146 0
133 152 0
137 157 0
141 161 0
130 150 0
137 158 0
133 153 0
137 159 0
123 143 0
134 154 0
126 145 0
134 154 0
136 156 0
135 155 0
119 139 0
126 146 0
136 156 0
129 149 0
125 146 0
129 150 0
125 145 0
118 137 0
129 148 0
135 156 0
133 153 0
131 151 0
116 136 0
120 141 0
142 164 0
122 142 0
145 166 0
138 159 0
132 153 0
135 156 0
122 141 0
137 158 0
136 158 0
138 159 0
133 152 0
133 152 0
136 156 0
148 170 0
138 158 0
131 153 0
137 158 0
130 151 0
135 154 0
128 149 0
146 166 0
144 164 0
137 156 0
143 163 0
140 161 0
132 154 0
149 170 0
139 158 0
125 146 0
144 164 0
141 162 0
131 152 0
143 164 0
135 156 0
144 164 0
145 165 0
143 163 0
135 155 0
125 146 0
134 155 0
150 170 0
140 161 0
139 162 0
138 159 0
141 163 0
136 158 0
144 165 0
146 166 0
138 159 0
147 168 0
140 161 0
148 169 0
147 167 0
137 159 0
145 167 0
141 162 0
156 178 0
141 164 0
147 169 0
149 169 0
149 171 0
142 163 0
145 165 0
157 178 0
150 170 0
154 177 0
150 172 0
146 169 0
153 174 0
148 169 0
146 167 0
148 169 0
142 162 0
148 170 0
152 174 0
155 176 0
140 160 0
154 177 0
153 174 0
155 178 0
151 170 0
155 178 0
145 168 0
153 174 0
158 179 0
158 179 0
154 177 0
159 180 0
151 174 0
155 177 0
151 172 0
153 174 0
149 170 0
150 170 0
152 173 0
154 174 0
154 175 0
156 177 0
148 169 0
156 176 0
159 179 0
160 182 0
148 168 0
163 185 0
159 179 0
155 177 0
151 173 0
159 180 0
156 178 0
155 177 0
161 183 0
160 181 0
154 175 0
157 179 0
163 186 0
156 179 0
157 177 0
157 177 0
161 182 0
161 183 0
162 184 0
162 184 0
160 180 0
161 184 0
161 181 0
153 175 0
160 182 0
164 185 0
153 174 0
165 188 0
160 183 0
160 181 0
163 184 0
163 185 0
162 184 0
162 181 0
161 184 0
160 183 0
161 182 0
159 181 0
162 183 0
159 179 0
161 182 0
165 187 0
158 180 0
162 184 0
155 175 0
167 190 0
161 182 0
161 183 0
160 182 0
162 184 0
162 184 0
161 183 0
167 190 0
166 189 0
163 185 0
156 176 0
162 183 0
164 186 0
160 180 0
163 186 0
169 190 0
163 184 0
164 185 0
163 183 0
161 182 0
164 185 0
160 182 0
163 185 0
158 180 0
163 185 0
164 187 0
162 183 0
162 184 0
167 188 0
162 184 0
165 187 0
165 188 0
164 185 0
165 188 0
165 185 0
166 188 0
166 188 0
160 181 0
169 192 0
167 189 0
167 189 0
164 184 0
166 187 0
164 186 0
167 187 0
166 188 0
165 185 0
168 188 0
165 187 0
170 192 0
165 187 0
168 189 0
161 182 0
168 191 80
174 197 125
176 199 95
174 198 95
170 192 92
174 197 92
175 198 108
176 200 122
177 200 122
173 196 88
168 192 99
166 189 99
174 196 95
169 193 67
173 195 92
171 193 84
172 196 99
167 190 84
172 195 108
172 195 111
164 188 80
167 191 76
169 192 99
167 190 88
167 190 99
172 196 125
168 192 102
169 192 92
165 188 80
165 189 88
157 180 95
166 190 76
169 193 114
170 193 120
168 191 99
172 195 92
167 190 111
165 187 80
167 191 92
159 182 95
171 194 102
167 190 105
172 196 105
168 192 117
167 191 105
165 188 92
160 183 72
163 187 122
165 188 84
166 189 88
158 181 92
170 193 102
165 187 108
165 188 102
167 190 108
167 189 88
167 190 111
160 183 95
165 186 88
158 181 99
155 177 84
165 188 111
156 179 92
158 181 95
159 181 111
164 187 108
159 181 95
161 182 99
164 186 95
158 180 80
163 186 92
157 179 92
159 182 80
161 182 76
155 177 88
157 179 76
162 184 80
168 190 120
156 178 102
160 182 84
161 182 99
158 179 102
162 183 105
151 172 95
159 180 99
163 185 102
160 181 99
159 179 108
159 180 108
164 185 95
161 182 99
161 182 102
158 179 88
163 183 92
153 173 95
165 185 99
163 184 102
158 177 99
150 170 108
161 181 111
158 178 99
167 188 120
166 187 111
157 177 92
154 173 99
155 175 102
154 172 76
154 175 57
154 174 80
152 172 51
149 169 62
145 166 62
152 173 62
150 170 67
146 167 36
139 160 44
157 176 67
146 167 25
143 164 57
144 165 51
137 157 57
146 168 36
145 166 0
146 166 25
144 166 25
140 160 0
139 160 0
137 157 25
145 166 0
150 171 0
154 176 0
152 172 0
157 179 0
147 168 0
151 173 0
150 170 0
142 164 0
152 172 0
146 168 0
135 156 0
146 168 0
141 162 0
144 165 0
134 154 0
130 151 0
143 163 0
137 157 0
137 157 0
131 151 0
136 156 0
135 156 0
136 156 0
136 156 0
134 153 0
135 155 0
127 147 0
133 152 0
139 159 0
127 146 0
144 162 0
125 145 0
133 154 0
139 158 0
126 148 0
132 152 0
134 154 0
134 154 0
133 153 0
135 155 0
133 154 0
127 147 0
118 138 0
131 151 0
135 155 0
131 151 0
130 149 0
140 160 0
127 146 0
130 150 0
135 156 0
119 139 0
131 152 0
137 156 0
136 155 0
131 151 0
135 155 0
130 150 0
135 155 0
132 152 0
129 148 0
137 157 0
141 161 0
123 144 0
139 159 0
118 138 0
137 158 0
129 150 0
126 144 0
139 160 0
128 148 0
136 157 0
134 155 0
138 159 0
138 161 0
134 154 0
134 154 0
145 166 0
138 158 0
132 154 0
129 150 0
142 163 0
130 151 0
131 153 0
140 160 0
133 152 0
136 156 0
125 146 0
137 158 0
136 157 0
144 164 0
142 163 0
130 150 0
144 166 0
138 158 0
137 158 0
139 160 0
132 152 0
130 151 0
141 161 0
138 159 0
138 158 0
139 160 0
136 158 0
144 164 0
146 167 0
142 163 0
152 173 0
144 164 0
142 163 0
144 167 0
142 162 0
149 168 0
141 163 0
134 154 0
142 163 0
144 165 0
143 164 0
147 166 0
151 172 0
151 174 0
144 164 0
148 168 0
148 169 0
138 159 0
146 168 0
153 175 0
143 164 0
149 170 0
144 166 0
153 174 0
147 168 0
149 171 0
151 172 0
149 170 0
141 162 0
144 165 0
150 171 0
146 168 0
148 169 0
149 171 0
147 169 0
148 170 0
157 179 0
148 168 0
150 170 0
155 176 0
153 173 0
147 166 0
155 177 0
151 172 0
153 174 0
160 182 0
155 178 0
153 174 0
149 169 0
159 182 0
160 183 0
146 167 0
154 176 0
148 169 0
158 178 0
159 181 0
152 174 0
150 170 0
154 175 0
159 181 0
156 177 0
151 172 0
157 179 0
151 174 0
154 176 0
154 176 0
156 177 0
159 182 0
150 171 0
153 175 0
158 180 0
161 183 0
158 180 0
157 178 0
158 179 0
158 180 0
160 181 0
157 178 0
159 180 0
154 175 0
157 177 0
161 183 0
159 181 0
160 182 0
157 178 0
157 177 0
162 183 0
155 176 0
167 189 0
152 174 0
159 181 0
164 185 0
160 183 0
162 183 0
162 183 0
157 180 0
159 181 0
166 189 0
160 181 0
166 188 0
164 185 0
161 181 0
158 177 0
162 184 0
160 181 0
162 182 0
162 184 0
160 180 0
164 186 0
166 188 0
160 183 0
163 183 0
159 180 0
162 185 0
159 180 0
163 183 0
164 187 0
154 176 0
165 187 0
157 178 0
163 184 0
167 188 0
163 186 0
158 180 0
164 186 0
161 183 0
163 184 0
165 187 0
167 189 0
164 185 0
164 184 0
163 186 0
160 181 0
163 184 0
167 190 0
165 186 0
166 188 0
168 191 0
164 185 0
166 188 0
163 184 0
166 188 0
163 185 0
169 190 0
165 187 0
168 190 0
164 186 0
165 187 0
169 192 0
165 187 0
165 185 0
169 191 0
164 186 0
168 191 0
161 183 0
168 191 0
162 183 0
162 184 0
167 189 0
167 189 0
166 188 0
166 188 0
163 185 0
164 186 0
174 197 84
174 197 95
175 198 111
177 200 95
171 193 102
167 190 105
171 193 92
166 189 80
167 190 76
167 190 88
174 197 102
172 196 105
171 195 99
169 193 95
171 194 95
168 192 80
167 191 92
173 197 92
167 190 88
174 197 95
168 191 88
172 195 102
170 194 111
167 191 105
170 194 99
170 194 95
170 193 80
170 194 88
169 192 102
170 194 102
165 189 95
171 194 84
175 198 105
169 193 114
166 188 95
167 190 92
167 191 92
171 195 105
167 190 95
167 190 111
168 191 108
164 188 95
165 188 95
167 190 84
168 191 95
167 190 102
165 188 88
165 187 84
162 185 99
166 189 102
165 188 108
166 189 80
161 184 95
164 186 72
168 192 114
161 183 76
159 182 84
162 185 95
160 183 92
161 184 108
163 185 67
158 180 99
166 189 92
160 182 67
165 188 114
161 183 92
162 184 88
164 186 80
164 186 95
164 187 84
158 180 84
170 191 95
154 176 84
157 179 105
166 188 105
164 186 88
170 191 117
158 180 105
161 183 76
156 177 76
157 178 92
163 185 95
160 181 95
164 186 92
159 181 92
158 179 99
162 183 92
160 182 114
161 182 95
166 188 117
158 179 92
157 178 95
160 181 88
163 183 102
157 177 92
158 178 92
151 172 92
158 179 95
160 181 114
157 176 92
153 174 80
155 175 102
158 176 111
155 175 95
159 179 117
153 173 88
156 176 84
150 171 72
148 168 51
162 183 84
146 167 62
152 172 84
149 169 67
151 171 62
151 171 67
136 157 25
148 169 44
140 161 44
144 164 44
137 156 36
142 164 25
141 162 36
142 162 36
146 167 0
149 170 0
143 165 25
138 159 0
149 170 0
150 171 0
150 171 0
141 163 0
149 169 0
148 170 0
152 174 0
144 165 0
147 168 0
139 160 0
146 168 0
144 165 0
142 163 0
136 157 0
134 154 0
139 159 0
144 165 0
139 159 0
131 152 0
143 164 0
138 159 0
137 157 0
135 154 0
144 165 0
136 156 0
142 163 0
127 148 0
137 157 0
139 160 0
139 159 0
136 156 0
130 151 0
133 154 0
135 156 0
135 156 0
131 150 0
142 162 0
125 146 0
130 150 0
137 157 0
141 162 0
138 158 0
138 159 0
138 158 0
133 154 0
132 152 0
127 147 0
132 153 0
142 162 0
133 153 0
130 149 0
130 150 0
126 147 0
129 149 0
128 149 0
137 157 0
144 165 0
125 145 0
125 144 0
132 152 0
131 151 0
133 153 0
128 148 0
132 152 0
136 156 0
128 148 0
146 166 0
132 152 0
125 145 0
125 146 0
144 164 0
131 151 0
136 155 0
130 151 0
135 156 0
137 157 0
129 148 0
139 160 0
139 160 0
134 156 0
139 160 0
135 156 0
143 164 0
131 151 0
139 159 0
150 170 0
141 163 0
139 159 0
135 155 0
143 163 0
146 167 0
132 152 0
145 165 0
140 160 0
143 164 0
140 160 0
136 158 0
128 149 0
135 155 0
129 150 0
145 166 0
138 157 0
140 162 0
143 164 0
135 157 0
139 158 0
145 164 0
145 165 0
142 163 0
146 168 0
145 165 0
136 157 0
144 163 0
144 165 0
141 162 0
146 167 0
149 171 0
147 169 0
143 165 0
139 160 0
138 157 0
146 167 0
138 159 0
141 162 0
152 172 0
141 163 0
148 170 0
146 166 0
147 168 0
151 171 0
142 163 0
148 169 0
150 172 0
143 164 0
150 170 0
145 166 0
143 165 0
150 172 0
155 175 0
146 167 0
148 170 0
158 181 0
149 171 0
153 174 0
144 165 0
145 166 0
149 171 0
149 171 0
151 174 0
156 177 0
152 173 0
148 168 0
153 175 0
152 174 0
153 176 0
149 170 0
160 182 0
153 175 0
152 173 0
154 176 0
158 178 0
156 178 0
151 175 0
157 179 0
153 175 0
154 177 0
159 180 0
149 170 0
151 171 0
155 177 0
160 180 0
158 180 0
157 177 0
155 178 0
156 179 0
160 182 0
156 179 0
160 182 0
157 178 0
158 180 0
154 173 0
159 182 0
157 180 0
151 172 0
154 176 0
161 182 0
154 176 0
163 185 0
158 181 0
155 177 0
159 181 0
158 177 0
157 179 0
157 178 0
163 186 0
157 177 0
161 182 0
160 183 0
156 178 0
156 177 0
161 182 0
159 180 0
164 186 0
163 186 0
155 178 0
164 186 0
163 186 0
162 183 0
160 182 0
162 183 0
162 184 0
158 179 0
159 180 0
161 182 0
162 185 0
163 186 0
161 183 0
162 184 0
162 183 0
160 182 0
160 181 0
164 186 0
160 181 0
166 188 0
166 189 0
161 182 0
162 184 0
167 188 0
161 183 0
164 187 0
161 182 0
162 183 0
166 188 0
159 181 0
165 188 0
164 184 0
169 192 0
161 182 0
154 177 0
164 186 0
168 192 0
161 182 0
165 187 0
163 184 0
169 190 0
169 191 0
164 186 0
166 188 0
165 187 0
165 188 0
169 191 0
165 187 0
166 187 0
164 187 0
171 193 0
162 183 0
164 186 0
163 185 0
168 190 0
170 191 0
168 189 0
168 191 0
166 189 0
161 184 0
161 182 0
169 192 0
167 187 0
171 194 0
164 186 0
168 190 0
169 191 0
166 189 0
170 192 0
171 193 88
170 193 88
174 198 95
177 200 102
174 197 80
174 197 84
172 195 111
171 194 95
172 195 95
171 193 95
174 197 102
168 191 92
170 193 99
172 195 102
166 190 80
171 195 88
170 193 102
167 191 105
176 200 92
172 196 108
169 192 95
172 196 99
169 192 105
170 193 84
163 187 84
168 192 108
168 191 84
172 195 99
164 187 67
162 185 92
168 191 99
166 189 88
175 198 108
163 187 76
171 195 95
163 185 80
168 192 105
169 193 99
166 190 99
166 189 88
166 190 76
167 190 92
162 184 88
159 181 57
160 183 92
163 187 76
161 183 108
168 191 108
163 186 67
166 189 95
166 187 84
166 189 111
163 185 105
168 191 102
161 185 92
162 186 95
159 181 105
167 190 117
162 185 102
168 191 102
161 184 95
164 186 102
159 182 80
162 184 84
163 186 92
157 179 84
160 182 92
161 183 80
154 176 105
161 183 92
159 181 84
165 187 95
164 185 72
164 186 108
158 180 95
155 177 99
162 184 95
160 182 95
158 180 88
157 177 76
163 184 95
153 174 80
157 178 80
164 186 105
161 182 117
158 179 111
163 184 111
157 178 99
156 177 84
152 173 99
166 186 108
155 176 92
163 184 105
158 178 95
159 180 84
158 179 80
163 183 105
165 185 114
156 177 76
155 174 92
156 175 88
157 177 99
153 173 95
161 181 92
158 178 88
161 180 102
156 175 102
157 176 76
155 176 92
148 168 67
142 162 57
152 172 67
144 163 51
148 168 62
142 162 51
158 177 51
139 160 44
141 161 51
146 167 36
149 170 25
145 166 36
142 163 36
152 173 0
138 158 25
144 165 0
139 160 25
144 166 36
147 169 36
155 176 25
153 175 0
151 172 0
150 172 0
145 166 0
148 170 0
137 158 0
157 179 0
147 169 0
134 155 0
143 163 0
138 158 0
138 159 0
144 166 0
142 164 0
138 159 0
131 151 0
143 163 0
137 158 0
144 165 0
140 160 0
132 153 0
141 161 0
135 154 0
126 147 0
131 151 0
135 156 0
131 151 0
143 164 0
139 160 0
131 151 0
130 151 0
128 147 0
136 157 0
128 149 0
129 149 0
128 148 0
142 163 0
131 152 0
130 151 0
128 149 0
133 153 0
130 151 0
132 153 0
133 154 0
125 145 0
131 150 0
134 154 0
130 149 0
125 145 0
136 156 0
127 145 0
123 142 0
126 146 0
129 150 0
135 155 0
144 165 0
132 152 0
127 147 0
127 148 0
131 151 0
133 154 0
145 166 0
128 147 0
136 156 0
131 151 0
136 157 0
127 147 0
131 150 0
131 151 0
133 154 0
132 151 0
127 147 0
133 154 0
137 158 0
137 156 0
137 157 0
136 156 0
137 158 0
134 155 0
131 152 0
132 152 0
142 163 0
127 148 0
134 153 0
135 156 0
134 156 0
136 156 0
141 162 0
146 167 0
132 153 0
132 155 0
141 160 0
135 156 0
140 160 0
149 171 0
142 162 0
138 159 0
138 159 0
143 163 0
141 161 0
130 150 0
140 162 0
145 166 0
138 159 0
148 169 0
131 152 0
138 160 0
147 168 0
148 171 0
143 164 0
144 166 0
147 168 0
147 168 0
152 174 0
141 162 0
145 167 0
147 170 0
134 156 0
149 171 0
150 172 0
146 168 0
143 165 0
142 162 0
145 166 0
138 159 0
157 180 0
140 161 0
139 159 0
148 170 0
141 161 0
155 177 0
140 162 0
150 171 0
152 173 0
156 177 0
145 166 0
154 176 0
153 175 0
150 172 0
152 174 0
147 170 0
153 175 0
152 174 0
149 170 0
149 170 0
152 173 0
149 172 0
158 180 0
153 174 0
155 176 0
156 178 0
150 172 0
150 170 0
153 174 0
155 175 0
151 174 0
154 177 0
153 174 0
163 183 0
154 174 0
153 172 0
156 178 0
150 170 0
152 174 0
154 176 0
151 171 0
154 176 0
163 184 0
159 179 0
153 175 0
155 176 0
150 170 0
152 173 0
153 174 0
154 176 0
152 171 0
157 177 0
163 185 0
153 175 0
154 176 0
154 176 0
148 169 0
161 183 0
158 179 0
158 179 0
159 180 0
159 180 0
161 182 0
156 178 0
155 176 0
165 187 0
156 178 0
161 182 0
162 184 0
157 178 0
161 183 0
164 185 0
159 180 0
160 182 0
154 174 0
164 187 0
162 184 0
156 177 0
165 186 0
166 188 0
165 187 0
154 174 0
163 183 0
159 181 0
156 177 0
163 183 0
162 182 0
165 186 0
166 188 0
159 180 0
159 181 0
160 181 0
161 183 0
161 183 0
167 189 0
165 185 0
167 189 0
161 183 0
166 187 0
162 184 0
167 190 0
159 181 0
163 186 0
162 183 0
165 186 0
161 183 0
167 190 0
164 186 0
164 185 0
164 185 0
164 186 0
166 188 0
164 186 0
165 186 0
164 185 0
169 190 0
163 185 0
163 185 0
164 188 0
166 189 0
165 187 0
168 190 0
167 190 0
165 188 0
166 187 0
164 185 0
164 186 0
159 181 0
166 189 0
163 185 0
168 191 0
162 185 0
166 187 0
167 187 0
165 188 0
164 186 0
165 188 0
167 189 0
162 183 0
162 183 0
169 192 0
165 187 0
166 188 0
164 185 0
169 191 0
169 191 0
169 192 111
175 198 111
174 197 95
168 191 84
177 201 122
171 194 84
170 193 84
173 196 108
171 194 88
170 193 108
165 188 95
172 195 99
171 194 88
174 196 102
167 190 92
175 198 92
168 191 76
168 192 84
170 194 95
173 196 99
172 196 92
167 190 114
166 189 88
170 193 84
162 185 95
167 191 95
169 193 88
169 192 99
162 185 99
169 192 99
168 192 95
171 194 99
168 191 80
164 187 76
168 191 102
168 191 105
166 190 84
170 194 105
166 189 80
163 186 88
163 186 99
160 182 88
163 186 76
172 196 122
167 190 95
157 180 51
165 189 92
164 186 67
169 191 88
164 187 92
163 185 92
160 183 99
166 189 111
165 187 72
164 187 105
163 185 80
156 178 88
164 187 117
163 186 105
161 184 92
167 189 111
168 190 99
163 185 99
167 190 105
156 178 80
162 184 84
161 183 95
160 182 92
162 184 95
159 182 84
159 182 111
159 181 95
157 179 99
161 184 95
164 187 95
164 186 102
152 174 92
157 178 84
156 176 92
168 190 92
158 180 84
161 182 95
158 179 95
161 182 99
160 181 95
158 179 105
154 174 92
161 183 99
155 176 92
154 175 80
163 184 117
164 185 92
160 180 102
156 177 92
146 166 84
158 179 92
159 179 88
158 178 99
162 183 108
158 180 95
155 175 92
151 171 99
153 173 88
160 180 84
161 181 88
157 176 102
151 171 80
158 180 76
149 168 80
158 179 76
142 163 57
142 163 62
155 176 51
152 172 51
155 176 36
147 168 0
143 164 36
140 161 44
139 160 36
145 166 36
149 171 25
150 171 36
146 167 0
150 171 36
147 168 25
148 170 0
147 169 25
154 176 36
144 165 25
154 176 25
157 179 25
150 171 0
148 169 0
142 163 0
141 162 0
151 173 0
141 162 0
149 172 0
143 163 0
143 164 0
141 161 0
140 161 0
138 159 0
136 157 0
133 153 0
147 167 0
130 151 0
146 168 0
137 157 0
139 160 0
144 165 0
134 155 0
140 161 0
139 160 0
135 155 0
136 157 0
141 161 0
125 145 0
128 148 0
141 163 0
125 146 0
143 163 0
139 161 0
130 150 0
139 160 0
119 139 0
141 163 0
135 155 0
130 150 0
126 146 0
135 157 0
139 159 0
127 148 0
127 148 0
135 155 0
133 153 0
140 160 0
133 153 0
136 157 0
132 153 0
137 158 0
127 148 0
124 145 0
131 152 0
138 159 0
127 147 0
140 159 0
131 152 0
131 151 0
142 162 0
133 153 0
138 158 0
122 143 0
135 157 0
140 161 0
146 167 0
133 153 0
127 148 0
136 157 0
136 156 0
134 155 0
130 151 0
150 172 0
140 160 0
135 156 0
139 159 0
137 158 0
133 153 0
146 168 0
137 156 0
137 158 0
130 153 0
146 167 0
128 150 0
127 148 0
133 153 0
136 156 0
138 159 0
141 162 0
143 164 0
140 162 0
135 156 0
137 157 0
141 162 0
141 163 0
144 165 0
135 156 0
138 159 0
138 159 0
138 158 0
133 154 0
141 163 0
141 162 0
147 169 0
140 159 0
142 163 0
145 167 0
141 162 0
139 160 0
152 174 0
154 176 0
151 173 0
146 167 0
138 159 0
143 164 0
155 177 0
146 167 0
145 166 0
146 167 0
144 166 0
148 169 0
145 166 0
148 168 0
147 169 0
150 171 0
146 168 0
139 161 0
152 173 0
149 169 0
149 170 0
146 168 0
156 177 0
150 170 0
144 164 0
158 179 0
143 165 0
153 175 0
147 167 0
147 169 0
152 173 0
153 174 0
159 181 0
142 164 0
153 173 0
154 176 0
161 183 0
152 174 0
147 169 0
153 174 0
144 165 0
145 166 0
152 173 0
155 176 0
154 176 0
153 175 0
157 178 0
153 176 0
153 175 0
158 179 0
156 178 0
150 172 0
154 174 0
164 185 0
152 174 0
156 177 0
152 175 0
151 173 0
155 177 0
158 178 0
156 177 0
161 182 0
150 170 0
158 179 0
157 179 0
152 175 0
157 181 0
163 184 0
160 183 0
163 185 0
157 178 0
158 180 0
157 178 0
162 185 0
158 179 0
159 179 0
161 184 0
156 177 0
162 182 0
161 183 0
156 179 0
164 186 0
158 180 0
162 183 0
155 176 0
163 185 0
163 185 0
159 182 0
165 187 0
161 184 0
159 179 0
155 177 0
161 182 0
164 185 0
162 183 0
158 180 0
161 183 0
163 184 0
163 185 0
167 188 0
165 186 0
160 182 0
160 183 0
162 185 0
163 185 0
163 185 0
160 180 0
168 189 0
156 178 0
163 186 0
159 182 0
157 178 0
163 186 0
161 183 0
166 187 0
167 189 0
161 182 0
163 185 0
166 189 0
166 188 0
165 187 0
166 188 0
165 187 0
164 184 0
168 191 0
163 185 0
167 189 0
161 184 0
159 181 0
164 185 0
165 187 0
163 185 0
163 185 0
166 188 0
169 190 0
169 190 0
163 185 0
165 186 0
158 179 0
162 183 0
166 188 0
167 189 0
162 184 0
163 184 0
165 187 0
164 185 0
168 189 0
163 185 0
166 189 0
167 190 0
169 191 0
162 185 0
170 193 0
163 184 0
166 187 0
168 190 0
168 190 0
171 192 0
168 188 0
168 191 0
167 189 0
171 194 92
175 198 102
175 197 92
170 194 92
172 195 95
171 194 88
173 197 114
175 198 95
171 194 84
174 196 108
172 195 105
172 195 102
172 195 84
173 195 99
171 194 105
172 194 114
173 197 108
169 192 102
162 185 80
174 197 105
171 195 92
169 192 92
160 183 62
172 194 99
165 188 88
172 194 88
169 192 111
174 197 108
169 193 114
168 192 80
160 183 67
170 193 105
161 184 92
170 194 108
167 190 95
168 192 111
171 194 95
168 191 99
164 187 95
157 180 76
168 191 92
166 190 117
167 191 120
162 186 76
166 189 92
165 189 99
167 189 108
167 191 111
160 183 95
170 192 92
169 193 108
166 188 92
161 185 84
166 188 102
161 184 105
163 186 102
166 189 95
161 183 84
164 187 84
158 179 84
163 185 92
162 184 84
165 186 92
159 182 76
167 189 102
162 184 62
165 187 105
162 184 117
162 184 102
160 182 80
165 187 80
164 186 99
163 186 117
157 178 80
157 178 99
164 185 105
165 187 92
162 184 102
168 189 114
164 185 84
160 181 99
156 177 92
151 174 84
163 183 122
154 175 84
159 179 99
162 182 111
162 183 102
156 176 99
160 181 108
164 183 117
155 176 111
159 180 99
146 167 84
157 178 95
154 176 72
152 172 95
160 181 102
160 180 102
160 180 76
157 177 108
156 176 92
150 172 80
156 176 80
159 179 95
158 178 102
158 178 84
148 168 84
148 168 72
155 175 80
154 175 44
150 169 67
149 170 44
143 162 51
143 163 36
143 163 0
145 166 25
147 169 0
150 172 44
156 177 0
138 159 36
156 177 0
147 169 25
149 169 36
145 165 25
147 167 0
154 176 25
148 170 0
146 167 44
146 169 0
155 176 25
151 171 0
156 179 0
153 175 0
151 172 0
148 170 0
157 179 0
150 173 0
142 162 0
145 166 0
146 167 0
134 155 0
135 155 0
132 153 0
131 151 0
142 164 0
140 160 0
138 160 0
137 157 0
143 164 0
142 163 0
136 157 0
142 163 0
132 152 0
127 147 0
127 146 0
136 158 0
135 156 0
134 156 0
139 159 0
146 167 0
144 165 0
138 159 0
141 161 0
136 157 0
134 155 0
127 147 0
128 147 0
132 151 0
140 161 0
125 145 0
137 158 0
130 151 0
138 159 0
143 163 0
128 149 0
133 153 0
134 154 0
135 154 0
138 159 0
134 154 0
128 149 0
133 154 0
132 153 0
134 154 0
135 155 0
133 152 0
126 147 0
129 150 0
125 146 0
138 160 0
133 152 0
135 155 0
138 158 0
129 150 0
137 158 0
138 158 0
132 153 0
128 148 0
132 153 0
137 158 0
149 171 0
132 154 0
132 152 0
139 159 0
130 150 0
130 151 0
147 169 0
139 158 0
144 166 0
142 162 0
145 165 0
135 156 0
135 156 0
140 162 0
133 153 0
138 159 0
142 162 0
141 162 0
138 159 0
140 163 0
150 172 0
135 155 0
139 160 0
135 156 0
142 164 0
140 161 0
133 153 0
145 167 0
139 158 0
148 170 0
149 170 0
144 165 0
143 164 0
144 166 0
150 172 0
147 169 0
142 162 0
143 165 0
151 172 0
144 165 0
146 167 0
150 171 0
141 162 0
156 177 0
149 170 0
146 167 0
142 163 0
149 170 0
144 166 0
157 179 0
145 167 0
149 172 0
145 165 0
153 174 0
151 172 0
143 164 0
146 168 0
144 165 0
150 172 0
150 172 0
146 168 0
151 171 0
150 171 0
149 171 0
150 172 0
154 175 0
149 170 0
152 175 0
157 179 0
146 167 0
152 173 0
152 173 0
151 171 0
150 173 0
155 178 0
151 172 0
152 174 0
152 174 0
150 172 0
154 175 0
153 176 0
151 174 0
150 171 0
147 169 0
154 176 0
151 173 0
154 175 0
155 178 0
156 178 0
148 170 0
159 180 0
158 180 0
154 177 0
152 173 0
156 178 0
156 178 0
153 172 0
159 181 0
160 182 0
161 185 0
151 173 0
158 178 0
160 183 0
159 180 0
157 177 0
152 174 0
156 178 0
156 178 0
150 171 0
162 186 0
157 179 0
159 181 0
162 185 0
154 176 0
165 186 0
152 173 0
162 184 0
166 188 0
165 187 0
157 179 0
156 176 0
157 178 0
158 179 0
165 186 0
162 185 0
162 184 0
164 187 0
155 174 0
166 189 0
159 181 0
163 184 0
158 181 0
157 180 0
163 183 0
163 184 0
161 185 0
162 184 0
160 181 0
160 182 0
161 182 0
162 184 0
161 183 0
166 188 0
165 186 0
164 186 0
162 183 0
161 183 0
165 186 0
156 179 0
163 186 0
162 183 0
168 190 0
161 183 0
163 186 0
164 185 0
162 183 0
168 191 0
161 183 0
160 182 0
169 192 0
159 181 0
157 178 0
162 184 0
162 184 0
161 182 0
162 184 0
166 187 0
165 187 0
164 186 0
166 188 0
164 185 0
163 184 0
165 184 0
161 184 0
165 188 0
165 187 0
166 185 0
164 186 0
166 189 0
166 188 0
162 184 0
165 187 0
165 185 0
169 191 0
169 191 0
164 186 0
167 190 0
165 188 0
165 186 0
168 191 0
168 191 0
168 190 0
169 191 0
167 188 0
164 186 0
167 189 0
168 191 0
167 190 0
168 191 0
177 200 102
169 192 80
170 193 76
174 198 108
171 194 95
166 189 80
169 193 92
172 195 99
172 194 92
172 195 88
166 190 102
170 193 80
170 193 92
170 193 80
169 193 105
175 198 102
172 196 88
173 197 99
166 189 76
166 190 105
167 191 99
172 195 99
166 189 95
169 193 95
170 194 105
170 193 102
172 195 105
168 192 99
162 186 99
168 191 99
167 190 95
170 193 92
162 184 80
164 187 80
167 190 105
165 189 102
166 190 105
169 192 111
169 192 99
167 190 76
167 190 108
165 188 88
169 192 114
173 196 114
167 190 99
167 189 99
166 189 114
172 195 117
164 188 108
160 183 88
166 188 114
171 194 117
159 181 95
160 183 72
162 184 88
165 187 108
161 184 67
167 190 84
164 186 88
164 186 102
158 181 92
165 187 105
159 182 105
160 182 88
170 192 88
163 185 105
159 181 76
165 187 80
163 186 80
163 185 88
169 190 108
163 184 84
163 186 99
166 188 105
160 182 99
161 182 84
167 188 88
160 181 105
155 177 95
168 190 111
162 183 114
162 183 95
165 187 84
160 182 72
159 181 99
165 186 92
158 179 105
159 181 99
145 167 95
151 172 88
154 176 92
156 176 92
158 179 102
165 185 92
152 173 72
158 178 84
161 181 99
155 175 88
165 186 105
160 181 80
159 179 99
157 177 84
151 171 80
162 182 92
148 168 84
152 172 84
150 170 67
150 170 99
150 170 57
163 184 80
143 164 57
154 175 72
140 161 51
147 168 62
143 164 44
147 169 25
145 166 36
146 167 25
140 162 25
150 172 51
146 168 25
139 161 25
141 162 0
152 173 44
153 174 0
144 167 0
151 171 0
146 168 0
150 171 0
150 173 0
143 164 0
156 179 0
152 174 0
142 163 0
146 168 0
153 176 0
147 169 0
140 162 0
135 156 0
144 164 0
136 157 0
139 159 0
145 165 0
138 160 0
143 164 0
144 166 0
143 164 0
132 152 0
130 150 0
144 165 0
143 164 0
145 166 0
146 166 0
138 159 0
142 163 0
132 152 0
131 151 0
136 157 0
137 158 0
129 149 0
134 155 0
119 139 0
143 163 0
124 144 0
135 156 0
148 169 0
137 157 0
137 157 0
135 156 0
139 158 0
128 148 0
137 157 0
136 157 0
138 159 0
138 158 0
138 159 0
138 158 0
137 157 0
127 147 0
142 162 0
134 155 0
141 162 0
138 159 0
134 155 0
138 159 0
143 163 0
140 160 0
140 160 0
132 153 0
135 155 0
134 154 0
143 165 0
129 149 0
142 162 0
139 161 0
142 162 0
136 156 0
139 159 0
139 160 0
134 155 0
141 160 0
143 163 0
141 162 0
137 157 0
139 160 0
144 165 0
139 158 0
147 169 0
134 154 0
139 160 0
135 157 0
142 163 0
150 171 0
148 168 0
137 158 0
134 155 0
143 165 0
139 161 0
140 161 0
141 163 0
138 159 0
133 155 0
145 167 0
154 176 0
141 162 0
144 164 0
135 156 0
137 158 0
142 163 0
153 176 0
139 160 0
131 151 0
138 160 0
139 160 0
143 165 0
147 168 0
146 167 0
138 157 0
151 173 0
146 166 0
137 159 0
142 163 0
150 171 0
145 166 0
138 159 0
143 164 0
146 168 0
146 168 0
148 169 0
147 168 0
150 171 0
145 166 0
151 173 0
152 174 0
153 176 0
154 175 0
148 170 0
145 166 0
150 172 0
154 176 0
145 167 0
143 166 0
151 173 0
146 167 0
161 182 0
157 179 0
148 169 0
155 177 0
156 178 0
147 168 0
157 179 0
156 177 0
147 167 0
154 176 0
152 174 0
150 171 0
162 184 0
154 175 0
154 174 0
155 175 0
153 174 0
155 177 0
154 175 0
148 169 0
159 180 0
158 180 0
156 179 0
152 174 0
152 173 0
150 172 0
150 171 0
158 180 0
156 178 0
156 177 0
150 171 0
161 182 0
158 180 0
154 175 0
161 183 0
156 178 0
154 176 0
158 180 0
152 172 0
156 178 0
154 176 0
158 180 0
158 180 0
152 174 0
161 182 0
157 179 0
160 182 0
153 175 0
161 182 0
159 182 0
158 181 0
155 179 0
161 184 0
155 177 0
160 182 0
157 178 0
157 178 0
159 181 0
161 183 0
157 179 0
163 186 0
162 183 0
159 179 0
157 179 0
165 187 0
165 188 0
164 186 0
155 177 0
163 184 0
159 182 0
161 183 0
164 186 0
160 182 0
156 178 0
164 187 0
164 186 0
162 184 0
166 187 0
168 189 0
160 181 0
161 183 0
161 182 0
164 185 0
169 192 0
163 184 0
164 187 0
162 183 0
167 190 0
163 184 0
164 186 0
161 183 0
162 184 0
163 184 0
165 186 0
165 187 0
166 188 0
159 182 0
169 190 0
166 188 0
167 189 0
161 182 0
167 189 0
166 188 0
168 191 0
166 188 0
164 187 0
166 188 0
166 188 0
167 189 0
165 188 0
167 190 0
165 187 0
164 187 0
167 188 0
165 187 0
163 185 0
163 185 0
163 184 0
164 187 0
167 189 0
169 192 0
167 189 0
165 187 0
166 189 0
171 192 0
168 190 0
166 188 0
165 187 0
165 187 0
169 190 0
165 189 0
165 188 0
163 185 0
164 186 0
167 190 0
168 189 0
174 197 92
171 195 92
169 192 80
173 196 114
172 196 102
173 197 84
173 196 95
173 197 120
170 193 105
172 195 105
168 191 95
168 191 88
173 196 102
166 189 95
172 196 105
174 198 102
169 193 108
168 192 88
169 191 80
171 195 84
167 190 84
171 194 108
171 194 84
171 194 99
170 194 105
167 190 88
171 194 108
172 196 120
162 186 92
172 195 92
166 188 76
169 192 99
164 188 80
167 190 88
167 190 108
165 188 80
165 189 80
168 191 92
164 187 72
162 185 88
167 191 88
170 193 99
164 188 105
171 194 105
167 190 95
170 193 114
168 190 80
172 194 105
169 191 95
163 185 80
162 185 92
163 187 105
162 185 99
161 184 84
172 195 102
168 191 92
165 187 99
166 188 105
162 184 95
160 182 76
166 189 99
160 182 88
164 186 80
166 187 95
163 185 84
165 186 95
162 184 95
165 187 80
165 187 84
164 186 95
160 181 80
160 182 88
164 185 88
162 183 102
162 184 111
161 183 95
163 184 102
161 182 84
166 188 111
155 176 84
165 186 92
168 190 120
159 181 105
161 183 105
162 183 92
159 180 120
167 188 102
162 182 117
165 186 111
164 185 105
154 175 102
161 183 84
162 182 102
152 172 92
162 182 92
162 183 102
164 186 84
162 183 102
153 173 84
152 173 95
152 174 80
157 176 102
152 172 80
156 176 99
156 176 80
158 178 84
152 173 80
165 185 92
158 178 95
153 173 62
144 165 51
154 175 72
156 178 57
150 172 67
146 168 36
144 166 25
154 174 36
147 168 36
151 171 51
145 167 25
153 174 36
146 167 25
147 168 44
151 173 25
147 169 25
151 172 25
150 171 25
153 175 25
155 176 0
154 177 0
157 179 0
150 172 0
158 180 0
147 169 0
158 180 0
144 167 0
155 177 0
153 174 0
147 169 0
141 162 0
143 165 0
139 162 0
133 154 0
142 164 0
142 164 0
142 161 0
145 165 0
148 170 0
135 157 0
137 158 0
140 161 0
143 163 0
127 147 0
144 165 0
136 156 0
141 162 0
138 159 0
127 148 0
133 154 0
138 159 0
132 153 0
134 154 0
129 150 0
134 155 0
141 162 0
139 160 0
134 155 0
127 148 0
127 147 0
137 158 0
146 167 0
142 163 0
136 157 0
135 156 0
137 158 0
140 160 0
137 157 0
132 153 0
141 161 0
135 155 0
135 155 0
134 155 0
136 156 0
130 150 0
141 163 0
128 149 0
122 142 0
133 154 0
148 168 0
136 156 0
138 159 0
140 160 0
138 160 0
142 163 0
132 152 0
140 161 0
148 168 0
143 164 0
147 167 0
144 166 0
138 159 0
142 164 0
137 158 0
132 153 0
136 157 0
141 162 0
137 159 0
138 159 0
144 164 0
133 154 0
140 162 0
141 162 0
141 163 0
138 158 0
137 158 0
145 167 0
146 168 0
139 161 0
130 150 0
136 157 0
143 165 0
148 169 0
140 161 0
145 166 0
138 161 0
140 162 0
138 158 0
143 165 0
148 170 0
146 167 0
141 161 0
141 161 0
141 162 0
138 157 0
140 161 0
135 156 0
151 172 0
146 168 0
143 163 0
146 167 0
145 167 0
151 173 0
158 180 0
145 167 0
146 168 0
147 168 0
145 166 0
149 171 0
148 168 0
152 173 0
149 170 0
149 172 0
151 173 0
152 174 0
146 168 0
148 169 0
146 166 0
142 162 0
137 159 0
150 171 0
151 172 0
147 169 0
152 174 0
154 176 0
154 176 0
150 171 0
145 167 0
146 166 0
152 173 0
150 173 0
148 170 0
156 177 0
157 179 0
152 173 0
147 169 0
156 177 0
158 179 0
158 179 0
147 169 0
147 169 0
148 169 0
162 185 0
151 173 0
156 179 0
153 176 0
150 172 0
154 176 0
161 183 0
156 177 0
156 177 0
158 180 0
150 171 0
161 182 0
158 180 0
159 180 0
162 183 0
154 175 0
152 174 0
159 180 0
157 179 0
160 182 0
155 177 0
156 177 0
158 180 0
159 181 0
156 178 0
163 184 0
165 186 0
153 175 0
156 177 0
159 180 0
160 181 0
158 180 0
157 181 0
162 184 0
157 178 0
160 182 0
158 179 0
159 180 0
160 182 0
164 187 0
160 181 0
161 182 0
163 184 0
155 178 0
164 186 0
163 183 0
164 186 0
159 180 0
163 186 0
160 182 0
163 186 0
158 179 0
161 184 0
164 186 0
156 177 0
162 184 0
161 182 0
169 194 0
161 184 0
164 186 0
167 188 0
164 186 0
160 184 0
164 187 0
161 183 0
162 184 0
163 184 0
163 186 0
167 189 0
166 189 0
161 182 0
160 181 0
169 190 0
164 187 0
165 188 0
164 185 0
170 193 0
170 191 0
157 180 0
164 186 0
164 186 0
163 185 0
164 186 0
167 188 0
154 175 0
162 184 0
165 185 0
162 184 0
168 190 0
164 186 0
168 191 0
164 187 0
165 187 0
162 184 0
168 189 0
164 186 0
163 184 0
164 186 0
166 188 0
163 184 0
166 188 0
163 184 0
167 188 0
163 186 0
167 190 0
164 185 0
167 190 0
166 188 0
168 190 0
165 187 0
164 184 0
169 190 0
170 191 0
167 188 0
167 190 0
164 188 0
169 192 0
167 189 0
168 191 0
173 196 108
172 195 99
169 191 95
170 193 108
168 191 76
174 197 84
169 192 76
171 193 111
171 194 102
174 197 92
172 196 111
175 199 108
172 195 84
168 191 95
171 194 111
172 195 84
172 195 99
167 191 95
169 192 95
171 194 114
165 188 95
163 186 80
160 183 67
169 192 99
175 198 84
171 195 102
170 194 84
167 190 92
171 194 84
168 191 99
163 184 62
170 193 80
170 193 102
168 191 92
168 192 102
173 195 80
172 196 108
169 192 111
165 188 92
162 186 88
169 192 95
167 190 92
170 192 105
165 188 80
161 184 88
160 184 88
167 190 111
155 178 92
163 185 80
169 191 117
164 187 92
160 182 84
171 194 108
161 183 92
166 188 99
167 189 95
164 186 95
168 189 99
165 187 99
164 187 105
170 192 108
166 188 84
164 186 102
163 186 92
163 185 95
169 191 105
161 184 95
160 183 88
162 185 92
161 183 102
164 186 84
162 183 92
159 181 108
161 184 95
161 183 105
163 185 95
163 184 102
165 187 102
159 181 99
157 178 84
166 187 114
161 182 92
162 183 105
162 183 120
160 181 84
158 179 105
157 178 102
161 182 108
163 184 95
165 185 108
165 186 111
165 186 99
168 189 120
168 189 117
164 184 105
164 184 99
158 178 92
157 177 92
156 177 84
167 187 80
153 173 76
153 174 80
159 180 88
163 184 88
158 178 88
148 168 80
158 178 84
160 181 88
157 177 76
162 183 76
153 173 57
157 178 51
151 172 57
144 167 25
151 172 25
151 173 57
153 174 25
149 170 36
148 169 36
148 171 44
142 164 0
145 168 25
150 171 0
147 170 25
154 176 25
152 173 44
151 172 25
153 175 25
155 177 0
158 180 25
160 181 0
145 167 0
152 174 0
152 173 0
148 170 0
156 177 0
148 168 0
151 173 0
144 166 0
144 166 0
145 167 0
146 167 0
143 165 0
146 168 0
145 165 0
137 158 0
147 168 0
137 158 0
140 161 0
140 162 0
140 159 0
145 167 0
142 163 0
141 164 0
143 163 0
143 164 0
140 160 0
141 162 0
138 159 0
144 165 0
132 152 0
130 150 0
149 170 0
146 167 0
135 156 0
142 163 0
133 154 0
139 158 0
134 154 0
133 153 0
138 158 0
147 167 0
131 152 0
137 158 0
140 160 0
127 147 0
130 151 0
135 156 0
132 153 0
139 160 0
130 151 0
134 155 0
129 149 0
139 160 0
136 155 0
140 162 0
133 154 0
138 157 0
137 158 0
140 160 0
140 161 0
140 161 0
139 160 0
137 157 0
143 164 0
144 165 0
143 165 0
132 154 0
142 164 0
137 158 0
134 155 0
136 157 0
139 160 0
143 164 0
133 154 0
137 158 0
140 161 0
136 156 0
146 167 0
127 149 0
142 164 0
144 166 0
141 161 0
144 164 0
145 166 0
145 166 0
141 162 0
144 166 0
143 164 0
140 160 0
140 160 0
143 164 0
142 163 0
138 159 0
144 165 0
142 164 0
137 158 0
144 166 0
141 162 0
150 172 0
144 164 0
154 175 0
141 162 0
145 166 0
141 162 0
146 168 0
145 166 0
138 160 0
141 161 0
148 170 0
137 158 0
147 167 0
145 165 0
148 168 0
151 172 0
144 165 0
149 171 0
145 165 0
147 168 0
152 173 0
152 175 0
154 176 0
150 172 0
157 179 0
143 164 0
152 175 0
151 172 0
145 166 0
149 171 0
152 174 0
151 170 0
157 177 0
142 164 0
153 175 0
152 174 0
154 176 0
151 173 0
152 175 0
151 172 0
154 174 0
143 164 0
149 172 0
156 178 0
148 171 0
158 181 0
152 173 0
157 179 0
159 179 0
158 181 0
159 181 0
152 174 0
160 183 0
156 178 0
159 180 0
153 174 0
158 181 0
158 181 0
152 174 0
154 175 0
150 172 0
159 182 0
156 178 0
159 180 0
157 179 0
149 171 0
152 173 0
159 181 0
159 181 0
162 183 0
155 175 0
163 185 0
154 176 0
150 172 0
159 179 0
160 182 0
158 179 0
153 174 0
156 178 0
156 176 0
153 174 0
158 180 0
160 182 0
155 177 0
159 182 0
160 181 0
159 181 0
162 183 0
158 180 0
161 183 0
163 184 0
160 180 0
161 183 0
162 184 0
157 178 0
158 179 0
165 187 0
162 184 0
167 189 0
160 183 0
163 185 0
164 187 0
157 179 0
159 181 0
166 188 0
166 190 0
160 182 0
157 179 0
158 179 0
162 186 0
162 184 0
159 181 0
157 180 0
162 184 0
162 183 0
164 187 0
163 185 0
168 190 0
165 186 0
165 186 0
161 183 0
163 184 0
170 193 0
162 184 0
169 191 0
166 188 0
166 188 0
165 187 0
164 187 0
162 184 0
159 180 0
159 182 0
167 188 0
162 184 0
164 187 0
166 188 0
165 187 0
169 191 0
167 190 0
166 188 0
159 182 0
165 186 0
160 183 0
164 186 0
168 191 0
166 190 0
163 185 0
164 186 0
164 187 0
167 189 0
166 188 0
168 190 0
171 193 0
163 185 0
171 192 0
168 190 0
168 190 0
170 193 0
166 188 0
165 188 0
165 188 0
169 190 0
161 182 0
167 189 0
164 187 0
165 186 0
164 186 0
163 185 0
171 194 0
167 189 0
167 188 0
169 191 76
170 193 76
170 193 92
174 197 108
173 196 99
170 193 92
171 194 51
174 197 95
169 192 95
170 193 92
178 201 117
173 196 111
171 194 76
173 196 99
174 197 117
171 194 111
169 192 84
169 192 95
169 192 76
171 194 111
172 196 92
173 196 108
170 192 108
164 189 84
169 193 92
169 192 80
165 188 76
168 191 111
168 190 76
169 193 105
165 188 72
160 183 84
168 191 99
171 195 88
168 191 76
167 190 108
167 190 84
166 189 102
161 184 88
167 191 92
165 188 72
168 191 111
165 188 92
164 187 111
167 189 92
167 191 108
164 186 95
163 186 99
164 187 111
161 183 62
162 186 111
171 194 114
166 189 105
164 188 117
169 191 108
166 189 84
166 188 88
166 188 99
166 188 88
161 183 76
169 192 111
160 183 80
164 187 92
168 190 95
172 193 95
170 193 105
163 184 99
161 183 105
160 181 88
156 179 108
166 188 105
162 184 105
159 181 88
163 184 95
162 184 88
172 194 111
160 182 80
164 186 111
165 186 92
167 187 95
156 176 102
154 175 95
161 182 108
163 185 92
161 183 102
157 178 88
163 184 105
153 175 88
159 180 99
158 178 80
157 178 88
158 178 99
160 180 105
157 179 80
161 181 84
158 178 108
161 180 102
160 181 92
156 176 80
160 180 92
164 183 114
160 180 76
152 173 95
156 177 88
157 177 88
161 182 76
154 174 84
149 169 72
149 170 72
148 169 62
148 170 67
155 177 44
151 173 44
151 172 44
146 169 25
157 178 57
142 164 0
147 168 25
146 167 25
145 166 0
139 160 25
149 170 36
153 175 0
148 171 36
154 175 25
162 184 25
158 180 36
147 168 25
153 174 0
152 174 25
152 173 0
158 182 0
146 167 0
155 176 0
157 179 0
162 184 0
141 163 0
158 181 0
148 168 0
149 171 0
135 157 0
139 160 0
141 163 0
144 164 0
145 166 0
139 161 0
144 165 0
147 169 0
148 169 0
143 163 0
150 170 0
139 161 0
140 161 0
148 168 0
137 158 0
139 160 0
135 155 0
145 165 0
134 155 0
136 157 0
142 163 0
144 165 0
140 161 0
129 149 0
131 153 0
141 162 0
135 156 0
134 155 0
142 164 0
132 153 0
147 167 0
132 153 0
147 169 0
140 161 0
147 168 0
138 158 0
130 152 0
143 164 0
135 156 0
135 156 0
145 167 0
136 158 0
142 163 0
147 168 0
143 163 0
137 158 0
138 158 0
134 156 0
139 160 0
138 158 0
134 156 0
141 162 0
129 150 0
140 160 0
140 161 0
145 166 0
140 161 0
134 156 0
139 160 0
142 163 0
127 147 0
143 164 0
147 169 0
143 165 0
148 170 0
146 168 0
135 156 0
140 162 0
142 163 0
145 166 0
138 159 0
134 155 0
138 158 0
145 166 0
143 164 0
149 170 0
138 159 0
135 157 0
146 167 0
135 157 0
143 164 0
148 170 0
144 165 0
144 165 0
135 156 0
151 172 0
150 171 0
146 167 0
143 164 0
149 170 0
143 165 0
131 152 0
144 164 0
143 164 0
146 167 0
139 161 0
144 164 0
151 174 0
159 181 0
144 165 0
144 165 0
144 165 0
153 174 0
141 162 0
148 171 0
150 172 0
148 170 0
149 170 0
151 174 0
144 165 0
153 175 0
151 172 0
157 179 0
145 166 0
156 178 0
147 169 0
154 176 0
146 168 0
149 171 0
150 172 0
150 172 0
152 174 0
144 166 0
152 174 0
154 177 0
148 170 0
142 165 0
157 179 0
151 172 0
151 173 0
149 170 0
152 174 0
152 175 0
160 183 0
152 175 0
158 178 0
149 172 0
154 175 0
156 177 0
155 177 0
156 179 0
152 173 0
151 173 0
160 182 0
159 180 0
158 181 0
150 172 0
148 170 0
158 181 0
156 178 0
161 184 0
151 173 0
156 178 0
156 178 0
163 186 0
157 180 0
155 176 0
158 181 0
157 179 0
155 176 0
155 178 0
151 173 0
154 176 0
162 184 0
164 187 0
157 178 0
157 179 0
161 184 0
161 185 0
157 180 0
153 172 0
150 174 0
162 183 0
155 176 0
164 185 0
156 178 0
162 184 0
158 179 0
159 182 0
165 187 0
165 188 0
155 177 0
159 180 0
165 187 0
161 182 0
164 186 0
160 184 0
164 186 0
166 189 0
161 183 0
163 185 0
160 181 0
162 183 0
159 180 0
161 183 0
165 187 0
161 182 0
163 185 0
158 179 0
166 188 0
165 187 0
164 185 0
166 188 0
161 182 0
159 181 0
163 185 0
164 186 0
155 178 0
161 183 0
165 188 0
158 179 0
162 184 0
164 186 0
161 183 0
162 184 0
160 181 0
159 180 0
161 182 0
163 185 0
163 184 0
168 191 0
166 189 0
160 182 0
166 188 0
164 186 0
165 188 0
164 186 0
165 188 0
167 190 0
165 187 0
165 186 0
166 188 0
165 188 0
163 185 0
168 191 0
165 188 0
167 189 0
165 187 0
167 190 0
163 186 0
164 187 0
162 184 0
170 191 0
167 189 0
166 189 0
166 189 0
169 191 0
169 191 0
166 189 0
164 185 0
164 185 0
167 190 0
166 188 0
166 187 0
169 193 0
165 187 0
168 189 0
164 186 0
166 187 0
167 190 0
176 199 102
174 197 76
178 200 95
173 196 95
170 192 88
171 194 99
167 190 76
168 191 95
173 197 102
170 193 76
169 193 84
175 199 99
173 195 67
169 193 102
167 190 88
176 200 95
168 192 99
174 197 102
169 193 72
167 190 97
166 188 76
170 193 102
169 192 72
171 194 95
170 193 108
175 198 117
172 195 120
169 192 111
166 188 92
169 192 88
170 192 84
168 192 95
170 193 102
173 196 108
167 191 80
169 192 105
167 189 102
167 189 72
169 192 105
163 186 88
167 190 105
167 190 95
164 187 84
170 192 95
165 188 95
152 175 88
169 191 111
172 195 99
163 186 105
166 190 120
170 191 99
161 184 88
162 184 102
159 181 76
166 189 99
169 191 102
165 187 95
160 182 99
164 185 99
162 185 80
158 180 99
162 185 88
158 181 99
158 180 95
167 190 122
168 192 120
160 182 84
165 186 80
160 182 105
159 180 84
156 177 95
168 190 105
159 181 95
164 185 102
153 174 84
162 184 88
160 181 72
167 188 105
166 188 102
165 186 108
162 183 92
166 187 95
159 179 102
159 180 92
162 182 102
166 187 99
153 175 62
163 185 84
159 180 76
164 184 95
158 180 88
161 182 95
158 179 92
152 172 67
159 180 99
160 181 76
161 182 105
168 188 99
160 180 88
159 179 92
154 174 76
158 177 102
163 184 80
157 178 84
159 180 72
167 186 84
153 173 62
157 177 80
153 174 72
151 172 62
155 176 57
150 170 44
146 169 25
155 175 36
148 170 0
144 166 25
145 167 25
148 169 25
145 167 0
161 183 36
149 170 36
153 175 25
155 177 25
152 172 44
142 165 0
152 174 36
155 177 0
153 176 0
153 175 0
154 175 0
155 176 0
150 172 0
157 179 0
153 176 0
152 171 0
152 174 0
140 162 0
154 177 0
158 179 0
141 161 0
149 171 0
143 165 0
147 167 0
151 172 0
141 163 0
140 161 0
140 161 0
149 170 0
136 157 0
142 164 0
140 161 0
140 160 0
131 152 0
134 155 0
145 167 0
139 160 0
138 159 0
137 158 0
140 162 0
138 159 0
145 165 0
137 157 0
139 160 0
143 163 0
135 156 0
143 164 0
129 149 0
135 155 0
133 154 0
121 140 0
136 157 0
134 156 0
137 157 0
138 159 0
133 155 0
134 154 0
142 162 0
142 162 0
143 164 0
136 157 0
131 153 0
137 158 0
143 163 0
141 161 0
140 161 0
146 168 0
131 152 0
149 171 0
148 169 0
138 159 0
137 159 0
142 162 0
143 163 0
150 172 0
142 163 0
144 165 0
143 165 0
131 153 0
139 160 0
143 163 0
134 155 0
139 160 0
139 159 0
141 162 0
141 162 0
143 166 0
142 164 0
134 155 0
132 152 0
151 172 0
145 166 0
145 167 0
146 166 0
142 163 0
137 159 0
140 161 0
147 168 0
151 172 0
142 163 0
141 163 0
140 161 0
140 161 0
147 169 0
148 170 0
141 162 0
142 163 0
148 169 0
145 167 0
138 160 0
149 171 0
144 164 0
147 170 0
149 170 0
148 169 0
151 173 0
144 165 0
155 176 0
143 165 0
151 172 0
147 170 0
148 170 0
150 170 0
154 176 0
149 170 0
150 171 0
153 175 0
153 175 0
156 177 0
141 162 0
143 163 0
147 168 0
150 172 0
145 166 0
141 162 0
154 176 0
158 181 0
149 170 0
153 175 0
150 171 0
147 168 0
149 170 0
152 174 0
145 166 0
154 174 0
150 173 0
151 173 0
150 172 0
154 176 0
153 173 0
151 173 0
153 173 0
155 177 0
159 180 0
151 173 0
158 180 0
155 177 0
153 175 0
150 172 0
156 178 0
157 178 0
155 175 0
160 181 0
159 181 0
155 179 0
155 178 0
154 176 0
156 178 0
151 174 0
150 172 0
164 184 0
159 181 0
158 180 0
151 172 0
158 178 0
158 179 0
162 184 0
152 174 0
154 176 0
157 180 0
160 181 0
155 177 0
160 182 0
152 175 0
157 179 0
156 176 0
156 178 0
161 182 0
154 176 0
166 188 0
158 181 0
162 183 0
157 178 0
160 181 0
156 179 0
162 184 0
160 183 0
157 177 0
163 185 0
160 181 0
155 178 0
157 178 0
156 177 0
165 186 0
161 185 0
160 181 0
157 179 0
159 182 0
163 187 0
160 181 0
163 186 0
163 186 0
156 178 0
166 188 0
163 185 0
159 181 0
163 185 0
160 183 0
165 188 0
162 186 0
170 191 0
157 179 0
163 186 0
161 183 0
164 184 0
166 188 0
162 184 0
165 187 0
162 182 0
160 181 0
165 186 0
160 182 0
162 183 0
167 190 0
162 184 0
162 185 0
168 189 0
164 185 0
162 184 0
162 184 0
160 182 0
167 189 0
160 183 0
166 188 0
168 190 0
163 184 0
165 186 0
165 187 0
162 183 0
168 191 0
165 187 0
162 184 0
164 187 0
163 184 0
163 185 0
165 189 0
161 183 0
172 192 0
162 184 0
168 191 0
167 189 0
165 187 0
165 187 0
164 187 0
160 181 0
164 185 0
165 187 0
165 187 0
164 187 0
168 190 0
171 193 0
167 190 0
169 191 0
166 189 0
171 193 0
169 192 0
166 188 0
163 185 0
165 186 0
167 189 0
167 188 0
168 191 92
172 195 111
173 196 111
173 196 95
169 192 99
175 198 111
174 197 95
175 198 111
167 190 99
172 194 92
164 187 80
173 195 99
167 190 84
171 195 103
166 189 92
171 194 99
169 192 88
169 193 95
167 189 99
167 190 67
171 194 88
172 196 108
170 193 84
172 195 99
166 189 80
173 195 108
168 190 108
168 192 88
167 189 95
167 190 102
167 190 80
169 192 57
168 190 84
167 190 99
166 189 84
164 187 95
164 186 92
172 195 99
169 193 120
167 190 92
171 194 99
168 190 92
172 194 99
172 194 105
169 192 114
170 192 102
168 191 95
166 189 84
163 186 72
166 189 92
164 186 88
169 192 92
160 182 105
169 191 99
167 189 72
158 181 105
167 190 102
157 179 76
158 180 76
167 189 114
154 176 72
164 185 111
159 180 72
161 182 99
166 188 99
162 183 102
160 182 102
168 189 99
165 186 92
161 182 80
167 189 88
165 186 72
159 181 72
160 182 80
162 182 84
165 186 102
161 182 92
165 187 92
169 190 102
164 185 99
164 185 105
164 185 95
159 180 102
163 184 99
162 183 128
158 178 84
157 179 102
162 184 88
158 179 108
155 176 76
159 180 99
164 184 95
157 178 88
161 181 105
157 178 88
149 170 67
156 178 92
148 169 62
162 183 80
157 178 72
164 185 95
152 173 67
164 184 92
152 172 95
164 184 92
148 170 67
147 167 62
156 177 76
159 181 62
161 182 80
157 179 62
152 174 51
162 182 62
152 174 36
156 177 25
152 174 36
148 169 0
156 177 36
151 174 0
150 173 36
144 166 25
153 174 51
151 173 0
155 177 36
150 172 0
159 181 0
161 185 0
156 178 0
161 184 0
153 175 0
144 166 0
151 174 0
153 175 0
159 181 0
155 177 0
151 173 0
146 170 0
155 177 0
144 166 0
146 167 0
152 174 0
148 170 0
146 167 0
150 172 0
137 159 0
144 165 0
138 160 0
141 162 0
137 157 0
143 165 0
139 161 0
141 163 0
142 163 0
144 165 0
145 167 0
135 157 0
147 168 0
138 159 0
140 161 0
142 164 0
141 162 0
142 163 0
143 164 0
147 169 0
138 159 0
129 149 0
153 173 0
139 160 0
142 163 0
142 164 0
134 155 0
144 166 0
145 166 0
136 158 0
137 159 0
141 162 0
134 155 0
139 160 0
142 163 0
132 152 0
134 155 0
139 160 0
141 162 0
142 164 0
147 169 0
132 153 0
145 166 0
145 167 0
144 165 0
134 156 0
134 155 0
146 167 0
140 161 0
136 158 0
141 162 0
144 165 0
139 160 0
137 159 0
140 161 0
147 169 0
143 163 0
145 166 0
141 162 0
131 153 0
144 164 0
147 168 0
140 161 0
143 164 0
140 161 0
131 151 0
141 162 0
149 171 0
141 163 0
142 164 0
145 167 0
145 168 0
138 159 0
146 169 0
145 166 0
142 163 0
154 175 0
139 159 0
142 163 0
145 167 0
149 170 0
143 166 0
149 172 0
140 161 0
154 174 0
148 168 0
140 161 0
144 165 0
143 165 0
146 167 0
145 167 0
151 173 0
143 164 0
145 167 0
141 164 0
147 169 0
151 171 0
147 169 0
154 177 0
153 174 0
150 172 0
157 178 0
147 169 0
151 174 0
155 176 0
152 174 0
154 175 0
155 175 0
151 173 0
145 166 0
146 167 0
152 175 0
153 175 0
151 173 0
146 169 0
143 165 0
156 179 0
147 169 0
158 182 0
155 176 0
154 176 0
152 174 0
154 176 0
152 174 0
157 178 0
162 184 0
158 180 0
149 171 0
161 183 0
157 179 0
158 181 0
153 176 0
155 177 0
160 180 0
154 176 0
157 180 0
153 176 0
159 181 0
159 180 0
154 176 0
155 177 0
151 172 0
153 174 0
156 178 0
161 184 0
156 177 0
156 179 0
159 181 0
153 175 0
160 183 0
152 172 0
162 185 0
156 179 0
158 181 0
162 185 0
155 178 0
158 178 0
159 181 0
158 180 0
155 178 0
155 178 0
154 176 0
166 188 0
157 179 0
158 180 0
159 180 0
160 183 0
163 187 0
158 180 0
154 174 0
163 184 0
166 188 0
155 177 0
162 185 0
161 183 0
160 183 0
162 185 0
169 191 0
162 183 0
160 182 0
165 187 0
163 185 0
163 184 0
159 181 0
159 181 0
163 185 0
162 184 0
167 188 0
165 187 0
163 184 0
165 187 0
166 187 0
166 188 0
164 186 0
162 183 0
165 187 0
161 185 0
170 192 0
166 187 0
167 188 0
167 190 0
164 185 0
164 186 0
162 184 0
163 186 0
161 183 0
165 188 0
165 187 0
161 182 0
166 188 0
164 187 0
163 186 0
168 191 0
161 182 0
167 189 0
162 185 0
158 181 0
164 187 0
161 184 0
167 190 0
166 189 0
167 190 0
164 185 0
164 185 0
162 184 0
168 190 0
168 191 0
165 187 0
167 188 0
167 189 0
167 190 0
162 185 0
160 182 0
164 186 0
165 187 0
166 188 0
161 184 0
168 191 0
169 191 0
167 189 0
167 189 0
160 182 0
168 190 0
169 192 0
165 187 0
170 193 0
165 186 0
162 184 0
166 188 0
168 191 0
168 190 0
164 186 0
170 194 0
167 189 0
167 190 0
172 195 0
173 196 92
176 199 122
172 195 80
172 195 99
172 195 99
167 190 92
175 197 105
174 197 108
174 197 95
172 195 108
176 198 99
169 191 76
171 194 92
170 193 88
167 190 86
171 194 88
170 192 95
175 198 105
172 195 105
171 195 102
168 190 72
168 191 80
172 194 90
168 191 95
170 194 117
168 191 80
164 187 84
170 194 99
173 196 120
169 192 99
171 194 108
170 193 105
163 187 84
167 190 102
170 193 88
169 192 117
166 189 95
163 187 105
167 189 84
170 192 92
169 192 105
168 190 99
162 185 44
163 186 67
169 192 105
170 192 99
167 189 92
173 196 108
156 180 80
163 185 95
166 188 105
168 191 102
171 194 122
165 187 84
170 192 92
163 185 102
158 180 95
166 189 99
160 182 88
165 187 102
175 196 108
165 188 102
158 179 84
166 188 92
163 184 102
166 188 80
167 188 99
160 182 84
167 189 102
162 183 80
159 181 80
160 182 111
159 181 92
163 184 92
165 186 99
160 180 88
163 184 84
169 190 114
167 188 111
162 184 80
159 179 108
159 180 99
171 192 108
160 181 99
165 186 76
167 188 99
159 178 95
167 188 84
164 184 95
169 189 99
165 185 99
164 185 120
162 182 99
157 179 80
161 181 95
160 181 88
152 173 88
159 180 76
148 168 51
163 184 76
154 174 80
156 176 57
158 179 88
162 183 76
160 181 57
158 179 62
149 170 72
156 177 84
156 177 44
143 163 44
152 173 44
155 175 51
151 172 44
155 176 44
156 178 51
145 166 25
154 175 25
149 170 0
147 169 0
148 170 0
143 165 25
152 173 25
146 168 25
152 173 51
158 180 0
150 172 0
155 178 25
158 179 0
157 180 0
154 176 0
154 175 0
151 173 0
152 175 0
147 169 0
153 176 0
147 169 0
150 172 0
150 173 0
153 174 0
147 169 0
148 170 0
144 165 0
150 172 0
148 170 0
146 166 0
137 158 0
143 163 0
145 165 0
142 163 0
147 168 0
138 159 0
144 164 0
142 163 0
143 164 0
135 156 0
131 152 0
136 157 0
151 172 0
146 168 0
146 167 0
142 163 0
139 160 0
143 165 0
133 154 0
136 158 0
140 161 0
137 159 0
138 159 0
139 161 0
136 157 0
144 164 0
137 158 0
136 157 0
137 158 0
137 158 0
133 153 0
137 158 0
139 161 0
139 160 0
149 170 0
139 160 0
135 156 0
149 170 0
135 156 0
143 165 0
138 158 0
128 150 0
142 164 0
140 160 0
135 157 0
144 165 0
140 161 0
144 166 0
134 155 0
149 171 0
144 165 0
141 163 0
144 166 0
140 161 0
146 167 0
143 164 0
145 166 0
137 159 0
141 161 0
141 162 0
142 163 0
143 164 0
145 166 0
143 164 0
143 164 0
140 163 0
143 165 0
146 169 0
137 158 0
139 160 0
144 164 0
137 158 0
151 173 0
147 169 0
139 160 0
145 166 0
139 160 0
143 164 0
145 167 0
145 166 0
146 167 0
147 168 0
141 162 0
147 169 0
147 169 0
150 171 0
150 172 0
148 170 0
151 173 0
149 169 0
143 165 0
141 163 0
155 176 0
142 164 0
147 169 0
146 168 0
157 179 0
151 173 0
151 171 0
152 175 0
148 169 0
155 176 0
149 170 0
142 164 0
149 171 0
149 170 0
151 173 0
145 166 0
148 169 0
150 172 0
156 179 0
149 171 0
154 177 0
157 178 0
153 175 0
153 175 0
154 177 0
152 174 0
155 178 0
151 172 0
146 168 0
151 173 0
158 180 0
151 174 0
157 179 0
153 174 0
152 174 0
157 179 0
158 179 0
153 175 0
152 173 0
157 180 0
153 174 0
153 175 0
161 183 0
155 178 0
155 178 0
155 177 0
153 176 0
157 179 0
154 176 0
159 181 0
154 175 0
159 181 0
149 171 0
161 184 0
154 174 0
152 173 0
158 180 0
157 179 0
162 185 0
153 174 0
157 180 0
158 181 0
156 177 0
157 178 0
148 171 0
161 183 0
157 179 0
160 182 0
159 181 0
159 182 0
160 181 0
163 184 0
160 182 0
159 181 0
158 180 0
155 175 0
156 178 0
156 178 0
164 186 0
163 185 0
165 188 0
164 187 0
165 187 0
157 180 0
164 186 0
160 182 0
163 185 0
161 182 0
163 185 0
155 177 0
161 182 0
158 181 0
163 184 0
160 183 0
162 184 0
162 186 0
166 187 0
158 180 0
163 184 0
161 182 0
161 182 0
158 180 0
163 186 0
160 181 0
161 182 0
158 181 0
163 184 0
165 187 0
163 186 0
164 185 0
163 185 0
166 188 0
164 186 0
164 186 0
164 186 0
168 190 0
165 188 0
164 186 0
160 182 0
166 189 0
165 186 0
162 184 0
167 190 0
166 188 0
164 186 0
168 190 0
168 191 0
169 191 0
165 188 0
166 188 0
169 192 0
168 189 0
167 189 0
166 188 0
167 189 0
165 187 0
167 189 0
168 191 0
164 186 0
167 189 0
163 185 0
164 186 0
164 186 0
163 184 0
169 191 0
167 189 0
166 187 0
168 190 0
167 190 0
165 186 0
160 181 0
166 190 0
171 194 0
165 188 0
159 180 0
166 190 0
168 190 0
166 188 0
165 188 0
165 187 0
169 192 0
160 182 0
167 188 0
175 198 102
173 195 88
167 191 72
177 199 99
170 192 108
181 202 108
172 195 76
178 201 117
168 190 76
173 196 99
171 195 105
170 193 92
174 197 84
172 195 114
173 196 122
170 193 92
168 190 84
174 197 95
169 193 84
172 194 111
165 188 80
172 195 84
171 195 102
172 195 114
168 191 92
172 195 102
169 192 88
174 196 99
168 190 108
171 194 120
169 191 88
170 193 80
170 192 105
171 194 105
168 192 122
166 189 102
162 185 92
168 191 88
171 193 102
164 187 92
167 189 92
170 194 108
166 189 80
169 191 120
165 189 95
168 191 72
164 187 108
169 191 108
169 191 117
163 185 80
160 183 80
162 184 88
162 184 80
167 188 95
167 190 88
160 183 92
160 183 57
164 186 99
166 189 111
166 188 111
158 180 92
163 186 92
165 187 120
161 184 102
154 176 76
166 188 102
159 181 92
162 185 99
162 183 88
166 188 102
161 182 95
162 184 88
165 187 117
167 188 117
162 183 92
162 183 99
167 188 92
163 184 95
169 191 102
157 179 67
156 177 80
162 183 102
167 187 114
169 190 108
166 186 120
163 184 102
153 174 84
167 188 99
164 184 95
157 177 72
164 184 105
166 187 102
166 187 105
163 183 95
156 177 72
164 184 88
164 184 88
161 182 88
158 179 88
167 188 102
159 180 80
163 184 80
162 183 84
162 182 76
156 177 88
154 175 62
146 167 80
154 175 51
164 184 76
153 175 36
157 178 72
153 175 44
148 168 36
161 182 57
153 176 36
152 173 36
143 165 0
148 170 25
158 180 36
155 176 25
153 174 51
152 174 0
148 169 25
147 169 0
152 175 25
152 175 0
160 182 25
149 171 0
155 178 0
158 181 0
155 177 0
157 180 0
156 177 0
151 174 0
150 172 0
150 173 0
149 172 0
154 177 0
155 176 0
148 170 0
147 167 0
134 155 0
148 171 0
130 150 0
145 167 0
150 171 0
148 170 0
146 167 0
144 166 0
135 157 0
141 163 0
143 165 0
141 162 0
144 165 0
139 160 0
142 163 0
146 167 0
142 163 0
147 167 0
137 159 0
151 171 0
136 157 0
145 166 0
139 162 0
146 167 0
140 161 0
143 164 0
146 167 0
143 163 0
142 164 0
144 165 0
146 167 0
148 168 0
133 155 0
143 165 0
130 152 0
151 172 0
140 161 0
139 159 0
143 165 0
128 148 0
134 156 0
145 167 0
147 168 0
153 173 0
141 163 0
143 165 0
142 162 0
145 167 0
149 170 0
140 162 0
146 168 0
134 156 0
145 166 0
135 157 0
145 167 0
133 154 0
142 163 0
140 163 0
145 167 0
145 166 0
137 157 0
145 166 0
143 165 0
146 168 0
140 163 0
148 170 0
139 162 0
139 159 0
147 167 0
148 170 0
148 170 0
142 163 0
134 156 0
150 172 0
140 161 0
137 158 0
141 163 0
147 169 0
150 171 0
150 171 0
147 168 0
139 160 0
151 173 0
150 172 0
141 163 0
142 164 0
149 171 0
143 164 0
157 179 0
150 172 0
139 160 0
147 170 0
146 168 0
134 157 0
147 170 0
147 169 0
148 170 0
143 164 0
145 165 0
146 167 0
153 174 0
141 162 0
148 169 0
143 165 0
147 169 0
140 161 0
145 165 0
149 172 0
141 163 0
148 170 0
155 177 0
150 171 0
149 171 0
156 179 0
146 169 0
155 177 0
145 167 0
151 174 0
156 178 0
150 172 0
155 177 0
152 175 0
151 174 0
155 177 0
149 170 0
152 173 0
156 178 0
150 172 0
153 175 0
152 174 0
155 177 0
154 175 0
149 170 0
153 175 0
158 179 0
154 175 0
155 177 0
156 178 0
154 175 0
156 178 0
158 179 0
158 180 0
151 173 0
155 177 0
153 175 0
151 174 0
162 185 0
161 184 0
159 180 0
154 176 0
155 177 0
154 177 0
158 180 0
153 175 0
162 184 0
160 183 0
155 178 0
157 180 0
153 174 0
158 178 0
159 181 0
158 180 0
158 181 0
160 183 0
155 178 0
154 176 0
159 180 0
160 181 0
156 178 0
151 173 0
161 183 0
150 170 0
160 183 0
159 180 0
158 180 0
162 184 0
158 179 0
161 183 0
161 183 0
160 182 0
161 184 0
164 186 0
161 182 0
160 183 0
156 178 0
161 183 0
161 183 0
164 187 0
165 187 0
166 188 0
162 185 0
162 184 0
159 182 0
166 189 0
163 185 0
163 186 0
162 183 0
160 182 0
156 178 0
163 187 0
160 182 0
162 184 0
167 189 0
161 183 0
163 186 0
162 183 0
162 185 0
160 183 0
165 187 0
163 185 0
166 187 0
163 186 0
160 182 0
164 188 0
166 187 0
161 184 0
167 189 0
165 188 0
166 190 0
166 188 0
164 186 0
163 186 0
166 188 0
166 188 0
168 190 0
167 190 0
167 189 0
168 190 0
163 184 0
161 183 0
163 186 0
167 190 0
163 185 0
159 181 0
167 188 0
164 187 0
169 191 0
167 189 0
165 187 0
163 185 0
164 187 0
164 185 0
166 190 0
167 189 0
167 189 0
168 190 0
165 187 0
168 190 0
166 189 0
166 189 0
164 185 0
166 188 0
166 189 0
169 191 0
167 189 0
166 189 0
167 189 0
169 191 0
169 191 0
